P3
400 225
255
173 197 0
173 197 0
173 197 0
175 198 0
175 198 0
174 198 0
173 197 0
175 198 0
174 198 0
174 197 0
174 198 0
174 198 0
174 198 0
175 198 0
173 197 0
174 197 0
175 198 0
175 198 0
175 197 0
174 197 0
176 198 0
173 197 0
173 197 0
175 198 0
174 198 0
174 198 0
174 198 0
174 198 0
173 197 0
174 198 0
173 197 0
175 198 0
174 198 0
175 198 0
175 198 0
175 198 0
174 198 0
174 198 0
174 197 0
174 198 0
175 198 0
174 197 0
172 196 0
174 197 0
176 199 0
174 198 0
173 197 0
174 198 0
174 198 0
176 198 0
174 197 0
175 198 0
174 197 0
174 197 0
174 198 0
175 198 0
174 197 0
173 196 0
175 198 0
174 197 0
173 197 0
173 197 0
175 198 0
175 198 0
174 197 0
175 197 0
173 197 0
174 197 0
174 198 0
174 197 0
176 199 0
175 198 0
175 198 0
173 197 0
174 197 0
174 197 0
173 196 0
175 198 0
172 196 0
174 198 0
174 197 0
173 196 0
175 198 0
174 198 0
175 198 0
174 198 0
174 197 0
173 197 0
174 197 0
173 197 0
173 197 0
172 196 0
175 198 0
174 198 0
173 196 0
174 197 0
173 197 0
174 197 0
175 198 0
176 198 0
176 199 0
174 197 0
174 197 0
173 197 0
174 197 0
174 197 0
173 197 0
174 197 0
173 195 0
175 198 0
172 196 0
175 198 0
172 196 0
174 198 0
174 197 0
173 196 0
173 197 0
173 196 0
174 197 0
174 198 0
175 198 0
175 198 0
174 197 0
173 197 0
172 195 0
175 198 0
173 197 0
173 196 0
174 198 0
176 198 0
175 198 0
172 195 0
171 194 0
174 197 0
174 198 0
173 197 0
175 198 0
175 198 0
173 197 0
175 198 0
174 197 0
174 197 0
173 197 0
174 197 0
175 198 0
173 196 0
175 198 0
175 198 0
174 197 0
173 197 0
176 199 0
173 197 0
174 197 0
175 198 0
172 196 0
174 198 0
174 197 0
174 197 0
175 198 0
173 196 0
174 197 0
175 198 0
174 198 0
176 198 0
174 197 0
175 198 0
171 196 0
174 198 0
172 196 0
173 197 0
175 198 0
172 196 0
174 197 0
174 197 0
175 198 0
174 197 0
173 197 0
176 198 0
173 197 0
174 197 0
174 197 0
175 198 0
173 197 0
174 197 0
173 196 0
174 197 0
174 197 0
177 199 0
173 197 0
174 197 0
174 198 0
174 197 0
176 198 0
173 196 0
175 198 0
173 196 0
174 197 0
174 197 0
173 197 0
174 196 0
174 197 0
174 197 0
174 197 0
174 197 0
171 194 0
172 196 0
173 196 0
175 198 0
174 197 0
173 196 0
174 197 0
174 197 0
173 197 0
175 198 0
173 197 0
173 197 0
175 198 0
174 197 0
174 197 0
174 197 0
173 196 0
174 197 0
173 197 0
175 198 0
175 198 0
172 196 0
175 198 0
175 198 0
174 197 0
175 198 0
174 198 0
173 197 0
173 196 0
173 196 0
176 198 0
174 197 0
175 198 0
176 198 0
174 197 0
174 197 0
172 196 0
175 198 0
174 198 0
175 198 0
174 197 0
174 197 0
173 197 0
174 197 0
174 197 0
174 197 0
173 197 0
175 198 0
173 197 0
174 197 0
175 198 0
174 196 0
173 196 11
175 195 16
174 195 16
175 193 36
177 194 39
174 191 37
178 192 45
177 191 48
180 190 63
180 189 63
179 188 62
182 188 73
183 189 74
185 187 84
183 187 76
180 188 69
182 187 78
183 186 83
183 184 85
184 183 92
184 185 84
183 182 93
184 182 95
186 183 97
184 183 93
185 180 102
184 183 93
184 180 101
186 181 102
185 180 102
185 182 98
185 181 101
184 180 101
185 180 101
184 178 104
186 179 105
184 180 100
184 181 101
184 180 101
184 179 103
184 181 99
185 180 103
185 181 103
187 181 104
184 182 97
185 182 97
184 181 99
184 185 91
184 182 95
185 182 97
186 183 95
183 183 90
185 185 90
184 189 80
180 187 74
183 188 80
183 189 76
181 189 71
181 191 59
179 189 64
177 190 54
179 192 53
180 193 57
175 194 32
177 193 44
174 193 25
173 195 11
174 195 19
173 196 11
173 196 0
174 198 0
175 198 0
175 198 0
175 198 0
174 198 0
175 198 0
173 197 0
174 197 0
174 197 0
174 197 0
173 197 0
174 197 0
176 199 0
174 198 0
173 197 0
173 196 0
173 197 0
175 198 0
173 197 0
175 197 0
176 198 0
174 198 0
175 198 0
174 198 0
174 198 0
175 198 0
174 198 0
174 198 0
175 198 0
172 196 0
172 197 0
173 197 0
173 197 0
176 199 0
175 198 0
175 198 0
174 197 0
173 197 0
173 197 0
173 197 0
172 196 0
175 198 0
173 197 0
174 197 0
174 197 0
175 198 0
174 197 0
174 198 0
174 197 0
175 198 0
173 197 0
174 197 0
174 197 0
175 198 0
175 198 0
175 198 0
175 198 0
175 198 0
175 198 0
175 198 0
173 197 0
174 198 0
176 199 0
175 198 0
174 197 0
173 197 0
176 198 0
174 198 0
175 198 0
173 197 0
175 198 0
174 198 0
174 198 0
174 198 0
173 197 0
174 197 0
175 198 0
175 198 0
174 197 0
173 197 0
174 197 0
174 197 0
175 198 0
174 197 0
175 198 0
175 198 0
171 195 0
173 197 0
175 198 0
174 197 0
174 198 0
174 197 0
172 196 0
174 198 0
175 198 0
174 197 0
174 198 0
174 198 0
173 197 0
174 197 0
173 197 0
173 196 0
176 198 0
173 197 0
174 198 0
174 197 0
173 197 0
175 198 0
172 196 0
173 197 0
175 198 0
174 198 0
174 197 0
172 196 0
175 198 0
171 195 0
174 198 0
172 196 0
176 198 0
174 197 0
173 197 0
175 198 0
175 198 0
174 197 0
175 198 0
174 197 0
173 197 0
174 198 0
174 198 0
174 197 0
174 198 0
175 198 0
175 198 0
176 198 0
172 196 0
173 197 0
174 198 0
176 199 0
173 197 0
173 197 0
175 198 0
175 198 0
174 198 0
174 197 0
174 197 0
173 197 0
173 197 0
174 197 0
174 197 0
175 198 0
174 198 0
173 197 0
175 198 0
174 198 0
173 197 0
173 197 0
174 197 0
176 199 0
174 198 0
175 198 0
172 196 0
173 197 0
173 197 0
174 198 0
175 198 0
173 197 0
174 198 0
174 197 0
173 197 0
175 198 0
174 197 0
174 197 0
175 198 0
174 197 0
174 197 0
173 196 0
172 197 0
174 197 0
173 197 0
174 198 0
175 198 0
174 198 0
173 196 0
174 197 0
176 199 0
174 197 0
174 198 0
174 198 0
176 198 0
175 198 0
174 198 0
174 198 0
174 197 0
174 197 0
174 198 0
174 197 0
176 199 0
172 197 0
174 197 0
173 197 0
174 197 0
173 197 0
174 197 0
174 197 0
173 197 0
173 197 0
174 197 0
174 197 0
173 197 0
173 197 0
173 197 0
174 197 0
175 198 0
174 198 0
171 195 0
174 198 0
173 197 0
174 196 0
173 197 0
173 197 0
172 196 0
173 197 0
175 198 0
173 197 0
175 198 0
174 197 0
174 197 0
172 196 0
176 198 0
176 198 0
173 196 0
172 196 0
174 197 0
173 197 0
174 196 0
171 195 0
176 199 0
174 197 0
174 197 0
174 197 0
175 198 0
174 197 0
175 198 0
174 197 0
176 198 0
173 197 0
173 197 0
175 197 0
173 197 0
173 197 0
174 197 0
172 196 0
175 198 0
175 198 0
174 197 0
174 197 0
173 196 0
172 196 0
173 197 0
176 199 0
175 198 0
173 197 0
174 198 0
174 196 0
173 197 0
173 196 0
173 197 0
174 197 0
175 198 0
176 199 0
173 197 0
175 198 0
175 198 0
174 197 0
172 196 0
172 196 0
174 197 0
174 198 0
175 197 0
173 197 0
173 197 0
174 197 0
175 197 0
176 198 0
173 197 0
174 197 0
174 198 0
175 198 0
174 197 0
174 198 0
173 197 0
173 197 0
175 198 0
174 197 0
174 196 0
175 198 0
174 196 0
174 197 0
175 198 0
173 196 0
173 196 0
174 198 0
175 198 0
175 198 0
173 197 0
173 197 0
172 196 0
174 197 0
174 198 0
174 197 0
173 196 0
172 196 0
173 197 0
172 195 0
175 198 0
174 196 0
175 198 0
174 197 0
174 197 0
173 197 0
174 197 0
174 197 0
173 197 0
175 198 0
173 196 0
173 197 0
172 196 0
172 195 0
172 195 0
173 194 16
174 195 19
175 193 36
175 194 36
176 193 39
175 193 39
178 193 49
177 189 56
180 192 58
182 189 68
180 192 64
183 188 75
184 187 82
180 187 72
184 187 86
182 183 84
182 184 83
186 185 93
183 183 89
185 183 93
185 184 93
185 183 96
186 183 101
185 180 103
185 179 103
184 180 102
186 180 107
186 179 104
185 179 107
186 178 108
185 177 107
186 178 109
185 177 112
186 178 110
185 177 112
186 177 113
184 178 108
184 177 109
185 178 110
186 178 108
185 177 109
185 177 107
186 179 106
185 178 108
186 179 106
185 178 106
185 180 104
186 180 106
185 181 103
185 181 101
185 180 98
184 182 94
186 182 100
184 185 90
183 184 90
184 185 88
183 186 84
184 186 84
186 187 87
182 186 75
181 189 70
182 188 75
178 189 58
180 192 56
178 190 58
177 194 44
176 193 41
178 191 49
176 195 32
172 193 19
174 196 16
174 197 0
174 196 0
173 197 0
174 198 0
174 198 0
174 197 0
174 198 0
174 198 0
175 198 0
172 196 0
173 197 0
175 198 0
173 197 0
174 197 0
175 198 0
175 198 0
173 197 0
174 197 0
173 196 0
174 197 0
175 198 0
176 198 0
174 198 0
175 198 0
174 197 0
175 198 0
175 198 0
174 198 0
176 198 0
173 197 0
174 198 0
174 197 0
174 197 0
175 198 0
173 196 0
175 198 0
174 197 0
175 198 0
173 197 0
175 198 0
175 198 0
176 199 0
175 198 0
172 196 0
175 198 0
176 199 0
175 198 0
174 198 0
174 197 0
174 197 0
174 198 0
174 198 0
174 197 0
174 198 0
174 198 0
174 198 0
175 198 0
173 196 0
173 197 0
175 198 0
174 197 0
174 197 0
173 197 0
174 197 0
173 197 0
175 198 0
176 198 0
174 198 0
175 198 0
174 198 0
174 198 0
174 198 0
173 197 0
174 198 0
174 198 0
173 197 0
175 198 0
173 197 0
174 197 0
175 198 0
175 198 0
175 198 0
175 198 0
174 198 0
175 198 0
173 197 0
175 198 0
175 198 0
176 199 0
176 198 0
173 197 0
175 198 0
174 198 0
174 198 0
172 196 0
175 197 0
172 196 0
176 199 0
173 196 0
172 197 0
174 198 0
173 197 0
174 198 0
175 198 0
173 197 0
174 197 0
175 198 0
174 198 0
174 197 0
175 198 0
175 198 0
175 198 0
174 198 0
174 197 0
174 198 0
174 198 0
176 198 0
174 197 0
175 198 0
175 198 0
174 197 0
173 197 0
176 198 0
175 198 0
175 198 0
173 197 0
173 197 0
171 195 0
173 197 0
173 197 0
174 197 0
173 197 0
173 196 0
173 197 0
175 198 0
174 197 0
173 197 0
173 197 0
175 198 0
175 198 0
174 197 0
173 197 0
173 197 0
174 197 0
172 196 0
176 198 0
174 197 0
176 199 0
174 197 0
173 197 0
174 198 0
174 196 0
174 198 0
174 198 0
173 196 0
176 199 0
176 198 0
175 198 0
174 198 0
172 196 0
175 197 0
173 196 0
173 197 0
175 198 0
174 198 0
174 197 0
174 198 0
174 198 0
175 198 0
173 197 0
173 197 0
174 197 0
174 198 0
172 196 0
174 198 0
174 198 0
175 198 0
173 197 0
174 197 0
176 199 0
175 198 0
173 197 0
174 198 0
175 198 0
175 198 0
174 197 0
175 198 0
174 198 0
175 198 0
175 198 0
174 198 0
174 197 0
173 196 0
174 197 0
174 197 0
174 198 0
175 198 0
171 195 0
174 197 0
174 197 0
172 196 0
173 197 0
173 197 0
175 198 0
174 197 0
173 196 0
173 196 0
173 197 0
173 197 0
174 197 0
175 198 0
174 197 0
174 197 0
172 195 0
173 197 0
174 198 0
175 198 0
175 198 0
174 198 0
174 197 0
174 197 0
172 196 0
174 198 0
174 197 0
173 197 0
175 198 0
175 198 0
173 197 0
173 197 0
174 198 0
174 197 0
175 198 0
173 196 0
174 197 0
173 197 0
174 198 0
174 197 0
175 198 0
172 196 0
174 198 0
174 198 0
173 196 0
174 197 0
174 196 0
172 196 0
175 197 0
173 197 0
173 197 0
173 197 0
172 196 0
175 198 0
172 196 0
174 198 0
175 198 0
171 195 0
174 197 0
173 197 0
175 198 0
175 198 0
173 196 0
173 197 0
173 197 0
175 198 0
173 197 0
172 196 0
174 197 0
173 196 0
172 196 0
174 197 0
175 198 0
175 198 0
174 198 0
174 197 0
173 197 0
173 196 0
171 194 0
174 197 0
175 198 0
174 197 0
173 197 0
174 197 0
172 196 0
174 197 0
174 197 0
173 196 0
174 197 0
173 196 0
174 197 0
175 198 0
174 198 0
174 197 0
174 197 0
175 198 0
174 197 0
174 198 0
173 196 0
172 196 0
174 197 0
175 198 0
176 198 0
174 197 0
175 198 0
174 197 0
174 197 0
175 198 0
175 198 0
174 197 0
173 195 0
174 197 0
174 198 0
174 198 0
174 197 0
170 195 0
174 197 0
175 198 0
173 196 0
175 197 0
175 198 0
174 198 0
173 196 0
174 197 0
175 198 0
175 197 0
175 198 0
174 198 0
175 197 0
171 195 0
174 196 11
174 194 19
174 194 19
173 191 34
175 191 44
177 194 42
178 192 51
178 190 56
183 192 65
177 190 57
180 186 68
181 186 75
180 186 74
181 185 77
182 184 86
186 184 93
184 185 87
184 183 93
184 181 97
186 183 97
186 181 100
187 180 107
185 180 104
185 180 104
184 180 103
185 179 106
185 178 107
185 179 108
185 177 110
184 177 109
185 177 112
185 176 112
185 176 112
183 176 110
184 176 114
186 177 113
185 176 113
185 176 113
184 176 113
186 176 113
185 177 113
185 176 113
185 176 114
186 177 114
186 176 113
186 176 113
186 177 113
185 176 113
187 179 109
186 178 110
186 178 108
184 179 104
186 179 103
186 178 107
185 182 97
186 181 102
186 181 103
185 180 98
186 183 97
186 185 93
183 186 83
182 183 86
184 185 86
184 189 78
182 186 80
180 189 64
178 190 60
174 189 49
181 192 60
178 191 49
177 192 48
175 192 34
174 194 28
175 195 22
173 196 0
173 195 0
173 196 0
173 197 0
174 198 0
176 199 0
173 197 0
175 198 0
175 197 0
173 197 0
175 198 0
175 198 0
172 196 0
174 198 0
173 197 0
173 197 0
175 198 0
174 197 0
175 198 0
174 197 0
175 198 0
174 198 0
174 198 0
175 198 0
174 197 0
175 198 0
175 197 0
174 197 0
174 198 0
175 198 0
174 198 0
173 197 0
175 198 0
175 198 0
174 197 0
175 198 0
173 196 0
174 198 0
173 196 0
174 197 0
173 196 0
174 197 0
174 198 0
175 198 0
174 197 0
175 198 0
175 198 0
174 197 0
175 198 0
175 198 0
174 197 0
174 197 0
174 198 0
175 198 0
174 198 0
174 198 0
174 197 0
173 197 0
173 197 0
174 198 0
174 197 0
174 197 0
175 198 0
175 198 0
174 197 0
175 198 0
173 197 0
175 198 0
173 197 0
174 197 0
174 198 0
173 197 0
173 197 0
176 198 0
174 197 0
175 198 0
174 198 0
172 196 0
175 198 0
176 198 0
176 198 0
175 198 0
173 197 0
173 197 0
173 197 0
174 198 0
176 198 0
175 198 0
176 198 0
174 198 0
173 197 0
174 197 0
172 196 0
175 198 0
176 198 0
173 197 0
175 198 0
174 198 0
174 197 0
173 197 0
173 197 0
175 198 0
175 198 0
174 197 0
174 197 0
174 197 0
175 198 0
174 198 0
173 197 0
176 198 0
174 197 0
175 198 0
173 197 0
176 199 0
172 196 0
174 198 0
175 198 0
174 198 0
172 196 0
175 198 0
174 197 0
176 199 0
173 197 0
174 198 0
174 197 0
174 197 0
174 198 0
174 197 0
174 197 0
175 198 0
174 198 0
174 197 0
174 197 0
175 198 0
175 198 0
174 197 0
175 198 0
175 198 0
172 196 0
173 197 0
175 198 0
175 198 0
173 196 0
176 198 0
175 198 0
174 197 0
174 197 0
172 197 0
173 197 0
174 198 0
174 197 0
175 198 0
173 197 0
172 196 0
174 197 0
175 198 0
173 197 0
173 197 0
174 197 0
173 196 0
173 196 0
172 196 0
172 197 0
175 198 0
174 198 0
174 197 0
174 197 0
174 197 0
174 198 0
174 198 0
172 196 0
175 198 0
176 199 0
174 198 0
171 195 0
172 196 0
174 198 0
175 198 0
173 197 0
174 197 0
175 198 0
173 197 0
173 197 0
175 198 0
174 197 0
174 197 0
175 197 0
175 198 0
175 198 0
174 197 0
174 197 0
173 197 0
175 198 0
174 197 0
173 196 0
172 196 0
175 198 0
174 197 0
173 197 0
174 198 0
173 197 0
176 199 0
173 197 0
174 198 0
174 197 0
174 197 0
175 198 0
172 196 0
174 197 0
174 197 0
174 198 0
173 197 0
176 199 0
173 197 0
174 197 0
174 197 0
173 197 0
173 196 0
173 196 0
173 197 0
175 197 0
176 199 0
173 196 0
175 198 0
174 197 0
175 198 0
173 196 0
174 197 0
171 195 0
173 197 0
172 196 0
173 196 0
174 198 0
175 198 0
174 198 0
172 196 0
173 196 0
175 198 0
174 197 0
174 197 0
174 198 0
174 198 0
174 197 0
175 198 0
175 198 0
173 197 0
174 196 0
172 195 0
173 197 0
175 197 0
174 197 0
172 196 0
175 198 0
172 196 0
175 198 0
173 196 0
173 196 0
173 196 0
173 197 0
175 198 0
175 197 0
175 198 0
174 198 0
173 196 0
175 198 0
173 197 0
174 198 0
174 197 0
175 198 0
174 198 0
175 198 0
175 198 0
172 196 0
175 198 0
174 197 0
175 198 0
174 197 0
173 197 0
175 198 0
175 197 0
174 197 0
173 197 0
175 198 0
171 195 0
174 197 0
173 196 0
174 198 0
174 197 0
172 196 0
174 197 0
172 196 0
173 197 0
174 198 0
175 198 0
174 197 0
174 197 0
173 196 0
174 197 0
176 198 0
173 196 0
175 198 0
174 198 0
176 198 0
177 199 0
174 197 0
173 197 0
171 195 0
174 198 0
175 198 0
174 197 0
174 197 0
174 198 0
171 195 0
171 195 0
173 196 0
174 197 0
174 197 0
175 198 0
173 197 0
172 197 0
173 197 0
175 198 0
174 198 0
173 196 0
174 196 0
173 193 16
174 195 16
173 192 25
171 190 30
177 192 44
178 191 52
178 190 57
177 190 51
180 190 62
179 188 66
182 188 71
182 189 74
183 186 85
181 187 76
182 184 84
185 183 93
184 183 93
186 183 97
186 181 100
185 181 101
186 179 107
185 180 103
185 178 106
184 178 107
184 177 107
186 176 113
185 177 111
186 177 110
185 177 112
184 176 113
184 176 113
185 176 114
184 176 114
183 175 114
182 175 114
182 175 114
182 175 114
183 175 114
183 175 114
182 175 114
182 175 114
183 175 114
182 175 114
183 175 114
182 175 114
183 175 114
184 176 114
184 175 113
184 176 114
184 176 113
184 175 113
184 176 113
186 177 112
186 177 113
185 179 108
185 178 107
185 178 106
186 180 106
185 180 102
185 180 103
184 181 99
185 182 97
185 184 92
183 183 88
184 185 84
183 186 83
183 186 80
183 191 73
181 189 71
180 190 65
179 188 64
179 191 58
176 191 41
176 193 36
174 193 19
176 196 22
174 195 19
173 197 0
173 197 0
175 197 0
174 197 0
174 197 0
174 197 0
174 197 0
175 198 0
174 197 0
173 197 0
174 198 0
174 197 0
174 197 0
173 197 0
173 197 0
174 198 0
175 198 0
173 197 0
175 198 0
172 196 0
175 198 0
174 197 0
175 198 0
172 196 0
174 198 0
174 197 0
174 197 0
174 197 0
173 196 0
175 198 0
174 197 0
174 198 0
175 198 0
175 198 0
174 198 0
174 197 0
174 197 0
175 198 0
174 197 0
173 197 0
174 197 0
174 198 0
173 197 0
175 198 0
174 197 0
175 198 0
174 198 0
175 198 0
176 199 0
175 198 0
174 198 0
174 197 0
174 197 0
173 197 0
175 198 0
174 198 0
175 198 0
175 198 0
175 198 0
174 198 0
175 198 0
175 198 0
177 199 0
173 196 0
175 198 0
175 198 0
175 198 0
172 196 0
174 198 0
174 198 0
174 197 0
175 198 0
175 198 0
175 198 0
172 196 0
173 197 0
175 198 0
174 197 0
175 198 0
174 198 0
175 198 0
173 197 0
173 197 0
176 199 0
174 197 0
174 197 0
173 197 0
174 198 0
172 196 0
174 197 0
173 197 0
175 198 0
174 198 0
174 198 0
173 197 0
173 197 0
174 198 0
173 197 0
175 198 0
172 196 0
175 198 0
174 197 0
175 198 0
175 198 0
173 197 0
175 198 0
174 197 0
175 198 0
173 197 0
174 197 0
173 197 0
173 197 0
174 198 0
173 197 0
173 197 0
174 198 0
173 196 0
174 198 0
175 198 0
174 197 0
173 197 0
176 199 0
173 197 0
174 197 0
173 196 0
174 197 0
172 196 0
174 197 0
173 197 0
175 198 0
173 197 0
176 198 0
174 198 0
174 197 0
172 196 0
174 197 0
172 196 0
174 198 0
173 197 0
174 198 0
175 198 0
174 198 0
174 198 0
176 198 0
175 198 0
175 198 0
174 197 0
174 198 0
174 197 0
174 197 0
175 198 0
172 196 0
172 196 0
173 197 0
175 198 0
174 197 0
173 197 0
174 198 0
175 198 0
174 198 0
175 198 0
175 198 0
175 198 0
174 197 0
174 197 0
172 196 0
174 197 0
175 198 0
174 197 0
175 198 0
174 197 0
174 197 0
173 197 0
175 198 0
172 196 0
175 198 0
175 198 0
173 197 0
173 196 0
176 199 0
175 198 0
175 198 0
174 197 0
175 198 0
175 198 0
173 197 0
175 198 0
174 198 0
173 197 0
175 198 0
173 197 0
175 198 0
174 197 0
174 198 0
173 197 0
175 198 0
173 197 0
174 197 0
175 198 0
173 197 0
174 197 0
174 197 0
174 197 0
172 196 0
176 199 0
174 197 0
172 196 0
174 198 0
174 198 0
175 198 0
174 198 0
175 198 0
175 198 0
172 196 0
171 195 0
173 197 0
172 196 0
176 199 0
173 196 0
174 197 0
172 196 0
175 198 0
173 197 0
173 197 0
172 196 0
173 197 0
174 197 0
176 199 0
174 197 0
175 198 0
170 195 0
174 197 0
174 197 0
174 197 0
173 196 0
175 198 0
174 197 0
174 197 0
174 197 0
173 197 0
174 198 0
174 197 0
175 198 0
173 197 0
172 196 0
174 197 0
173 196 0
174 197 0
174 198 0
174 198 0
172 196 0
173 197 0
175 198 0
176 198 0
176 198 0
174 197 0
172 196 0
174 197 0
175 198 0
174 198 0
176 199 0
173 197 0
172 196 0
174 198 0
173 196 0
172 196 0
174 197 0
174 197 0
175 198 0
174 198 0
174 197 0
174 197 0
174 197 0
173 197 0
173 196 0
174 197 0
173 197 0
174 197 0
174 198 0
172 195 0
175 198 0
174 198 0
174 197 0
172 196 0
172 196 0
170 194 0
172 195 0
174 198 0
173 196 0
176 198 0
173 197 0
174 197 0
174 197 0
175 198 0
174 197 0
175 197 0
174 197 0
173 197 0
174 196 0
174 198 0
175 198 0
173 197 0
174 197 0
173 197 0
175 198 0
174 198 0
173 196 0
175 198 0
172 196 0
175 198 0
173 197 0
175 198 0
174 197 0
174 197 0
172 196 0
174 197 0
173 196 0
174 198 0
173 197 0
173 196 0
174 197 0
174 196 0
173 194 16
173 192 19
174 192 32
174 191 37
177 191 48
178 190 56
181 190 62
180 188 65
181 188 70
182 189 72
181 189 70
184 183 88
183 185 83
184 185 87
185 181 95
184 184 90
185 182 95
185 182 98
188 180 106
185 178 105
187 178 110
186 178 109
186 178 110
185 176 112
184 177 110
185 176 111
185 176 114
185 176 114
183 175 114
184 176 114
184 176 114
182 175 114
182 175 114
182 175 114
180 174 114
180 174 114
180 174 114
180 174 114
180 174 114
180 174 114
180 174 114
181 174 114
180 174 114
180 174 114
181 174 114
181 174 114
181 174 114
181 174 114
182 175 114
181 174 114
182 175 114
183 175 114
182 175 114
184 176 114
184 175 113
185 176 112
186 176 113
186 177 112
186 177 112
186 177 110
187 179 108
185 179 103
187 180 106
186 179 101
184 182 96
186 184 95
184 185 88
183 185 82
184 186 84
183 186 80
182 191 70
180 187 68
182 189 71
179 190 61
177 189 54
178 192 52
176 191 42
177 194 34
174 194 11
173 195 0
175 198 0
173 197 0
174 198 0
174 197 0
175 198 0
174 198 0
174 198 0
175 197 0
174 197 0
174 198 0
174 197 0
176 198 0
174 198 0
175 198 0
173 197 0
174 197 0
174 197 0
175 198 0
174 197 0
175 198 0
174 198 0
175 198 0
175 198 0
174 196 0
175 198 0
175 198 0
175 198 0
175 198 0
175 198 0
175 198 0
175 198 0
173 197 0
175 198 0
172 196 0
174 197 0
175 198 0
173 197 0
173 196 0
176 199 0
174 197 0
175 198 0
174 198 0
175 198 0
174 198 0
175 198 0
173 197 0
175 198 0
175 198 0
173 197 0
174 198 0
174 197 0
175 198 0
174 197 0
175 198 0
175 198 0
174 197 0
174 197 0
175 198 0
174 198 0
173 197 0
173 197 0
176 198 0
175 198 0
172 196 0
173 197 0
175 198 0
174 197 0
175 198 0
174 197 0
173 197 0
174 198 0
174 197 0
174 198 0
175 198 0
174 198 0
175 198 0
171 196 0
175 198 0
174 198 0
173 197 0
174 197 0
173 197 0
175 198 0
174 197 0
175 198 0
173 197 0
174 197 0
174 198 0
174 198 0
174 197 0
174 197 0
175 198 0
173 197 0
174 198 0
174 197 0
175 198 0
173 197 0
176 198 0
172 196 0
175 198 0
175 198 0
174 197 0
174 197 0
174 197 0
174 198 0
172 197 0
174 198 0
174 197 0
173 197 0
173 197 0
174 198 0
175 198 0
174 198 0
174 197 0
175 198 0
175 198 0
174 198 0
174 198 0
174 197 0
173 197 0
174 197 0
174 198 0
175 198 0
174 197 0
175 198 0
176 198 0
174 197 0
175 198 0
175 198 0
175 198 0
174 198 0
173 196 0
175 198 0
175 198 0
173 197 0
174 198 0
177 199 0
174 197 0
174 197 0
174 197 0
173 197 0
173 197 0
175 198 0
175 198 0
173 197 0
173 197 0
173 197 0
176 199 0
174 197 0
172 196 0
174 198 0
173 197 0
174 197 0
174 198 0
173 197 0
175 198 0
173 197 0
176 199 0
173 197 0
175 198 0
173 197 0
175 198 0
174 197 0
174 197 0
175 197 0
174 198 0
173 197 0
175 198 0
174 198 0
175 198 0
173 196 0
174 198 0
173 197 0
174 198 0
175 198 0
174 197 0
175 198 0
174 197 0
173 197 0
175 198 0
174 197 0
173 197 0
173 197 0
175 198 0
176 199 0
175 198 0
174 197 0
174 198 0
174 198 0
175 198 0
174 197 0
173 197 0
176 198 0
172 196 0
174 197 0
172 196 0
175 198 0
173 196 0
175 198 0
174 197 0
174 198 0
175 198 0
175 198 0
173 197 0
173 196 0
175 198 0
174 198 0
174 197 0
175 197 0
173 196 0
173 197 0
171 195 0
173 197 0
176 198 0
176 198 0
171 196 0
173 197 0
175 198 0
174 197 0
173 197 0
175 198 0
174 197 0
173 197 0
173 197 0
173 196 0
174 196 0
173 197 0
174 197 0
173 196 0
173 197 0
173 197 0
174 198 0
174 197 0
176 198 0
174 197 0
174 197 0
173 197 0
172 195 0
172 196 0
174 198 0
175 198 0
173 196 0
174 197 0
174 197 0
172 196 0
172 196 0
174 198 0
174 198 0
175 198 0
173 197 0
173 196 0
174 198 0
173 197 0
172 196 0
176 198 0
173 197 0
172 196 0
176 198 0
174 198 0
174 197 0
175 198 0
174 198 0
175 198 0
175 198 0
175 198 0
173 197 0
173 197 0
176 198 0
174 197 0
173 197 0
176 198 0
174 197 0
173 197 0
174 197 0
173 196 0
174 197 0
174 197 0
172 196 0
174 197 0
175 198 0
172 196 0
174 198 0
173 197 0
176 198 0
173 197 0
174 196 0
172 196 0
176 198 0
173 196 0
174 197 0
173 197 0
174 198 0
174 198 0
174 198 0
172 195 0
175 198 0
175 197 0
174 197 0
175 198 0
174 197 0
174 197 0
174 197 0
174 198 0
174 197 0
172 196 0
175 197 0
174 197 0
174 198 0
174 197 0
173 196 0
173 196 0
173 197 0
175 198 0
174 196 0
173 197 0
173 197 0
173 196 0
171 194 0
173 196 11
175 195 22
173 193 22
174 190 36
175 192 41
179 192 56
176 186 58
179 188 64
180 188 71
180 187 72
180 187 73
182 186 78
183 186 81
185 183 93
185 183 95
184 183 90
186 182 99
186 180 103
185 179 103
185 179 101
185 179 103
187 178 110
186 176 113
186 177 112
185 176 114
184 176 113
184 176 114
182 175 114
184 176 114
181 174 114
182 175 114
181 174 114
181 174 114
180 174 114
180 174 114
179 174 114
179 174 114
179 173 114
179 173 114
178 173 114
178 173 114
178 173 114
178 173 114
179 173 114
178 173 114
178 173 114
178 173 114
179 173 114
179 173 114
179 173 114
180 174 114
180 174 114
180 174 114
181 174 114
181 174 114
182 175 114
182 175 114
184 175 114
184 175 114
184 176 114
186 176 114
185 176 112
185 177 110
186 177 112
187 179 108
187 180 107
186 180 104
184 180 99
186 180 99
186 182 101
186 183 94
185 185 90
184 189 80
183 187 80
182 188 73
179 188 62
177 189 60
179 189 59
178 192 48
178 195 42
176 193 36
174 194 22
174 196 11
175 197 0
175 198 0
174 198 0
174 197 0
174 198 0
175 198 0
175 198 0
176 198 0
174 197 0
175 198 0
175 198 0
173 197 0
173 197 0
173 197 0
175 198 0
174 198 0
175 198 0
173 197 0
176 198 0
174 197 0
173 197 0
173 196 0
174 198 0
174 198 0
175 198 0
175 198 0
175 198 0
172 196 0
174 197 0
174 198 0
174 197 0
174 197 0
176 198 0
174 198 0
175 198 0
174 197 0
173 197 0
173 197 0
175 198 0
175 198 0
174 197 0
174 198 0
174 197 0
174 197 0
176 198 0
175 197 0
174 197 0
174 197 0
175 198 0
175 198 0
173 197 0
176 198 0
173 197 0
173 197 0
174 198 0
174 198 0
174 198 0
174 197 0
175 198 0
175 198 0
175 198 0
176 198 0
175 198 0
173 197 0
174 198 0
174 197 0
172 196 0
175 198 0
173 197 0
174 197 0
173 196 0
172 197 0
173 196 0
173 197 0
175 198 0
173 197 0
174 197 0
174 198 0
173 197 0
175 198 0
173 197 0
173 197 0
174 198 0
174 197 0
175 198 0
175 198 0
174 197 0
174 197 0
175 198 0
174 197 0
173 196 0
175 198 0
174 197 0
175 198 0
176 198 0
174 198 0
173 197 0
175 198 0
174 198 0
173 196 0
173 197 0
174 197 0
175 198 0
174 197 0
175 198 0
173 197 0
175 198 0
175 198 0
173 197 0
174 197 0
175 198 0
175 198 0
175 198 0
173 197 0
175 198 0
173 197 0
173 197 0
175 198 0
176 199 0
174 197 0
174 197 0
174 197 0
173 197 0
175 198 0
175 198 0
174 197 0
174 197 0
175 198 0
173 196 0
173 197 0
175 198 0
174 197 0
173 197 0
172 195 0
176 198 0
173 197 0
174 197 0
172 196 0
174 197 0
173 197 0
173 196 0
175 198 0
173 197 0
171 195 0
175 198 0
175 198 0
174 197 0
176 199 0
175 198 0
173 197 0
173 197 0
175 198 0
174 198 0
172 196 0
173 197 0
174 198 0
173 197 0
176 198 0
175 198 0
172 196 0
172 196 0
173 196 0
174 197 0
176 198 0
173 197 0
175 198 0
174 197 0
176 199 0
172 196 0
174 197 0
175 198 0
174 198 0
175 198 0
174 198 0
174 197 0
173 197 0
174 198 0
175 198 0
174 197 0
174 197 0
173 196 0
172 195 0
176 199 0
174 197 0
175 198 0
174 198 0
173 197 0
174 198 0
174 197 0
174 197 0
171 195 0
174 197 0
176 198 0
175 198 0
174 198 0
175 198 0
173 197 0
174 198 0
173 196 0
175 198 0
173 197 0
175 198 0
174 197 0
174 197 0
175 198 0
173 197 0
174 197 0
173 196 0
173 197 0
175 198 0
174 198 0
173 197 0
173 197 0
173 197 0
173 196 0
174 197 0
174 197 0
174 197 0
174 197 0
173 196 0
173 197 0
173 196 0
174 198 0
174 198 0
175 198 0
174 198 0
173 197 0
174 197 0
172 197 0
173 197 0
173 195 0
173 197 0
173 197 0
172 195 0
174 197 0
175 198 0
175 198 0
173 196 0
174 197 0
174 197 0
173 196 0
173 196 0
174 197 0
174 197 0
174 198 0
175 198 0
173 197 0
174 197 0
172 195 0
175 198 0
175 198 0
174 197 0
172 196 0
174 198 0
174 197 0
175 198 0
173 197 0
174 198 0
173 197 0
173 196 0
173 197 0
175 198 0
174 198 0
174 197 0
174 197 0
174 197 0
174 197 0
172 195 0
174 197 0
174 197 0
174 197 0
172 196 0
174 196 0
173 196 0
175 198 0
174 197 0
173 197 0
174 197 0
174 198 0
174 196 0
171 196 0
173 196 0
175 198 0
173 196 0
173 196 0
173 197 0
172 195 0
173 197 0
174 197 0
174 198 0
175 197 0
174 197 0
174 197 0
173 197 0
173 196 0
170 194 0
172 196 0
176 199 0
173 197 0
173 197 0
174 198 0
174 197 0
174 197 0
174 197 0
174 197 0
174 197 0
174 198 0
173 195 0
174 198 0
173 196 0
172 196 0
174 198 0
174 198 0
176 198 0
173 196 0
173 197 0
176 198 0
172 191 22
173 194 25
178 195 41
177 192 45
180 189 62
178 189 60
182 190 64
179 186 67
183 186 77
182 185 76
181 186 75
185 184 88
182 184 84
186 184 94
185 181 99
185 181 98
186 180 104
187 180 104
185 177 108
185 177 109
186 177 113
186 176 113
186 176 113
185 176 114
183 175 114
182 175 114
182 175 114
182 175 114
180 174 114
181 174 114
179 173 114
179 173 114
178 173 114
178 173 114
178 173 114
177 172 114
177 172 114
177 172 114
177 172 114
177 172 114
176 172 114
176 172 114
177 173 114
177 172 114
176 172 114
176 172 114
176 172 114
177 172 114
177 172 114
177 172 114
177 173 114
178 173 114
178 173 114
179 173 114
179 173 114
179 173 114
180 174 114
181 174 114
181 174 114
182 175 114
182 175 114
184 175 114
185 176 114
185 176 114
187 177 113
187 178 112
186 178 109
187 180 108
187 179 106
185 180 100
186 182 99
188 184 96
185 185 88
184 186 84
184 187 81
183 186 79
180 188 68
179 191 58
178 192 47
177 190 48
176 192 45
175 192 30
174 195 19
172 193 0
174 196 0
175 198 0
174 198 0
175 198 0
175 198 0
174 197 0
175 198 0
175 198 0
175 198 0
174 197 0
173 196 0
174 197 0
176 198 0
175 198 0
174 197 0
174 198 0
175 197 0
175 198 0
174 197 0
175 198 0
175 198 0
173 197 0
175 198 0
174 197 0
173 197 0
177 199 0
173 197 0
175 198 0
174 197 0
175 198 0
175 198 0
175 198 0
174 197 0
175 198 0
174 197 0
174 197 0
174 198 0
173 197 0
174 197 0
175 198 0
174 198 0
173 197 0
174 198 0
174 198 0
176 199 0
173 197 0
174 198 0
175 198 0
174 198 0
175 198 0
176 199 0
173 197 0
174 197 0
174 197 0
174 197 0
174 197 0
174 197 0
175 198 0
175 198 0
175 198 0
175 198 0
176 199 0
174 197 0
174 197 0
174 198 0
173 197 0
175 198 0
174 198 0
172 196 0
174 197 0
174 198 0
176 199 0
174 198 0
173 197 0
173 197 0
174 198 0
174 198 0
174 197 0
175 198 0
176 199 0
176 199 0
175 198 0
174 197 0
175 198 0
173 197 0
174 197 0
174 197 0
175 197 0
174 198 0
175 198 0
175 198 0
175 198 0
174 197 0
174 198 0
174 197 0
176 198 0
173 197 0
173 197 0
175 198 0
173 197 0
175 198 0
174 198 0
172 196 0
175 198 0
175 198 0
175 198 0
174 197 0
173 196 0
172 196 0
174 197 0
173 197 0
173 197 0
175 198 0
173 197 0
174 197 0
174 197 0
174 198 0
173 197 0
175 198 0
174 197 0
173 197 0
174 197 0
174 197 0
174 198 0
173 196 0
173 196 0
173 197 0
173 197 0
176 198 0
176 199 0
174 197 0
175 198 0
173 197 0
172 196 0
175 198 0
173 197 0
176 199 0
173 196 0
173 197 0
173 196 0
174 197 0
175 198 0
173 197 0
174 198 0
173 197 0
176 199 0
174 198 0
175 198 0
173 197 0
173 196 0
174 197 0
173 197 0
174 197 0
175 197 0
176 199 0
175 198 0
175 198 0
173 197 0
174 197 0
173 196 0
174 198 0
175 198 0
174 198 0
173 197 0
171 195 0
175 198 0
175 198 0
174 198 0
172 195 0
174 197 0
175 198 0
172 197 0
174 198 0
173 197 0
173 197 0
175 198 0
172 196 0
175 197 0
174 197 0
174 197 0
174 197 0
173 197 0
173 197 0
172 196 0
172 196 0
174 197 0
175 198 0
174 197 0
175 198 0
175 198 0
173 197 0
174 196 0
173 197 0
176 198 0
174 197 0
175 198 0
175 198 0
174 197 0
174 197 0
173 196 0
173 196 0
172 195 0
174 197 0
174 198 0
174 198 0
174 197 0
174 197 0
173 197 0
176 198 0
174 197 0
174 197 0
177 199 0
174 197 0
175 197 0
173 197 0
173 197 0
175 198 0
172 196 0
172 196 0
172 196 0
174 197 0
176 198 0
174 197 0
171 195 0
172 196 0
172 196 0
173 197 0
172 196 0
175 198 0
174 197 0
174 197 0
174 197 0
174 198 0
173 196 0
173 197 0
171 195 0
174 197 0
175 198 0
174 198 0
173 197 0
175 198 0
171 195 0
174 197 0
174 197 0
173 197 0
175 198 0
171 195 0
175 198 0
170 195 0
174 197 0
174 197 0
173 196 0
172 196 0
174 197 0
174 197 0
174 197 0
174 197 0
173 197 0
174 197 0
174 197 0
172 195 0
175 198 0
172 196 0
172 196 0
173 197 0
175 198 0
173 196 0
175 197 0
174 196 0
175 198 0
174 197 0
176 199 0
175 198 0
174 198 0
174 197 0
173 196 0
175 197 0
174 197 0
172 196 0
174 196 0
173 197 0
172 196 0
174 198 0
174 198 0
173 197 0
174 197 0
173 197 0
173 196 0
175 198 0
173 197 0
175 198 0
174 197 0
174 197 0
174 198 0
174 198 0
173 197 0
173 196 0
173 197 0
176 198 0
174 197 0
175 197 0
173 197 0
175 198 0
175 198 0
175 198 0
174 197 0
174 197 0
173 197 0
174 197 0
175 198 0
173 197 0
174 197 0
174 195 0
171 193 0
172 193 16
175 193 32
174 194 30
175 194 32
176 191 47
176 190 47
177 191 51
180 189 63
181 186 75
181 186 77
182 188 75
184 185 87
186 181 95
186 183 94
186 179 102
189 182 103
187 179 106
187 180 104
186 178 109
186 178 108
185 177 112
185 176 113
186 177 114
185 176 114
183 175 114
182 175 114
182 175 114
181 174 114
179 173 114
180 174 114
179 173 114
177 173 114
178 173 114
177 172 114
177 172 114
177 172 114
176 172 114
176 172 114
175 171 114
175 171 114
175 172 114
175 171 114
174 171 114
175 172 114
174 171 114
174 171 114
175 171 114
175 172 114
176 172 114
175 171 114
175 172 114
176 172 114
175 172 114
176 172 114
176 172 114
177 172 114
177 172 114
178 173 114
179 173 114
178 173 114
179 173 114
180 174 114
181 174 114
182 175 114
182 175 114
184 176 114
185 176 114
186 177 114
186 177 113
188 178 113
188 178 111
187 179 108
188 180 106
186 181 99
187 183 98
184 185 89
182 185 81
184 186 84
183 187 81
184 187 80
180 188 64
177 188 58
180 189 59
178 192 48
177 193 39
174 194 30
174 195 11
174 196 16
175 198 0
175 197 0
174 197 0
174 198 0
173 197 0
175 198 0
175 198 0
175 198 0
175 198 0
174 198 0
176 198 0
175 198 0
175 198 0
174 197 0
174 198 0
174 198 0
174 198 0
174 197 0
175 198 0
174 197 0
174 197 0
171 196 0
174 197 0
172 196 0
174 198 0
175 198 0
175 198 0
173 196 0
174 197 0
174 198 0
176 198 0
173 197 0
173 196 0
174 197 0
175 198 0
174 197 0
174 198 0
174 197 0
175 198 0
173 197 0
174 198 0
176 199 0
174 197 0
175 198 0
174 197 0
174 197 0
175 198 0
174 198 0
175 198 0
175 198 0
173 197 0
174 198 0
174 197 0
175 198 0
174 197 0
174 198 0
174 197 0
174 197 0
175 198 0
174 197 0
174 197 0
174 197 0
175 198 0
172 196 0
175 198 0
174 197 0
173 197 0
174 198 0
174 198 0
173 197 0
174 198 0
175 197 0
173 196 0
176 198 0
174 198 0
175 198 0
175 198 0
174 198 0
174 198 0
173 197 0
174 197 0
175 198 0
175 198 0
174 198 0
173 197 0
175 198 0
174 197 0
174 198 0
176 198 0
176 198 0
174 198 0
174 197 0
174 197 0
173 197 0
174 198 0
174 197 0
173 197 0
175 198 0
174 197 0
175 198 0
173 197 0
176 198 0
175 198 0
175 198 0
175 198 0
173 197 0
176 198 0
175 198 0
174 197 0
173 196 0
173 197 0
175 198 0
174 198 0
175 198 0
172 196 0
175 198 0
174 197 0
173 196 0
174 198 0
175 198 0
174 197 0
174 197 0
172 196 0
175 198 0
174 197 0
174 197 0
173 197 0
175 198 0
173 196 0
175 198 0
172 196 0
172 196 0
175 198 0
174 198 0
173 197 0
174 198 0
176 198 0
174 198 0
175 198 0
173 197 0
172 197 0
173 197 0
176 199 0
172 196 0
176 198 0
174 197 0
175 198 0
175 198 0
173 197 0
174 197 0
174 197 0
174 198 0
174 198 0
175 198 0
173 197 0
174 197 0
172 195 0
174 198 0
174 197 0
174 197 0
174 197 0
174 197 0
175 197 0
174 197 0
174 197 0
172 196 0
175 198 0
173 197 0
176 199 0
173 196 0
174 197 0
174 197 0
174 197 0
176 198 0
172 196 0
175 198 0
173 196 0
175 198 0
173 197 0
174 197 0
174 198 0
172 196 0
174 198 0
174 196 0
174 197 0
175 198 0
174 196 0
171 195 0
174 197 0
173 197 0
174 196 0
176 199 0
174 198 0
174 198 0
173 196 0
175 198 0
173 197 0
174 197 0
173 197 0
173 196 0
172 196 0
174 197 0
174 198 0
173 196 0
174 198 0
171 195 0
174 198 0
174 197 0
173 197 0
174 197 0
173 196 0
171 195 0
174 196 0
173 196 0
175 198 0
173 196 0
176 198 0
174 197 0
172 195 0
176 198 0
174 198 0
173 197 0
175 198 0
173 196 0
175 198 0
173 196 0
173 197 0
174 198 0
176 199 0
175 198 0
174 196 0
175 197 0
175 198 0
172 196 0
173 197 0
173 197 0
174 197 0
176 198 0
173 197 0
174 197 0
172 197 0
173 196 0
174 197 0
172 196 0
174 197 0
175 198 0
173 197 0
174 197 0
174 196 0
171 195 0
175 198 0
172 195 0
174 197 0
174 196 0
174 197 0
173 197 0
172 196 0
173 197 0
173 196 0
175 198 0
173 196 0
173 197 0
171 196 0
174 196 0
172 196 0
174 197 0
172 195 0
174 197 0
174 197 0
175 198 0
174 197 0
176 198 0
172 195 0
175 198 0
174 198 0
173 196 0
173 196 0
176 198 0
173 197 0
173 197 0
174 197 0
174 197 0
174 197 0
173 196 0
173 197 0
173 197 0
173 197 0
173 197 0
173 197 0
172 196 0
175 197 0
174 197 0
175 198 0
174 197 0
174 197 0
175 198 0
174 198 0
174 197 0
173 196 0
174 197 0
176 198 0
173 197 0
174 197 0
174 197 0
173 196 0
173 196 0
172 195 0
173 197 0
175 198 0
173 196 0
173 194 0
172 191 25
177 195 32
173 189 36
174 191 34
178 190 53
178 190 53
178 185 62
180 189 64
179 185 70
184 185 83
184 186 84
184 185 87
186 184 93
186 182 96
186 182 99
186 180 103
186 179 105
187 178 110
187 177 113
186 177 113
184 176 112
184 175 113
185 176 114
183 175 114
183 175 114
181 174 114
180 174 114
180 174 114
180 174 114
178 173 114
178 173 114
177 173 114
176 172 114
175 172 114
176 172 114
175 172 114
175 172 114
174 171 114
174 171 114
174 171 114
174 171 114
174 171 114
174 171 114
174 171 114
173 171 114
172 170 114
173 171 114
173 170 114
174 171 114
173 171 114
174 171 114
174 171 114
174 171 114
175 171 114
174 171 114
175 171 114
175 172 114
176 172 114
176 172 114
177 172 114
177 173 114
178 173 114
179 173 114
179 173 114
180 174 114
181 174 114
181 174 114
182 175 114
184 176 114
184 176 114
185 176 114
186 177 112
186 176 112
188 178 112
187 179 108
186 181 101
187 182 101
187 183 98
183 183 87
185 186 85
185 184 86
182 186 75
180 190 64
180 190 61
178 189 53
176 192 42
175 192 37
176 191 37
175 195 19
172 194 11
174 198 0
173 197 0
175 198 0
176 199 0
175 198 0
174 197 0
174 198 0
175 198 0
175 198 0
174 197 0
174 197 0
172 197 0
174 197 0
173 197 0
174 197 0
173 197 0
174 197 0
174 197 0
174 197 0
174 197 0
174 198 0
176 199 0
176 199 0
173 197 0
175 198 0
176 198 0
175 198 0
172 197 0
174 197 0
173 196 0
176 198 0
175 198 0
174 197 0
174 198 0
174 198 0
175 198 0
174 197 0
174 198 0
173 197 0
173 197 0
175 198 0
175 198 0
173 197 0
175 198 0
174 197 0
174 198 0
172 197 0
174 198 0
175 198 0
173 197 0
173 197 0
173 197 0
174 197 0
173 197 0
172 196 0
173 197 0
175 198 0
173 197 0
174 198 0
174 198 0
172 197 0
175 198 0
175 198 0
173 197 0
174 197 0
174 198 0
174 198 0
173 197 0
174 198 0
172 197 0
175 198 0
172 196 0
174 197 0
175 198 0
175 198 0
175 198 0
174 197 0
175 198 0
175 198 0
174 197 0
173 197 0
174 198 0
174 198 0
174 198 0
175 198 0
174 197 0
175 198 0
173 197 0
175 198 0
173 197 0
175 198 0
174 197 0
175 198 0
174 197 0
173 197 0
173 197 0
172 197 0
174 197 0
175 198 0
175 198 0
173 197 0
176 199 0
174 198 0
174 198 0
176 199 0
175 198 0
175 198 0
176 198 0
174 198 0
174 197 0
175 198 0
174 197 0
174 197 0
175 198 0
175 197 0
174 198 0
174 198 0
175 198 0
176 198 0
174 197 0
173 197 0
173 197 0
176 198 0
173 197 0
175 198 0
173 196 0
176 199 0
174 198 0
174 197 0
173 196 0
173 197 0
173 197 0
175 198 0
173 197 0
174 197 0
174 198 0
174 198 0
176 198 0
172 195 0
174 198 0
174 197 0
175 198 0
176 198 0
173 197 0
175 198 0
173 197 0
174 197 0
173 197 0
175 198 0
172 196 0
175 198 0
175 198 0
174 197 0
173 197 0
174 197 0
174 197 0
173 197 0
173 197 0
173 197 0
175 198 0
174 197 0
174 198 0
174 197 0
174 197 0
174 198 0
174 197 0
172 196 0
175 198 0
172 196 0
174 197 0
174 197 0
175 197 0
174 197 0
174 197 0
176 198 0
174 197 0
175 198 0
175 198 0
173 197 0
173 197 0
173 197 0
174 197 0
175 198 0
175 198 0
174 197 0
175 198 0
173 197 0
174 198 0
175 198 0
174 197 0
175 198 0
172 196 0
171 195 0
174 197 0
174 197 0
173 197 0
174 197 0
173 196 0
175 198 0
172 196 0
172 196 0
175 198 0
173 196 0
172 195 0
174 197 0
172 196 0
173 197 0
173 196 0
173 197 0
174 197 0
174 197 0
173 197 0
174 198 0
172 196 0
175 198 0
174 197 0
174 198 0
174 198 0
173 197 0
174 197 0
175 198 0
174 197 0
174 197 0
173 196 0
171 194 0
176 198 0
174 198 0
173 196 0
174 197 0
174 197 0
175 197 0
175 198 0
174 198 0
175 198 0
173 196 0
173 196 0
173 196 0
174 197 0
176 198 0
172 196 0
171 195 0
171 195 0
174 197 0
174 198 0
175 198 0
175 198 0
172 195 0
175 197 0
172 196 0
174 197 0
174 197 0
175 198 0
173 196 0
174 197 0
172 196 0
173 197 0
173 197 0
173 196 0
172 195 0
174 197 0
175 198 0
174 197 0
172 196 0
173 197 0
174 197 0
174 197 0
173 196 0
173 197 0
176 198 0
171 195 0
174 197 0
173 197 0
174 197 0
173 197 0
175 198 0
174 198 0
174 197 0
174 197 0
175 198 0
174 198 0
173 196 0
174 197 0
175 198 0
173 196 0
173 197 0
171 195 0
173 197 0
173 197 0
174 198 0
174 197 0
176 198 0
174 197 0
174 197 0
174 197 0
173 197 0
173 196 0
173 197 0
174 197 0
172 196 0
172 195 0
174 196 0
174 197 0
174 197 0
174 196 0
173 196 0
173 197 0
173 197 0
172 193 0
171 191 0
173 195 11
175 192 30
177 195 32
177 192 44
178 193 45
179 188 60
176 187 57
180 190 60
183 186 78
185 183 91
184 185 88
184 183 87
187 184 95
187 180 101
186 180 102
187 179 106
187 178 106
187 178 109
186 177 111
187 177 113
186 177 114
185 176 114
182 175 114
182 175 114
182 175 114
180 174 114
179 173 114
178 173 114
178 173 114
178 173 114
176 172 114
176 172 114
176 172 114
175 172 114
174 171 114
174 171 114
173 171 114
173 171 114
174 171 114
173 171 114
172 170 114
173 170 114
172 170 114
172 170 114
172 170 114
172 170 114
171 170 114
173 170 114
172 170 114
171 170 114
172 170 114
171 170 114
172 170 114
172 170 114
173 171 114
173 171 114
173 171 114
173 171 114
174 171 114
175 171 114
175 172 114
176 172 114
176 172 114
177 173 114
177 172 114
178 173 114
179 173 114
180 174 114
181 174 114
181 174 114
183 175 114
184 176 114
186 177 114
186 177 114
187 177 113
187 177 112
188 179 109
186 179 106
187 181 104
188 183 101
187 180 98
183 186 81
184 185 84
184 186 85
183 187 80
180 189 63
179 191 58
176 192 45
173 191 32
175 193 36
176 195 28
173 194 0
173 196 0
176 199 0
174 197 0
174 197 0
175 198 0
174 197 0
175 198 0
173 197 0
174 197 0
173 197 0
174 197 0
175 198 0
173 197 0
173 196 0
173 197 0
174 197 0
173 197 0
174 197 0
173 197 0
172 196 0
176 198 0
172 196 0
173 197 0
174 198 0
173 197 0
175 198 0
175 198 0
173 197 0
175 198 0
173 196 0
174 198 0
174 197 0
174 197 0
175 198 0
174 197 0
174 197 0
174 197 0
174 197 0
174 198 0
174 197 0
175 198 0
175 198 0
175 198 0
173 197 0
174 197 0
175 198 0
175 198 0
176 198 0
173 197 0
173 196 0
174 198 0
175 198 0
173 197 0
175 198 0
174 197 0
173 197 0
173 197 0
175 198 0
174 198 0
174 197 0
176 198 0
174 197 0
176 198 0
175 198 0
174 197 0
176 198 0
176 199 0
174 198 0
175 198 0
174 198 0
175 197 0
173 197 0
174 197 0
173 197 0
175 198 0
174 197 0
173 197 0
174 198 0
174 197 0
174 197 0
174 198 0
176 199 0
175 198 0
173 196 0
174 198 0
174 197 0
176 199 0
175 198 0
175 197 0
174 197 0
174 198 0
174 197 0
173 197 0
173 197 0
173 197 0
174 197 0
174 198 0
174 198 0
174 198 0
174 198 0
175 198 0
175 198 0
174 197 0
172 196 0
173 197 0
173 196 0
175 198 0
174 197 0
173 197 0
176 199 0
173 196 0
174 197 0
175 198 0
175 198 0
175 198 0
174 197 0
175 198 0
175 198 0
175 198 0
174 198 0
174 197 0
173 197 0
173 197 0
173 197 0
174 198 0
173 196 0
175 198 0
175 198 0
175 198 0
174 197 0
174 198 0
175 198 0
173 197 0
174 198 0
174 197 0
175 198 0
175 198 0
173 196 0
174 198 0
173 197 0
173 196 0
174 197 0
173 197 0
175 198 0
174 197 0
173 197 0
175 198 0
176 198 0
174 198 0
174 197 0
172 196 0
171 195 0
175 197 0
173 196 0
172 196 0
173 197 0
175 198 0
173 196 0
175 198 0
174 197 0
173 197 0
172 197 0
172 195 0
175 198 0
175 197 0
172 196 0
176 199 0
173 197 0
172 196 0
174 198 0
173 196 0
173 196 0
173 197 0
172 196 0
173 197 0
174 198 0
174 197 0
174 197 0
173 197 0
174 197 0
172 195 0
174 198 0
174 196 0
174 198 0
174 198 0
173 196 0
175 198 0
173 197 0
173 197 0
173 197 0
175 198 0
174 197 0
173 196 0
173 197 0
173 197 0
173 197 0
172 195 0
173 197 0
173 197 0
174 197 0
173 197 0
173 196 0
174 197 0
172 196 0
174 197 0
171 195 0
174 197 0
171 194 0
174 197 0
175 198 0
172 195 0
174 198 0
173 196 0
174 197 0
173 196 0
175 198 0
173 197 0
174 198 0
174 197 0
171 196 0
173 196 0
173 196 0
173 197 0
173 197 0
173 197 0
175 198 0
173 197 0
174 197 0
174 197 0
174 198 0
173 197 0
172 196 0
174 198 0
174 198 0
172 196 0
173 197 0
174 198 0
174 197 0
175 198 0
174 197 0
174 198 0
175 198 0
174 197 0
175 198 0
174 198 0
173 196 0
170 193 0
175 198 0
175 198 0
175 198 0
174 197 0
173 197 0
173 197 0
175 198 0
173 197 0
174 197 0
174 198 0
174 197 0
173 197 0
175 198 0
173 197 0
174 197 0
174 197 0
176 198 0
174 197 0
174 197 0
172 196 0
174 198 0
174 197 0
173 197 0
174 197 0
172 196 0
173 196 0
172 196 0
173 196 0
176 198 0
175 197 0
174 197 0
173 196 0
175 197 0
173 197 0
172 196 0
172 196 0
173 197 0
171 195 0
175 198 0
173 196 0
174 197 0
175 198 0
173 197 0
173 197 0
174 197 0
173 197 0
175 198 0
174 197 0
173 197 0
175 198 0
173 197 0
173 197 0
173 197 0
172 195 0
173 196 0
175 198 0
174 197 0
173 196 0
172 195 0
174 197 0
172 193 11
173 191 32
176 192 37
174 190 37
174 188 47
178 187 60
180 187 68
180 187 69
181 186 75
182 187 79
185 182 95
184 181 92
185 182 95
189 181 104
185 180 102
187 178 106
187 179 108
186 177 109
188 178 114
186 177 113
184 176 114
183 175 114
182 175 114
182 175 114
181 174 114
181 174 114
179 174 114
178 173 114
178 173 114
176 172 114
176 172 114
176 172 114
175 171 114
174 171 114
174 171 114
173 171 114
172 170 114
172 170 114
172 170 114
172 170 114
171 170 114
171 170 114
171 170 114
171 169 114
171 169 114
171 170 114
170 169 114
170 169 114
170 169 114
170 169 114
170 169 114
171 169 114
171 170 114
171 169 114
171 170 114
172 170 114
172 170 114
172 170 114
173 170 114
173 170 114
174 171 114
173 171 114
174 171 114
175 171 114
176 172 114
176 172 114
177 172 114
178 173 114
179 173 114
179 173 114
180 174 114
182 175 114
182 175 114
183 175 114
185 176 114
185 176 114
186 177 114
187 177 113
187 178 110
187 177 109
188 179 106
188 180 103
186 182 95
186 184 93
183 186 83
185 185 84
182 184 76
178 187 60
181 189 66
177 190 48
174 190 32
177 195 32
174 194 19
172 195 0
173 196 0
174 197 0
173 197 0
173 197 0
173 195 0
175 198 0
174 197 0
174 197 0
174 197 0
175 198 0
174 198 0
174 197 0
174 198 0
173 197 0
173 197 0
174 198 0
175 198 0
175 198 0
173 197 0
174 197 0
175 198 0
176 198 0
174 197 0
175 198 0
176 198 0
174 198 0
173 197 0
174 198 0
174 197 0
175 198 0
173 197 0
174 197 0
174 197 0
174 197 0
174 198 0
174 197 0
174 198 0
174 198 0
173 197 0
173 197 0
173 197 0
174 198 0
174 197 0
175 198 0
174 197 0
174 197 0
175 198 0
176 198 0
174 197 0
173 197 0
174 197 0
173 197 0
174 198 0
173 197 0
172 197 0
175 198 0
174 198 0
175 198 0
174 198 0
174 197 0
173 197 0
175 198 0
173 197 0
175 198 0
175 198 0
174 198 0
173 197 0
173 197 0
174 197 0
175 198 0
174 197 0
175 198 0
172 197 0
172 196 0
175 198 0
174 197 0
174 197 0
173 196 0
174 197 0
174 197 0
174 197 0
176 198 0
172 196 0
173 197 0
175 198 0
173 197 0
173 196 0
175 198 0
176 199 0
175 197 0
175 198 0
174 197 0
174 198 0
174 198 0
175 198 0
174 197 0
173 197 0
174 198 0
174 197 0
173 197 0
174 198 0
172 197 0
174 197 0
174 197 0
173 197 0
174 198 0
177 199 0
174 198 0
174 197 0
175 198 0
174 197 0
174 198 0
173 197 0
172 196 0
174 197 0
174 198 0
174 197 0
173 197 0
174 197 0
175 198 0
174 198 0
173 197 0
173 197 0
174 197 0
173 197 0
174 197 0
173 197 0
174 197 0
173 196 0
175 198 0
175 198 0
174 198 0
174 197 0
176 199 0
175 198 0
174 197 0
174 197 0
174 198 0
173 196 0
173 197 0
174 197 0
174 198 0
176 198 0
173 197 0
175 198 0
174 197 0
174 197 0
174 198 0
175 198 0
174 197 0
175 198 0
174 197 0
174 197 0
173 197 0
173 197 0
173 197 0
176 198 0
174 197 0
173 197 0
173 197 0
174 197 0
173 196 0
173 196 0
174 197 0
175 198 0
173 197 0
174 197 0
175 198 0
174 197 0
174 197 0
174 198 0
173 196 0
172 196 0
174 197 0
172 196 0
174 197 0
174 197 0
175 198 0
175 198 0
176 198 0
173 196 0
173 196 0
173 197 0
173 197 0
173 197 0
173 196 0
176 199 0
175 198 0
173 196 0
173 197 0
174 198 0
173 197 0
173 196 0
174 198 0
174 197 0
173 197 0
173 197 0
174 197 0
172 195 0
173 197 0
173 197 0
173 196 0
174 198 0
173 197 0
174 196 0
174 198 0
173 197 0
175 198 0
175 198 0
173 197 0
174 198 0
172 195 0
175 197 0
173 197 0
172 196 0
171 194 0
173 196 0
172 196 0
175 198 0
176 198 0
172 196 0
173 196 0
174 198 0
174 198 0
173 197 0
174 198 0
173 197 0
174 196 0
175 198 0
172 196 0
174 198 0
175 197 0
174 198 0
174 197 0
174 197 0
173 197 0
174 197 0
173 196 0
174 197 0
174 197 0
174 197 0
174 197 0
173 195 0
173 197 0
174 197 0
174 197 0
174 197 0
176 198 0
173 197 0
172 195 0
173 196 0
173 197 0
173 197 0
175 198 0
175 198 0
172 196 0
172 197 0
174 197 0
173 197 0
174 197 0
174 197 0
173 197 0
172 196 0
173 196 0
175 198 0
174 196 0
173 197 0
174 197 0
174 198 0
173 197 0
174 197 0
174 197 0
174 198 0
174 197 0
175 198 0
173 196 0
176 198 0
173 196 0
174 197 0
173 196 0
173 197 0
173 196 0
174 197 0
171 195 0
175 197 0
173 197 0
173 196 0
175 198 0
173 197 0
174 197 0
173 197 0
173 197 0
175 198 0
173 196 0
172 196 0
171 194 0
175 197 0
173 197 0
171 195 0
174 197 0
173 196 0
173 197 0
174 197 0
174 197 0
173 194 11
173 192 16
174 194 25
178 194 45
175 190 37
176 190 44
180 188 65
180 188 64
180 185 75
182 188 71
185 183 90
184 183 87
184 180 92
186 180 102
188 182 103
186 180 101
188 177 109
187 178 110
186 177 110
187 177 113
186 176 114
184 176 114
183 175 114
182 175 114
181 174 114
180 174 114
179 173 114
179 173 114
178 173 114
177 172 114
176 172 114
174 171 114
175 172 114
174 171 114
174 171 114
173 171 114
172 170 114
172 170 114
172 170 114
171 170 114
171 170 114
171 170 114
170 169 114
170 169 114
170 169 114
170 169 114
170 169 114
169 169 114
170 169 114
169 169 114
169 169 114
170 169 114
170 169 114
169 169 114
170 169 114
170 169 114
170 169 114
170 169 114
171 170 114
171 170 114
171 170 114
172 170 114
172 170 114
173 171 114
173 171 114
173 171 114
174 171 114
175 171 114
175 172 114
176 172 114
177 172 114
177 172 114
177 173 114
180 174 114
181 174 114
181 174 114
183 175 114
183 175 114
185 176 114
185 176 114
188 178 114
187 177 112
189 179 110
187 178 106
188 180 105
185 182 95
189 185 97
185 183 89
184 187 82
181 184 71
183 189 70
180 189 61
174 189 44
174 191 34
175 194 28
175 194 22
174 196 11
173 196 0
174 197 0
174 197 0
174 197 0
175 198 0
173 196 0
175 198 0
174 197 0
175 198 0
174 197 0
174 197 0
175 198 0
173 196 0
174 197 0
174 197 0
174 197 0
176 198 0
175 198 0
175 198 0
174 197 0
173 197 0
174 197 0
173 196 0
175 198 0
174 198 0
174 197 0
174 198 0
174 198 0
175 198 0
174 197 0
174 198 0
174 197 0
175 198 0
175 198 0
172 197 0
175 198 0
176 199 0
174 197 0
174 198 0
175 198 0
174 198 0
173 197 0
174 198 0
174 198 0
174 198 0
172 196 0
172 196 0
176 198 0
174 197 0
174 198 0
175 198 0
175 198 0
174 197 0
174 197 0
176 198 0
176 198 0
174 198 0
174 198 0
174 198 0
174 197 0
175 198 0
174 198 0
175 198 0
174 197 0
175 198 0
174 198 0
175 198 0
173 197 0
174 198 0
174 197 0
174 198 0
174 198 0
174 198 0
175 198 0
173 197 0
174 198 0
173 197 0
175 198 0
174 197 0
175 198 0
173 197 0
176 199 0
176 199 0
173 196 0
173 197 0
176 198 0
173 196 0
173 197 0
174 198 0
174 197 0
175 198 0
173 197 0
172 196 0
174 197 0
175 198 0
173 197 0
174 198 0
172 196 0
175 198 0
174 197 0
174 197 0
174 198 0
174 197 0
172 196 0
174 198 0
175 198 0
174 198 0
174 197 0
172 195 0
175 198 0
174 197 0
174 197 0
175 198 0
172 196 0
176 199 0
173 197 0
173 197 0
174 198 0
176 199 0
174 198 0
175 198 0
175 198 0
176 199 0
173 197 0
175 197 0
173 197 0
173 195 0
175 198 0
174 197 0
173 197 0
174 197 0
174 198 0
174 197 0
174 197 0
176 199 0
174 197 0
175 198 0
176 198 0
174 197 0
173 197 0
174 197 0
173 196 0
173 196 0
175 198 0
173 196 0
174 197 0
174 197 0
173 197 0
175 198 0
173 197 0
175 198 0
174 198 0
171 195 0
173 196 0
174 198 0
173 197 0
172 197 0
173 196 0
175 198 0
173 197 0
174 197 0
175 198 0
174 197 0
174 197 0
174 197 0
174 198 0
173 196 0
174 198 0
174 197 0
174 197 0
173 197 0
174 197 0
174 198 0
173 197 0
173 197 0
175 198 0
173 197 0
174 197 0
174 197 0
173 197 0
173 197 0
174 197 0
173 197 0
174 197 0
174 197 0
174 198 0
176 199 0
173 197 0
175 198 0
175 198 0
172 197 0
174 196 0
172 196 0
175 198 0
171 195 0
175 198 0
172 196 0
171 195 0
173 196 0
174 197 0
173 197 0
175 198 0
172 196 0
177 199 0
174 197 0
174 196 0
174 197 0
175 198 0
172 196 0
171 196 0
172 196 0
175 198 0
172 196 0
172 195 0
175 198 0
172 195 0
174 197 0
174 197 0
174 197 0
175 198 0
174 197 0
174 197 0
174 197 0
174 197 0
172 196 0
173 197 0
174 197 0
174 197 0
173 197 0
174 197 0
174 197 0
174 197 0
174 197 0
173 197 0
174 197 0
172 196 0
174 197 0
173 196 0
172 195 0
173 197 0
173 196 0
175 198 0
173 197 0
176 198 0
173 197 0
172 196 0
173 197 0
175 198 0
174 198 0
174 197 0
170 193 0
174 197 0
174 196 0
174 198 0
172 196 0
174 197 0
173 196 0
173 196 0
172 196 0
173 196 0
174 197 0
175 197 0
173 197 0
172 196 0
174 198 0
174 197 0
175 198 0
174 197 0
173 196 0
174 197 0
174 198 0
174 197 0
174 198 0
173 197 0
172 195 0
175 198 0
173 197 0
174 197 0
173 196 0
174 197 0
173 197 0
174 197 0
174 197 0
173 197 0
173 197 0
173 196 0
171 194 0
174 197 0
172 195 0
175 198 0
173 197 0
173 196 0
173 197 0
173 197 0
173 197 0
175 198 0
174 197 0
173 197 0
173 197 0
174 197 0
172 194 0
174 196 0
173 194 16
174 195 11
173 192 25
172 188 32
176 191 42
174 186 47
179 186 63
184 188 76
181 187 72
180 185 75
183 185 82
185 183 87
183 180 91
185 181 95
187 179 104
188 178 109
185 177 105
185 176 108
187 177 113
186 177 113
185 176 114
184 176 114
182 175 114
181 174 114
180 174 114
179 174 114
180 174 114
178 173 114
177 173 114
176 172 114
176 172 114
175 171 114
174 171 114
174 171 114
173 171 114
172 170 114
172 170 114
171 170 114
171 170 114
171 169 114
170 169 114
170 169 114
169 169 114
169 169 114
169 169 114
169 169 114
169 169 114
169 169 114
169 169 114
169 169 114
168 168 114
168 168 114
169 169 114
169 169 114
169 169 114
169 169 114
169 169 114
169 169 114
169 169 114
170 169 114
170 169 114
170 169 114
171 170 114
171 170 114
171 170 114
172 170 114
172 170 114
173 171 114
173 171 114
174 171 114
175 172 114
175 172 114
177 172 114
177 172 114
179 173 114
179 174 114
179 174 114
181 174 114
182 175 114
183 175 114
184 176 114
186 176 114
187 177 114
188 178 113
187 177 109
187 179 106
188 179 104
188 182 100
186 183 95
186 184 90
184 184 84
184 188 76
181 187 69
176 187 54
180 188 64
178 190 56
174 193 32
172 191 25
173 194 0
174 196 0
174 197 0
175 198 0
174 198 0
176 198 0
175 198 0
173 197 0
175 198 0
173 197 0
174 198 0
173 196 0
175 198 0
174 197 0
176 198 0
172 196 0
174 197 0
173 197 0
174 197 0
172 196 0
174 198 0
175 198 0
174 197 0
173 197 0
175 198 0
173 196 0
173 196 0
174 198 0
174 197 0
173 196 0
174 197 0
175 198 0
173 197 0
175 198 0
174 197 0
173 197 0
175 198 0
176 198 0
173 197 0
174 197 0
173 197 0
175 198 0
174 198 0
172 195 0
175 198 0
175 198 0
174 197 0
173 197 0
173 197 0
176 198 0
173 197 0
175 198 0
174 198 0
175 198 0
173 197 0
174 198 0
173 197 0
175 198 0
174 198 0
174 198 0
175 198 0
174 197 0
173 197 0
174 197 0
176 199 0
174 198 0
174 198 0
175 198 0
174 197 0
176 199 0
174 197 0
174 197 0
174 198 0
172 196 0
175 198 0
174 197 0
174 198 0
175 198 0
173 197 0
174 197 0
173 197 0
174 197 0
176 199 0
173 197 0
174 197 0
173 197 0
174 198 0
173 197 0
175 198 0
175 198 0
176 199 0
177 199 0
173 197 0
172 196 0
173 197 0
175 198 0
174 197 0
173 197 0
175 198 0
174 197 0
173 197 0
173 196 0
176 198 0
174 197 0
173 197 0
174 197 0
173 196 0
174 197 0
174 197 0
172 196 0
173 196 0
174 198 0
175 198 0
175 198 0
173 197 0
173 197 0
174 198 0
173 196 0
174 197 0
172 195 0
172 196 0
174 197 0
174 197 0
174 197 0
173 197 0
174 197 0
172 196 0
175 198 0
175 198 0
174 197 0
174 198 0
174 197 0
175 198 0
176 199 0
174 197 0
172 196 0
173 197 0
174 197 0
172 196 0
173 197 0
175 198 0
174 197 0
174 197 0
174 197 0
173 197 0
174 197 0
173 196 0
174 197 0
173 197 0
173 197 0
173 197 0
173 197 0
173 197 0
174 197 0
176 199 0
175 198 0
173 197 0
174 198 0
173 197 0
173 197 0
173 197 0
173 197 0
172 196 0
174 197 0
174 198 0
173 196 0
176 199 0
175 197 0
173 196 0
174 198 0
174 197 0
174 197 0
173 197 0
172 196 0
173 197 0
175 197 0
173 197 0
173 197 0
174 197 0
175 198 0
173 197 0
174 198 0
174 198 0
174 197 0
174 197 0
173 197 0
173 197 0
173 195 0
172 196 0
173 197 0
175 198 0
174 197 0
174 197 0
175 198 0
173 196 0
172 196 0
174 197 0
173 197 0
174 197 0
176 199 0
174 197 0
174 197 0
175 198 0
172 196 0
172 196 0
175 197 0
174 197 0
171 194 0
173 197 0
174 197 0
174 197 0
173 196 0
173 197 0
172 196 0
174 197 0
172 195 0
175 198 0
174 197 0
171 196 0
174 197 0
173 197 0
176 198 0
175 198 0
174 198 0
172 196 0
173 196 0
174 197 0
175 198 0
172 196 0
173 197 0
174 197 0
174 197 0
171 195 0
171 195 0
174 197 0
173 197 0
174 197 0
172 195 0
174 197 0
174 197 0
174 198 0
174 197 0
174 197 0
173 196 0
174 198 0
171 194 0
173 196 0
174 198 0
175 197 0
174 197 0
173 196 0
174 197 0
175 197 0
174 197 0
173 197 0
174 197 0
172 196 0
172 196 0
173 196 0
173 195 0
173 196 0
172 196 0
175 197 0
172 194 0
173 196 0
174 197 0
174 197 0
173 196 0
174 197 0
174 197 0
174 197 0
175 198 0
173 196 0
174 197 0
174 198 0
173 197 0
173 197 0
174 198 0
173 195 0
174 197 0
174 197 0
173 197 0
173 196 0
175 198 0
171 195 0
173 196 0
174 197 0
173 197 0
174 198 0
174 198 0
172 196 0
172 196 0
173 197 0
173 197 0
175 198 0
174 197 0
171 195 0
173 196 0
174 197 0
172 195 0
173 195 0
173 195 0
175 195 19
174 192 19
176 191 47
177 190 53
178 191 57
180 188 65
180 188 63
184 187 80
183 186 78
186 186 87
184 185 87
186 181 95
186 181 99
188 179 103
188 178 107
187 177 109
188 178 113
187 177 113
186 177 114
185 176 114
184 176 114
183 175 114
181 174 114
180 174 114
180 174 114
179 173 114
178 173 114
177 172 114
176 172 114
175 172 114
175 171 114
174 171 114
173 171 114
172 170 114
171 170 114
171 170 114
171 169 114
170 169 114
170 169 114
170 169 114
169 169 114
169 169 114
169 169 114
169 169 114
168 168 114
168 168 114
168 168 114
168 168 114
167 168 114
167 168 114
168 168 114
167 168 114
167 168 114
167 168 114
168 168 114
168 168 114
168 168 114
168 168 114
168 168 114
168 168 114
169 169 114
169 169 114
169 169 114
170 169 114
170 169 114
171 170 114
171 170 114
172 170 114
172 170 114
173 171 114
174 171 114
175 171 114
175 171 114
176 172 114
177 172 114
177 173 114
179 173 114
180 174 114
181 174 114
182 175 114
183 175 114
184 176 114
186 176 114
188 178 114
188 177 113
189 178 110
190 179 110
187 180 104
189 181 102
185 182 92
187 185 91
184 184 83
184 186 80
180 187 67
180 188 61
178 190 49
176 190 48
175 193 30
174 194 16
172 195 11
173 197 0
174 198 0
175 198 0
174 197 0
174 198 0
173 197 0
175 197 0
175 198 0
175 198 0
173 197 0
173 196 0
174 197 0
174 197 0
175 198 0
174 197 0
173 196 0
174 197 0
174 197 0
174 197 0
175 198 0
174 197 0
175 198 0
174 197 0
174 197 0
174 197 0
174 198 0
174 197 0
176 199 0
174 197 0
174 198 0
175 198 0
175 198 0
176 199 0
174 198 0
174 197 0
174 197 0
174 197 0
174 197 0
176 198 0
173 197 0
175 198 0
173 197 0
173 197 0
174 197 0
174 198 0
174 197 0
174 197 0
174 197 0
175 198 0
174 197 0
174 197 0
176 198 0
174 197 0
173 197 0
173 197 0
175 197 0
173 197 0
175 198 0
174 198 0
176 199 0
175 198 0
175 198 0
172 196 0
173 197 0
173 197 0
174 197 0
172 196 0
174 197 0
173 197 0
174 197 0
173 197 0
172 196 0
174 197 0
175 198 0
175 198 0
174 197 0
174 198 0
175 198 0
173 196 0
176 199 0
176 199 0
173 197 0
172 196 0
175 198 0
173 197 0
174 197 0
174 197 0
174 197 0
174 197 0
176 198 0
173 197 0
174 197 0
174 198 0
175 198 0
175 197 0
176 198 0
172 196 0
175 198 0
176 199 0
173 197 0
173 197 0
174 197 0
176 199 0
174 197 0
175 198 0
174 198 0
173 197 0
174 198 0
174 197 0
174 197 0
173 197 0
175 198 0
174 197 0
173 197 0
175 198 0
175 198 0
173 197 0
174 197 0
175 198 0
173 197 0
173 197 0
174 198 0
175 198 0
173 196 0
173 196 0
173 197 0
174 198 0
174 198 0
175 198 0
176 199 0
176 198 0
170 195 0
173 197 0
175 198 0
173 197 0
174 197 0
175 198 0
173 197 0
173 196 0
175 198 0
174 198 0
173 197 0
175 198 0
173 197 0
173 197 0
173 196 0
173 196 0
174 198 0
174 198 0
173 197 0
173 197 0
174 197 0
175 198 0
174 197 0
173 197 0
175 198 0
174 197 0
174 198 0
174 198 0
173 197 0
174 197 0
174 198 0
173 196 0
173 197 0
175 198 0
172 196 0
173 196 0
172 196 0
174 197 0
174 197 0
175 198 0
174 197 0
174 197 0
174 197 0
174 197 0
174 196 0
175 197 0
175 198 0
175 198 0
175 198 0
174 197 0
174 197 0
173 197 0
174 197 0
174 197 0
173 196 0
175 198 0
175 198 0
172 196 0
174 197 0
171 195 0
173 196 0
175 197 0
172 196 0
173 196 0
173 197 0
173 197 0
174 197 0
173 196 0
173 197 0
172 196 0
172 195 0
174 197 0
174 198 0
175 198 0
173 196 0
173 197 0
174 197 0
174 197 0
173 197 0
172 195 0
174 197 0
173 196 0
173 196 0
175 198 0
174 198 0
172 196 0
174 198 0
175 198 0
174 198 0
172 195 0
174 197 0
173 197 0
172 196 0
174 197 0
172 195 0
173 197 0
173 197 0
174 197 0
174 197 0
172 196 0
173 196 0
174 196 0
174 197 0
171 195 0
172 196 0
174 197 0
174 197 0
174 197 0
175 198 0
174 198 0
173 196 0
172 195 0
174 198 0
173 197 0
174 197 0
172 197 0
171 195 0
174 197 0
175 198 0
174 198 0
173 196 0
173 196 0
172 196 0
174 197 0
173 197 0
173 196 0
174 198 0
173 196 0
175 198 0
173 196 0
172 196 0
173 196 0
174 198 0
175 197 0
172 196 0
173 196 0
174 197 0
173 196 0
174 196 0
174 197 0
175 198 0
174 197 0
174 197 0
172 195 0
174 198 0
175 198 0
174 198 0
174 198 0
174 197 0
175 197 0
172 196 0
174 197 0
174 198 0
172 196 0
175 197 0
175 198 0
175 198 0
173 197 0
173 196 0
172 195 0
173 197 0
174 197 0
172 196 0
173 196 0
173 197 0
174 197 0
173 195 0
170 190 0
174 194 0
174 191 30
174 189 42
180 191 54
178 190 52
179 187 62
180 184 70
180 185 68
182 182 80
183 183 87
187 183 97
184 183 90
189 180 103
188 179 106
188 178 108
187 177 110
189 178 114
186 177 113
186 177 114
185 176 114
184 176 114
182 175 114
181 174 114
180 174 114
179 173 114
178 173 114
178 173 114
177 172 114
175 172 114
174 171 114
174 171 114
173 171 114
173 171 114
172 170 114
171 170 114
171 170 114
170 169 114
170 169 114
169 169 114
169 169 114
169 169 114
168 169 114
168 168 114
168 168 114
168 168 114
167 168 114
167 168 114
167 168 114
167 168 114
167 168 114
167 168 114
167 168 114
166 168 114
167 168 114
167 168 114
166 168 114
167 168 114
167 168 114
167 168 114
167 168 114
168 168 114
168 168 114
168 168 114
169 169 114
169 169 114
170 169 114
170 169 114
170 169 114
171 170 114
171 170 114
172 170 114
173 171 114
174 171 114
174 171 114
175 171 114
175 172 114
176 172 114
177 173 114
178 173 114
179 174 114
180 174 114
182 175 114
183 175 114
184 176 114
185 176 114
188 178 114
189 178 114
188 178 112
188 179 109
188 178 106
188 180 102
186 182 95
185 183 90
183 186 79
183 185 78
183 188 72
179 188 59
178 189 54
174 189 37
172 192 16
171 192 11
173 196 0
173 196 0
174 197 0
174 198 0
174 197 0
173 197 0
174 197 0
173 197 0
173 196 0
174 198 0
174 197 0
174 198 0
173 197 0
175 198 0
175 197 0
176 199 0
173 197 0
175 198 0
174 197 0
173 196 0
174 197 0
174 197 0
174 197 0
174 197 0
175 197 0
174 197 0
174 197 0
175 197 0
174 198 0
175 198 0
176 198 0
173 196 0
174 197 0
175 198 0
174 198 0
174 198 0
176 199 0
174 196 0
175 198 0
174 197 0
173 197 0
175 197 0
175 198 0
174 198 0
174 197 0
174 197 0
173 197 0
174 198 0
174 197 0
174 197 0
174 197 0
175 198 0
172 196 0
174 198 0
173 197 0
172 196 0
174 198 0
177 199 0
174 197 0
174 197 0
176 199 0
175 198 0
175 198 0
174 197 0
175 198 0
175 198 0
173 197 0
174 197 0
175 198 0
174 197 0
175 198 0
174 197 0
174 198 0
175 198 0
174 198 0
177 199 0
175 198 0
173 197 0
173 197 0
174 198 0
173 197 0
174 198 0
174 197 0
173 197 0
172 196 0
175 198 0
172 196 0
174 197 0
174 198 0
174 197 0
174 197 0
173 197 0
175 198 0
173 197 0
174 198 0
171 195 0
174 198 0
171 196 0
174 197 0
174 198 0
172 196 0
175 198 0
173 197 0
173 197 0
175 198 0
174 197 0
174 197 0
174 197 0
175 198 0
174 197 0
172 196 0
175 198 0
175 198 0
176 198 0
174 197 0
173 196 0
172 195 0
173 197 0
172 197 0
172 196 0
176 199 0
174 197 0
175 198 0
174 197 0
175 198 0
174 197 0
173 197 0
173 197 0
174 197 0
174 197 0
175 197 0
172 196 0
174 197 0
173 197 0
174 198 0
176 199 0
173 197 0
174 198 0
175 198 0
172 195 0
174 197 0
173 197 0
174 197 0
174 197 0
174 197 0
173 195 0
174 198 0
173 196 0
173 197 0
173 197 0
176 198 0
173 196 0
173 196 0
175 198 0
173 197 0
174 197 0
175 198 0
174 197 0
174 197 0
175 198 0
173 197 0
174 198 0
175 198 0
175 198 0
174 197 0
175 198 0
173 197 0
171 195 0
173 197 0
174 197 0
173 196 0
173 197 0
175 198 0
170 194 0
176 198 0
172 196 0
174 197 0
174 198 0
175 198 0
173 197 0
174 198 0
173 197 0
174 197 0
172 195 0
174 197 0
174 197 0
173 197 0
174 197 0
173 197 0
174 197 0
174 197 0
174 197 0
173 197 0
171 195 0
174 197 0
172 195 0
172 196 0
174 197 0
172 195 0
174 197 0
173 197 0
173 197 0
174 197 0
176 198 0
172 195 0
171 195 0
173 197 0
171 195 0
176 198 0
174 197 0
175 198 0
173 197 0
173 196 0
172 196 0
172 196 0
174 198 0
173 197 0
174 197 0
173 197 0
173 196 0
172 196 0
174 196 0
173 197 0
174 197 0
172 196 0
172 196 0
174 197 0
176 198 0
172 196 0
175 198 0
174 198 0
173 195 0
175 198 0
172 195 0
174 197 0
175 197 0
174 197 0
172 195 0
174 197 0
174 197 0
171 194 0
173 196 0
173 197 0
175 197 0
173 197 0
174 197 0
174 198 0
175 198 0
175 198 0
175 198 0
173 197 0
173 197 0
172 196 0
172 195 0
174 197 0
174 197 0
174 197 0
174 198 0
173 196 0
174 197 0
174 197 0
175 198 0
174 197 0
175 197 0
173 196 0
170 194 0
172 196 0
173 196 0
173 197 0
173 196 0
170 193 0
174 196 0
172 195 0
173 196 0
175 198 0
172 195 0
175 198 0
174 197 0
173 196 0
173 197 0
174 197 0
172 196 0
174 197 0
175 198 0
175 198 0
171 195 0
173 196 0
175 198 0
173 195 0
172 195 0
174 197 0
174 197 0
174 197 0
173 197 0
175 198 0
173 196 0
173 195 0
173 194 0
171 190 0
173 192 19
175 192 37
175 190 39
176 185 53
178 189 59
178 186 65
182 185 76
186 186 86
184 183 87
187 184 93
186 180 97
187 180 102
188 179 108
187 179 104
188 177 112
187 177 113
186 177 113
186 177 114
184 176 114
183 175 114
182 175 114
181 174 114
180 174 114
180 174 114
178 173 114
178 173 114
176 172 114
176 172 114
174 171 114
174 171 114
173 171 114
173 170 114
171 170 114
171 170 114
172 170 114
171 169 114
170 169 114
170 169 114
169 169 114
168 168 114
168 168 114
168 168 114
167 168 114
167 168 114
167 168 114
166 168 114
166 168 114
166 168 114
166 167 114
166 167 114
166 167 114
166 167 114
166 167 114
166 167 114
165 167 114
166 167 114
166 167 114
166 167 114
166 168 114
167 168 114
167 168 114
167 168 114
167 168 114
168 168 114
168 168 114
169 169 114
169 169 114
170 169 114
170 169 114
171 169 114
171 170 114
172 170 114
172 170 114
173 171 114
174 171 114
175 172 114
175 172 114
176 172 114
177 172 114
179 173 114
179 173 114
180 174 114
181 174 114
183 175 114
183 175 114
185 176 114
186 176 114
188 178 114
189 178 114
190 179 110
186 179 102
188 181 103
185 181 93
186 182 91
185 184 86
183 185 78
180 190 60
181 189 67
177 191 49
173 189 39
174 192 19
174 195 11
174 195 0
173 196 0
174 197 0
173 197 0
174 197 0
174 198 0
173 196 0
174 197 0
173 197 0
173 197 0
172 196 0
174 198 0
174 197 0
173 197 0
173 196 0
173 197 0
174 197 0
174 198 0
175 198 0
174 197 0
175 197 0
175 198 0
173 197 0
173 197 0
176 199 0
174 197 0
175 198 0
175 198 0
174 197 0
175 198 0
174 197 0
175 198 0
176 198 0
176 198 0
174 197 0
173 197 0
173 197 0
175 198 0
176 199 0
173 196 0
173 197 0
174 198 0
175 198 0
174 198 0
175 198 0
174 197 0
174 197 0
175 198 0
174 197 0
174 197 0
174 197 0
173 196 0
174 197 0
175 198 0
173 197 0
175 197 0
175 198 0
174 198 0
174 197 0
174 198 0
172 196 0
174 197 0
173 197 0
174 198 0
175 198 0
176 199 0
174 197 0
173 196 0
174 198 0
173 197 0
175 198 0
174 198 0
174 197 0
174 197 0
175 198 0
173 197 0
174 197 0
173 197 0
175 198 0
175 198 0
175 198 0
174 198 0
174 198 0
173 197 0
172 195 0
174 197 0
174 197 0
173 197 0
173 197 0
175 198 0
176 198 0
175 197 0
172 196 0
174 197 0
174 198 0
174 198 0
173 197 0
174 197 0
174 197 0
173 196 0
172 196 0
173 197 0
173 197 0
174 198 0
175 198 0
171 195 0
174 197 0
174 198 0
173 196 0
174 197 0
176 199 0
173 196 0
175 198 0
174 197 0
175 198 0
173 197 0
173 197 0
172 196 0
173 197 0
175 198 0
172 196 0
173 197 0
174 198 0
175 198 0
175 198 0
174 197 0
174 197 0
174 197 0
173 197 0
175 198 0
175 198 0
172 196 0
174 197 0
172 196 0
175 198 0
173 197 0
175 198 0
174 198 0
172 196 0
174 198 0
173 197 0
174 197 0
173 197 0
174 197 0
173 196 0
175 198 0
175 197 0
173 197 0
174 198 0
173 197 0
174 197 0
173 197 0
173 197 0
173 197 0
173 197 0
172 196 0
172 196 0
176 199 0
174 197 0
173 196 0
173 196 0
175 198 0
173 196 0
174 197 0
175 198 0
173 197 0
175 198 0
174 197 0
173 197 0
174 197 0
172 197 0
174 198 0
172 195 0
174 198 0
173 197 0
175 197 0
172 195 0
174 198 0
173 197 0
175 198 0
174 198 0
174 197 0
173 196 0
172 195 0
174 196 0
172 195 0
174 197 0
173 197 0
173 196 0
171 195 0
174 197 0
173 196 0
174 197 0
174 197 0
174 197 0
174 197 0
175 198 0
174 197 0
172 196 0
174 197 0
172 196 0
172 196 0
172 195 0
173 197 0
176 198 0
174 197 0
173 197 0
175 197 0
174 197 0
173 197 0
175 198 0
174 198 0
175 198 0
175 198 0
174 197 0
174 197 0
173 196 0
175 198 0
176 197 0
175 198 0
174 196 0
174 197 0
174 197 0
175 198 0
175 198 0
174 197 0
174 198 0
172 195 0
173 197 0
173 196 0
174 196 0
173 195 0
173 197 0
174 197 0
174 197 0
173 197 0
173 196 0
173 197 0
174 197 0
172 195 0
175 197 0
176 198 0
175 198 0
172 196 0
173 196 0
173 197 0
174 198 0
175 198 0
173 197 0
171 195 0
171 195 0
173 197 0
172 196 0
174 197 0
175 198 0
173 197 0
176 199 0
173 196 0
174 197 0
171 194 0
175 197 0
173 197 0
173 196 0
172 195 0
175 198 0
173 196 0
174 196 0
172 196 0
172 195 0
174 196 0
173 196 0
173 196 0
173 196 0
175 198 0
174 197 0
173 197 0
175 197 0
173 196 0
173 196 0
174 197 0
173 197 0
175 197 0
172 195 0
174 197 0
174 198 0
172 196 0
173 196 0
175 198 0
174 197 0
173 197 0
175 197 0
172 195 0
172 195 0
173 197 0
172 195 0
173 195 0
173 194 16
174 192 30
173 189 36
174 189 36
174 186 52
179 189 61
179 185 69
179 183 72
184 187 81
186 184 90
187 182 95
185 181 93
188 179 102
188 179 108
188 177 110
189 178 112
189 178 114
186 177 114
187 177 114
184 176 114
184 176 114
183 175 114
181 174 114
180 174 114
180 174 114
177 173 114
177 172 114
176 172 114
175 171 114
174 171 114
174 171 114
173 171 114
172 170 114
172 170 114
171 170 114
171 170 114
170 169 114
170 169 114
169 169 114
169 169 114
168 168 114
167 168 114
167 168 114
167 168 114
167 168 114
166 167 114
166 167 114
166 167 114
166 167 114
165 167 114
165 167 114
165 167 114
165 167 114
165 167 114
165 167 114
165 167 114
165 167 114
165 167 114
165 167 114
165 167 114
166 167 114
166 167 114
166 167 114
166 168 114
167 168 114
167 168 114
167 168 114
168 168 114
168 168 114
169 169 114
169 169 114
170 169 114
170 169 114
171 170 114
172 170 114
172 170 114
173 171 114
174 171 114
174 171 114
176 172 114
177 172 114
177 173 114
178 173 114
179 173 114
180 174 114
181 174 114
182 175 114
184 176 114
185 176 114
186 177 114
188 177 114
190 178 113
188 178 107
190 179 111
189 181 102
188 182 97
188 186 90
185 186 83
183 184 80
180 186 70
179 189 59
174 186 45
175 191 34
172 192 19
173 194 11
174 196 0
175 197 0
172 196 0
175 198 0
174 197 0
174 197 0
175 198 0
174 198 0
175 198 0
173 197 0
175 198 0
175 198 0
173 197 0
175 198 0
174 198 0
173 197 0
173 196 0
174 197 0
175 198 0
173 197 0
174 197 0
174 197 0
175 198 0
174 197 0
175 198 0
175 198 0
174 198 0
173 197 0
175 197 0
175 198 0
174 197 0
174 197 0
175 198 0
173 197 0
174 197 0
174 198 0
175 198 0
173 197 0
173 197 0
175 198 0
175 198 0
173 197 0
173 197 0
174 198 0
173 197 0
176 198 0
175 198 0
174 197 0
174 197 0
172 196 0
173 197 0
176 199 0
174 197 0
174 197 0
174 197 0
174 198 0
174 198 0
175 198 0
176 199 0
175 198 0
174 197 0
174 197 0
174 197 0
175 198 0
175 198 0
174 198 0
173 197 0
174 197 0
174 198 0
174 197 0
175 198 0
174 198 0
173 197 0
174 197 0
174 197 0
173 196 0
175 198 0
174 197 0
173 196 0
174 197 0
174 197 0
175 198 0
175 198 0
173 197 0
173 196 0
174 197 0
177 199 0
173 196 0
174 198 0
174 198 0
174 197 0
173 197 0
175 198 0
173 197 0
175 198 0
173 196 0
175 198 0
174 198 0
174 197 0
175 198 0
174 197 0
176 198 0
174 197 0
174 197 0
175 198 0
175 198 0
176 198 0
173 196 0
172 196 0
174 197 0
173 196 0
175 198 0
174 197 0
175 198 0
175 198 0
173 197 0
173 197 0
175 198 0
172 196 0
172 196 0
172 196 0
174 197 0
175 197 0
174 197 0
174 197 0
175 197 0
173 197 0
174 197 0
176 199 0
173 197 0
173 197 0
175 198 0
174 197 0
173 196 0
173 197 0
175 197 0
174 197 0
174 197 0
173 196 0
172 195 0
172 196 0
173 197 0
175 198 0
174 197 0
174 197 0
173 196 0
173 196 0
173 197 0
174 197 0
173 197 0
173 196 0
175 198 0
175 198 0
174 197 0
175 198 0
175 198 0
173 196 0
173 197 0
175 198 0
173 196 0
175 198 0
174 197 0
175 198 0
174 197 0
172 196 0
172 195 0
174 198 0
173 196 0
172 195 0
171 194 0
172 196 0
175 198 0
173 197 0
171 196 0
175 198 0
175 198 0
173 196 0
172 196 0
174 197 0
173 196 0
173 197 0
173 197 0
175 198 0
172 196 0
173 196 0
174 197 0
174 198 0
175 198 0
175 198 0
174 197 0
174 197 0
173 196 0
174 197 0
173 197 0
174 198 0
175 198 0
172 195 0
173 197 0
175 197 0
173 196 0
174 198 0
173 197 0
174 197 0
173 197 0
173 197 0
174 197 0
175 198 0
171 195 0
172 196 0
174 197 0
173 196 0
174 197 0
174 198 0
174 197 0
173 197 0
173 196 0
173 196 0
173 197 0
172 196 0
176 198 0
174 198 0
173 196 0
175 197 0
172 196 0
173 196 0
172 196 0
173 197 0
172 196 0
174 197 0
172 195 0
175 198 0
172 195 0
173 196 0
175 198 0
175 198 0
173 197 0
174 197 0
173 197 0
173 197 0
173 196 0
173 196 0
173 196 0
174 197 0
173 196 0
173 197 0
174 197 0
174 197 0
174 197 0
174 197 0
172 196 0
173 197 0
175 198 0
172 195 0
175 197 0
175 198 0
171 195 0
173 196 0
173 196 0
174 197 0
174 197 0
174 198 0
173 196 0
173 196 0
174 197 0
172 196 0
172 196 0
172 196 0
173 196 0
173 197 0
173 196 0
174 197 0
175 198 0
174 197 0
174 197 0
174 197 0
174 198 0
172 196 0
174 197 0
173 196 0
172 196 0
175 198 0
171 194 0
174 197 0
175 198 0
174 198 0
173 196 0
174 198 0
172 195 0
175 198 0
175 197 0
173 197 0
172 195 0
173 196 0
173 195 0
172 192 0
172 192 16
173 190 34
174 190 39
177 190 54
180 187 63
178 187 60
184 184 81
181 185 75
186 184 87
185 180 91
187 182 96
189 180 104
187 179 104
189 178 107
189 178 112
188 178 114
187 177 114
187 177 114
186 177 114
184 176 114
182 175 114
181 174 114
180 174 114
180 174 114
179 173 114
177 172 114
176 172 114
175 172 114
174 171 114
173 171 114
173 170 114
172 170 114
172 170 114
171 170 114
170 169 114
170 169 114
169 169 114
169 169 114
168 168 114
168 168 114
167 168 114
167 168 114
166 168 114
166 167 114
166 167 114
165 167 114
165 167 114
165 167 114
165 167 114
165 167 114
164 167 114
165 167 114
164 167 114
164 167 114
164 167 114
165 167 114
165 167 114
165 167 114
165 167 114
165 167 114
165 167 114
165 167 114
165 167 114
165 167 114
166 167 114
167 168 114
167 168 114
167 168 114
167 168 114
168 168 114
169 169 114
169 169 114
169 169 114
170 169 114
171 170 114
172 170 114
172 170 114
173 170 114
174 171 114
174 171 114
175 171 114
176 172 114
177 173 114
178 173 114
179 173 114
180 174 114
181 174 114
183 175 114
184 176 114
185 176 114
187 177 114
189 178 114
188 178 113
189 179 110
186 179 101
187 180 100
186 181 93
185 182 90
184 185 82
184 185 80
182 188 75
179 189 58
175 189 45
176 190 37
174 193 22
171 193 0
173 196 0
173 197 0
175 198 0
174 198 0
174 198 0
173 197 0
174 197 0
174 197 0
174 198 0
173 197 0
173 196 0
175 198 0
175 198 0
175 197 0
176 198 0
173 197 0
175 197 0
173 196 0
173 196 0
173 197 0
173 196 0
174 197 0
175 198 0
173 197 0
174 197 0
175 198 0
175 198 0
174 198 0
174 196 0
175 198 0
174 197 0
176 198 0
174 197 0
173 197 0
175 198 0
174 197 0
174 197 0
173 196 0
175 198 0
175 198 0
174 197 0
174 197 0
173 196 0
175 198 0
175 198 0
173 197 0
174 197 0
174 197 0
175 198 0
174 197 0
174 197 0
175 198 0
174 197 0
174 198 0
174 198 0
173 197 0
175 198 0
174 197 0
174 198 0
176 199 0
174 197 0
173 197 0
174 198 0
173 196 0
174 198 0
173 196 0
172 196 0
173 196 0
173 197 0
173 197 0
172 196 0
174 197 0
176 198 0
172 196 0
175 198 0
174 197 0
174 198 0
174 198 0
174 197 0
173 197 0
174 197 0
174 197 0
176 198 0
173 197 0
175 198 0
174 197 0
173 196 0
174 197 0
175 198 0
173 197 0
174 197 0
175 198 0
171 195 0
174 197 0
174 197 0
172 196 0
174 197 0
174 197 0
175 198 0
174 197 0
174 198 0
173 196 0
174 198 0
174 198 0
173 197 0
173 197 0
176 199 0
175 198 0
173 196 0
175 198 0
173 197 0
174 198 0
173 197 0
176 199 0
174 197 0
173 196 0
173 196 0
174 197 0
173 196 0
174 197 0
173 196 0
174 197 0
173 197 0
175 198 0
174 198 0
173 197 0
172 196 0
172 197 0
175 198 0
174 198 0
174 198 0
172 196 0
172 196 0
176 198 0
173 197 0
174 198 0
174 198 0
173 197 0
174 197 0
176 199 0
174 198 0
173 197 0
174 196 0
174 197 0
173 197 0
171 194 0
175 198 0
174 197 0
176 199 0
174 197 0
172 196 0
173 197 0
174 198 0
174 196 0
172 196 0
174 197 0
175 198 0
174 197 0
173 197 0
171 195 0
173 196 0
174 198 0
175 198 0
175 198 0
174 197 0
175 198 0
174 198 0
173 197 0
175 198 0
172 196 0
174 197 0
174 197 0
174 197 0
174 196 0
176 199 0
174 198 0
174 198 0
172 197 0
174 197 0
173 197 0
174 197 0
172 195 0
174 198 0
174 198 0
174 196 0
173 196 0
172 196 0
174 197 0
174 197 0
173 196 0
174 196 0
176 198 0
173 196 0
172 195 0
173 197 0
174 197 0
174 197 0
172 196 0
172 196 0
174 197 0
171 195 0
176 199 0
173 197 0
172 195 0
173 197 0
173 197 0
176 199 0
173 195 0
176 198 0
171 195 0
173 197 0
174 198 0
174 196 0
172 195 0
173 196 0
170 194 0
173 196 0
175 198 0
174 197 0
173 197 0
174 197 0
173 196 0
173 196 0
171 195 0
174 197 0
173 196 0
175 198 0
172 196 0
172 196 0
173 197 0
175 197 0
174 197 0
172 196 0
173 196 0
174 196 0
172 196 0
174 197 0
172 196 0
173 196 0
173 197 0
175 197 0
174 196 0
171 195 0
174 197 0
174 197 0
174 197 0
172 195 0
173 196 0
174 197 0
173 197 0
174 197 0
174 197 0
171 196 0
173 196 0
174 197 0
173 196 0
172 195 0
174 197 0
174 197 0
174 198 0
174 196 0
174 197 0
175 198 0
174 196 0
176 198 0
174 198 0
174 196 0
171 194 0
173 196 0
174 198 0
173 196 0
173 197 0
173 197 0
173 196 0
173 196 0
175 198 0
172 195 0
171 194 0
172 194 0
174 197 0
174 197 0
173 196 0
172 196 0
173 196 0
174 197 0
174 197 0
172 195 0
174 198 0
173 196 0
173 196 0
172 195 0
171 193 0
171 192 0
173 193 0
172 190 22
176 189 45
177 186 56
177 186 59
177 185 57
179 185 66
185 185 84
185 182 88
184 182 88
188 181 98
187 180 101
187 178 103
189 178 109
189 178 110
190 178 114
187 177 114
186 176 114
185 176 114
184 176 114
183 175 114
182 175 114
180 174 114
180 174 114
179 173 114
177 173 114
177 172 114
176 172 114
175 172 114
174 171 114
173 171 114
172 170 114
172 170 114
171 170 114
170 169 114
170 169 114
169 169 114
169 169 114
168 169 114
168 168 114
167 168 114
167 168 114
166 168 114
166 168 114
166 167 114
165 167 114
165 167 114
165 167 114
164 167 114
164 167 114
164 167 114
164 167 114
164 166 114
164 166 114
164 167 114
164 167 114
164 166 114
164 166 114
164 167 114
164 167 114
164 167 114
164 167 114
164 167 114
165 167 114
165 167 114
165 167 114
166 167 114
166 168 114
167 168 114
167 168 114
167 168 114
168 168 114
168 168 114
169 169 114
170 169 114
170 169 114
171 169 114
171 170 114
172 170 114
173 171 114
173 171 114
175 171 114
176 172 114
177 172 114
178 173 114
178 173 114
179 173 114
180 174 114
182 175 114
183 175 114
184 176 114
184 176 114
187 177 114
188 178 114
189 178 113
189 178 108
189 180 107
188 179 104
188 182 99
185 182 92
185 185 84
183 187 75
179 186 64
175 189 44
177 193 42
176 193 37
173 191 25
173 195 0
173 197 0
174 197 0
176 198 0
173 197 0
174 198 0
175 198 0
173 197 0
174 197 0
173 197 0
174 198 0
174 197 0
173 197 0
174 198 0
176 198 0
172 196 0
174 197 0
172 197 0
175 198 0
175 198 0
174 198 0
174 197 0
174 197 0
173 197 0
173 196 0
175 198 0
174 197 0
175 198 0
174 197 0
174 197 0
174 198 0
175 197 0
175 198 0
174 197 0
173 197 0
174 197 0
175 198 0
174 198 0
174 197 0
173 196 0
175 198 0
175 198 0
174 197 0
173 197 0
174 197 0
174 198 0
174 198 0
174 197 0
174 197 0
173 197 0
175 198 0
175 198 0
174 198 0
173 196 0
174 197 0
176 199 0
175 198 0
173 197 0
172 197 0
175 198 0
173 196 0
175 198 0
175 198 0
174 197 0
174 198 0
175 197 0
174 197 0
175 198 0
174 197 0
173 197 0
173 196 0
175 198 0
173 196 0
175 198 0
174 197 0
176 198 0
175 198 0
174 198 0
174 197 0
174 197 0
174 198 0
175 198 0
174 197 0
173 197 0
175 198 0
172 196 0
175 198 0
174 198 0
176 198 0
174 197 0
173 197 0
172 197 0
173 197 0
174 198 0
175 198 0
173 197 0
173 197 0
173 196 0
174 197 0
174 197 0
174 198 0
173 197 0
174 197 0
173 197 0
174 198 0
173 197 0
173 197 0
174 198 0
175 198 0
172 196 0
175 198 0
171 195 0
174 197 0
173 197 0
175 198 0
172 195 0
173 196 0
173 196 0
173 197 0
172 195 0
174 198 0
175 198 0
173 197 0
174 197 0
175 198 0
173 196 0
173 197 0
172 196 0
172 196 0
175 198 0
175 198 0
174 197 0
174 197 0
173 197 0
173 197 0
175 198 0
172 196 0
174 197 0
174 197 0
173 197 0
174 197 0
173 197 0
172 196 0
174 197 0
174 197 0
175 198 0
174 197 0
173 195 0
172 195 0
173 196 0
174 198 0
175 198 0
175 198 0
172 196 0
175 198 0
173 196 0
173 197 0
174 197 0
172 196 0
174 197 0
173 196 0
175 198 0
173 197 0
173 197 0
174 197 0
172 196 0
175 198 0
172 196 0
173 197 0
174 198 0
175 198 0
173 197 0
175 198 0
174 197 0
173 197 0
173 197 0
173 196 0
173 197 0
173 197 0
173 196 0
174 198 0
175 198 0
174 197 0
174 198 0
176 198 0
175 198 0
173 196 0
174 197 0
173 197 0
173 197 0
171 195 0
174 197 0
174 197 0
172 195 0
172 196 0
173 197 0
174 197 0
174 197 0
175 198 0
174 198 0
174 197 0
173 197 0
176 198 0
173 196 0
173 196 0
174 197 0
174 197 0
172 196 0
173 196 0
173 197 0
174 197 0
173 197 0
174 197 0
175 198 0
174 198 0
173 197 0
171 195 0
174 197 0
174 197 0
174 197 0
174 197 0
174 197 0
175 198 0
172 195 0
174 198 0
176 198 0
171 195 0
172 195 0
173 196 0
174 197 0
173 196 0
174 197 0
171 195 0
173 197 0
173 196 0
175 198 0
174 197 0
175 198 0
174 198 0
173 197 0
173 196 0
172 195 0
172 195 0
173 196 0
174 197 0
170 195 0
174 197 0
175 198 0
171 194 0
172 196 0
173 196 0
174 197 0
174 197 0
175 198 0
172 195 0
174 197 0
174 197 0
173 197 0
176 197 0
173 197 0
173 196 0
173 196 0
172 196 0
172 196 0
173 196 0
172 196 0
174 197 0
175 198 0
174 197 0
173 196 0
172 196 0
174 197 0
171 193 0
173 197 0
174 197 0
174 197 0
173 196 0
175 198 0
173 197 0
174 198 0
173 197 0
172 196 0
173 196 0
173 195 0
172 196 0
172 195 0
172 195 0
173 196 0
174 197 0
171 194 0
174 195 0
170 190 0
171 191 11
174 192 22
175 189 42
175 187 49
180 190 57
181 188 64
180 183 70
183 182 82
185 184 87
182 182 81
185 181 94
186 180 97
188 180 104
190 179 110
189 178 110
189 178 114
188 178 114
187 177 114
186 177 114
184 176 114
183 175 114
181 174 114
180 174 114
180 174 114
178 173 114
178 173 114
177 172 114
177 172 114
175 172 114
174 171 114
173 171 114
173 170 114
172 170 114
171 170 114
171 170 114
170 169 114
169 169 114
169 169 114
168 168 114
168 168 114
167 168 114
167 168 114
166 168 114
166 167 114
165 167 114
165 167 114
165 167 114
165 167 114
164 167 114
164 167 114
164 167 114
164 166 114
164 166 114
163 166 114
164 166 114
163 166 114
163 166 114
163 166 114
163 166 114
164 166 114
164 166 114
164 167 114
164 167 114
164 167 114
164 167 114
165 167 114
165 167 114
165 167 114
166 167 114
166 167 114
166 167 114
167 168 114
167 168 114
168 168 114
169 169 114
169 169 114
170 169 114
170 169 114
171 170 114
171 170 114
172 170 114
174 171 114
174 171 114
175 171 114
176 172 114
177 172 114
178 173 114
179 173 114
180 174 114
181 174 114
182 175 114
184 176 114
185 176 114
186 177 114
187 177 114
189 178 114
189 178 113
189 177 109
188 178 104
189 180 103
188 183 92
185 183 85
183 183 81
182 188 73
178 186 62
177 191 47
174 190 36
173 191 25
175 195 16
173 194 0
174 198 0
173 197 0
175 197 0
175 198 0
173 197 0
176 198 0
175 198 0
174 197 0
174 197 0
174 197 0
173 197 0
174 197 0
172 196 0
174 197 0
175 198 0
174 197 0
173 197 0
175 198 0
174 197 0
173 197 0
173 197 0
174 197 0
174 197 0
174 198 0
173 196 0
176 198 0
174 197 0
172 196 0
176 199 0
176 199 0
174 198 0
175 198 0
173 197 0
175 198 0
173 195 0
173 197 0
174 198 0
175 198 0
176 198 0
174 198 0
174 197 0
174 198 0
174 197 0
175 198 0
174 197 0
173 197 0
173 197 0
174 197 0
173 196 0
173 197 0
173 197 0
174 197 0
174 198 0
173 197 0
175 198 0
174 198 0
174 197 0
174 197 0
174 198 0
174 197 0
176 199 0
175 198 0
174 198 0
175 198 0
174 198 0
172 196 0
174 197 0
175 198 0
174 198 0
173 197 0
175 198 0
173 197 0
175 198 0
175 198 0
174 198 0
171 195 0
175 198 0
173 197 0
174 197 0
174 198 0
174 197 0
174 198 0
173 197 0
174 197 0
175 197 0
173 197 0
174 197 0
175 198 0
174 197 0
173 197 0
173 197 0
173 196 0
173 197 0
174 198 0
174 197 0
174 197 0
174 198 0
175 198 0
172 196 0
173 197 0
174 197 0
174 197 0
176 198 0
174 198 0
174 197 0
173 197 0
175 197 0
174 198 0
173 197 0
172 196 0
174 198 0
174 197 0
174 197 0
175 198 0
176 199 0
174 197 0
172 197 0
174 197 0
173 197 0
176 198 0
173 196 0
176 198 0
175 198 0
175 198 0
172 196 0
175 198 0
175 198 0
175 198 0
173 197 0
174 197 0
175 198 0
173 197 0
172 196 0
173 197 0
175 198 0
174 197 0
173 196 0
173 196 0
172 195 0
175 198 0
174 198 0
172 195 0
174 197 0
173 196 0
174 197 0
175 198 0
174 197 0
174 197 0
174 198 0
174 198 0
174 197 0
174 197 0
175 198 0
174 197 0
173 196 0
174 197 0
176 199 0
174 197 0
174 198 0
174 197 0
172 196 0
174 197 0
175 198 0
173 196 0
172 196 0
172 196 0
174 197 0
172 195 0
173 197 0
175 198 0
176 199 0
171 195 0
175 198 0
173 197 0
173 197 0
172 196 0
174 198 0
174 197 0
173 197 0
173 197 0
173 197 0
173 197 0
175 198 0
175 198 0
173 196 0
171 194 0
175 198 0
172 196 0
173 196 0
175 197 0
173 197 0
174 197 0
174 197 0
172 195 0
174 197 0
174 197 0
175 198 0
175 198 0
173 197 0
175 198 0
175 198 0
173 196 0
172 196 0
169 193 0
173 197 0
173 197 0
174 197 0
172 195 0
174 198 0
174 197 0
172 196 0
172 196 0
172 196 0
173 196 0
172 196 0
173 197 0
170 194 0
174 197 0
174 197 0
172 196 0
175 197 0
175 198 0
174 197 0
175 198 0
173 196 0
173 196 0
174 197 0
170 194 0
172 196 0
172 196 0
175 197 0
173 196 0
175 198 0
173 196 0
172 195 0
173 197 0
174 198 0
172 195 0
174 197 0
173 196 0
174 197 0
174 197 0
173 197 0
172 196 0
174 198 0
174 197 0
171 196 0
175 197 0
171 195 0
174 197 0
174 197 0
173 196 0
173 196 0
170 194 0
175 198 0
173 196 0
171 195 0
174 198 0
174 197 0
174 197 0
174 197 0
171 195 0
173 196 0
173 196 0
173 196 0
172 195 0
172 194 0
174 197 0
174 197 0
174 197 0
172 195 0
173 197 0
172 196 0
174 197 0
175 198 0
174 197 0
171 195 0
173 196 0
173 196 0
172 196 0
172 196 0
172 196 0
173 196 0
174 197 0
173 195 0
172 195 0
174 198 0
175 196 0
172 194 0
170 190 0
172 189 16
174 190 34
176 189 42
177 186 59
178 185 63
175 182 59
183 186 78
185 185 84
184 182 90
185 181 93
187 179 99
187 178 103
188 178 108
190 178 111
189 178 113
188 178 114
187 177 114
186 176 114
184 176 114
183 175 114
183 175 114
181 174 114
180 174 114
179 173 114
178 173 114
177 172 114
176 172 114
175 172 114
175 171 114
174 171 114
173 170 114
173 171 114
171 170 114
170 169 114
170 169 114
170 169 114
169 169 114
168 168 114
167 168 114
167 168 114
166 168 114
166 167 114
166 167 114
166 167 114
165 167 114
164 167 114
164 167 114
164 167 114
164 167 114
164 167 114
164 166 114
163 166 114
163 166 114
163 166 114
163 166 114
163 166 114
163 166 114
163 166 114
163 166 114
163 166 114
163 166 114
163 166 114
163 166 114
164 166 114
164 167 114
164 167 114
164 167 114
165 167 114
165 167 114
165 167 114
166 167 114
166 168 114
167 168 114
167 168 114
168 168 114
168 168 114
169 169 114
169 169 114
170 169 114
172 170 114
171 170 114
173 170 114
173 171 114
174 171 114
175 172 114
176 172 114
177 172 114
178 173 114
179 173 114
180 174 114
181 174 114
182 175 114
183 175 114
184 176 114
186 176 114
187 177 114
189 178 114
190 178 113
188 177 107
190 179 106
185 179 97
185 182 93
186 182 90
183 184 79
181 186 70
179 188 59
178 192 48
174 192 32
175 193 30
173 194 0
175 197 0
172 195 0
173 196 0
172 196 0
172 196 0
175 198 0
172 196 0
175 197 0
173 197 0
175 198 0
174 197 0
174 197 0
174 196 0
173 197 0
174 196 0
175 198 0
174 197 0
173 197 0
176 198 0
174 198 0
173 197 0
174 197 0
174 197 0
174 197 0
174 197 0
175 198 0
174 198 0
175 198 0
173 197 0
175 198 0
176 198 0
175 198 0
175 198 0
176 199 0
173 197 0
173 197 0
173 197 0
175 198 0
174 198 0
175 198 0
175 198 0
174 197 0
175 198 0
173 197 0
174 198 0
172 196 0
174 198 0
174 198 0
173 197 0
176 199 0
172 196 0
174 198 0
174 197 0
174 198 0
174 198 0
172 196 0
174 198 0
174 198 0
174 197 0
175 198 0
174 197 0
173 197 0
172 197 0
173 197 0
174 198 0
174 197 0
173 197 0
172 196 0
176 198 0
175 198 0
174 197 0
174 198 0
174 197 0
173 196 0
175 198 0
176 199 0
174 197 0
173 197 0
174 198 0
173 196 0
174 197 0
175 198 0
175 198 0
174 198 0
174 197 0
173 197 0
173 197 0
174 197 0
174 197 0
172 195 0
173 197 0
174 198 0
173 197 0
173 197 0
175 198 0
173 196 0
174 198 0
172 195 0
173 197 0
172 196 0
174 198 0
175 198 0
174 197 0
173 197 0
175 198 0
173 197 0
174 198 0
175 198 0
175 198 0
174 198 0
175 197 0
174 198 0
173 197 0
171 195 0
175 198 0
174 198 0
173 196 0
174 197 0
175 198 0
175 198 0
172 196 0
174 197 0
174 197 0
176 198 0
175 198 0
175 198 0
174 197 0
174 197 0
175 198 0
174 197 0
173 196 0
173 196 0
174 198 0
175 198 0
173 197 0
171 195 0
173 197 0
174 197 0
174 198 0
172 197 0
175 198 0
176 198 0
175 198 0
174 197 0
174 197 0
173 197 0
174 197 0
174 198 0
173 197 0
174 197 0
175 197 0
174 197 0
175 198 0
173 196 0
175 198 0
175 198 0
174 197 0
174 197 0
173 196 0
174 197 0
172 197 0
174 197 0
173 196 0
174 197 0
173 196 0
173 196 0
174 197 0
174 197 0
173 197 0
170 193 0
172 195 0
173 197 0
175 198 0
175 198 0
174 197 0
174 197 0
174 197 0
174 197 0
175 198 0
174 197 0
175 198 0
173 196 0
173 197 0
173 196 0
173 196 0
174 198 0
174 197 0
172 195 0
174 197 0
174 198 0
173 196 0
174 197 0
173 197 0
172 196 0
174 197 0
172 196 0
173 196 0
174 197 0
174 197 0
173 197 0
175 197 0
170 195 0
172 196 0
173 197 0
172 196 0
174 197 0
174 197 0
173 196 0
172 195 0
174 198 0
175 198 0
171 195 0
174 198 0
173 197 0
174 197 0
174 198 0
173 196 0
176 198 0
172 196 0
173 195 0
173 197 0
174 197 0
174 197 0
173 197 0
174 198 0
174 197 0
172 195 0
175 197 0
174 197 0
174 197 0
174 197 0
172 195 0
175 198 0
173 197 0
172 195 0
169 192 0
174 197 0
170 195 0
173 195 0
173 196 0
171 195 0
172 195 0
173 196 0
172 195 0
176 198 0
174 197 0
173 196 0
175 198 0
174 197 0
173 196 0
175 198 0
173 197 0
171 194 0
170 194 0
173 196 0
174 198 0
172 195 0
172 195 0
173 195 0
173 196 0
171 195 0
174 197 0
175 198 0
174 197 0
174 196 0
173 197 0
173 195 0
173 196 0
171 195 0
172 195 0
172 196 0
173 196 0
173 197 0
173 197 0
170 193 0
174 198 0
174 197 0
174 198 0
172 196 0
174 197 0
173 197 0
175 198 0
171 195 0
173 196 0
173 195 0
171 194 0
174 195 0
172 193 0
170 190 0
172 190 16
174 190 30
173 186 42
176 186 52
177 184 61
179 182 68
180 185 68
182 185 77
183 181 84
188 180 101
186 180 97
186 178 100
188 177 108
189 178 110
190 178 113
188 178 114
187 177 114
186 177 114
184 176 114
184 176 114
183 175 114
181 174 114
181 174 114
180 174 114
178 173 114
177 173 114
176 172 114
175 172 114
175 172 114
174 171 114
173 170 114
172 170 114
172 170 114
171 170 114
170 169 114
169 169 114
169 169 114
168 168 114
168 168 114
167 168 114
167 168 114
166 168 114
166 167 114
165 167 114
165 167 114
165 167 114
164 167 114
164 167 114
164 166 114
164 166 114
163 166 114
163 166 114
163 166 114
163 166 114
163 166 114
163 166 114
163 166 114
163 166 114
163 166 114
163 166 114
163 166 114
163 166 114
163 166 114
163 166 114
163 166 114
163 166 114
164 166 114
164 166 114
164 167 114
165 167 114
165 167 114
165 167 114
166 167 114
166 167 114
167 168 114
167 168 114
168 168 114
168 168 114
169 169 114
170 169 114
171 170 114
171 170 114
172 170 114
172 170 114
174 171 114
174 171 114
175 172 114
176 172 114
177 172 114
178 173 114
179 173 114
180 174 114
181 174 114
182 175 114
184 176 114
185 176 114
186 177 114
189 178 114
189 178 114
190 179 112
190 179 109
189 181 103
187 179 97
186 183 89
183 185 80
184 183 85
183 186 73
178 185 61
175 185 48
175 190 34
171 190 19
171 193 11
175 197 0
173 197 0
174 197 0
174 197 0
174 197 0
175 198 0
175 198 0
176 198 0
174 197 0
172 196 0
174 197 0
174 197 0
174 198 0
174 197 0
174 197 0
174 197 0
174 197 0
174 197 0
175 198 0
174 197 0
174 197 0
173 197 0
175 197 0
174 197 0
175 198 0
173 197 0
175 198 0
176 199 0
172 196 0
174 198 0
175 198 0
174 198 0
174 198 0
174 198 0
174 197 0
173 197 0
173 197 0
175 197 0
175 198 0
174 197 0
174 197 0
173 197 0
173 196 0
172 197 0
175 198 0
173 197 0
176 198 0
174 197 0
176 198 0
174 197 0
173 197 0
175 198 0
174 197 0
172 197 0
171 195 0
174 197 0
173 197 0
174 197 0
175 198 0
175 198 0
173 197 0
173 197 0
173 196 0
176 199 0
174 198 0
174 198 0
172 196 0
176 199 0
175 197 0
175 198 0
173 197 0
172 196 0
174 197 0
174 198 0
172 196 0
175 198 0
173 197 0
172 197 0
175 198 0
174 197 0
172 196 0
174 197 0
173 197 0
174 198 0
174 196 0
174 197 0
175 198 0
174 197 0
175 198 0
173 197 0
175 198 0
174 197 0
174 197 0
174 197 0
174 198 0
175 198 0
174 197 0
174 197 0
173 197 0
173 197 0
175 198 0
174 198 0
172 196 0
174 197 0
174 197 0
175 198 0
172 196 0
173 197 0
173 197 0
173 196 0
175 198 0
175 198 0
172 196 0
174 197 0
173 197 0
174 197 0
175 198 0
174 198 0
171 195 0
174 197 0
175 198 0
174 197 0
172 196 0
175 198 0
173 197 0
172 196 0
174 198 0
174 197 0
173 195 0
172 196 0
174 197 0
174 197 0
174 197 0
174 198 0
174 198 0
173 197 0
172 196 0
172 196 0
173 197 0
174 197 0
174 197 0
175 198 0
175 197 0
175 198 0
175 198 0
175 198 0
172 195 0
175 198 0
173 195 0
174 197 0
173 197 0
174 197 0
173 197 0
175 198 0
173 196 0
175 198 0
174 197 0
175 198 0
173 197 0
175 198 0
174 197 0
175 198 0
172 197 0
172 196 0
173 196 0
175 198 0
174 197 0
172 196 0
175 198 0
175 197 0
173 196 0
173 197 0
173 197 0
172 196 0
174 197 0
174 197 0
174 198 0
175 198 0
174 197 0
174 198 0
174 197 0
175 198 0
173 196 0
176 198 0
172 196 0
171 195 0
171 195 0
173 196 0
174 197 0
175 197 0
172 196 0
173 197 0
174 197 0
174 197 0
174 197 0
172 195 0
171 196 0
173 195 0
172 196 0
171 195 0
172 196 0
174 198 0
174 197 0
172 196 0
170 194 0
174 198 0
173 196 0
172 195 0
171 195 0
174 197 0
174 197 0
173 196 0
175 197 0
173 197 0
173 197 0
175 197 0
174 197 0
174 197 0
172 195 0
169 194 0
175 197 0
175 198 0
174 197 0
174 197 0
173 197 0
174 198 0
174 196 0
175 198 0
173 197 0
175 198 0
175 198 0
174 198 0
170 195 0
171 194 0
173 196 0
174 197 0
172 196 0
172 195 0
174 197 0
173 195 0
173 196 0
170 194 0
173 196 0
173 197 0
172 196 0
171 195 0
172 195 0
172 195 0
173 197 0
174 197 0
174 197 0
176 198 0
173 197 0
175 198 0
171 195 0
173 196 0
170 193 0
173 196 0
172 195 0
173 196 0
173 197 0
171 195 0
174 198 0
176 198 0
173 196 0
174 197 0
172 195 0
170 193 0
173 196 0
174 196 0
171 196 0
173 197 0
174 197 0
172 195 0
172 195 0
173 196 0
174 198 0
173 197 0
174 198 0
171 195 0
175 198 0
173 196 0
170 193 0
174 197 0
172 196 0
172 194 0
170 192 0
173 191 16
172 187 28
174 191 28
173 184 45
177 188 53
180 189 59
180 182 75
181 183 75
187 183 92
187 180 94
187 181 95
187 178 103
190 179 107
191 178 110
189 178 112
190 178 114
188 178 114
187 177 114
186 177 114
184 176 114
183 175 114
182 175 114
181 174 114
179 173 114
179 173 114
178 173 114
176 172 114
176 172 114
175 171 114
174 171 114
173 171 114
173 170 114
172 170 114
171 170 114
170 169 114
170 169 114
169 169 114
169 169 114
168 168 114
167 168 114
166 168 114
167 168 114
166 167 114
165 167 114
165 167 114
165 167 114
164 167 114
164 167 114
164 166 114
164 166 114
163 166 114
163 166 114
163 166 114
163 166 114
162 166 114
162 166 114
162 166 114
162 166 114
162 166 114
162 166 114
162 166 114
162 166 114
163 166 114
163 166 114
163 166 114
163 166 114
163 166 114
163 166 114
164 166 114
164 167 114
164 167 114
165 167 114
165 167 114
165 167 114
166 168 114
167 168 114
167 168 114
168 168 114
168 168 114
169 169 114
169 169 114
170 169 114
171 170 114
171 170 114
172 170 114
173 171 114
174 171 114
174 171 114
175 172 114
177 172 114
177 173 114
178 173 114
180 174 114
181 174 114
182 175 114
183 175 114
184 176 114
186 177 114
187 177 114
189 178 114
190 178 114
189 178 110
191 179 110
190 180 104
187 182 95
187 182 93
182 183 79
182 183 76
178 185 60
179 188 59
175 187 42
173 189 28
173 192 22
171 192 0
173 196 0
175 198 0
173 197 0
173 197 0
173 197 0
173 197 0
175 198 0
175 198 0
175 198 0
175 198 0
173 197 0
175 197 0
173 197 0
174 197 0
174 197 0
173 197 0
174 197 0
173 197 0
176 198 0
175 198 0
173 197 0
174 197 0
173 197 0
176 198 0
174 197 0
174 198 0
174 198 0
172 196 0
174 198 0
175 198 0
174 198 0
175 198 0
174 197 0
175 198 0
172 196 0
174 197 0
172 197 0
173 197 0
176 199 0
173 197 0
174 198 0
175 198 0
174 198 0
175 198 0
174 198 0
173 197 0
173 197 0
174 198 0
174 197 0
177 199 0
174 198 0
175 198 0
174 198 0
174 197 0
174 198 0
173 197 0
175 198 0
173 197 0
172 196 0
174 198 0
174 197 0
174 197 0
173 197 0
173 197 0
173 196 0
174 198 0
174 197 0
175 198 0
174 198 0
174 198 0
171 195 0
174 198 0
173 197 0
174 198 0
175 198 0
175 198 0
176 198 0
174 197 0
175 198 0
174 197 0
174 197 0
175 198 0
175 198 0
176 199 0
174 197 0
173 196 0
174 198 0
174 198 0
173 197 0
174 197 0
174 197 0
173 195 0
174 197 0
174 198 0
174 197 0
173 197 0
175 198 0
173 197 0
174 197 0
174 197 0
175 197 0
174 198 0
174 198 0
175 198 0
173 197 0
176 198 0
175 198 0
175 198 0
174 197 0
176 199 0
171 195 0
174 197 0
172 196 0
173 197 0
176 199 0
171 195 0
173 197 0
174 198 0
174 198 0
174 198 0
175 198 0
174 198 0
174 198 0
175 198 0
173 197 0
172 195 0
172 195 0
172 196 0
175 198 0
173 197 0
174 197 0
171 195 0
171 195 0
175 198 0
172 196 0
172 196 0
173 196 0
173 196 0
173 197 0
175 198 0
173 197 0
174 197 0
172 196 0
173 197 0
174 197 0
172 196 0
172 196 0
173 197 0
174 197 0
173 196 0
174 197 0
172 196 0
175 198 0
174 197 0
172 195 0
175 198 0
173 196 0
174 197 0
173 197 0
172 195 0
174 197 0
175 198 0
172 196 0
173 196 0
172 196 0
175 198 0
172 196 0
175 198 0
173 197 0
173 197 0
174 197 0
173 196 0
174 197 0
171 195 0
172 195 0
174 198 0
174 198 0
172 196 0
174 198 0
173 197 0
174 197 0
175 198 0
175 198 0
171 196 0
174 197 0
173 197 0
172 196 0
173 196 0
172 194 0
173 197 0
172 196 0
173 197 0
175 198 0
174 197 0
174 197 0
174 197 0
173 196 0
173 196 0
172 196 0
172 194 0
172 195 0
173 196 0
172 196 0
174 197 0
171 195 0
172 195 0
175 197 0
173 197 0
174 198 0
174 197 0
175 198 0
174 196 0
173 197 0
174 196 0
169 193 0
173 196 0
173 197 0
173 195 0
174 197 0
172 196 0
175 198 0
173 196 0
173 196 0
175 197 0
173 197 0
173 196 0
172 195 0
174 197 0
172 196 0
175 198 0
171 195 0
173 196 0
173 196 0
174 198 0
170 193 0
174 196 0
175 198 0
176 198 0
172 195 0
174 198 0
173 196 0
174 197 0
174 197 0
172 196 0
174 197 0
175 198 0
171 194 0
172 195 0
173 196 0
172 196 0
175 198 0
173 196 0
173 196 0
172 195 0
175 198 0
175 198 0
173 196 0
174 196 0
174 197 0
172 196 0
173 196 0
171 195 0
173 196 0
172 195 0
173 196 0
174 197 0
172 195 0
174 198 0
173 196 0
172 194 0
174 198 0
173 195 0
173 197 0
174 195 0
174 196 0
173 196 0
175 197 0
174 198 0
175 198 0
174 197 0
173 197 0
174 198 0
172 194 0
171 195 0
175 196 0
171 192 0
173 188 30
171 187 25
175 187 44
174 184 45
177 184 60
181 185 71
181 184 76
184 181 86
184 179 90
184 179 91
189 179 104
188 180 104
190 178 109
190 178 112
190 179 114
188 178 114
188 177 114
186 177 114
184 176 114
183 175 114
182 175 114
181 174 114
180 174 114
179 174 114
179 173 114
177 172 114
176 172 114
175 172 114
175 171 114
174 171 114
173 171 114
172 170 114
171 170 114
171 170 114
170 169 114
169 169 114
169 169 114
168 168 114
168 168 114
167 168 114
167 168 114
166 168 114
165 167 114
165 167 114
165 167 114
164 167 114
164 167 114
164 166 114
163 166 114
163 166 114
163 166 114
163 166 114
162 166 114
163 166 114
162 166 114
162 166 114
162 166 114
162 166 114
162 166 114
162 166 114
162 166 114
162 166 114
162 166 114
162 166 114
162 166 114
163 166 114
163 166 114
163 166 114
163 166 114
164 166 114
164 167 114
164 167 114
165 167 114
165 167 114
165 167 114
166 167 114
167 168 114
167 168 114
168 168 114
168 169 114
169 169 114
169 169 114
170 169 114
171 170 114
172 170 114
172 170 114
173 171 114
174 171 114
175 171 114
176 172 114
176 172 114
179 173 114
179 173 114
180 174 114
181 174 114
183 175 114
183 175 114
185 176 114
186 177 114
188 178 114
189 178 114
191 179 113
190 178 111
191 179 108
189 179 102
185 181 91
186 182 90
184 184 82
179 184 64
178 185 59
176 188 51
173 190 32
174 191 30
173 193 19
173 196 0
174 197 0
172 196 0
174 198 0
174 197 0
175 197 0
174 198 0
174 197 0
176 199 0
173 196 0
174 197 0
175 198 0
173 196 0
175 198 0
174 197 0
174 198 0
171 196 0
174 197 0
175 198 0
174 198 0
175 198 0
173 197 0
174 197 0
174 197 0
174 197 0
174 197 0
172 196 0
173 196 0
174 197 0
175 198 0
176 199 0
175 197 0
174 197 0
175 198 0
173 197 0
175 198 0
174 198 0
173 197 0
174 197 0
172 196 0
175 197 0
174 198 0
174 198 0
175 198 0
176 199 0
177 199 0
173 197 0
174 197 0
174 198 0
173 197 0
173 197 0
173 197 0
173 197 0
174 198 0
173 196 0
174 198 0
172 195 0
176 198 0
174 198 0
174 197 0
173 197 0
173 197 0
173 196 0
174 198 0
173 197 0
174 198 0
173 196 0
175 198 0
175 198 0
172 196 0
174 198 0
175 198 0
174 197 0
175 197 0
174 198 0
174 197 0
173 197 0
173 197 0
175 198 0
175 197 0
175 198 0
173 197 0
174 198 0
174 197 0
174 197 0
173 197 0
174 197 0
173 196 0
173 196 0
174 198 0
172 196 0
176 199 0
172 196 0
174 198 0
172 196 0
172 196 0
173 197 0
175 198 0
172 195 0
173 197 0
173 197 0
174 198 0
173 197 0
173 197 0
175 198 0
175 198 0
174 197 0
174 197 0
177 199 0
176 199 0
175 197 0
175 198 0
176 198 0
173 197 0
173 197 0
174 198 0
174 197 0
174 197 0
174 198 0
174 197 0
174 197 0
174 197 0
175 198 0
174 198 0
173 197 0
172 195 0
174 197 0
172 196 0
173 197 0
174 197 0
172 196 0
175 198 0
172 196 0
175 197 0
176 198 0
174 197 0
174 197 0
173 197 0
173 196 0
174 198 0
174 197 0
173 197 0
173 196 0
173 197 0
173 197 0
173 197 0
174 197 0
175 198 0
174 197 0
173 197 0
172 196 0
174 197 0
173 197 0
172 195 0
172 196 0
172 196 0
175 198 0
174 197 0
174 197 0
173 197 0
175 198 0
175 197 0
173 197 0
175 197 0
173 196 0
173 197 0
175 198 0
174 197 0
173 196 0
174 197 0
172 196 0
174 197 0
174 197 0
174 197 0
175 198 0
172 195 0
173 196 0
172 196 0
174 198 0
175 198 0
171 195 0
174 197 0
174 197 0
173 196 0
171 195 0
175 198 0
174 198 0
175 198 0
175 198 0
172 195 0
173 197 0
172 196 0
173 196 0
173 197 0
173 197 0
174 197 0
175 198 0
173 196 0
172 196 0
174 197 0
174 198 0
173 197 0
172 196 0
173 196 0
172 196 0
172 196 0
174 197 0
174 197 0
174 197 0
174 196 0
173 197 0
175 197 0
171 194 0
173 197 0
171 195 0
173 196 0
173 196 0
169 193 0
174 196 0
173 197 0
173 195 0
174 197 0
174 197 0
171 195 0
172 196 0
174 197 0
173 196 0
172 196 0
173 196 0
174 197 0
173 197 0
173 196 0
174 197 0
175 197 0
173 196 0
173 197 0
173 197 0
172 195 0
172 195 0
172 196 0
172 195 0
174 197 0
175 198 0
172 195 0
172 195 0
173 196 0
173 197 0
175 198 0
171 194 0
174 196 0
172 195 0
172 196 0
175 197 0
173 197 0
175 198 0
174 197 0
174 197 0
173 197 0
174 197 0
174 197 0
172 195 0
173 196 0
174 197 0
172 196 0
174 197 0
172 196 0
172 196 0
173 197 0
173 197 0
173 196 0
172 195 0
175 198 0
174 197 0
173 197 0
172 194 0
175 198 0
172 196 0
174 197 0
174 197 0
173 197 0
172 196 0
173 196 0
173 195 0
170 192 0
169 189 0
172 192 11
172 187 36
175 187 48
176 191 44
179 185 64
180 183 71
180 181 73
183 183 80
182 179 82
187 180 93
187 177 100
187 177 103
190 178 110
192 179 113
191 179 114
190 178 114
188 178 114
187 177 114
185 176 114
184 176 114
183 175 114
182 175 114
181 174 114
180 174 114
179 173 114
178 173 114
177 172 114
176 172 114
175 171 114
174 171 114
173 171 114
172 170 114
172 170 114
171 170 114
170 169 114
170 169 114
169 169 114
168 169 114
168 168 114
167 168 114
167 168 114
167 168 114
166 167 114
166 167 114
165 167 114
165 167 114
164 167 114
164 166 114
164 166 114
163 166 114
163 166 114
163 166 114
162 166 114
162 166 114
162 166 114
162 166 114
162 166 114
162 166 114
162 166 114
162 166 114
162 166 114
162 166 114
162 166 114
162 166 114
162 166 114
162 166 114
162 166 114
163 166 114
163 166 114
163 166 114
163 166 114
164 166 114
164 167 114
164 167 114
165 167 114
165 167 114
166 167 114
166 168 114
167 168 114
167 168 114
168 168 114
169 169 114
169 169 114
170 169 114
171 169 114
172 170 114
172 170 114
173 171 114
174 171 114
175 171 114
175 172 114
177 172 114
178 173 114
178 173 114
179 173 114
181 174 114
182 175 114
183 175 114
184 176 114
185 176 114
187 177 114
189 178 114
189 178 114
192 179 113
191 179 112
192 180 108
188 180 100
186 178 92
182 181 81
184 184 80
180 186 64
177 186 59
175 186 49
174 190 37
173 192 19
173 193 0
173 195 0
173 196 0
174 198 0
174 197 0
174 197 0
175 198 0
174 197 0
176 199 0
173 197 0
174 197 0
174 198 0
175 198 0
173 197 0
172 197 0
174 197 0
173 197 0
174 198 0
174 198 0
171 196 0
173 197 0
177 198 0
173 197 0
175 197 0
175 198 0
176 199 0
175 198 0
175 198 0
174 197 0
174 197 0
174 198 0
175 198 0
174 197 0
173 197 0
174 197 0
174 197 0
174 197 0
173 197 0
174 198 0
174 197 0
175 197 0
174 197 0
175 198 0
175 197 0
175 198 0
173 197 0
175 198 0
175 198 0
176 198 0
174 198 0
176 198 0
172 196 0
173 197 0
175 198 0
174 197 0
172 196 0
173 196 0
176 198 0
175 198 0
173 197 0
174 197 0
176 199 0
175 198 0
173 197 0
174 198 0
174 197 0
174 197 0
174 198 0
174 197 0
174 198 0
177 199 0
173 197 0
175 198 0
174 197 0
174 197 0
174 197 0
173 197 0
173 196 0
174 198 0
172 196 0
173 196 0
173 196 0
174 198 0
174 197 0
174 197 0
174 197 0
173 197 0
173 197 0
173 197 0
171 195 0
171 196 0
171 194 0
173 197 0
174 198 0
173 196 0
174 196 0
173 196 0
172 195 0
173 196 0
175 198 0
175 198 0
172 195 0
174 197 0
175 198 0
174 198 0
173 197 0
173 196 0
173 195 0
174 197 0
174 198 0
174 198 0
174 197 0
173 197 0
172 196 0
175 198 0
175 198 0
173 197 0
172 196 0
175 198 0
176 199 0
175 198 0
173 197 0
173 197 0
176 199 0
174 197 0
176 198 0
173 197 0
174 197 0
174 198 0
174 197 0
173 197 0
174 197 0
173 197 0
172 196 0
175 198 0
175 198 0
172 195 0
173 196 0
173 197 0
173 197 0
173 196 0
174 197 0
174 197 0
175 198 0
174 198 0
173 196 0
174 197 0
173 196 0
174 197 0
173 197 0
176 198 0
173 196 0
176 198 0
172 196 0
173 197 0
173 197 0
175 198 0
174 197 0
172 196 0
172 196 0
176 199 0
176 198 0
170 194 0
172 196 0
175 198 0
174 197 0
173 196 0
172 196 0
174 197 0
172 196 0
172 195 0
174 197 0
174 198 0
172 195 0
173 196 0
171 195 0
174 198 0
171 195 0
173 197 0
175 198 0
173 197 0
172 196 0
173 197 0
174 197 0
176 199 0
175 198 0
171 195 0
174 198 0
173 197 0
174 198 0
173 196 0
174 197 0
174 197 0
173 196 0
175 198 0
172 196 0
172 195 0
175 198 0
172 195 0
173 197 0
172 196 0
170 193 0
172 196 0
172 195 0
173 197 0
174 197 0
175 198 0
174 196 0
173 196 0
174 197 0
175 198 0
174 197 0
173 197 0
171 195 0
171 194 0
174 198 0
174 198 0
174 197 0
174 197 0
174 197 0
174 198 0
175 198 0
173 197 0
173 196 0
172 196 0
172 196 0
175 198 0
173 196 0
171 195 0
172 196 0
173 197 0
173 196 0
173 196 0
174 197 0
172 196 0
173 197 0
172 195 0
175 197 0
174 196 0
176 198 0
171 195 0
172 195 0
172 195 0
175 198 0
172 196 0
174 197 0
172 194 0
173 197 0
173 195 0
174 196 0
172 196 0
174 197 0
173 197 0
172 196 0
173 197 0
174 196 0
172 195 0
176 198 0
173 196 0
173 196 0
171 195 0
174 196 0
172 196 0
173 196 0
172 196 0
173 196 0
171 195 0
172 196 0
173 196 0
174 197 0
174 196 0
172 196 0
171 194 0
172 195 0
174 197 0
171 195 0
173 196 0
173 196 0
172 195 0
174 196 0
173 196 0
173 196 0
174 194 0
172 192 0
169 187 11
167 185 11
174 189 34
176 187 52
173 185 45
177 182 62
177 179 73
182 183 79
184 182 84
187 178 95
186 179 97
188 178 102
191 178 109
191 179 113
191 179 114
190 179 114
190 178 114
187 177 114
187 177 114
185 176 114
184 176 114
183 175 114
182 175 114
181 174 114
179 173 114
178 173 114
177 172 114
177 172 114
175 172 114
175 171 114
174 171 114
173 170 114
173 170 114
172 170 114
171 170 114
170 169 114
169 169 114
169 169 114
168 169 114
168 168 114
167 168 114
166 168 114
166 168 114
166 167 114
165 167 114
165 167 114
165 167 114
164 167 114
164 166 114
163 166 114
163 166 114
163 166 114
163 166 114
162 166 114
162 166 114
162 166 114
162 166 114
162 166 114
162 166 114
162 166 114
162 166 114
162 166 114
162 166 114
162 166 114
162 166 114
162 166 114
162 166 114
162 166 114
163 166 114
163 166 114
163 166 114
163 166 114
164 166 114
164 167 114
164 167 114
165 167 114
165 167 114
166 167 114
166 167 114
166 168 114
167 168 114
168 168 114
169 169 114
169 169 114
170 169 114
171 169 114
171 170 114
171 170 114
172 170 114
173 171 114
174 171 114
175 172 114
175 172 114
176 172 114
178 173 114
179 173 114
180 174 114
182 175 114
183 175 114
183 175 114
185 176 114
186 177 114
188 178 114
189 178 114
190 179 114
192 179 113
191 179 110
189 177 106
187 180 98
186 181 90
185 182 87
181 184 75
177 184 58
176 184 56
178 192 47
170 186 28
173 194 0
173 195 0
174 197 0
173 196 0
175 198 0
173 197 0
173 197 0
174 197 0
174 197 0
175 198 0
174 197 0
174 197 0
174 197 0
175 197 0
175 198 0
174 197 0
175 198 0
173 197 0
173 196 0
173 197 0
174 197 0
174 198 0
173 196 0
172 196 0
176 198 0
175 198 0
175 198 0
173 197 0
173 197 0
175 198 0
176 198 0
174 196 0
174 197 0
175 198 0
174 196 0
173 196 0
174 197 0
174 197 0
173 197 0
175 198 0
174 197 0
174 198 0
173 197 0
175 197 0
174 197 0
174 197 0
173 197 0
174 197 0
174 198 0
175 198 0
173 197 0
174 197 0
173 197 0
174 198 0
173 196 0
174 198 0
175 198 0
173 197 0
175 198 0
173 197 0
174 197 0
174 197 0
173 197 0
175 198 0
175 198 0
174 197 0
174 197 0
173 197 0
175 198 0
173 197 0
172 195 0
174 197 0
173 197 0
172 196 0
174 197 0
173 196 0
174 198 0
176 199 0
175 198 0
174 197 0
174 198 0
174 198 0
174 197 0
173 197 0
171 195 0
175 198 0
176 199 0
174 197 0
173 195 0
175 198 0
174 197 0
175 198 0
173 197 0
174 198 0
174 197 0
174 197 0
174 197 0
173 197 0
172 196 0
174 197 0
173 197 0
173 197 0
173 196 0
173 197 0
174 197 0
172 195 0
173 197 0
173 197 0
174 198 0
175 198 0
171 195 0
173 197 0
175 198 0
174 198 0
173 197 0
174 197 0
172 196 0
176 198 0
174 197 0
173 196 0
171 195 0
174 197 0
175 198 0
174 198 0
175 198 0
173 197 0
173 197 0
175 198 0
173 197 0
172 197 0
174 198 0
176 198 0
175 198 0
173 197 0
175 198 0
173 196 0
173 197 0
174 197 0
173 196 0
171 195 0
174 197 0
173 197 0
174 197 0
172 196 0
174 197 0
174 197 0
175 198 0
176 198 0
174 196 0
174 197 0
174 197 0
173 197 0
174 197 0
174 197 0
175 198 0
173 196 0
174 197 0
173 197 0
174 198 0
172 196 0
172 196 0
174 197 0
173 196 0
175 197 0
172 196 0
173 196 0
175 197 0
174 198 0
170 193 0
173 197 0
174 197 0
174 198 0
174 197 0
174 198 0
172 195 0
174 198 0
174 197 0
172 195 0
174 197 0
173 197 0
172 196 0
175 198 0
173 196 0
172 195 0
173 197 0
170 193 0
173 197 0
175 197 0
175 198 0
171 194 0
172 196 0
174 197 0
175 198 0
173 196 0
176 198 0
175 198 0
174 197 0
172 195 0
171 195 0
174 197 0
174 197 0
172 195 0
174 197 0
173 196 0
173 196 0
172 196 0
173 196 0
173 196 0
172 195 0
172 195 0
172 195 0
173 196 0
175 198 0
172 195 0
174 197 0
171 195 0
174 197 0
171 195 0
172 195 0
174 197 0
172 196 0
174 197 0
173 197 0
172 195 0
173 197 0
172 195 0
174 197 0
174 197 0
173 197 0
173 195 0
171 194 0
174 197 0
174 197 0
172 196 0
172 195 0
174 197 0
173 196 0
173 197 0
174 197 0
174 197 0
175 197 0
173 196 0
172 196 0
174 197 0
171 195 0
172 196 0
173 197 0
174 197 0
172 196 0
171 195 0
172 194 0
173 195 0
172 196 0
173 197 0
173 197 0
172 195 0
172 194 0
175 198 0
172 196 0
174 196 0
172 196 0
174 197 0
173 197 0
173 195 0
173 197 0
172 195 0
175 198 0
173 196 0
174 196 0
173 196 0
174 197 0
173 196 0
172 196 0
173 196 0
173 197 0
173 195 0
172 196 0
170 194 0
172 195 0
171 195 0
173 195 0
172 194 0
172 192 0
172 191 0
169 188 0
169 187 16
174 187 42
172 184 36
177 183 57
180 182 71
179 181 75
182 180 80
186 180 93
187 180 96
189 179 102
190 178 107
189 178 108
191 179 112
192 179 114
190 178 114
188 177 114
187 177 114
185 176 114
185 176 114
183 175 114
182 175 114
182 175 114
180 174 114
179 173 114
178 173 114
177 173 114
176 172 114
175 171 114
175 171 114
173 171 114
173 171 114
172 170 114
171 170 114
171 169 114
170 169 114
170 169 114
169 169 114
168 168 114
168 168 114
167 168 114
166 168 114
166 167 114
166 167 114
165 167 114
165 167 114
164 167 114
164 167 114
164 166 114
163 166 114
163 166 114
163 166 114
163 166 114
162 166 114
162 166 114
162 166 114
162 166 114
162 166 114
162 166 114
162 166 114
162 166 114
162 166 114
162 166 114
162 166 114
162 166 114
162 166 114
162 166 114
162 166 114
163 166 114
163 166 114
163 166 114
163 166 114
164 166 114
164 166 114
164 167 114
165 167 114
165 167 114
165 167 114
166 167 114
167 168 114
167 168 114
168 168 114
168 168 114
169 169 114
169 169 114
170 169 114
171 170 114
172 170 114
172 170 114
173 171 114
174 171 114
175 172 114
176 172 114
177 172 114
177 173 114
179 173 114
180 174 114
181 174 114
182 175 114
183 175 114
184 176 114
186 177 114
187 177 114
189 178 114
189 178 114
191 179 114
192 179 112
189 178 107
189 180 100
188 180 97
184 181 85
181 182 75
180 183 69
179 186 63
175 187 48
175 190 39
176 196 16
172 193 0
174 196 0
173 196 0
173 196 0
175 198 0
174 197 0
174 198 0
173 196 0
174 197 0
174 198 0
176 198 0
175 198 0
176 198 0
174 198 0
174 197 0
174 197 0
174 197 0
174 197 0
175 198 0
174 198 0
176 199 0
175 198 0
175 198 0
174 197 0
174 197 0
174 197 0
175 198 0
173 197 0
175 198 0
174 198 0
174 197 0
175 198 0
175 198 0
174 197 0
174 197 0
175 198 0
173 197 0
172 196 0
174 197 0
175 198 0
175 198 0
175 198 0
175 198 0
174 196 0
174 198 0
174 197 0
174 198 0
174 197 0
175 198 0
174 198 0
174 198 0
174 197 0
172 197 0
174 198 0
174 197 0
175 198 0
173 197 0
173 196 0
173 197 0
175 198 0
173 197 0
173 197 0
175 198 0
172 196 0
174 197 0
174 197 0
173 197 0
175 198 0
174 197 0
173 197 0
172 196 0
174 198 0
174 197 0
174 197 0
173 197 0
174 198 0
174 197 0
176 198 0
174 197 0
172 196 0
174 198 0
173 197 0
174 197 0
172 196 0
172 196 0
175 198 0
176 199 0
172 196 0
174 198 0
175 198 0
176 199 0
173 197 0
174 198 0
172 195 0
175 198 0
175 198 0
174 198 0
174 197 0
175 198 0
173 197 0
174 198 0
173 197 0
175 198 0
173 195 0
174 197 0
174 197 0
172 196 0
175 198 0
173 196 0
171 195 0
172 196 0
175 198 0
172 196 0
174 197 0
175 198 0
175 198 0
174 197 0
173 196 0
176 198 0
174 198 0
173 197 0
172 196 0
172 195 0
173 197 0
173 196 0
172 196 0
175 198 0
174 197 0
173 196 0
173 197 0
175 198 0
172 195 0
174 197 0
175 198 0
172 196 0
174 196 0
173 197 0
173 196 0
174 197 0
173 195 0
173 197 0
174 197 0
175 198 0
172 196 0
174 198 0
175 198 0
173 197 0
173 196 0
174 197 0
172 195 0
174 197 0
174 197 0
174 197 0
174 197 0
172 195 0
173 197 0
174 197 0
172 196 0
175 198 0
171 195 0
173 197 0
174 197 0
175 198 0
174 197 0
173 196 0
172 195 0
173 196 0
174 197 0
175 198 0
173 196 0
173 197 0
173 197 0
173 196 0
173 197 0
173 196 0
173 197 0
176 198 0
173 196 0
173 196 0
173 196 0
173 196 0
174 197 0
175 198 0
172 195 0
173 196 0
172 195 0
173 197 0
174 197 0
173 196 0
174 198 0
173 196 0
173 196 0
174 197 0
174 198 0
173 196 0
173 196 0
173 196 0
174 197 0
168 192 0
171 194 0
170 194 0
175 198 0
170 194 0
173 197 0
173 196 0
174 198 0
174 197 0
174 197 0
173 196 0
174 198 0
172 195 0
173 197 0
174 196 0
173 196 0
174 197 0
172 196 0
171 195 0
173 196 0
174 197 0
174 197 0
172 196 0
174 197 0
174 197 0
174 197 0
172 195 0
174 197 18
172 194 18
172 194 0
172 196 18
172 195 0
170 193 36
173 197 18
169 193 0
172 196 0
173 196 0
174 197 0
173 197 0
174 197 0
175 198 0
174 198 0
174 197 0
172 195 0
173 197 0
173 196 0
171 194 0
172 195 0
173 197 0
172 196 0
172 195 0
172 196 0
174 197 0
173 196 0
174 197 0
175 197 0
172 195 0
174 197 0
174 197 0
174 197 0
172 195 0
174 196 0
173 195 0
174 197 0
173 196 0
169 192 0
173 196 0
172 196 0
174 197 0
173 196 0
172 196 0
174 197 0
175 198 0
173 197 0
172 195 0
173 196 0
172 196 0
174 196 0
175 197 0
170 194 0
173 195 0
171 194 0
173 194 0
172 192 0
171 190 0
171 190 11
172 184 42
173 184 42
176 184 57
178 186 57
177 180 68
182 180 80
183 179 83
184 178 86
187 179 99
189 178 103
191 178 109
192 179 112
191 179 114
190 179 114
189 178 114
187 177 114
186 177 114
185 176 114
184 176 114
182 175 114
181 175 114
181 174 114
179 174 114
179 173 114
178 173 114
177 172 114
176 172 114
175 172 114
174 171 114
173 171 114
173 170 114
172 170 114
171 170 114
171 170 114
170 169 114
169 169 114
168 169 114
168 168 114
167 168 114
167 168 114
166 168 114
166 167 114
165 167 114
165 167 114
165 167 114
164 167 114
164 166 114
164 166 114
163 166 114
163 166 114
163 166 114
163 166 114
162 166 114
162 166 114
162 166 114
162 166 114
162 166 114
162 166 114
162 166 114
162 166 114
162 166 114
162 166 114
162 166 114
162 166 114
162 166 114
162 166 114
162 166 114
162 166 114
163 166 114
163 166 114
163 166 114
164 166 114
164 166 114
164 167 114
164 167 114
165 167 114
165 167 114
166 167 114
166 168 114
167 168 114
167 168 114
168 168 114
169 169 114
169 169 114
170 169 114
171 170 114
172 170 114
172 170 114
173 171 114
173 171 114
175 171 114
175 172 114
176 172 114
177 172 114
178 173 114
179 173 114
181 174 114
182 175 114
182 175 114
184 176 114
185 176 114
186 177 114
188 177 114
189 178 114
190 179 114
191 179 113
190 178 109
189 180 102
188 180 98
186 181 91
183 182 84
178 179 71
179 187 61
176 187 48
176 190 41
171 183 28
174 194 16
172 195 0
173 196 0
174 197 0
173 197 0
174 198 0
174 197 0
174 197 0
175 197 0
173 196 0
174 196 0
174 197 0
175 198 0
174 197 0
174 198 0
175 198 0
174 197 0
174 197 0
175 198 0
174 198 0
173 197 0
173 197 0
173 197 0
174 198 0
175 198 0
173 197 0
174 197 0
174 197 0
174 198 0
174 198 0
175 198 0
174 197 0
174 196 0
173 197 0
172 196 0
175 198 0
175 198 0
175 198 0
174 198 0
174 197 0
174 197 0
174 197 0
174 197 0
174 197 0
173 197 0
174 197 0
173 197 0
174 197 0
174 197 0
174 197 0
175 198 0
174 198 0
173 197 0
175 198 0
174 197 0
174 197 0
173 197 0
175 198 0
173 197 0
173 197 0
173 197 0
174 198 0
174 197 0
175 198 0
173 197 0
175 198 0
173 197 0
172 196 0
174 198 0
173 197 0
175 198 0
173 197 0
173 197 0
173 197 0
173 197 0
173 197 0
175 198 0
173 197 0
175 198 0
175 198 0
175 198 0
173 197 0
174 198 0
173 197 0
174 198 0
174 197 0
173 197 0
173 196 0
172 196 0
173 197 0
174 197 0
172 196 0
175 198 0
172 197 0
173 196 0
174 197 0
173 196 0
173 197 0
174 197 0
170 195 0
176 198 0
173 197 0
173 197 0
174 197 0
175 198 0
175 197 0
173 196 0
174 197 0
173 197 0
173 197 0
174 197 0
173 197 0
174 197 0
174 197 0
173 197 0
175 198 0
175 198 0
174 197 0
174 197 0
172 196 0
175 198 0
171 194 0
174 197 0
174 197 0
172 196 0
172 196 0
174 198 0
175 198 0
174 198 0
174 197 0
175 198 0
174 197 0
176 198 0
175 198 0
176 198 0
172 195 0
172 196 0
174 197 0
173 197 0
176 198 0
172 196 0
174 197 0
173 197 0
172 196 0
172 196 0
171 195 0
173 196 0
173 196 0
172 195 0
173 197 0
173 197 0
174 196 0
172 195 0
173 196 0
173 196 0
172 196 0
176 199 0
173 197 0
175 198 0
173 197 0
174 198 0
174 198 0
173 196 0
174 197 0
172 196 0
173 197 0
173 196 0
174 197 0
172 196 0
174 197 0
171 195 0
173 196 0
172 196 0
176 198 0
174 197 0
174 198 0
171 194 0
173 196 0
173 196 0
174 197 0
172 195 0
174 197 0
172 196 0
170 193 0
174 196 0
173 197 0
172 195 0
173 196 0
173 197 0
173 197 0
172 195 0
174 196 0
173 196 0
174 197 0
175 197 0
173 197 0
171 195 0
172 196 0
173 197 0
175 198 0
172 195 0
173 196 0
175 198 0
174 198 0
175 198 0
174 197 0
175 198 0
176 198 0
174 197 0
173 197 0
172 195 0
173 196 0
174 197 0
175 197 0
173 196 0
173 196 0
173 197 0
174 196 0
172 195 18
169 193 36
168 191 47
166 190 57
165 188 62
164 187 67
159 183 74
163 187 67
163 187 60
158 181 82
157 180 86
156 180 84
152 176 95
153 177 90
155 177 85
157 181 76
161 184 76
155 179 82
160 183 72
159 183 76
171 194 40
168 191 51
172 195 36
173 196 25
169 193 25
173 196 0
174 198 0
173 197 0
174 197 0
171 195 0
171 195 0
172 196 0
174 197 0
171 194 0
175 197 0
172 195 0
174 196 0
174 196 0
172 196 0
174 196 0
173 196 0
175 198 0
173 195 0
171 195 0
172 196 0
169 192 0
172 196 0
172 195 0
173 196 0
173 197 0
171 195 0
171 194 0
172 194 0
171 195 0
173 196 0
174 197 0
174 197 0
173 195 0
173 196 0
172 196 0
170 193 0
171 194 0
171 191 0
172 192 0
171 189 11
168 184 19
171 185 22
174 184 49
179 183 64
177 184 62
178 181 71
182 179 82
184 178 88
185 177 92
186 176 98
190 178 107
191 178 110
192 180 113
190 179 114
190 179 114
188 178 114
187 177 114
185 176 114
184 176 114
184 176 114
182 175 114
181 174 114
181 174 114
179 174 114
178 173 114
178 173 114
177 172 114
176 172 114
175 171 114
174 171 114
173 171 114
173 170 114
172 170 114
171 170 114
170 169 114
170 169 114
169 169 114
168 169 114
168 168 114
168 168 114
167 168 114
166 168 114
166 167 114
165 167 114
165 167 114
165 167 114
164 167 114
164 167 114
164 166 114
163 166 114
163 166 114
163 166 114
163 166 114
162 166 114
162 166 114
162 166 114
162 166 114
162 166 114
162 166 114
162 166 114
162 166 114
162 166 114
162 166 114
162 166 114
162 166 114
162 166 114
162 166 114
162 166 114
162 166 114
163 166 114
163 166 114
163 166 114
163 166 114
164 166 114
164 167 114
164 167 114
165 167 114
165 167 114
166 167 114
166 168 114
167 168 114
167 168 114
168 168 114
169 169 114
169 169 114
170 169 114
170 169 114
171 170 114
172 170 114
173 170 114
173 171 114
174 171 114
175 172 114
176 172 114
177 172 114
178 173 114
179 173 114
180 174 114
181 174 114
182 175 114
184 175 114
184 176 114
185 176 114
187 177 114
188 177 114
189 178 114
193 180 114
192 179 113
190 179 108
190 179 104
188 179 97
184 181 84
181 181 76
179 184 66
177 186 57
174 190 41
172 189 28
172 190 25
173 194 11
174 197 0
174 197 0
172 196 0
175 198 0
175 198 0
174 197 0
173 196 0
174 197 0
173 197 0
173 197 0
173 196 0
175 197 0
174 197 0
175 198 0
174 197 0
174 197 0
174 198 0
174 198 0
173 197 0
175 198 0
174 198 0
174 197 0
174 198 0
173 197 0
174 198 0
175 198 0
175 198 0
174 197 0
174 197 0
175 198 0
173 197 0
175 198 0
173 197 0
174 197 0
175 198 0
174 197 0
171 195 0
173 197 0
174 197 0
173 197 0
174 197 0
175 198 0
175 198 0
173 197 0
175 198 0
174 197 0
174 197 0
174 197 0
174 197 0
172 196 0
174 198 0
174 197 0
172 196 0
174 198 0
174 197 0
173 197 0
175 198 0
173 197 0
174 197 0
173 197 0
174 198 0
176 198 0
173 197 0
174 197 0
173 196 0
174 198 0
173 197 0
174 197 0
173 197 0
173 196 0
174 198 0
175 198 0
174 197 0
174 198 0
174 197 0
174 197 0
174 198 0
174 198 0
174 198 0
172 196 0
175 198 0
173 196 0
174 197 0
175 197 0
173 197 0
174 198 0
174 197 0
172 196 0
174 197 0
174 197 0
174 198 0
174 197 0
175 198 0
175 198 0
173 197 0
173 197 0
172 196 0
174 198 0
175 198 0
175 198 0
175 198 0
173 197 0
173 197 0
174 197 0
174 197 0
174 198 0
175 198 0
173 196 0
173 197 0
175 198 0
174 198 0
176 198 0
174 197 0
172 196 0
172 196 0
173 197 0
175 198 0
172 196 0
173 197 0
172 196 0
175 198 0
173 197 0
175 198 0
173 197 0
174 197 0
174 198 0
173 197 0
173 196 0
170 193 0
174 197 0
175 198 0
175 198 0
175 198 0
171 195 0
174 197 0
174 198 0
173 197 0
173 196 0
173 197 0
174 198 0
174 197 0
174 197 0
171 194 0
173 197 0
174 197 0
173 197 0
174 198 0
173 197 0
173 196 0
175 198 0
172 196 0
173 197 0
173 196 0
173 196 0
174 196 0
173 196 0
174 197 0
175 198 0
174 197 0
173 197 0
172 197 0
174 197 0
173 197 0
173 197 0
173 197 0
173 196 0
173 197 0
172 196 0
173 197 0
174 197 0
175 198 0
173 197 0
174 197 0
172 195 0
171 195 0
173 197 0
173 196 0
172 196 0
175 198 0
173 196 0
172 195 0
172 196 0
172 195 0
174 197 0
172 196 0
172 195 0
172 195 0
174 197 0
173 196 0
174 198 0
172 196 0
173 196 0
174 197 0
174 197 0
174 197 0
174 198 0
173 196 0
174 197 0
171 194 0
173 196 0
173 197 0
175 197 0
170 194 0
172 196 0
172 195 0
172 195 0
172 195 0
174 197 0
171 195 0
173 196 0
173 197 0
173 197 0
172 195 25
170 194 25
165 188 57
159 183 70
147 172 97
152 175 94
138 164 115
139 164 117
123 149 133
117 143 140
125 151 135
112 139 147
115 142 145
114 141 144
114 140 145
106 133 153
106 134 152
110 138 150
106 133 152
114 141 145
127 153 132
106 134 151
117 144 143
120 147 138
127 153 127
139 164 114
146 171 102
153 177 94
156 179 84
156 179 84
165 189 62
169 192 45
170 193 32
172 195 19
170 193 18
172 196 0
171 194 0
174 196 0
173 196 0
174 196 0
174 198 0
171 194 0
172 197 0
175 197 0
172 196 0
171 195 0
174 197 0
171 195 0
173 197 0
173 196 0
172 196 0
171 194 0
173 196 0
175 197 0
174 197 0
172 196 0
172 195 0
172 195 0
174 197 0
174 197 0
173 196 0
172 196 0
172 196 0
171 195 0
173 196 0
173 195 0
170 190 0
169 189 16
173 188 28
174 188 36
173 184 41
173 183 45
175 180 56
176 179 68
182 182 79
185 179 89
186 178 93
190 179 103
188 177 104
191 179 109
191 179 111
192 179 114
190 179 114
189 178 114
187 177 114
187 177 114
185 176 114
184 176 114
183 175 114
183 175 114
181 174 114
180 174 114
179 173 114
178 173 114
178 173 114
177 172 114
176 172 114
175 171 114
174 171 114
173 171 114
173 170 114
172 170 114
171 170 114
170 169 114
170 169 114
169 169 114
169 169 114
168 168 114
168 168 114
167 168 114
166 168 114
166 168 114
166 167 114
165 167 114
165 167 114
165 167 114
164 167 114
164 166 114
163 166 114
163 166 114
163 166 114
163 166 114
162 166 114
162 166 114
162 166 114
162 166 114
162 166 114
162 166 114
162 166 114
162 166 114
162 166 114
162 166 114
162 166 114
162 166 114
162 166 114
162 166 114
162 166 114
163 166 114
163 166 114
163 166 114
163 166 114
163 166 114
164 167 114
164 167 114
164 167 114
165 167 114
165 167 114
166 167 114
166 167 114
167 168 114
167 168 114
168 168 114
168 168 114
169 169 114
170 169 114
170 169 114
171 170 114
172 170 114
172 170 114
173 171 114
174 171 114
175 171 114
175 172 114
177 172 114
178 173 114
178 173 114
180 174 114
181 174 114
182 175 114
183 175 114
184 176 114
186 176 114
186 177 114
188 177 114
189 178 114
192 179 114
192 180 114
191 178 109
191 179 106
189 179 102
189 181 97
184 182 82
182 183 76
180 185 68
173 187 42
174 189 34
173 192 25
172 192 0
171 193 0
173 196 0
174 197 0
172 196 0
174 197 0
174 197 0
173 196 0
172 195 0
173 196 0
174 197 0
174 197 0
175 197 0
173 196 0
175 197 0
173 197 0
175 198 0
172 195 0
172 196 0
172 196 0
174 198 0
173 197 0
174 197 0
174 198 0
173 197 0
175 198 0
173 197 0
173 196 0
174 197 0
175 198 0
174 198 0
175 198 0
174 197 0
173 196 0
173 196 0
174 196 0
173 196 0
177 199 0
175 197 0
173 197 0
174 198 0
174 198 0
176 199 0
176 198 0
174 197 0
173 197 0
174 198 0
174 197 0
174 198 0
175 198 0
174 197 0
175 198 0
172 196 0
174 197 0
174 197 0
174 197 0
175 198 0
175 198 0
173 197 0
174 198 0
172 196 0
174 197 0
175 198 0
175 198 0
174 198 0
174 197 0
172 195 0
173 197 0
174 197 0
172 196 0
174 198 0
173 197 0
174 198 0
174 198 0
176 198 0
173 197 0
173 197 0
173 196 0
174 198 0
172 196 0
174 198 0
171 195 0
172 196 0
175 198 0
174 197 0
173 196 0
174 197 0
174 197 0
174 197 0
174 197 0
173 196 0
173 196 0
173 197 0
173 196 0
172 196 0
171 195 0
175 198 0
173 196 0
174 197 0
172 196 0
174 197 0
175 198 0
174 198 0
174 198 0
174 196 0
171 195 0
174 197 0
175 198 0
174 197 0
173 196 0
174 198 0
173 197 0
174 197 0
175 198 0
173 196 0
175 198 0
175 198 0
174 196 0
174 198 0
174 198 0
172 196 0
173 197 0
172 195 0
172 195 0
173 196 0
173 196 0
174 198 0
173 196 0
174 197 0
171 195 0
174 198 0
172 196 0
174 197 0
173 197 0
173 196 0
175 198 0
174 198 0
173 197 0
174 197 0
174 198 0
173 197 0
172 196 0
174 197 0
174 197 0
175 197 0
172 196 0
172 196 0
173 196 0
172 195 0
173 197 0
171 193 0
172 195 0
173 196 0
174 197 0
173 197 0
174 197 0
174 197 0
170 194 0
175 198 0
172 196 0
172 196 0
171 195 0
174 197 0
174 198 0
172 196 0
172 196 0
175 197 0
174 197 0
174 196 0
172 195 0
174 197 0
173 196 0
170 194 0
174 197 0
174 197 0
174 198 0
174 198 0
173 196 0
175 198 0
175 198 0
173 196 0
174 198 0
173 196 0
173 196 0
173 195 0
174 197 0
173 196 0
172 196 0
173 197 0
173 196 0
171 194 0
172 196 0
173 196 0
172 196 0
173 196 0
173 195 0
171 195 0
171 195 0
173 196 0
172 196 0
172 195 0
173 195 0
173 196 0
175 198 0
174 197 0
175 198 0
172 194 0
173 195 0
170 194 18
171 194 31
167 190 47
156 180 80
151 175 90
147 171 99
141 166 108
128 153 130
109 137 147
107 135 150
96 126 160
76 110 173
89 120 164
77 110 173
66 102 179
65 101 178
64 101 180
64 101 180
61 99 181
61 98 180
63 100 180
61 99 181
61 98 180
64 100 180
61 98 180
64 100 180
63 100 180
71 105 175
72 106 174
70 105 177
70 104 172
93 123 163
91 122 163
106 134 149
114 141 144
126 151 129
140 164 113
141 166 111
159 182 77
168 192 51
165 188 57
168 190 40
171 195 0
172 196 0
171 195 0
172 196 0
173 195 0
172 195 0
172 195 0
172 195 0
173 197 0
173 196 0
173 197 0
173 196 0
171 194 0
172 195 0
174 196 0
171 193 0
172 194 0
172 195 0
171 195 0
175 198 0
171 194 0
173 196 0
175 198 0
171 195 0
174 197 0
171 194 0
172 195 0
171 193 0
172 192 0
171 190 0
169 189 0
170 186 19
171 182 36
174 182 52
179 183 68
179 180 73
176 174 70
183 177 84
184 178 89
188 179 97
188 176 100
188 177 104
192 179 111
191 179 112
191 179 114
190 179 114
189 178 114
187 177 114
186 176 114
185 176 114
184 176 114
183 175 114
182 175 114
181 174 114
181 174 114
179 173 114
178 173 114
178 173 114
176 172 114
176 172 114
175 171 114
174 171 114
173 171 114
173 171 114
172 170 114
172 170 114
170 169 114
170 169 114
169 169 114
169 169 114
168 168 114
167 168 114
167 168 114
167 168 114
166 167 114
165 167 114
165 167 114
165 167 114
164 167 114
164 167 114
164 166 114
164 166 114
163 166 114
163 166 114
163 166 114
163 166 114
162 166 114
162 166 114
162 166 114
162 166 114
162 166 114
162 166 114
162 166 114
162 166 114
162 166 114
162 166 114
162 166 114
162 166 114
162 166 114
162 166 114
163 166 114
163 166 114
163 166 114
163 166 114
164 166 114
164 167 114
164 167 114
165 167 114
165 167 114
166 167 114
166 167 114
166 168 114
167 168 114
167 168 114
168 168 114
169 169 114
169 169 114
170 169 114
170 169 114
171 170 114
172 170 114
172 170 114
173 171 114
174 171 114
175 172 114
175 172 114
176 172 114
178 173 114
179 173 114
179 174 114
181 174 114
181 174 114
182 175 114
184 176 114
185 176 114
186 177 114
187 177 114
189 178 114
190 178 114
191 179 114
192 179 113
187 176 103
189 180 101
186 179 94
186 179 93
181 180 76
178 183 65
179 184 65
175 186 47
168 182 19
172 190 16
172 193 0
173 196 0
174 197 0
171 194 0
173 197 0
175 198 0
174 198 0
172 196 0
173 196 0
173 196 0
174 197 0
173 196 0
174 196 0
175 198 0
175 198 0
172 195 0
174 197 0
174 197 0
175 197 0
173 197 0
173 196 0
175 198 0
173 197 0
175 198 0
174 197 0
172 196 0
175 197 0
174 197 0
173 197 0
173 197 0
176 198 0
174 198 0
174 197 0
175 198 0
174 197 0
175 198 0
174 198 0
173 197 0
174 197 0
176 198 0
174 198 0
173 197 0
173 197 0
175 198 0
173 197 0
174 197 0
172 196 0
171 196 0
174 198 0
175 198 0
173 196 0
175 198 0
174 197 0
174 197 0
175 198 0
173 197 0
175 198 0
173 196 0
175 198 0
174 197 0
174 198 0
172 197 0
174 198 0
174 197 0
174 197 0
174 197 0
173 197 0
173 197 0
172 196 0
175 198 0
174 197 0
174 197 0
174 198 0
173 197 0
175 198 0
173 197 0
172 196 0
173 197 0
174 198 0
174 198 0
175 198 0
172 195 0
175 198 0
174 197 0
174 197 0
173 196 0
173 197 0
174 197 0
173 197 0
174 197 0
172 196 0
175 198 0
174 197 0
174 198 0
175 198 0
175 198 0
175 198 0
174 197 0
173 196 0
175 198 0
174 197 0
175 198 0
175 198 0
173 196 0
176 199 0
173 197 0
173 196 0
175 198 0
173 197 0
174 197 0
175 198 0
174 197 0
172 196 0
173 197 0
174 197 0
173 197 0
170 195 0
174 197 0
174 198 0
174 197 0
173 197 0
173 196 0
173 197 0
172 196 0
174 197 0
174 197 0
174 197 0
173 196 0
174 197 0
172 196 0
174 197 0
173 197 0
173 197 0
175 198 0
172 195 0
173 197 0
174 197 0
174 198 0
173 196 0
174 197 0
173 197 0
173 197 0
174 197 0
174 197 0
174 198 0
174 197 0
174 197 0
172 197 0
171 194 0
170 193 0
175 198 0
173 197 0
172 196 0
173 196 0
171 195 0
172 195 0
170 194 0
173 196 0
173 197 0
175 198 0
171 195 0
174 197 0
172 195 0
174 197 0
174 197 0
173 197 0
175 198 0
173 196 0
173 196 0
173 196 0
174 197 0
175 198 0
171 195 0
172 195 0
173 196 0
174 197 0
173 196 0
175 198 0
174 197 0
172 195 0
173 196 0
172 195 0
174 197 0
172 196 0
171 194 0
173 197 0
172 196 0
172 195 0
169 193 0
173 197 0
172 195 0
174 197 0
170 193 0
172 196 0
174 197 0
174 196 0
173 197 0
173 197 0
171 194 0
172 196 0
172 196 0
174 197 0
173 197 0
174 197 0
174 197 0
169 192 36
163 187 67
155 179 82
154 178 92
132 157 125
121 148 136
108 136 148
94 124 161
81 114 170
67 103 178
61 99 180
62 99 181
62 99 180
62 99 181
61 98 180
61 98 180
62 99 181
61 98 181
62 99 181
61 98 180
62 99 181
61 99 181
62 99 181
62 99 181
61 99 181
62 99 181
61 99 181
62 99 181
61 99 180
62 99 181
61 99 181
62 99 179
61 99 181
62 99 180
62 99 180
64 100 177
66 101 176
71 106 175
81 113 170
98 127 159
116 142 143
122 148 135
138 163 112
150 174 95
154 177 86
165 189 54
169 193 40
174 197 18
171 194 0
172 196 0
173 196 0
173 195 0
173 196 0
173 197 0
173 196 0
172 196 0
174 196 0
170 194 0
171 194 0
172 195 0
173 196 0
173 195 0
174 197 0
173 196 0
172 195 0
173 195 0
170 193 0
172 196 0
173 196 0
172 196 0
174 195 0
173 196 0
171 192 0
169 187 0
170 188 11
172 185 34
172 182 39
173 182 47
176 180 65
178 177 70
178 181 68
184 178 87
185 178 92
188 177 100
189 177 105
191 178 108
192 179 112
193 180 114
192 179 114
190 178 114
188 178 114
188 177 114
186 177 114
185 176 114
184 176 114
183 175 114
182 175 114
181 174 114
180 174 114
179 173 114
178 173 114
177 173 114
176 172 114
176 172 114
175 171 114
174 171 114
173 171 114
173 170 114
172 170 114
171 170 114
170 169 114
170 169 114
169 169 114
169 169 114
168 168 114
168 168 114
167 168 114
167 168 114
166 168 114
166 167 114
165 167 114
165 167 114
165 167 114
164 167 114
164 167 114
164 166 114
164 166 114
163 166 114
163 166 114
163 166 114
163 166 114
162 166 114
162 166 114
162 166 114
162 166 114
162 166 114
162 166 114
162 166 114
162 166 114
162 166 114
162 166 114
162 166 114
162 166 114
163 166 114
163 166 114
163 166 114
163 166 114
163 166 114
164 166 114
164 167 114
164 167 114
165 167 114
165 167 114
165 167 114
166 167 114
166 168 114
167 168 114
167 168 114
168 168 114
168 168 114
169 169 114
170 169 114
171 169 114
171 170 114
172 170 114
172 170 114
173 171 114
174 171 114
174 171 114
175 172 114
177 172 114
178 173 114
178 173 114
179 173 114
180 174 114
181 174 114
183 175 114
183 175 114
184 176 114
186 177 114
188 178 114
188 178 114
190 178 114
192 179 114
193 180 113
191 178 110
191 179 105
190 179 103
185 181 90
181 180 80
182 181 78
178 188 54
174 186 37
172 188 30
171 186 22
173 193 0
172 194 0
174 197 0
175 198 0
173 196 0
174 198 0
173 197 0
173 196 0
174 198 0
173 197 0
174 196 0
174 198 0
173 197 0
175 197 0
174 197 0
176 199 0
174 197 0
172 196 0
176 199 0
174 197 0
174 197 0
175 198 0
174 196 0
174 197 0
174 197 0
174 196 0
175 197 0
176 199 0
175 197 0
172 197 0
175 197 0
175 198 0
176 198 0
173 197 0
174 197 0
174 196 0
175 198 0
175 198 0
174 197 0
173 197 0
174 198 0
174 198 0
173 197 0
175 198 0
173 197 0
175 198 0
175 197 0
173 195 0
175 198 0
175 198 0
173 196 0
174 198 0
173 197 0
175 198 0
175 197 0
173 197 0
173 196 0
174 198 0
172 196 0
174 197 0
171 196 0
176 198 0
173 197 0
174 197 0
172 196 0
174 197 0
172 196 0
174 197 0
175 198 0
173 196 0
175 198 0
174 198 0
175 198 0
174 198 0
173 197 0
175 197 0
174 198 0
172 196 0
175 198 0
173 197 0
174 198 0
172 196 0
174 198 0
172 196 0
175 198 0
173 197 0
174 197 0
171 195 0
174 197 0
172 196 0
174 197 0
172 195 0
173 197 0
174 197 0
176 198 0
173 197 0
172 195 0
174 197 0
175 198 0
171 195 0
174 197 0
172 196 0
174 197 0
174 198 0
173 196 0
175 198 0
174 198 0
173 196 0
173 197 0
174 197 0
172 195 0
172 196 0
174 197 0
173 197 0
174 197 0
175 198 0
174 197 0
173 196 0
175 198 0
172 196 0
173 197 0
173 196 0
175 198 0
175 198 0
173 197 0
174 197 0
173 197 0
175 197 0
174 197 0
175 198 0
172 196 0
174 197 0
173 196 0
172 195 0
172 195 0
174 198 0
172 197 0
174 197 0
173 197 0
173 196 0
174 197 0
174 197 0
174 198 0
173 196 0
175 198 0
172 196 0
171 194 0
171 194 0
176 198 0
175 198 0
172 196 0
172 196 0
173 196 0
172 196 0
174 197 0
173 196 0
174 198 0
171 195 0
173 196 0
174 198 0
173 196 0
173 196 0
173 197 0
172 196 0
174 197 0
172 195 0
174 197 0
172 196 0
173 196 0
172 196 0
173 197 0
174 198 0
172 195 0
172 196 0
174 197 0
173 196 0
171 195 0
173 197 0
173 196 0
172 195 0
172 196 0
173 196 0
174 197 0
170 193 0
172 196 0
173 197 0
172 196 0
173 196 0
172 196 0
172 196 0
174 197 0
171 195 0
173 196 0
174 196 0
175 198 0
173 197 0
168 193 0
174 197 0
173 197 0
174 198 0
173 196 0
174 197 0
171 194 36
169 191 44
154 179 86
144 169 108
141 165 113
126 152 133
90 120 164
75 109 172
68 103 176
62 99 181
61 99 180
62 99 181
61 98 180
61 99 181
61 99 181
61 99 181
61 98 181
61 98 181
61 99 181
61 99 181
61 99 181
61 99 181
61 99 181
62 99 181
61 98 181
62 99 180
62 99 181
61 99 181
61 99 181
61 98 181
62 99 180
61 99 181
61 99 181
61 98 180
61 99 180
61 99 181
62 99 181
62 99 181
61 98 180
62 99 180
61 98 178
61 99 180
61 99 181
66 102 179
65 101 176
77 110 171
105 133 151
116 143 140
126 152 128
145 170 104
154 178 83
165 188 65
169 192 40
174 197 0
173 196 0
170 193 0
171 194 0
171 195 0
173 196 0
170 194 0
172 195 0
171 195 0
173 196 0
173 197 0
173 196 0
172 196 0
171 195 0
173 195 0
174 197 0
175 198 0
175 197 0
172 194 0
173 196 0
172 194 0
171 192 0
170 189 0
170 188 0
171 188 19
171 184 32
173 182 47
172 177 49
178 183 64
179 178 72
181 176 79
181 178 81
186 180 92
187 177 97
191 178 107
191 178 108
194 180 114
193 180 114
190 179 114
189 178 114
188 177 114
187 177 114
186 177 114
185 176 114
184 176 114
183 175 114
182 175 114
181 174 114
181 174 114
179 173 114
178 173 114
177 173 114
176 172 114
176 172 114
175 171 114
174 171 114
173 171 114
172 170 114
172 170 114
171 170 114
170 169 114
170 169 114
169 169 114
169 169 114
168 168 114
168 168 114
167 168 114
167 168 114
166 168 114
166 167 114
166 167 114
165 167 114
165 167 114
164 167 114
164 167 114
164 166 114
164 166 114
163 166 114
163 166 114
163 166 114
163 166 114
163 166 114
162 166 114
162 166 114
162 166 114
162 166 114
162 166 114
162 166 114
162 166 114
162 166 114
162 166 114
163 166 114
163 166 114
163 166 114
163 166 114
163 166 114
163 166 114
164 166 114
164 166 114
164 167 114
164 167 114
165 167 114
165 167 114
166 167 114
166 167 114
166 168 114
167 168 114
168 168 114
168 168 114
168 169 114
169 169 114
170 169 114
170 169 114
171 170 114
172 170 114
172 170 114
173 171 114
174 171 114
175 171 114
176 172 114
176 172 114
177 172 114
178 173 114
179 173 114
180 174 114
181 174 114
182 175 114
183 175 114
184 176 114
186 177 114
187 177 114
188 178 114
189 178 114
191 179 114
193 180 114
193 180 113
191 179 108
188 177 101
187 179 93
182 178 83
185 185 80
177 180 64
175 186 48
175 185 52
171 187 25
170 191 11
172 192 0
173 196 0
173 196 0
173 196 0
173 195 0
175 198 0
174 196 0
173 197 0
174 197 0
173 196 0
174 197 0
175 198 0
174 196 0
175 197 0
175 198 0
174 197 0
175 198 0
174 198 0
173 197 0
175 197 0
174 197 0
175 198 0
174 198 0
173 197 0
174 198 0
172 196 0
174 197 0
175 198 0
173 196 0
174 197 0
174 197 0
173 197 0
174 196 0
171 194 0
175 198 0
174 197 0
174 197 0
174 196 0
175 198 0
173 197 0
174 198 0
173 197 0
172 197 0
174 198 0
174 198 0
173 197 0
175 198 0
174 197 0
174 197 0
174 197 0
174 197 0
173 196 0
175 198 0
173 196 0
173 197 0
173 197 0
176 198 0
173 196 0
174 197 0
174 198 0
173 197 0
174 197 0
174 198 0
174 198 0
174 197 0
174 198 0
174 198 0
173 196 0
176 198 0
175 198 0
174 198 0
175 198 0
173 197 0
174 198 0
173 197 0
174 198 0
175 198 0
173 197 0
174 198 0
171 195 0
174 197 0
174 196 0
173 197 0
175 198 0
175 198 0
174 198 0
175 198 0
174 197 0
174 198 0
174 198 0
171 195 0
174 197 0
174 198 0
174 197 0
173 197 0
175 198 0
172 196 0
173 196 0
174 197 0
174 197 0
173 197 0
173 197 0
174 197 0
173 197 0
174 198 0
173 197 0
173 196 0
174 197 0
174 198 0
175 198 0
173 197 0
173 196 0
174 197 0
173 197 0
174 197 0
173 197 0
173 197 0
172 196 0
173 196 0
173 197 0
173 197 0
174 197 0
173 197 0
173 196 0
174 197 0
175 198 0
174 198 0
175 198 0
173 197 0
175 198 0
172 195 0
173 196 0
173 196 0
172 196 0
172 196 0
173 197 0
174 197 0
171 195 0
172 195 0
172 196 0
175 198 0
173 197 0
175 197 0
173 196 0
174 197 0
174 197 0
173 196 0
173 197 0
173 196 0
174 197 0
172 195 0
176 199 0
174 198 0
174 197 0
174 196 0
174 198 0
175 197 0
170 194 0
174 197 0
172 196 0
172 194 0
173 197 0
175 198 0
174 197 0
173 197 0
172 196 0
174 197 0
174 197 0
173 196 0
174 197 0
173 195 0
174 197 0
171 195 0
171 195 0
175 198 0
174 198 0
172 195 0
172 195 0
172 195 0
174 197 0
174 197 0
175 198 0
172 196 0
173 196 0
173 196 0
172 194 0
174 197 0
173 196 0
171 195 0
174 197 0
175 197 0
175 198 0
173 197 0
173 196 0
174 196 0
173 195 0
174 197 0
173 197 0
173 196 0
169 192 44
161 185 70
145 169 107
129 154 128
114 141 145
98 126 155
70 104 175
62 99 181
62 99 181
62 99 180
62 99 181
61 98 181
61 99 181
61 99 181
61 99 181
61 99 181
61 99 181
62 99 181
61 99 181
61 99 181
61 99 181
62 99 181
61 99 181
61 99 181
61 98 181
62 99 181
62 99 181
61 99 181
62 99 181
61 99 181
61 99 181
62 99 181
62 99 181
62 99 181
61 98 181
61 98 180
62 99 181
61 99 181
61 99 180
62 99 179
62 99 180
61 98 181
61 99 181
62 99 180
61 98 177
61 99 181
62 99 180
62 99 180
61 98 176
68 103 176
80 112 170
97 126 159
125 150 134
136 161 118
146 169 101
156 180 80
167 191 51
169 193 25
173 196 0
170 194 0
172 195 0
174 197 0
175 197 0
174 197 0
171 195 0
169 192 0
171 193 0
173 195 0
171 195 0
173 195 0
173 195 0
170 193 0
173 196 0
171 194 0
171 193 0
170 193 0
172 192 0
169 188 0
170 189 16
169 186 16
175 185 45
176 186 49
172 176 52
179 178 71
181 180 76
184 177 86
184 177 89
186 175 95
189 177 103
192 179 109
193 179 112
192 180 113
192 179 114
191 179 114
189 178 114
188 178 114
186 177 114
185 176 114
185 176 114
185 176 114
183 175 114
181 174 114
181 174 114
180 174 114
179 174 114
178 173 114
177 173 114
176 172 114
175 172 114
175 171 114
174 171 114
174 171 114
172 170 114
172 170 114
171 170 114
171 169 114
170 169 114
169 169 114
169 169 114
169 169 114
168 168 114
168 168 114
167 168 114
166 168 114
166 168 114
166 167 114
165 167 114
165 167 114
164 167 114
164 167 114
164 167 114
164 166 114
163 166 114
163 166 114
163 166 114
163 166 114
163 166 114
163 166 114
163 166 114
163 166 114
162 166 114
163 166 114
162 166 114
163 166 114
163 166 114
163 166 114
163 166 114
163 166 114
163 166 114
163 166 114
163 166 114
164 166 114
164 166 114
164 167 114
164 167 114
165 167 114
165 167 114
165 167 114
166 167 114
166 167 114
167 168 114
167 168 114
167 168 114
168 168 114
169 169 114
169 169 114
170 169 114
170 169 114
171 170 114
171 170 114
172 170 114
173 171 114
174 171 114
175 171 114
176 172 114
176 172 114
177 173 114
178 173 114
179 174 114
180 174 114
181 174 114
182 175 114
183 175 114
185 176 114
186 177 114
187 177 114
188 178 114
189 178 114
191 179 114
192 179 114
194 180 114
191 178 109
191 180 106
186 178 94
183 178 86
184 182 82
178 182 66
176 181 61
176 188 44
173 189 34
173 190 25
171 190 0
170 191 0
174 197 0
172 195 0
174 196 0
175 198 0
175 197 0
175 197 0
174 196 0
174 198 0
173 196 0
174 196 0
174 197 0
174 197 0
173 197 0
173 196 0
175 197 0
173 197 0
174 196 0
172 196 0
175 198 0
175 198 0
173 197 0
173 196 0
175 198 0
174 197 0
173 196 0
172 196 0
173 197 0
173 197 0
173 197 0
173 196 0
174 198 0
175 198 0
173 197 0
173 197 0
173 197 0
173 197 0
176 199 0
174 198 0
174 197 0
174 197 0
174 197 0
173 197 0
173 197 0
172 196 0
175 198 0
174 197 0
173 197 0
175 198 0
175 198 0
173 197 0
174 197 0
176 198 0
173 196 0
175 198 0
174 197 0
174 197 0
174 197 0
173 197 0
173 197 0
174 197 0
173 197 0
174 198 0
173 197 0
173 197 0
176 198 0
173 197 0
174 197 0
170 194 0
174 197 0
173 197 0
174 197 0
174 197 0
176 198 0
172 196 0
173 197 0
171 195 0
173 197 0
174 197 0
173 196 0
172 196 0
176 198 0
173 197 0
172 196 0
176 198 0
174 197 0
173 197 0
175 198 0
174 198 0
174 198 0
174 198 0
173 197 0
173 197 0
176 198 0
174 197 0
173 196 0
172 196 0
175 198 0
175 198 0
176 198 0
174 198 0
175 198 0
172 196 0
174 198 0
175 198 0
175 198 0
173 197 0
173 197 0
172 196 0
175 198 0
174 198 0
173 197 0
173 197 0
172 196 0
173 197 0
175 198 0
173 196 0
173 197 0
174 197 0
175 198 0
174 197 0
174 198 0
171 194 0
174 197 0
174 197 0
174 198 0
174 197 0
173 196 0
174 197 0
175 198 0
172 196 0
174 197 0
175 197 0
172 195 0
173 196 0
172 195 0
174 197 0
171 195 0
171 195 0
174 197 0
172 196 0
172 196 0
174 198 0
174 197 0
172 196 0
175 198 0
173 197 0
174 196 0
175 198 0
173 196 0
173 197 0
171 195 0
174 196 0
172 196 0
173 196 0
174 197 0
175 198 0
174 197 0
173 196 0
174 197 0
174 197 0
175 198 0
172 195 0
172 195 0
174 197 0
173 197 0
174 197 0
173 196 0
172 196 0
175 198 0
173 197 0
173 196 0
171 194 0
172 195 0
174 198 0
172 195 0
172 196 0
174 197 0
173 196 0
172 196 0
171 194 0
175 197 0
169 193 0
174 196 0
172 195 0
171 195 0
173 197 0
174 197 0
174 197 0
171 195 0
173 196 0
171 194 0
172 194 0
173 196 0
174 197 0
172 195 18
164 187 60
156 181 84
140 165 113
124 150 131
107 134 151
77 110 172
64 100 176
62 99 178
62 99 179
62 99 181
62 99 181
61 99 181
61 99 180
62 99 181
62 99 181
62 99 181
61 99 181
61 98 181
61 99 181
61 98 181
61 99 181
61 99 181
61 99 181
62 99 181
61 99 181
61 99 181
61 99 181
62 99 181
61 99 181
62 99 181
62 99 181
62 99 181
61 99 181
61 99 181
61 98 181
61 98 181
61 98 180
61 99 181
62 99 181
61 98 181
61 98 181
61 99 181
61 99 179
61 98 180
61 99 181
62 99 181
61 98 181
61 99 180
61 99 180
62 99 181
61 97 177
62 99 181
62 99 180
61 98 178
65 101 177
84 116 163
110 137 145
121 147 133
139 163 108
151 175 89
161 184 67
170 194 18
172 196 18
173 196 0
171 193 0
173 195 0
172 195 0
172 195 0
175 198 0
172 196 0
173 195 0
172 196 0
173 195 0
174 197 0
175 196 0
172 194 0
173 196 0
169 191 0
171 192 0
170 188 0
168 184 22
170 183 28
171 178 42
172 179 48
175 176 65
180 180 74
179 178 75
180 175 81
181 174 84
189 176 101
189 176 103
192 179 110
192 179 111
193 180 114
192 180 114
191 179 114
190 178 114
188 178 114
187 177 114
186 176 114
184 176 114
184 176 114
182 175 114
181 174 114
181 174 114
180 174 114
179 173 114
178 173 114
177 173 114
177 172 114
176 172 114
175 172 114
174 171 114
174 171 114
173 171 114
172 170 114
171 170 114
171 170 114
170 169 114
170 169 114
169 169 114
169 169 114
168 168 114
168 168 114
167 168 114
166 168 114
166 168 114
166 167 114
166 167 114
165 167 114
165 167 114
165 167 114
164 167 114
164 167 114
164 166 114
164 166 114
163 166 114
163 166 114
163 166 114
163 166 114
163 166 114
163 166 114
163 166 114
163 166 114
163 166 114
163 166 114
163 166 114
163 166 114
163 166 114
163 166 114
163 166 114
163 166 114
164 166 114
164 166 114
164 167 114
164 167 114
164 167 114
165 167 114
165 167 114
166 167 114
166 167 114
166 168 114
167 168 114
167 168 114
168 168 114
168 168 114
169 169 114
169 169 114
170 169 114
171 170 114
171 170 114
172 170 114
173 170 114
173 171 114
174 171 114
175 171 114
175 172 114
176 172 114
177 173 114
178 173 114
180 174 114
180 174 114
181 174 114
182 175 114
183 175 114
184 176 114
185 176 114
187 177 114
187 177 114
188 178 114
190 179 114
192 179 114
194 180 114
193 180 112
192 179 109
187 176 99
189 179 99
184 178 84
181 181 75
178 184 59
173 180 47
176 190 34
171 188 19
171 188 16
173 194 0
174 197 0
171 195 0
173 197 0
174 197 0
173 197 0
174 197 0
174 196 0
173 196 0
174 197 0
173 196 0
174 197 0
174 196 0
173 196 0
173 196 0
174 197 0
173 197 0
173 197 0
173 196 0
175 198 0
175 198 0
174 197 0
174 197 0
174 197 0
174 197 0
174 196 0
173 196 0
173 196 0
174 198 0
174 197 0
174 197 0
174 197 0
176 199 0
174 198 0
176 198 0
173 197 0
175 198 0
173 197 0
175 198 0
174 197 0
173 197 0
174 197 0
174 197 0
173 197 0
173 197 0
174 197 0
175 198 0
174 197 0
175 198 0
172 196 0
175 198 0
174 197 0
173 196 0
176 199 0
176 199 0
174 198 0
173 197 0
173 196 0
175 198 0
174 198 0
173 197 0
173 196 0
175 198 0
173 197 0
176 199 0
173 197 0
173 197 0
174 197 0
173 197 0
173 197 0
173 197 0
176 198 0
174 197 0
174 197 0
173 197 0
175 198 0
174 198 0
174 198 0
174 197 0
174 198 0
173 197 0
172 195 0
174 198 0
172 196 0
173 196 0
173 197 0
173 197 0
172 196 0
174 197 0
175 198 0
175 198 0
172 195 0
174 198 0
174 197 0
172 196 0
173 196 0
174 197 0
173 197 0
172 196 0
174 197 0
174 197 0
172 195 0
175 198 0
174 198 0
174 197 0
174 197 0
171 195 0
175 198 0
173 196 0
174 197 0
175 197 0
174 196 0
173 197 0
175 198 0
173 197 0
175 198 0
174 198 0
172 196 0
172 195 0
174 197 0
175 197 0
173 196 0
175 198 0
174 198 0
173 196 0
172 196 0
174 197 0
174 197 0
175 198 0
173 196 0
172 196 0
174 197 0
175 198 0
173 196 0
174 197 0
174 197 0
171 194 0
174 197 0
172 195 0
171 195 0
175 197 0
173 196 0
175 198 0
173 196 0
173 196 0
174 198 0
173 197 0
170 193 0
172 196 0
175 198 0
175 198 0
174 197 0
172 195 0
173 197 0
173 197 0
173 196 0
175 197 0
173 197 0
174 197 0
171 195 0
171 194 0
173 197 0
172 196 0
173 197 0
174 198 0
174 197 0
172 195 0
173 196 0
174 198 0
173 196 0
173 197 0
175 198 0
172 196 0
174 198 0
172 196 0
173 197 0
173 196 0
173 196 0
170 194 0
173 197 0
173 196 0
174 198 0
174 197 0
171 194 0
173 197 0
172 195 0
172 195 0
174 198 0
173 195 0
175 198 0
173 196 0
174 196 0
169 194 0
171 195 25
164 187 60
155 178 86
132 158 125
108 135 149
85 116 169
70 105 176
62 99 180
62 99 180
62 99 180
62 99 181
62 99 181
61 99 181
62 99 181
62 99 181
62 99 181
62 99 179
62 99 181
61 99 181
61 99 181
61 99 181
61 99 181
62 99 181
62 99 181
61 98 181
61 98 181
61 98 181
61 99 181
62 99 181
61 99 181
62 99 181
61 99 181
62 99 181
61 98 181
62 99 181
62 99 181
61 99 181
61 99 181
61 99 181
61 99 181
62 99 181
61 99 181
62 99 181
61 98 181
62 99 181
62 99 181
62 99 181
62 99 181
62 99 179
61 99 180
62 99 180
62 99 181
62 99 181
62 99 180
61 99 180
62 99 181
62 99 181
61 98 179
62 99 178
65 101 178
72 106 174
86 116 164
118 145 139
133 158 117
147 170 103
159 182 64
168 191 37
172 196 18
171 195 0
171 194 0
171 194 0
173 196 0
174 196 0
173 196 0
174 197 0
173 196 0
173 196 0
174 197 0
171 193 0
172 194 0
168 189 0
171 189 0
168 186 0
168 183 22
169 181 30
172 182 37
172 177 54
175 179 62
176 174 69
182 177 85
185 175 91
181 172 87
187 175 99
190 177 106
192 179 109
193 180 114
193 180 114
192 179 114
190 179 114
190 178 114
187 177 114
187 177 114
185 176 114
186 176 114
183 175 114
183 175 114
182 175 114
181 174 114
180 174 114
179 173 114
178 173 114
178 173 114
176 172 114
176 172 114
175 172 114
174 171 114
174 171 114
173 171 114
172 170 114
172 170 114
171 170 114
170 169 114
170 169 114
169 169 114
169 169 114
168 169 114
168 168 114
167 168 114
167 168 114
167 168 114
166 167 114
166 168 114
165 167 114
165 167 114
165 167 114
165 167 114
164 167 114
164 167 114
164 167 114
164 166 114
163 166 114
164 166 114
164 166 114
163 166 114
163 166 114
163 166 114
163 166 114
163 166 114
163 166 114
163 166 114
163 166 114
163 166 114
164 166 114
164 166 114
164 166 114
164 167 114
164 167 114
164 167 114
164 167 114
165 167 114
165 167 114
166 167 114
166 167 114
166 167 114
167 168 114
167 168 114
168 168 114
168 168 114
169 169 114
169 169 114
170 169 114
170 169 114
171 170 114
171 170 114
172 170 114
172 170 114
173 171 114
174 171 114
175 171 114
176 172 114
176 172 114
177 173 114
178 173 114
179 173 114
180 174 114
181 174 114
182 175 114
183 175 114
183 175 114
185 176 114
186 177 114
187 177 114
189 178 114
190 179 114
191 179 114
193 180 114
193 180 113
193 180 111
191 180 104
184 174 91
179 176 75
182 182 76
175 179 60
175 179 58
172 181 47
171 187 32
170 189 0
172 192 0
175 196 0
175 196 0
173 197 0
173 196 0
173 196 0
173 196 0
175 198 0
174 197 0
172 197 0
175 198 0
173 196 0
173 197 0
177 199 0
173 196 0
172 195 0
174 197 0
173 197 0
174 196 0
173 196 0
174 197 0
175 197 0
175 198 0
174 198 0
175 198 0
173 197 0
173 197 0
175 198 0
174 196 0
174 197 0
174 197 0
175 197 0
175 198 0
172 196 0
174 198 0
175 198 0
174 197 0
174 196 0
176 198 0
175 198 0
174 198 0
174 197 0
174 197 0
174 197 0
173 196 0
175 197 0
174 197 0
175 198 0
174 197 0
174 198 0
174 197 0
174 198 0
174 197 0
174 197 0
174 198 0
173 196 0
172 196 0
174 197 0
173 196 0
173 197 0
174 198 0
175 198 0
175 198 0
172 196 0
173 197 0
173 197 0
174 197 0
174 198 0
172 197 0
174 198 0
174 198 0
175 198 0
173 197 0
172 196 0
174 198 0
175 198 0
173 197 0
174 197 0
173 196 0
173 197 0
174 198 0
173 196 0
173 196 0
173 197 0
174 197 0
176 199 0
174 197 0
174 196 0
174 198 0
175 198 0
173 197 0
173 197 0
174 197 0
173 196 0
172 196 0
175 197 0
174 197 0
175 198 0
175 198 0
173 197 0
174 197 0
175 198 0
173 196 0
174 197 0
171 196 0
174 197 0
175 198 0
174 197 0
175 197 0
173 197 0
174 197 0
173 196 0
174 197 0
171 195 0
174 197 0
173 197 0
174 197 0
173 196 0
171 194 0
174 198 0
175 198 0
173 196 0
173 197 0
173 196 0
174 197 0
173 196 0
172 196 0
172 196 0
173 196 0
174 197 0
172 195 0
171 194 0
172 196 0
175 198 0
174 197 0
173 196 0
175 197 0
173 197 0
173 196 0
172 195 0
173 197 0
173 196 0
174 196 0
176 198 0
171 196 0
175 197 0
172 196 0
173 197 0
173 197 0
174 197 0
172 196 0
173 195 0
175 198 0
175 198 0
172 195 0
171 194 0
171 195 0
174 197 0
173 197 0
169 194 0
173 196 0
171 194 0
172 195 0
171 195 0
172 197 0
173 197 0
172 196 0
171 194 0
174 198 0
172 195 0
174 197 0
175 197 0
173 196 0
174 198 0
173 196 0
173 196 0
171 194 0
172 196 0
171 195 0
173 196 0
170 194 0
172 196 0
174 197 0
169 193 0
172 196 0
175 198 0
173 197 0
170 194 0
174 197 0
173 196 0
171 194 0
172 194 18
168 191 47
160 183 65
127 154 129
115 142 143
83 115 167
64 100 178
61 99 179
62 99 179
62 99 180
61 98 179
62 99 181
62 99 181
62 99 181
62 99 179
62 99 181
61 99 181
62 99 181
61 99 181
62 99 181
62 99 181
62 99 181
62 99 181
61 99 181
61 99 181
62 99 181
62 99 181
61 98 181
61 98 181
61 98 181
61 98 181
62 99 181
61 99 181
61 99 181
61 98 181
61 98 181
61 99 181
62 99 181
62 99 181
62 99 181
61 99 181
62 99 181
61 99 181
61 99 181
61 99 181
61 99 181
62 99 181
61 98 181
62 99 181
61 99 181
62 99 181
62 99 181
61 98 180
62 99 181
61 99 181
62 99 180
61 98 178
62 99 180
61 99 181
61 98 179
61 99 180
62 99 178
62 98 177
61 98 178
70 104 174
86 117 166
105 133 150
128 153 124
152 175 82
164 187 63
170 194 18
173 196 0
173 196 0
173 196 0
172 195 0
170 194 0
174 197 0
172 194 0
172 194 0
174 196 0
170 192 0
171 192 0
170 189 0
168 186 0
168 185 11
166 179 22
170 182 36
171 178 48
177 180 61
178 178 69
180 176 79
179 176 76
185 176 91
185 175 94
190 177 103
191 178 107
192 179 110
193 180 113
192 180 114
191 179 114
190 178 114
189 178 114
188 177 114
186 177 114
185 176 114
185 176 114
184 176 114
182 175 114
182 175 114
181 174 114
180 174 114
180 174 114
179 173 114
178 173 114
177 172 114
176 172 114
175 172 114
175 171 114
174 171 114
173 171 114
173 171 114
172 170 114
171 170 114
171 170 114
170 169 114
170 169 114
169 169 114
169 169 114
168 169 114
168 168 114
168 168 114
167 168 114
167 168 114
166 167 114
166 167 114
166 167 114
165 167 114
165 167 114
165 167 114
165 167 114
164 167 114
164 167 114
164 167 114
164 166 114
164 166 114
164 166 114
164 166 114
163 166 114
163 166 114
164 166 114
164 166 114
164 166 114
164 166 114
164 166 114
164 166 114
164 167 114
164 167 114
164 167 114
165 167 114
165 167 114
165 167 114
165 167 114
165 167 114
166 167 114
166 168 114
167 168 114
167 168 114
167 168 114
168 168 114
168 168 114
169 169 114
169 169 114
170 169 114
171 170 114
171 170 114
171 170 114
172 170 114
173 171 114
173 171 114
174 171 114
175 171 114
176 172 114
177 172 114
177 173 114
178 173 114
179 174 114
180 174 114
181 174 114
182 175 114
183 175 114
184 176 114
185 176 114
186 177 114
187 177 114
189 178 114
190 178 114
191 179 114
193 180 114
194 180 113
193 179 110
189 177 104
187 176 96
183 177 86
184 180 85
179 176 73
179 183 64
172 182 44
172 186 30
169 186 16
171 189 0
172 193 0
174 197 0
175 197 0
173 196 0
174 197 0
174 197 0
174 198 0
174 197 0
172 196 0
174 197 0
175 197 0
173 197 0
175 197 0
174 198 0
174 198 0
174 197 0
174 197 0
174 198 0
173 196 0
174 196 0
174 197 0
173 197 0
174 196 0
175 197 0
174 197 0
174 198 0
174 197 0
175 198 0
173 197 0
175 197 0
174 196 0
174 198 0
174 197 0
174 197 0
173 197 0
174 197 0
176 198 0
174 197 0
173 197 0
173 197 0
175 198 0
173 196 0
174 196 0
175 198 0
175 197 0
174 198 0
173 196 0
171 195 0
174 197 0
174 197 0
172 196 0
176 199 0
175 197 0
176 198 0
174 198 0
173 197 0
172 196 0
174 197 0
174 197 0
175 198 0
172 195 0
174 197 0
175 198 0
176 198 0
173 197 0
174 197 0
171 195 0
173 197 0
174 197 0
173 197 0
175 198 0
171 194 0
173 197 0
172 196 0
174 198 0
172 196 0
174 197 0
175 198 0
174 197 0
173 197 0
175 198 0
174 198 0
173 197 0
175 198 0
173 197 0
174 197 0
176 199 0
173 197 0
173 197 0
173 196 0
173 196 0
174 197 0
173 197 0
173 196 0
172 196 0
173 196 0
174 197 0
174 197 0
173 196 0
174 198 0
174 198 0
173 196 0
174 197 0
174 197 0
173 197 0
173 197 0
175 198 0
175 198 0
173 197 0
173 196 0
174 198 0
172 196 0
173 196 0
173 197 0
174 197 0
175 198 0
173 197 0
171 195 0
173 197 0
171 194 0
174 197 0
173 197 0
174 197 0
173 197 0
172 196 0
173 197 0
173 196 0
173 196 0
173 196 0
174 198 0
174 196 0
172 196 0
174 197 0
175 198 0
174 198 0
172 195 0
174 197 0
172 196 0
173 196 0
174 198 0
172 195 0
173 197 0
174 197 0
173 195 0
174 197 0
175 198 0
172 196 0
174 197 0
173 196 0
175 198 0
171 195 0
172 195 0
172 196 0
173 196 0
171 195 0
171 195 0
171 195 0
176 198 0
174 197 0
172 196 0
171 195 0
171 196 0
175 198 0
171 195 0
175 198 0
172 194 0
172 195 0
172 196 0
173 197 0
173 197 0
175 198 0
170 194 0
173 197 0
174 197 0
175 198 0
175 198 0
174 197 0
171 194 0
173 196 0
172 196 0
172 195 0
168 192 0
174 197 0
173 196 0
173 196 0
172 196 0
172 195 0
170 193 0
172 196 18
167 191 47
152 176 94
128 154 128
102 131 151
73 107 174
64 101 179
62 99 176
62 99 179
62 99 179
62 99 180
61 99 180
61 99 181
61 99 180
61 99 181
62 99 181
61 99 181
62 99 181
61 99 181
62 99 181
61 98 181
62 99 181
62 99 181
62 99 181
61 99 181
62 99 181
61 98 181
61 99 181
62 99 181
61 99 181
61 98 181
62 99 181
61 98 181
61 99 181
61 99 181
62 99 181
62 99 181
61 99 181
62 99 181
61 99 181
61 99 181
61 98 181
62 99 181
62 99 181
61 98 181
61 99 181
61 99 181
62 99 181
61 99 181
61 98 181
61 99 181
62 99 181
62 99 181
62 99 181
62 99 181
61 99 180
61 98 178
61 98 179
61 98 180
62 99 178
62 99 180
61 98 179
62 99 179
62 98 177
62 99 180
61 98 178
62 99 178
61 98 178
69 104 174
79 112 169
117 143 137
135 160 117
151 175 91
158 182 77
171 195 25
174 197 0
171 194 0
173 197 0
174 195 0
173 195 0
171 193 0
173 193 0
172 194 0
170 191 0
170 189 0
169 186 0
168 181 11
166 178 16
170 182 32
172 179 49
174 175 59
177 177 67
174 171 72
185 177 90
182 172 88
184 173 95
189 177 104
192 179 109
191 179 110
193 180 114
192 180 114
191 179 114
191 179 114
188 178 114
188 178 114
187 177 114
186 177 114
185 176 114
184 176 114
183 175 114
182 175 114
181 174 114
180 174 114
179 174 114
179 173 114
178 173 114
177 173 114
177 172 114
176 172 114
175 171 114
174 171 114
174 171 114
173 171 114
172 170 114
172 170 114
171 170 114
171 170 114
170 169 114
170 169 114
169 169 114
169 169 114
168 168 114
168 168 114
167 168 114
167 168 114
167 168 114
166 168 114
166 167 114
166 167 114
165 167 114
165 167 114
165 167 114
165 167 114
165 167 114
165 167 114
164 167 114
164 167 114
164 167 114
164 167 114
164 166 114
164 166 114
164 167 114
164 166 114
164 167 114
164 167 114
164 167 114
164 167 114
164 167 114
164 167 114
164 167 114
165 167 114
165 167 114
165 167 114
166 167 114
166 167 114
166 167 114
167 168 114
167 168 114
167 168 114
168 168 114
168 168 114
168 169 114
169 169 114
169 169 114
170 169 114
170 169 114
171 170 114
172 170 114
172 170 114
173 171 114
174 171 114
175 171 114
175 172 114
176 172 114
177 172 114
178 173 114
179 173 114
179 174 114
180 174 114
181 174 114
182 175 114
183 175 114
184 176 114
185 176 114
186 177 114
188 177 114
188 178 114
189 178 114
191 179 114
192 180 114
194 180 114
193 179 110
191 178 107
189 178 101
184 176 90
182 177 80
182 179 79
176 180 60
175 181 51
171 185 28
174 190 28
171 190 0
172 194 0
172 195 0
172 195 0
174 197 0
173 197 0
173 197 0
175 198 0
175 198 0
174 197 0
173 196 0
173 197 0
173 196 0
174 198 0
174 197 0
175 198 0
175 198 0
174 196 0
174 197 0
174 197 0
176 198 0
175 198 0
173 196 0
175 198 0
173 197 0
175 198 0
174 196 0
173 196 0
174 198 0
174 197 0
173 197 0
173 196 0
174 197 0
174 197 0
175 197 0
174 197 0
175 198 0
176 198 0
174 198 0
175 198 0
173 197 0
175 198 0
175 198 0
176 198 0
174 198 0
174 197 0
173 196 0
172 196 0
175 198 0
174 198 0
173 197 0
173 197 0
172 196 0
174 198 0
174 198 0
175 198 0
174 197 0
173 195 0
174 198 0
174 197 0
173 197 0
172 196 0
175 198 0
174 197 0
174 198 0
173 196 0
173 196 0
174 197 0
173 196 0
176 199 0
174 196 0
173 197 0
171 195 0
173 197 0
174 198 0
174 197 0
174 198 0
172 195 0
173 197 0
173 196 0
174 197 0
173 197 0
174 198 0
176 199 0
173 197 0
173 197 0
175 198 0
172 196 0
174 198 0
172 195 0
173 197 0
173 197 0
174 198 0
173 197 0
177 199 0
173 197 0
174 197 0
173 196 0
174 198 0
172 196 0
174 197 0
175 198 0
174 197 0
174 198 0
172 195 0
173 196 0
173 196 0
174 197 0
173 196 0
173 196 0
173 197 0
173 197 0
175 198 0
172 196 0
173 197 0
172 196 0
174 197 0
173 197 0
174 198 0
172 195 0
173 197 0
174 197 0
174 197 0
172 196 0
170 195 0
172 195 0
174 197 0
173 196 0
175 198 0
176 199 0
174 197 0
173 196 0
174 198 0
175 198 0
175 197 0
175 198 0
174 197 0
173 197 0
175 198 0
173 196 0
173 196 0
173 196 0
175 198 0
172 197 0
172 196 0
172 196 0
173 196 0
172 194 0
175 198 0
174 198 0
174 196 0
170 194 0
175 198 0
175 198 0
174 197 0
174 197 0
171 195 0
174 197 0
176 198 0
172 196 0
171 195 0
173 197 0
170 193 0
173 196 0
173 197 0
172 195 0
172 195 0
173 197 0
174 197 0
172 196 0
175 198 0
173 197 0
175 198 0
176 198 0
173 196 0
171 195 0
172 195 0
173 196 0
172 195 0
174 198 0
174 197 0
174 197 0
171 195 0
173 197 0
172 195 0
172 195 0
172 195 0
171 194 0
169 192 40
160 183 72
136 161 117
118 145 141
87 118 164
68 103 174
61 99 179
62 99 178
61 98 178
61 99 179
61 99 181
61 99 180
62 99 181
62 99 180
62 99 181
61 99 181
61 99 180
62 99 181
61 99 181
62 99 181
62 99 181
61 99 181
61 99 181
62 99 181
62 99 181
61 99 181
62 99 181
62 99 181
61 99 181
61 99 181
62 99 181
62 99 181
61 99 181
61 99 181
61 98 181
62 99 181
61 99 181
61 98 181
62 99 181
61 98 181
61 98 181
61 99 181
61 99 181
61 99 181
61 98 181
61 98 181
62 99 181
61 99 181
61 99 181
61 99 181
62 99 181
62 99 181
61 99 181
62 99 181
61 99 181
61 99 181
61 99 181
61 98 178
62 99 181
62 99 180
61 99 181
61 99 181
62 99 181
61 98 178
62 99 180
62 99 178
62 99 179
62 99 178
62 99 179
61 98 178
61 98 174
66 101 174
90 121 163
127 152 130
135 159 115
159 183 76
163 185 57
174 196 0
170 193 0
173 196 0
171 194 0
172 195 0
172 194 0
170 191 0
169 188 0
169 188 0
169 187 0
168 181 11
167 178 22
168 180 36
174 179 57
176 175 66
174 173 60
176 172 70
179 172 82
182 172 90
189 176 101
191 178 107
192 179 108
195 181 113
193 180 113
192 180 114
191 179 114
190 179 114
189 178 114
188 178 114
187 177 114
186 176 114
185 176 114
184 176 114
183 175 114
182 175 114
181 175 114
181 174 114
180 174 114
179 173 114
178 173 114
177 172 114
177 172 114
176 172 114
175 172 114
174 171 114
174 171 114
173 171 114
172 170 114
172 170 114
171 170 114
172 170 114
171 169 114
170 169 114
169 169 114
169 169 114
169 169 114
168 168 114
168 168 114
167 168 114
167 168 114
167 168 114
166 168 114
166 167 114
166 167 114
165 167 114
165 167 114
165 167 114
165 167 114
165 167 114
165 167 114
165 167 114
164 167 114
164 167 114
164 167 114
164 167 114
164 167 114
164 167 114
164 167 114
164 167 114
164 167 114
165 167 114
165 167 114
165 167 114
165 167 114
165 167 114
165 167 114
166 167 114
166 167 114
166 168 114
167 168 114
167 168 114
167 168 114
168 168 114
168 168 114
169 169 114
169 169 114
169 169 114
170 169 114
170 169 114
171 170 114
171 170 114
172 170 114
172 170 114
174 171 114
174 171 114
175 171 114
175 172 114
176 172 114
177 172 114
178 173 114
178 173 114
179 173 114
180 174 114
181 174 114
182 175 114
183 175 114
184 176 114
185 176 114
187 177 114
187 177 114
188 178 114
190 179 114
191 179 114
192 180 114
193 180 114
194 181 113
191 178 108
190 177 103
184 177 90
183 175 84
181 176 80
178 177 68
175 185 49
173 184 39
169 185 16
169 186 16
170 191 0
173 195 0
171 195 0
173 195 0
174 197 0
175 198 0
174 197 0
173 196 0
174 197 0
175 197 0
172 195 0
175 198 0
174 197 0
174 197 0
174 197 0
174 197 0
173 195 0
175 198 0
174 196 0
173 197 0
175 197 0
176 197 0
174 196 0
174 196 0
175 197 0
174 197 0
173 197 0
174 197 0
175 197 0
174 197 0
173 195 0
174 197 0
173 196 0
174 197 0
172 195 0
175 198 0
173 197 0
174 198 0
175 198 0
174 197 0
174 197 0
175 198 0
174 197 0
174 197 0
173 197 0
174 197 0
174 197 0
174 198 0
173 197 0
177 199 0
175 198 0
174 197 0
174 198 0
174 196 0
174 197 0
173 197 0
175 198 0
173 197 0
172 195 0
175 198 0
172 197 0
175 198 0
172 196 0
173 197 0
173 196 0
173 197 0
173 197 0
173 196 0
173 197 0
172 197 0
175 198 0
172 196 0
176 198 0
173 197 0
175 197 0
173 196 0
173 197 0
174 198 0
175 198 0
175 198 0
173 196 0
175 197 0
174 198 0
175 198 0
174 198 0
175 198 0
173 197 0
174 197 0
176 198 0
174 198 0
173 197 0
173 196 0
172 196 0
173 197 0
174 197 0
171 195 0
173 197 0
174 198 0
171 195 0
175 198 0
173 197 0
173 196 0
174 197 0
175 198 0
174 198 0
173 197 0
174 197 0
172 196 0
173 196 0
174 198 0
176 198 0
172 196 0
173 197 0
175 197 0
173 197 0
173 195 0
175 198 0
172 196 0
175 198 0
173 196 0
174 197 0
172 195 0
173 196 0
171 194 0
174 198 0
174 198 0
173 196 0
174 197 0
173 197 0
174 198 0
172 195 0
173 197 0
175 197 0
174 197 0
168 193 0
173 196 0
172 196 0
171 194 0
174 197 0
174 197 0
174 197 0
174 197 0
170 194 0
173 196 0
172 195 0
173 196 0
172 195 0
173 195 0
175 198 0
173 197 0
172 196 0
174 197 0
175 198 0
175 197 0
172 196 0
175 198 0
172 195 0
170 194 0
174 196 0
174 197 0
171 195 0
173 196 0
171 194 0
173 196 0
171 195 0
173 196 0
173 196 0
173 197 0
173 197 0
174 197 0
172 195 0
172 196 0
172 194 0
172 195 0
175 197 0
174 197 0
173 196 0
172 195 0
171 194 0
171 195 0
174 197 0
172 196 0
173 197 0
171 195 0
175 198 0
170 194 25
163 186 60
153 177 88
110 138 142
79 111 169
67 102 177
62 99 179
62 99 181
62 99 177
61 98 176
62 99 180
62 99 178
62 99 178
62 99 181
61 98 179
62 99 181
61 99 180
61 99 181
62 99 181
61 98 181
61 99 181
62 99 181
62 99 181
62 99 181
62 99 181
61 98 181
61 98 181
62 99 181
61 98 181
61 99 181
62 99 181
61 99 181
62 99 181
62 99 181
62 99 181
61 99 181
61 99 181
61 99 181
61 99 181
61 98 181
62 99 181
62 99 181
62 99 181
62 99 181
61 99 181
61 98 181
61 98 181
61 98 181
61 99 181
61 99 181
62 99 181
62 99 181
61 98 181
62 99 181
62 99 181
61 99 181
62 99 181
62 99 181
62 99 181
61 98 180
63 100 181
62 99 179
62 99 181
62 99 180
62 99 181
62 99 177
61 98 180
62 99 179
61 98 178
62 99 181
62 99 178
62 99 178
62 98 176
61 98 179
61 97 174
71 105 169
95 124 155
124 150 130
149 172 92
160 184 68
169 192 40
173 196 0
170 194 0
173 196 0
171 193 0
173 194 0
172 190 0
170 189 0
167 183 0
166 179 16
171 180 41
169 174 45
173 178 56
172 173 57
174 173 62
178 172 77
182 173 87
183 172 90
185 173 95
192 179 108
193 179 110
193 180 112
193 180 114
192 179 114
192 179 114
191 179 114
189 178 114
187 177 114
187 177 114
186 177 114
185 176 114
184 176 114
183 175 114
182 175 114
181 174 114
181 174 114
180 174 114
179 173 114
179 173 114
178 173 114
177 172 114
176 172 114
175 172 114
175 171 114
174 171 114
174 171 114
173 171 114
173 170 114
172 170 114
171 170 114
171 170 114
170 169 114
170 169 114
170 169 114
169 169 114
169 169 114
168 168 114
168 168 114
167 168 114
167 168 114
167 168 114
166 168 114
166 167 114
166 167 114
166 167 114
166 167 114
165 167 114
165 167 114
165 167 114
165 167 114
165 167 114
165 167 114
165 167 114
165 167 114
165 167 114
165 167 114
165 167 114
165 167 114
165 167 114
165 167 114
165 167 114
165 167 114
166 167 114
166 167 114
166 167 114
166 168 114
166 168 114
167 168 114
167 168 114
167 168 114
167 168 114
168 168 114
168 168 114
169 169 114
169 169 114
170 169 114
170 169 114
171 170 114
171 170 114
172 170 114
172 170 114
173 171 114
174 171 114
174 171 114
175 172 114
176 172 114
176 172 114
177 172 114
178 173 114
179 173 114
179 174 114
180 174 114
182 175 114
183 175 114
183 175 114
184 176 114
186 176 114
186 177 114
187 177 114
188 178 114
189 178 114
191 179 114
192 180 114
194 180 114
194 180 113
189 177 105
191 178 104
186 177 94
183 176 86
180 175 79
178 179 68
173 181 48
174 186 39
171 187 22
168 186 11
171 191 0
173 194 0
173 195 0
173 195 0
174 196 0
175 197 0
172 194 0
174 197 0
174 197 0
173 197 0
174 197 0
173 197 0
174 197 0
174 197 0
172 196 0
175 198 0
175 198 0
176 198 0
174 196 0
175 198 0
174 197 0
174 196 0
174 197 0
175 198 0
172 196 0
173 196 0
173 196 0
174 197 0
175 197 0
174 197 0
173 196 0
173 196 0
175 198 0
175 198 0
175 197 0
176 198 0
173 196 0
176 198 0
174 198 0
173 196 0
173 197 0
176 198 0
175 198 0
175 198 0
173 197 0
174 198 0
174 197 0
174 197 0
173 197 0
175 198 0
176 199 0
174 197 0
174 198 0
175 198 0
173 197 0
175 198 0
174 198 0
172 196 0
175 198 0
175 198 0
172 196 0
174 198 0
175 198 0
173 196 0
172 195 0
175 198 0
174 197 0
173 197 0
174 197 0
174 198 0
174 197 0
174 197 0
173 196 0
174 196 0
174 197 0
176 199 0
173 197 0
175 198 0
175 198 0
174 197 0
175 198 0
173 197 0
172 196 0
172 196 0
176 199 0
175 198 0
175 198 0
172 196 0
175 198 0
171 196 0
172 196 0
172 196 0
176 198 0
174 197 0
175 197 0
174 197 0
174 197 0
172 196 0
171 194 0
174 197 0
170 195 0
173 196 0
171 195 0
174 197 0
173 196 0
174 197 0
175 198 0
173 197 0
172 196 0
171 195 0
172 195 0
172 196 0
174 197 0
173 197 0
173 197 0
174 197 0
173 196 0
175 198 0
172 196 0
172 196 0
173 196 0
173 196 0
173 197 0
173 197 0
174 198 0
173 196 0
175 198 0
170 194 0
174 198 0
172 196 0
176 198 0
173 197 0
171 196 0
174 197 0
174 198 0
174 197 0
174 196 0
171 195 0
173 197 0
173 196 0
172 195 0
170 194 0
169 193 0
173 197 0
172 196 0
172 196 0
173 197 0
171 194 0
172 195 0
173 197 0
174 198 0
173 196 0
175 198 0
175 198 0
172 196 0
174 197 0
172 196 0
175 198 0
176 198 0
173 197 0
172 196 0
172 195 0
172 195 0
174 196 0
174 197 0
173 197 0
173 196 0
174 197 0
173 197 0
173 196 0
172 196 0
173 196 0
171 195 0
171 195 0
170 193 0
172 196 0
174 197 0
174 197 0
173 196 0
174 197 0
171 195 0
172 195 0
173 197 0
171 194 0
170 194 36
161 185 70
136 161 118
107 134 149
66 102 175
62 99 177
62 99 178
62 99 180
62 99 179
62 99 178
62 99 180
62 99 180
61 99 180
62 99 181
61 99 180
62 99 181
61 98 180
61 98 181
62 99 180
62 99 181
62 99 180
61 99 180
61 99 181
61 99 181
61 99 181
62 99 181
62 99 181
62 99 181
62 99 181
62 99 181
61 99 181
62 99 181
61 98 181
61 99 181
61 99 181
61 98 181
61 99 181
61 99 181
61 98 181
62 99 181
61 98 181
61 99 181
61 98 181
61 99 181
61 99 181
62 99 181
61 99 181
61 98 181
62 99 181
61 99 181
62 99 181
61 98 181
61 99 181
61 99 181
61 99 181
61 99 181
62 99 181
62 99 181
61 99 181
62 99 179
62 99 181
62 99 180
61 98 180
62 98 178
61 98 180
61 99 181
62 99 178
61 98 177
62 99 178
62 99 177
61 98 179
62 99 180
62 98 179
62 99 178
62 98 175
62 99 178
62 98 176
62 98 174
70 105 169
113 140 133
138 163 108
150 173 95
163 186 51
172 194 0
170 193 0
170 192 0
169 190 0
170 188 0
169 186 0
170 187 0
165 180 11
165 174 32
168 173 45
174 178 53
170 170 53
177 171 75
178 171 79
183 174 90
184 173 93
189 176 101
192 179 108
192 179 109
194 180 114
193 180 114
193 180 114
191 179 114
190 179 114
189 178 114
188 178 114
187 177 114
186 177 114
185 176 114
185 176 114
184 176 114
183 175 114
182 175 114
181 174 114
180 174 114
179 174 114
179 173 114
178 173 114
177 173 114
177 172 114
176 172 114
175 172 114
175 171 114
174 171 114
173 171 114
173 171 114
172 170 114
172 170 114
171 170 114
171 170 114
170 169 114
170 169 114
169 169 114
169 169 114
169 169 114
168 168 114
168 168 114
167 168 114
167 168 114
167 168 114
167 168 114
167 168 114
166 168 114
166 167 114
166 167 114
166 167 114
165 167 114
166 167 114
165 167 114
165 167 114
165 167 114
165 167 114
165 167 114
165 167 114
165 167 114
165 167 114
165 167 114
165 167 114
166 167 114
166 167 114
166 167 114
166 168 114
166 168 114
166 168 114
167 168 114
167 168 114
167 168 114
168 168 114
168 168 114
169 169 114
169 169 114
169 169 114
170 169 114
170 169 114
170 169 114
171 170 114
172 170 114
172 170 114
173 170 114
173 170 114
174 171 114
174 171 114
175 172 114
176 172 114
176 172 114
178 173 114
178 173 114
179 173 114
180 174 114
181 174 114
182 175 114
182 175 114
184 176 114
185 176 114
185 176 114
187 177 114
187 177 114
188 178 114
190 178 114
190 179 114
192 180 114
193 180 114
195 181 114
192 179 109
192 178 106
188 176 99
183 177 84
179 172 80
177 177 68
176 180 59
171 181 39
167 179 19
171 186 11
171 191 0
171 192 0
173 195 0
171 194 0
173 196 0
174 198 0
174 196 0
173 196 0
174 197 0
174 198 0
174 197 0
175 198 0
173 195 0
174 197 0
175 198 0
174 197 0
173 196 0
175 197 0
173 196 0
174 197 0
173 196 0
174 197 0
174 197 0
173 197 0
174 197 0
175 198 0
171 194 0
173 197 0
173 196 0
173 196 0
175 198 0
174 198 0
175 198 0
172 196 0
173 197 0
174 197 0
174 197 0
174 197 0
173 196 0
173 196 0
172 196 0
173 196 0
174 197 0
173 197 0
173 196 0
175 198 0
174 198 0
174 197 0
176 198 0
173 197 0
174 197 0
174 198 0
173 196 0
174 197 0
172 196 0
174 198 0
174 198 0
174 198 0
176 198 0
174 198 0
172 195 0
175 198 0
174 198 0
174 197 0
175 197 0
173 196 0
174 197 0
176 199 0
176 198 0
174 197 0
175 198 0
173 196 0
174 197 0
173 197 0
174 197 0
174 197 0
174 198 0
173 196 0
174 197 0
176 199 0
173 197 0
173 196 0
173 196 0
174 197 0
172 195 0
174 198 0
174 197 0
175 198 0
173 196 0
175 198 0
174 197 0
171 194 0
171 195 0
175 198 0
175 198 0
173 197 0
175 197 0
174 197 0
172 196 0
174 197 0
175 198 0
172 196 0
174 197 0
174 197 0
173 196 0
173 196 0
174 197 0
169 194 0
174 197 0
173 196 0
173 197 0
173 196 0
175 198 0
175 197 0
172 196 0
173 197 0
172 196 0
172 195 0
173 196 0
174 197 0
172 196 0
173 196 0
172 196 0
173 197 0
173 197 0
174 197 0
172 196 0
171 195 0
174 197 0
174 197 0
172 196 0
174 197 0
173 197 0
172 195 0
171 194 0
170 193 0
174 198 0
173 195 0
174 197 0
173 196 0
173 196 0
173 196 0
172 195 0
174 196 0
171 195 0
173 196 0
172 196 0
174 198 0
172 196 0
173 197 0
171 195 0
172 196 0
172 196 0
172 196 0
172 195 0
173 196 0
170 194 0
172 195 0
174 197 0
173 197 0
174 197 0
173 196 0
173 197 0
172 195 0
175 198 0
173 196 0
172 196 0
172 195 0
172 196 0
173 196 0
173 197 0
171 195 0
173 197 0
171 195 0
170 194 0
171 194 0
172 195 0
172 196 0
174 197 0
175 198 0
172 196 0
173 197 0
172 195 0
168 191 36
156 180 80
117 144 141
90 121 160
61 98 176
61 98 174
62 99 180
62 99 177
61 99 180
62 99 180
62 99 181
62 99 180
62 99 178
62 99 181
62 99 181
62 99 181
62 99 180
61 99 180
62 99 181
61 99 181
61 99 181
61 99 180
61 98 181
62 99 179
62 99 181
62 99 180
61 99 181
62 99 181
61 99 181
61 98 181
61 99 181
62 99 181
62 99 181
61 99 181
62 99 181
61 99 181
62 99 181
61 98 181
62 99 181
61 99 181
61 99 181
62 99 181
61 99 181
62 99 181
61 99 181
61 99 181
61 99 181
62 99 181
61 99 181
60 98 181
61 98 181
61 99 181
62 100 181
61 99 181
61 98 180
62 99 181
62 99 179
61 98 180
62 99 181
61 99 181
62 99 181
62 99 181
62 99 178
62 99 181
61 99 181
61 98 178
61 98 179
62 99 180
62 99 181
62 98 177
62 99 178
62 99 180
61 98 176
62 99 179
62 99 180
62 98 177
62 98 177
61 97 175
62 98 176
61 97 175
64 99 174
94 123 156
123 149 128
138 163 108
163 186 57
168 191 31
172 194 0
171 192 0
167 187 0
171 189 0
170 187 0
165 179 11
165 174 28
169 172 48
170 173 51
174 171 62
175 170 71
179 172 79
184 173 90
183 172 93
189 176 101
190 177 105
193 179 110
194 180 113
193 180 114
193 180 114
191 179 114
190 179 114
190 178 114
189 178 114
187 177 114
187 177 114
186 177 114
184 176 114
184 176 114
183 175 114
182 175 114
181 174 114
181 174 114
180 174 114
180 174 114
179 173 114
178 173 114
177 172 114
176 172 114
176 172 114
175 171 114
174 171 114
174 171 114
173 171 114
173 170 114
173 170 114
172 170 114
171 170 114
171 169 114
170 169 114
170 169 114
169 169 114
169 169 114
169 169 114
169 169 114
168 168 114
168 168 114
168 168 114
167 168 114
167 168 114
167 168 114
167 168 114
166 168 114
166 168 114
166 167 114
166 167 114
166 167 114
166 167 114
166 167 114
166 167 114
166 167 114
166 167 114
166 167 114
166 167 114
166 167 114
166 167 114
166 168 114
166 168 114
166 168 114
167 168 114
167 168 114
167 168 114
167 168 114
168 168 114
168 168 114
168 168 114
169 169 114
169 169 114
170 169 114
169 169 114
170 169 114
171 170 114
171 170 114
172 170 114
172 170 114
173 170 114
173 171 114
174 171 114
175 171 114
175 171 114
175 172 114
176 172 114
177 172 114
178 173 114
179 173 114
179 173 114
180 174 114
181 174 114
181 174 114
183 175 114
184 176 114
185 176 114
186 176 114
187 177 114
188 177 114
189 178 114
190 179 114
191 179 114
192 180 114
193 180 114
195 181 113
192 179 108
191 178 105
190 178 103
181 172 84
180 175 77
177 178 66
174 179 54
175 178 59
172 183 36
170 185 22
170 189 0
170 189 0
174 195 0
175 197 0
176 199 0
174 197 0
175 198 0
174 197 0
174 197 0
174 197 0
174 197 0
173 196 0
173 196 0
174 196 0
174 197 0
174 197 0
174 197 0
174 197 0
172 196 0
174 196 0
173 197 0
174 197 0
173 197 0
174 197 0
174 197 0
174 196 0
174 196 0
175 198 0
175 198 0
175 197 0
174 198 0
173 196 0
173 197 0
175 196 0
174 197 0
174 198 0
173 197 0
171 196 0
174 197 0
175 198 0
175 198 0
174 197 0
175 198 0
173 197 0
175 197 0
175 198 0
173 197 0
173 197 0
173 196 0
174 197 0
173 196 0
173 197 0
173 195 0
175 198 0
176 199 0
174 197 0
171 194 0
175 198 0
174 198 0
174 197 0
175 198 0
174 197 0
176 199 0
173 197 0
174 197 0
173 197 0
175 198 0
171 195 0
173 196 0
172 196 0
174 197 0
174 198 0
174 198 0
173 197 0
174 197 0
174 197 0
173 196 0
174 197 0
172 196 0
174 197 0
173 197 0
172 197 0
173 196 0
172 196 0
174 197 0
173 196 0
173 196 0
174 197 0
173 196 0
171 195 0
176 198 0
173 197 0
174 197 0
174 197 0
173 196 0
173 196 0
173 196 0
174 196 0
174 197 0
175 198 0
175 198 0
174 196 0
172 196 0
175 198 0
173 196 0
175 198 0
175 198 0
173 197 0
173 197 0
173 197 0
174 198 0
174 196 0
173 197 0
174 198 0
171 194 0
174 197 0
173 197 0
174 197 0
170 194 0
171 195 0
175 198 0
174 197 0
174 197 0
174 197 0
174 198 0
172 196 0
176 198 0
173 197 0
173 197 0
174 197 0
171 194 0
172 194 0
174 197 0
174 198 0
175 198 0
171 195 0
173 196 0
172 196 0
174 197 0
173 196 0
171 195 0
174 197 0
173 196 0
171 195 0
175 197 0
172 195 0
172 196 0
174 198 0
172 195 0
174 197 0
174 197 0
173 197 0
175 198 0
170 194 0
171 194 0
174 196 0
172 196 0
172 197 0
172 195 0
171 195 0
174 197 0
173 196 0
175 198 0
172 196 0
174 197 0
172 196 0
172 195 0
173 196 0
173 197 0
172 194 0
170 194 0
172 196 0
171 195 0
172 194 0
175 198 0
172 196 0
174 197 0
172 195 0
172 195 0
172 195 0
173 197 0
172 195 18
162 186 60
133 158 118
103 131 153
67 102 176
62 99 178
62 99 176
62 99 178
62 99 176
62 99 178
61 98 176
62 99 177
62 99 178
62 99 180
62 99 180
62 99 180
62 99 181
61 99 181
61 99 180
62 99 181
61 99 180
62 99 181
62 99 181
61 99 180
61 99 181
62 99 180
62 99 180
61 98 181
62 99 181
61 99 181
62 99 181
62 99 181
62 99 181
62 99 181
61 99 181
62 99 181
61 99 181
62 99 181
61 99 181
61 99 181
62 99 181
62 99 181
61 99 181
61 98 181
61 99 181
61 99 181
61 99 181
61 99 181
62 99 181
61 99 181
62 99 181
62 99 181
61 99 181
61 99 181
61 99 181
62 99 181
61 99 181
61 98 181
61 98 181
61 99 181
61 98 181
62 99 181
62 99 181
62 99 179
62 99 181
61 99 181
62 99 180
62 99 180
62 99 179
62 99 181
62 99 178
62 99 179
62 99 179
62 99 178
62 99 178
61 98 176
61 98 178
61 98 178
62 99 180
62 98 174
61 98 176
61 98 176
61 98 178
61 97 173
69 103 172
96 125 155
131 156 123
153 175 77
169 189 31
171 191 0
169 188 0
168 185 0
165 178 0
166 176 19
166 177 22
167 171 39
170 172 49
174 172 63
174 169 70
181 171 85
179 169 84
185 173 93
187 175 98
189 176 102
194 180 112
195 181 113
193 180 114
192 180 114
192 179 114
190 179 114
189 178 114
189 178 114
188 178 114
187 177 114
186 177 114
185 176 114
184 176 114
183 175 114
183 175 114
182 175 114
181 174 114
180 174 114
179 174 114
179 173 114
178 173 114
177 173 114
177 172 114
176 172 114
175 172 114
175 172 114
175 171 114
174 171 114
173 171 114
172 170 114
172 170 114
172 170 114
171 170 114
171 170 114
170 169 114
170 169 114
170 169 114
169 169 114
169 169 114
169 169 114
168 168 114
168 168 114
168 168 114
168 168 114
167 168 114
167 168 114
167 168 114
167 168 114
167 168 114
167 168 114
166 168 114
166 168 114
166 168 114
166 168 114
166 167 114
166 168 114
166 168 114
166 168 114
166 168 114
166 168 114
167 168 114
167 168 114
167 168 114
167 168 114
167 168 114
168 168 114
168 168 114
168 168 114
168 168 114
169 169 114
169 169 114
169 169 114
170 169 114
170 169 114
171 170 114
171 170 114
171 170 114
172 170 114
172 170 114
173 171 114
173 171 114
174 171 114
174 171 114
175 172 114
176 172 114
177 172 114
177 173 114
178 173 114
179 173 114
179 174 114
180 174 114
181 174 114
182 175 114
183 175 114
184 176 114
184 176 114
185 176 114
186 177 114
187 177 114
188 178 114
190 178 114
191 179 114
192 180 114
193 180 114
195 181 114
194 180 112
192 179 108
190 177 101
182 172 87
183 175 86
180 178 75
177 177 63
172 177 52
170 183 28
169 184 16
167 183 0
172 192 0
170 191 0
172 195 0
174 197 0
175 198 0
175 197 0
176 198 0
173 196 0
173 197 0
174 196 0
173 197 0
174 197 0
174 197 0
171 194 0
174 196 0
174 197 0
173 196 0
175 197 0
174 196 0
172 196 0
173 196 0
174 198 0
175 198 0
172 196 0
175 198 0
174 197 0
175 198 0
173 196 0
174 197 0
173 197 0
175 198 0
175 197 0
172 196 0
173 197 0
174 198 0
173 197 0
174 197 0
173 197 0
175 198 0
172 196 0
172 196 0
175 198 0
173 197 0
176 198 0
173 196 0
173 197 0
175 198 0
174 198 0
173 196 0
174 197 0
173 196 0
173 196 0
174 198 0
172 196 0
174 198 0
174 198 0
173 195 0
174 197 0
174 197 0
172 197 0
173 197 0
173 197 0
174 197 0
175 198 0
172 196 0
175 198 0
170 194 0
173 197 0
175 198 0
176 198 0
173 197 0
173 197 0
174 198 0
174 198 0
175 198 0
175 198 0
174 198 0
175 198 0
173 196 0
173 197 0
174 197 0
174 197 0
173 197 0
173 197 0
174 198 0
175 198 0
174 198 0
174 197 0
175 198 0
172 195 0
173 196 0
173 196 0
172 196 0
174 197 0
174 198 0
175 198 0
174 197 0
173 197 0
172 196 0
175 198 0
176 199 0
174 197 0
175 198 0
175 198 0
175 198 0
171 195 0
172 196 0
174 197 0
173 197 0
174 197 0
173 197 0
172 196 0
174 197 0
173 196 0
173 197 0
171 195 0
172 195 0
175 198 0
174 197 0
172 195 0
172 196 0
172 195 0
172 196 0
174 197 0
174 197 0
174 197 0
174 197 0
173 196 0
172 195 0
174 197 0
173 197 0
175 198 0
175 198 0
173 197 0
175 198 0
174 197 0
173 196 0
174 197 0
175 198 0
173 196 0
172 195 0
173 196 0
174 197 0
173 196 0
173 195 0
170 195 0
175 198 0
173 196 0
172 195 0
173 196 0
171 194 0
173 197 0
173 196 0
174 197 0
172 196 0
173 197 0
173 196 0
170 193 0
172 195 0
174 197 0
172 196 0
173 197 0
173 197 0
174 197 0
174 197 0
174 197 0
172 196 0
171 194 0
172 196 0
172 196 0
172 195 0
170 194 0
173 196 0
172 195 0
174 197 0
171 194 0
174 196 0
172 196 0
171 195 0
169 193 25
155 179 76
131 156 122
83 115 163
65 101 175
62 99 176
62 99 180
62 99 176
61 98 176
62 99 179
62 99 178
62 99 180
62 99 179
62 99 181
62 99 179
62 99 181
62 99 180
62 99 181
62 99 180
61 99 181
62 99 181
61 98 181
62 99 180
61 99 180
61 98 180
62 99 181
62 99 181
61 99 181
61 99 181
61 99 181
61 99 181
61 99 181
62 99 180
62 99 181
61 98 181
62 99 181
61 98 181
62 99 181
61 99 181
61 99 181
61 99 181
62 99 181
62 99 181
62 99 181
61 99 181
62 99 181
61 98 181
62 99 181
62 99 181
61 98 181
62 99 181
61 99 181
61 99 181
62 99 181
61 99 181
61 99 181
62 99 180
61 98 181
62 99 181
62 99 181
62 99 181
62 99 179
61 99 181
61 99 181
61 98 180
61 98 178
61 99 179
61 99 180
61 99 180
61 99 180
62 99 181
62 99 181
61 98 179
62 99 179
61 98 179
62 99 179
62 99 179
62 99 180
61 98 179
62 99 179
61 98 175
61 98 178
62 99 178
62 98 175
61 97 172
61 98 175
70 103 170
95 124 154
123 148 131
153 176 85
163 181 51
169 187 0
166 183 0
166 178 11
166 176 19
164 174 25
167 172 39
170 170 52
170 168 54
177 172 72
176 168 76
183 171 88
184 172 91
189 176 101
194 180 110
194 180 112
195 181 114
194 181 114
193 180 114
191 179 114
191 179 114
190 178 114
189 178 114
188 178 114
187 177 114
186 177 114
185 176 114
184 176 114
184 176 114
183 175 114
182 175 114
181 174 114
180 174 114
180 174 114
179 173 114
178 173 114
177 173 114
177 172 114
176 172 114
176 172 114
175 172 114
175 171 114
174 171 114
174 171 114
173 171 114
173 171 114
172 170 114
172 170 114
171 170 114
171 170 114
171 170 114
170 169 114
170 169 114
170 169 114
169 169 114
169 169 114
169 169 114
168 168 114
168 169 114
168 168 114
168 168 114
168 168 114
167 168 114
167 168 114
167 168 114
167 168 114
167 168 114
167 168 114
167 168 114
167 168 114
167 168 114
167 168 114
167 168 114
167 168 114
167 168 114
167 168 114
167 168 114
167 168 114
168 168 114
168 168 114
168 168 114
168 168 114
169 169 114
169 169 114
169 169 114
169 169 114
170 169 114
170 169 114
170 169 114
171 170 114
171 170 114
172 170 114
172 170 114
173 171 114
173 171 114
174 171 114
175 171 114
175 171 114
176 172 114
177 172 114
177 173 114
178 173 114
179 173 114
179 173 114
180 174 114
180 174 114
181 174 114
182 175 114
183 175 114
184 176 114
185 176 114
186 176 114
187 177 114
188 178 114
189 178 114
190 178 114
191 179 114
192 180 114
194 180 114
195 181 114
194 180 111
194 180 110
191 178 104
189 177 99
182 175 81
180 175 76
174 173 60
175 181 51
172 180 42
169 184 11
172 189 0
171 191 0
172 193 0
174 197 0
173 196 0
174 197 0
171 196 0
174 197 0
174 196 0
173 196 0
175 198 0
174 197 0
173 197 0
174 198 0
172 196 0
174 196 0
174 197 0
174 197 0
174 197 0
174 197 0
172 195 0
173 196 0
175 197 0
173 196 0
173 197 0
175 197 0
174 197 0
174 197 0
173 196 0
173 197 0
175 197 0
175 198 0
174 197 0
173 197 0
174 197 0
174 197 0
174 198 0
174 198 0
173 196 0
173 196 0
175 198 0
173 196 0
175 198 0
175 198 0
174 197 0
173 196 0
173 197 0
175 198 0
175 198 0
173 197 0
175 198 0
175 198 0
173 197 0
176 199 0
174 197 0
176 199 0
174 197 0
173 197 0
172 196 0
171 195 0
173 196 0
174 197 0
174 197 0
174 197 0
174 197 0
174 197 0
173 197 0
174 197 0
173 196 0
172 196 0
174 196 0
172 196 0
174 198 0
174 197 0
173 197 0
173 196 0
172 195 0
172 196 0
175 198 0
173 197 0
173 196 0
173 197 0
174 198 0
172 195 0
174 197 0
172 195 0
174 198 0
173 196 0
174 197 0
175 198 0
174 197 0
170 194 0
173 196 0
176 198 0
177 199 0
175 198 0
174 197 0
174 197 0
174 197 0
172 195 0
171 195 0
174 198 0
174 197 0
175 198 0
168 192 0
175 198 0
173 197 0
170 194 0
173 197 0
175 197 0
171 196 0
175 198 0
173 196 0
176 198 0
173 197 0
174 197 0
174 197 0
174 197 0
171 195 0
172 196 0
172 196 0
174 197 0
173 196 0
173 195 0
173 196 0
174 198 0
173 196 0
174 197 0
172 195 0
173 197 0
172 196 0
173 197 0
173 197 0
173 196 0
174 197 0
173 196 0
173 197 0
175 198 0
175 197 0
172 195 0
171 194 0
174 197 0
172 196 0
173 196 0
171 195 0
174 196 0
172 196 0
173 196 0
173 197 0
171 195 0
173 197 0
172 195 0
174 197 0
173 196 0
174 196 0
174 197 0
176 198 0
171 195 0
172 196 0
171 195 0
173 196 0
173 196 0
172 195 0
174 197 0
173 196 0
174 198 0
171 195 0
173 197 0
174 197 0
173 196 0
172 195 0
172 196 0
172 195 0
170 194 0
171 195 0
174 196 0
173 195 0
172 196 0
171 195 0
170 193 36
147 171 97
115 141 137
76 109 168
62 99 178
62 99 177
62 99 178
62 99 178
61 98 174
62 99 179
62 99 179
62 99 179
62 99 181
62 99 180
61 98 180
61 98 180
62 99 180
62 99 181
62 99 179
61 99 181
62 99 181
62 99 181
61 98 179
62 99 181
62 99 181
62 99 181
62 99 181
61 99 181
61 99 181
62 99 181
61 99 181
62 99 181
61 99 181
61 99 181
61 98 181
62 99 181
62 99 181
61 99 181
62 99 181
62 99 181
62 99 181
61 98 181
61 99 181
61 99 181
62 99 181
62 99 181
62 99 181
61 99 181
61 99 181
61 99 181
62 99 181
61 99 180
62 99 181
62 99 181
62 99 181
61 99 180
61 99 181
61 99 181
61 98 179
62 99 181
61 99 181
62 99 181
61 99 181
62 99 180
62 99 180
61 99 180
61 98 181
61 99 181
62 99 181
62 99 180
62 99 181
62 99 180
61 98 179
61 98 180
62 99 178
61 98 179
61 98 178
61 98 179
63 99 179
61 98 177
62 99 179
62 98 176
62 98 175
63 99 176
62 98 176
62 99 179
62 98 175
61 96 167
64 98 170
81 111 159
114 136 134
137 155 98
158 177 65
162 173 18
167 182 0
166 179 11
166 174 28
168 173 39
168 169 45
173 171 64
173 167 68
182 172 86
182 171 87
184 173 94
187 175 99
191 177 104
195 180 110
195 181 113
193 180 114
194 180 114
192 179 114
191 179 114
190 179 114
190 178 114
188 178 114
187 177 114
185 176 114
185 176 114
185 176 114
184 176 114
183 175 114
182 175 114
181 175 114
181 174 114
180 174 114
180 174 114
179 173 114
178 173 114
178 173 114
177 172 114
176 172 114
176 172 114
176 172 114
175 172 114
174 171 114
174 171 114
173 170 114
173 171 114
172 170 114
172 170 114
172 170 114
171 170 114
171 170 114
171 169 114
170 169 114
170 169 114
169 169 114
169 169 114
169 169 114
169 169 114
168 169 114
169 169 114
168 169 114
168 168 114
168 168 114
168 168 114
168 168 114
168 168 114
168 168 114
168 168 114
167 168 114
168 168 114
167 168 114
168 168 114
168 168 114
168 168 114
168 168 114
168 168 114
168 168 114
168 168 114
168 168 114
169 169 114
169 169 114
169 169 114
170 169 114
170 169 114
170 169 114
171 170 114
171 170 114
171 170 114
172 170 114
172 170 114
172 170 114
173 171 114
174 171 114
174 171 114
174 171 114
175 172 114
175 172 114
176 172 114
177 172 114
178 173 114
178 173 114
179 173 114
179 173 114
180 174 114
182 175 114
182 175 114
183 175 114
184 176 114
184 176 114
185 176 114
186 177 114
187 177 114
188 178 114
189 178 114
190 179 114
191 179 114
193 180 114
193 180 114
194 181 114
196 181 113
193 179 107
187 175 97
183 173 87
183 174 87
178 172 77
176 174 64
173 179 49
171 181 37
167 182 19
166 181 0
170 188 0
173 194 0
174 196 0
171 194 0
174 196 0
172 196 0
172 195 0
173 196 0
172 195 0
173 197 0
174 197 0
174 196 0
173 197 0
175 198 0
175 198 0
174 197 0
174 197 0
176 198 0
173 196 0
174 197 0
176 199 0
175 198 0
174 197 0
172 197 0
174 197 0
174 197 0
173 196 0
174 198 0
173 196 0
173 197 0
174 197 0
175 198 0
173 196 0
173 196 0
173 197 0
175 198 0
175 198 0
173 196 0
172 195 0
173 195 0
176 198 0
175 198 0
175 198 0
175 198 0
174 197 0
175 198 0
173 196 0
175 198 0
176 199 0
174 197 0
175 198 0
173 197 0
173 197 0
174 197 0
174 197 0
174 198 0
172 196 0
173 197 0
174 198 0
172 196 0
174 197 0
173 197 0
175 197 0
173 197 0
174 197 0
176 198 0
172 197 0
173 197 0
173 196 0
173 197 0
173 197 0
174 197 0
174 197 0
175 197 0
172 196 0
176 198 0
173 197 0
176 199 0
175 198 0
174 197 0
173 197 0
173 197 0
174 197 0
173 197 0
173 197 0
174 197 0
175 198 0
172 196 0
172 196 0
173 197 0
173 196 0
173 197 0
174 197 0
173 197 0
174 197 0
172 196 0
174 197 0
171 195 0
171 194 0
171 195 0
173 197 0
173 197 0
174 197 0
172 196 0
174 197 0
171 195 0
175 198 0
173 197 0
176 198 0
174 197 0
173 196 0
174 197 0
174 197 0
174 197 0
173 197 0
173 196 0
172 196 0
175 198 0
174 197 0
173 197 0
173 196 0
174 197 0
172 195 0
172 196 0
173 197 0
172 195 0
172 195 0
171 195 0
174 197 0
171 195 0
173 197 0
174 196 0
172 196 0
173 197 0
173 197 0
172 195 0
171 194 0
171 194 0
173 197 0
172 196 0
173 196 0
173 197 0
174 197 0
174 198 0
173 196 0
172 195 0
172 195 0
172 195 0
172 195 0
170 194 0
174 197 0
174 197 0
174 197 0
174 197 0
173 196 0
174 196 0
172 196 0
171 194 0
171 194 0
173 196 0
172 196 0
172 195 0
171 195 0
172 195 0
173 196 0
172 195 0
171 194 0
168 192 0
172 196 0
175 197 0
172 195 0
173 197 0
172 196 0
172 195 0
172 196 0
173 197 0
173 196 0
166 189 47
136 161 111
100 129 154
68 103 169
62 99 176
62 99 178
62 99 177
62 99 179
62 99 180
61 98 179
62 99 179
62 99 175
62 99 178
62 99 178
62 99 180
62 99 180
61 99 181
61 99 180
62 99 181
62 99 181
62 99 181
62 99 179
61 98 179
62 99 181
61 99 181
62 99 181
61 99 181
62 99 181
61 99 180
61 99 181
62 99 181
62 99 181
62 99 180
62 99 180
62 99 181
62 99 181
61 99 181
61 98 181
61 99 181
62 99 181
62 99 180
62 99 181
61 99 181
62 99 181
62 99 181
61 98 181
61 99 181
61 99 180
62 99 181
62 99 181
61 99 180
61 99 181
62 99 181
62 99 181
61 99 181
62 99 181
61 99 180
61 99 180
62 99 181
61 98 181
61 99 181
61 99 180
61 99 181
62 99 181
61 98 178
62 99 180
62 99 181
61 99 180
61 99 181
61 98 181
61 98 180
62 99 180
62 99 181
62 99 180
62 99 180
62 99 179
62 99 181
61 98 177
62 99 180
62 98 177
62 99 179
61 98 177
62 99 176
62 99 177
61 98 177
62 99 178
61 98 175
62 99 180
62 98 178
62 98 173
62 98 175
67 101 170
104 127 145
126 145 114
151 166 70
163 177 32
165 176 11
166 174 34
169 174 44
168 168 53
169 165 59
173 166 67
176 167 76
182 171 87
182 171 89
188 176 99
191 178 105
190 177 104
195 181 112
195 181 114
193 180 114
192 180 114
191 179 114
190 178 114
186 175 113
188 177 114
184 175 113
186 176 114
182 173 113
185 176 114
183 174 113
182 174 113
179 172 113
181 174 114
182 175 114
180 174 114
180 174 114
179 173 114
179 173 114
178 173 114
177 173 114
177 172 114
176 172 114
176 172 114
175 172 114
175 172 114
174 171 114
174 171 114
173 171 114
173 171 114
172 170 114
172 170 114
171 170 114
171 170 114
171 170 114
171 170 114
170 169 114
170 169 114
170 169 114
169 169 114
170 169 114
169 169 114
169 169 114
169 169 114
168 169 114
169 169 114
168 169 114
168 169 114
168 168 114
168 168 114
168 168 114
168 168 114
168 168 114
168 168 114
168 168 114
168 169 114
168 168 114
169 169 114
169 169 114
169 169 114
169 169 114
169 169 114
169 169 114
170 169 114
170 169 114
170 169 114
170 169 114
171 169 114
171 170 114
171 170 114
172 170 114
172 170 114
173 170 114
173 171 114
173 171 114
174 171 114
174 171 114
175 171 114
176 172 114
176 172 114
177 172 114
178 173 114
178 173 114
178 173 114
179 173 114
180 174 114
181 174 114
181 175 114
182 175 114
183 175 114
184 176 114
185 176 114
185 176 114
186 177 114
188 177 114
188 178 114
189 178 114
190 179 114
191 179 114
192 180 114
194 180 114
195 181 114
195 181 113
194 180 110
189 176 101
184 173 89
182 172 84
178 172 75
174 174 60
170 173 51
170 179 36
168 180 16
168 184 11
167 185 0
171 192 0
173 194 0
175 196 0
173 197 0
174 197 0
175 197 0
171 193 0
176 198 0
174 197 0
174 197 0
175 198 0
174 197 0
174 197 0
176 198 0
175 198 0
172 196 0
175 197 0
174 195 0
173 197 0
174 197 0
173 196 0
174 197 0
173 195 0
172 196 0
175 196 0
174 197 0
174 197 0
173 197 0
177 199 0
173 196 0
174 197 0
174 197 0
172 195 0
174 197 0
173 195 0
173 196 0
173 197 0
174 197 0
175 197 0
176 197 0
173 196 0
175 197 0
173 196 0
174 197 0
172 196 0
172 196 0
174 197 0
173 197 0
173 196 0
173 197 0
173 197 0
174 197 0
175 198 0
174 197 0
171 196 0
173 197 0
174 198 0
173 196 0
175 198 0
174 197 0
174 197 0
174 197 0
174 197 0
176 199 0
176 199 0
174 197 0
175 198 0
171 195 0
174 198 0
174 198 0
173 197 0
172 197 0
174 197 0
174 197 0
173 197 0
172 196 0
175 198 0
175 198 0
174 197 0
173 197 0
173 197 0
173 196 0
174 197 0
173 196 0
175 198 0
173 197 0
174 197 0
173 196 0
174 196 0
174 198 0
173 197 0
172 196 0
173 197 0
174 198 0
174 196 0
171 194 0
171 195 0
174 197 0
172 196 0
174 197 0
175 197 0
172 196 0
171 195 0
172 196 0
173 196 0
173 197 0
172 196 0
174 198 0
173 197 0
174 197 0
174 197 0
173 196 0
173 196 0
173 197 0
173 196 0
171 195 0
172 196 0
173 197 0
173 197 0
173 197 0
175 198 0
172 196 0
173 196 0
175 198 0
171 194 0
175 198 0
174 197 0
170 194 0
171 195 0
170 194 0
173 196 0
174 197 0
172 196 0
172 194 0
171 195 0
168 192 0
173 196 0
172 196 0
173 197 0
169 193 0
174 197 0
175 198 0
173 196 0
171 195 0
172 195 0
173 196 0
174 197 0
172 195 0
175 198 0
171 194 0
174 196 0
172 196 0
172 195 0
173 196 0
172 196 0
171 195 0
171 194 0
171 194 0
172 195 0
173 196 0
172 195 0
172 195 0
173 197 0
173 196 0
174 197 0
173 196 0
172 196 0
175 197 0
174 197 0
174 197 0
171 195 0
173 197 0
171 194 0
169 194 0
171 194 25
164 187 57
129 154 121
94 123 158
61 98 171
62 98 174
62 99 179
62 99 177
62 99 180
63 100 181
62 99 178
62 99 180
62 99 178
61 99 180
62 99 180
62 99 178
62 99 179
62 99 181
61 99 180
62 99 179
61 98 177
62 99 178
62 99 180
62 99 181
61 99 181
62 99 181
63 100 181
62 99 181
61 99 181
62 99 181
62 99 181
62 99 181
62 99 181
61 99 181
61 99 181
61 99 181
62 99 181
62 99 181
62 99 180
61 98 181
62 99 181
61 99 181
62 99 181
62 99 181
62 99 181
61 99 181
62 99 181
62 99 181
61 99 181
62 99 181
61 98 181
62 99 180
62 99 181
62 99 181
62 99 181
61 99 181
61 99 180
62 99 181
61 99 181
61 99 180
61 98 181
62 99 181
62 99 181
62 99 181
61 99 181
62 99 180
61 99 181
61 99 181
62 99 181
61 99 181
62 99 181
62 99 180
62 99 178
62 99 179
61 99 180
62 99 179
62 99 180
61 99 180
62 99 180
62 99 181
62 99 177
62 99 177
62 99 180
62 98 173
61 98 176
62 99 180
61 98 177
62 98 176
62 98 177
62 98 175
61 98 173
62 98 176
62 98 173
61 97 175
69 102 168
97 122 146
127 144 118
143 158 89
163 172 32
165 171 37
164 168 30
167 167 49
170 169 57
172 166 64
173 165 68
181 170 87
183 172 91
188 176 100
190 177 104
191 178 106
194 180 112
195 181 114
193 180 113
193 180 114
188 176 112
188 177 113
183 173 111
177 168 109
177 169 110
179 170 111
177 169 110
174 167 110
177 169 111
174 168 110
172 166 110
178 171 112
178 172 113
178 171 113
179 173 113
180 174 114
180 174 114
179 173 114
179 173 114
178 173 114
177 172 114
176 172 114
176 172 114
175 172 114
175 171 114
174 171 114
174 171 114
174 171 114
173 171 114
173 170 114
173 170 114
172 170 114
172 170 114
171 170 114
171 170 114
170 169 114
170 169 114
170 169 114
170 169 114
170 169 114
170 169 114
170 169 114
169 169 114
169 169 114
169 169 114
169 169 114
169 169 114
169 169 114
169 169 114
169 169 114
169 169 114
169 169 114
169 169 114
169 169 114
169 169 114
169 169 114
169 169 114
169 169 114
170 169 114
170 169 114
170 169 114
170 169 114
170 169 114
171 169 114
171 170 114
171 170 114
172 170 114
172 170 114
172 170 114
173 170 114
173 171 114
174 171 114
174 171 114
174 171 114
175 171 114
175 172 114
176 172 114
176 172 114
177 172 114
177 173 114
178 173 114
179 173 114
180 174 114
180 174 114
181 174 114
182 175 114
183 175 114
183 175 114
184 176 114
185 176 114
186 177 114
187 177 114
188 177 114
188 178 114
189 178 114
190 179 114
192 179 114
193 180 114
194 181 114
196 181 114
195 181 112
195 180 111
190 177 102
187 175 96
182 173 87
176 169 73
178 173 73
171 175 48
170 177 37
167 180 22
169 183 0
170 188 0
172 193 0
172 192 0
174 196 0
174 196 0
173 196 0
175 198 0
172 195 0
175 198 0
173 196 0
174 197 0
173 196 0
174 197 0
174 197 0
173 197 0
173 196 0
174 197 0
175 198 0
172 195 0
176 198 0
173 196 0
173 196 0
173 196 0
173 197 0
175 198 0
175 198 0
173 196 0
174 197 0
174 197 0
172 196 0
172 196 0
173 197 0
174 197 0
174 198 0
175 197 0
173 196 0
173 196 0
174 197 0
175 197 0
174 197 0
174 197 0
175 198 0
175 198 0
174 197 0
175 198 0
173 196 0
175 198 0
174 198 0
174 198 0
173 197 0
174 198 0
172 196 0
172 196 0
172 196 0
171 195 0
175 198 0
172 196 0
173 196 0
172 196 0
175 198 0
173 196 0
174 198 0
173 197 0
173 197 0
172 195 0
171 195 0
172 196 0
172 196 0
172 196 0
174 198 0
174 197 0
174 197 0
175 198 0
174 197 0
175 198 0
175 198 0
171 194 0
174 198 0
172 195 0
174 197 0
172 195 0
175 198 0
173 196 0
174 197 0
173 197 0
172 196 0
175 198 0
172 195 0
174 197 0
173 197 0
171 194 0
173 197 0
172 196 0
172 196 0
173 197 0
171 194 0
174 197 0
173 196 0
173 196 0
173 197 0
173 195 0
173 196 0
174 197 0
175 198 0
173 196 0
173 197 0
172 196 0
172 196 0
172 196 0
173 196 0
173 197 0
171 195 0
173 196 0
175 198 0
173 195 0
174 198 0
171 195 0
176 198 0
173 196 0
172 196 0
174 197 0
175 198 0
176 198 0
171 195 0
174 197 0
173 197 0
173 197 0
174 197 0
171 195 0
173 196 0
174 197 0
172 197 0
172 195 0
173 196 0
170 193 0
171 193 0
173 196 0
170 194 0
174 198 0
172 196 0
171 195 0
172 196 0
174 197 0
173 196 0
172 195 0
171 195 0
172 196 0
172 194 0
175 198 0
172 194 0
172 195 0
172 195 0
173 197 0
174 197 0
173 196 0
174 197 0
171 195 0
174 197 0
171 194 0
173 196 0
173 196 0
173 196 0
173 196 0
172 196 0
173 196 0
171 194 0
174 196 0
172 196 0
172 196 0
172 195 0
172 196 0
170 195 0
174 197 0
173 197 0
171 194 31
155 178 82
135 159 115
79 111 166
64 100 174
63 100 175
62 99 175
62 99 177
62 99 177
62 99 177
62 99 178
62 99 179
62 99 180
62 99 179
61 98 178
61 98 175
62 99 179
62 99 180
62 99 179
61 98 179
62 99 180
62 99 180
62 99 179
62 99 180
62 99 181
62 99 180
62 99 181
62 99 181
62 99 181
62 99 181
62 99 181
61 98 181
62 99 181
61 99 181
61 99 181
61 99 180
62 99 180
62 99 181
62 99 181
62 99 181
61 99 181
61 99 181
61 99 181
62 99 181
61 98 181
61 99 180
61 98 181
62 99 180
62 99 181
62 99 181
61 98 181
61 99 180
62 99 181
62 99 181
62 99 181
62 99 181
61 99 181
61 99 181
61 99 180
62 99 180
62 99 181
61 99 180
61 98 181
61 98 181
62 99 180
62 99 181
62 99 180
61 98 179
61 99 181
62 99 181
61 99 180
61 98 178
62 99 181
61 99 180
62 99 180
62 99 180
62 99 180
62 99 179
62 99 180
62 99 181
62 99 177
61 98 177
62 99 178
62 99 178
62 99 179
62 99 177
62 99 180
62 98 174
62 99 179
62 99 180
61 98 177
62 98 176
62 97 171
62 98 174
62 98 173
62 98 176
63 98 166
88 111 151
122 137 122
146 155 81
160 167 50
166 170 39
169 168 49
171 167 59
173 166 68
174 165 71
181 170 86
184 172 91
187 175 97
193 179 108
193 179 108
190 177 109
190 177 112
185 173 110
182 171 110
176 166 107
184 173 111
181 171 110
170 162 106
167 160 105
164 158 105
164 158 106
162 157 104
161 156 105
166 160 108
161 156 106
167 162 109
168 163 108
173 167 111
177 171 112
177 171 113
180 174 114
179 174 114
179 173 114
178 173 114
177 173 114
177 172 114
176 172 114
176 172 114
175 172 114
175 171 114
175 171 114
174 171 114
174 171 114
173 171 114
173 171 114
172 170 114
172 170 114
172 170 114
172 170 114
171 170 114
171 170 114
171 170 114
171 170 114
171 169 114
170 169 114
170 169 114
170 169 114
170 169 114
170 169 114
170 169 114
170 169 114
170 169 114
170 169 114
170 169 114
170 169 114
170 169 114
170 169 114
170 169 114
170 169 114
170 169 114
170 169 114
170 169 114
170 169 114
171 170 114
171 170 114
171 170 114
171 170 114
171 170 114
172 170 114
172 170 114
172 170 114
173 170 114
173 171 114
173 171 114
174 171 114
174 171 114
175 171 114
175 172 114
176 172 114
176 172 114
177 172 114
177 173 114
178 173 114
178 173 114
179 173 114
180 174 114
181 174 114
181 174 114
181 175 114
182 175 114
183 175 114
183 175 114
184 176 114
185 176 114
186 177 114
187 177 114
188 178 114
189 178 114
190 179 114
191 179 114
192 179 114
193 180 114
194 180 114
195 181 114
196 181 113
194 180 109
188 175 99
188 175 97
184 173 90
179 172 76
172 172 57
171 174 49
169 178 32
165 174 11
165 181 11
168 185 0
169 187 0
172 193 0
172 195 0
172 196 0
173 195 0
173 196 0
173 196 0
175 197 0
174 197 0
174 197 0
172 196 0
175 197 0
173 196 0
175 198 0
173 196 0
173 195 0
173 196 0
174 197 0
175 198 0
173 197 0
174 198 0
174 197 0
174 197 0
174 198 0
173 197 0
172 195 0
173 196 0
173 197 0
172 195 0
175 197 0
173 197 0
173 197 0
173 197 0
174 197 0
174 197 0
173 196 0
173 197 0
174 197 0
173 196 0
173 197 0
175 198 0
175 198 0
174 196 0
174 197 0
171 195 0
173 197 0
173 196 0
174 197 0
174 198 0
173 196 0
172 197 0
174 197 0
175 198 0
176 198 0
171 195 0
173 196 0
174 198 0
174 198 0
175 198 0
173 197 0
174 197 0
175 198 0
172 196 0
174 197 0
174 197 0
173 196 0
175 198 0
174 198 0
174 198 0
172 195 0
174 198 0
173 196 0
173 197 0
173 196 0
173 196 0
171 196 0
174 197 0
173 196 0
173 196 0
174 197 0
173 196 0
173 197 0
174 197 0
174 197 0
172 196 0
174 197 0
174 197 0
174 197 0
174 198 0
172 196 0
175 198 0
175 198 0
174 197 0
174 198 0
172 195 0
174 197 0
173 197 0
173 196 0
174 197 0
171 195 0
173 197 0
172 195 0
171 195 0
174 197 0
173 196 0
172 195 0
172 196 0
173 196 0
172 195 0
173 197 0
172 196 0
173 196 0
174 197 0
170 194 0
174 197 0
173 197 0
172 196 0
176 198 0
173 197 0
173 196 0
174 197 0
172 195 0
175 197 0
172 196 0
173 197 0
175 198 0
175 198 0
172 196 0
173 197 0
175 198 0
174 197 0
173 197 0
174 198 0
172 196 0
173 195 0
174 197 0
173 196 0
174 197 0
171 194 0
174 197 0
171 194 0
172 195 0
174 196 0
171 194 0
174 197 0
174 197 0
173 196 0
173 196 0
173 197 0
172 196 0
172 195 0
174 197 0
170 193 0
173 196 0
173 196 0
173 197 0
171 195 0
172 195 0
171 195 0
171 195 0
171 194 0
173 196 0
174 198 0
172 195 0
174 197 0
173 196 0
171 195 0
173 196 0
170 193 0
172 196 0
173 196 0
173 196 0
172 195 18
156 180 76
120 146 128
78 110 168
62 99 172
62 99 173
62 99 177
61 98 178
62 99 178
62 99 179
61 98 171
62 99 179
62 99 181
62 99 175
62 99 179
62 99 180
61 98 181
62 99 179
62 99 179
62 99 180
62 99 179
62 99 180
61 98 181
61 99 180
62 99 181
61 99 181
62 99 181
62 99 180
61 99 180
61 99 179
61 99 181
62 99 181
62 99 180
61 99 180
62 99 180
61 98 181
62 99 181
62 99 181
61 99 181
62 99 181
62 99 180
62 99 181
62 99 181
61 99 181
61 99 181
62 99 181
61 99 181
62 99 181
62 99 181
61 98 180
62 99 181
61 99 180
62 99 181
62 99 181
62 99 181
62 99 181
62 99 181
61 99 181
62 99 181
62 99 181
61 99 180
62 99 181
61 99 181
62 99 181
62 99 179
62 99 179
61 98 181
61 99 181
61 98 180
62 99 180
61 99 180
62 99 181
62 99 181
62 99 181
62 99 181
62 99 180
61 99 181
62 99 180
61 98 181
61 99 178
62 99 178
63 99 178
61 98 175
62 99 181
61 98 175
62 99 179
63 100 181
62 99 179
62 98 176
62 98 175
62 99 176
61 98 177
61 98 176
61 98 176
61 98 174
62 98 173
62 98 170
62 98 172
61 97 173
84 109 153
117 130 119
148 155 86
160 161 50
167 165 51
168 163 57
173 166 69
177 168 81
180 169 82
184 172 91
190 177 102
191 177 104
192 179 110
193 179 112
190 176 111
182 170 109
184 173 111
170 161 105
168 160 105
164 157 104
160 153 101
154 149 101
163 156 104
154 149 102
146 143 98
156 152 102
154 150 103
160 155 105
159 154 104
166 161 107
165 161 108
166 162 109
171 165 110
174 169 111
176 170 113
179 173 114
178 173 114
178 173 114
178 173 114
177 173 114
177 172 114
176 172 114
176 172 114
175 172 114
175 172 114
175 171 114
174 171 114
174 171 114
173 171 114
173 171 114
173 170 114
172 170 114
172 170 114
172 170 114
172 170 114
172 170 114
171 170 114
171 170 114
171 170 114
171 170 114
171 170 114
171 169 114
170 169 114
170 169 114
170 169 114
170 169 114
170 169 114
170 169 114
170 169 114
171 169 114
171 169 114
171 169 114
170 169 114
170 169 114
171 170 114
171 170 114
171 170 114
171 170 114
171 170 114
172 170 114
172 170 114
172 170 114
172 170 114
173 171 114
173 171 114
174 171 114
174 171 114
174 171 114
175 172 114
175 172 114
176 172 114
176 172 114
177 172 114
177 172 114
178 173 114
178 173 114
179 173 114
180 174 114
180 174 114
181 174 114
181 174 114
182 175 114
183 175 114
183 175 114
184 176 114
185 176 114
185 176 114
186 177 114
187 177 114
189 178 114
189 178 114
190 179 114
191 179 114
192 180 114
193 180 114
195 181 114
195 181 114
195 181 112
193 179 108
192 178 104
183 172 89
180 170 83
178 171 75
176 174 64
172 172 52
167 175 34
167 176 22
166 179 0
168 184 0
171 189 0
171 192 0
172 195 0
173 196 0
172 196 0
174 197 0
173 196 0
171 195 0
172 196 0
174 197 0
174 197 0
175 197 0
174 196 0
175 197 0
174 197 0
172 196 0
175 197 0
174 196 0
175 197 0
173 195 0
175 197 0
174 196 0
173 196 0
172 196 0
174 197 0
174 197 0
174 197 0
175 197 0
174 197 0
173 197 0
174 197 0
173 197 0
173 196 0
173 196 0
174 197 0
174 197 0
173 196 0
173 197 0
175 197 0
175 198 0
174 197 0
174 197 0
174 197 0
174 197 0
174 197 0
173 196 0
172 196 0
173 196 0
175 198 0
174 197 0
174 198 0
173 197 0
173 197 0
172 196 0
174 197 0
174 198 0
173 197 0
174 197 0
173 197 0
171 194 0
172 195 0
174 197 0
174 197 0
174 197 0
174 197 0
172 196 0
174 198 0
174 197 0
171 196 0
175 198 0
175 198 0
173 197 0
175 198 0
175 198 0
174 197 0
172 196 0
174 197 0
173 197 0
173 197 0
174 197 0
172 196 0
171 195 0
172 195 0
174 198 0
173 196 0
171 195 0
173 196 0
174 197 0
172 195 0
175 198 0
173 197 0
172 195 0
175 198 0
174 197 0
174 197 0
174 198 0
173 197 0
173 196 0
173 197 0
173 197 0
174 198 0
173 196 0
175 198 0
174 198 0
175 198 0
171 195 0
175 198 0
173 196 0
174 197 0
172 196 0
173 197 0
173 196 0
171 195 0
171 195 0
172 196 0
173 196 0
172 194 0
175 198 0
172 196 0
175 198 0
172 195 0
174 197 0
172 196 0
171 195 0
175 197 0
175 198 0
174 197 0
174 198 0
172 196 0
172 195 0
173 196 0
174 198 0
172 196 0
172 196 0
175 198 0
172 195 0
171 195 0
171 195 0
174 197 0
172 196 0
175 197 0
173 196 0
173 197 0
173 196 0
172 195 0
176 198 0
171 195 0
174 197 0
173 196 0
172 196 0
173 196 0
174 197 0
172 195 0
174 197 0
173 197 0
170 195 0
171 195 0
171 193 0
173 196 0
172 197 0
174 196 0
171 194 0
173 196 0
173 197 0
172 196 0
169 193 0
173 195 0
172 196 0
173 197 0
173 195 0
173 196 0
171 194 18
157 181 72
126 152 129
83 115 160
62 99 178
61 98 175
61 98 173
62 99 174
62 99 177
62 98 173
62 99 178
62 99 179
62 99 179
62 99 177
62 99 179
61 98 177
61 99 178
62 100 181
62 99 180
62 99 181
61 98 179
62 99 177
62 99 180
62 99 178
62 99 180
62 99 180
62 99 180
62 99 181
62 99 181
63 100 181
62 99 181
62 99 181
61 99 181
62 99 180
62 99 181
61 99 180
62 99 179
62 99 181
62 99 181
61 99 181
61 99 181
61 98 181
61 99 181
62 99 181
62 99 180
62 99 181
62 99 179
61 99 181
61 99 181
61 99 181
61 98 181
61 98 181
62 99 181
62 99 179
61 98 180
62 99 181
61 99 181
61 99 181
62 99 181
62 99 179
61 99 181
62 99 181
62 99 180
62 99 181
61 99 179
61 98 180
62 99 179
61 98 180
61 99 181
62 99 181
62 99 180
61 99 180
62 99 181
61 98 179
62 99 178
62 99 180
62 99 180
62 99 180
62 99 180
61 99 181
62 99 181
61 98 177
62 99 181
62 99 179
62 99 178
62 99 178
63 99 176
62 98 177
62 98 178
61 98 176
62 99 178
62 99 177
61 98 174
62 99 175
61 97 171
62 99 175
62 98 173
62 98 174
62 98 174
61 97 171
65 99 171
86 109 155
117 128 134
146 150 89
165 163 72
170 166 58
173 165 66
178 168 78
179 169 81
178 168 79
183 172 91
188 175 101
187 174 106
191 178 110
179 167 105
174 164 106
173 163 106
176 166 107
168 159 104
154 148 100
150 145 99
147 143 97
145 141 98
143 140 98
155 150 102
146 142 98
147 144 100
141 139 98
149 147 102
153 150 103
157 153 105
160 156 105
167 162 109
170 165 110
169 164 109
177 171 113
178 173 114
179 173 114
178 173 114
178 173 114
177 173 114
176 172 114
176 172 114
176 172 114
176 172 114
175 172 114
175 171 114
175 171 114
174 171 114
174 171 114
174 171 114
173 171 114
173 171 114
172 170 114
173 170 114
172 170 114
172 170 114
171 170 114
172 170 114
172 170 114
171 170 114
171 170 114
171 170 114
171 170 114
171 170 114
171 170 114
171 170 114
171 170 114
171 170 114
171 170 114
171 170 114
171 170 114
171 170 114
171 170 114
172 170 114
172 170 114
172 170 114
172 170 114
172 170 114
173 170 114
173 171 114
173 171 114
173 171 114
174 171 114
174 171 114
174 171 114
175 171 114
175 171 114
175 172 114
176 172 114
176 172 114
177 172 114
178 173 114
178 173 114
178 173 114
179 173 114
179 174 114
180 174 114
181 174 114
181 174 114
182 175 114
183 175 114
183 175 114
184 176 114
185 176 114
185 176 114
186 177 114
187 177 114
188 178 114
189 178 114
190 178 114
190 179 114
192 179 114
192 180 114
194 180 114
194 181 114
195 181 114
194 180 111
192 178 104
189 176 99
185 173 93
185 174 91
176 169 73
173 170 61
166 171 32
170 175 45
166 176 22
165 178 0
170 186 0
170 187 0
172 193 0
172 195 0
176 199 0
174 196 0
172 195 0
173 196 0
174 197 0
175 198 0
173 196 0
174 196 0
171 195 0
173 196 0
174 197 0
172 196 0
175 197 0
174 197 0
172 196 0
174 197 0
173 196 0
173 196 0
174 197 0
174 197 0
173 195 0
175 198 0
174 197 0
173 196 0
174 197 0
173 197 0
176 198 0
174 197 0
173 197 0
173 197 0
174 197 0
174 197 0
174 197 0
171 195 0
172 195 0
174 197 0
172 196 0
174 197 0
175 198 0
173 197 0
174 198 0
172 196 0
173 197 0
174 197 0
174 197 0
174 198 0
173 196 0
176 198 0
173 197 0
173 196 0
174 198 0
175 198 0
174 197 0
174 198 0
174 198 0
172 196 0
173 197 0
176 198 0
173 196 0
175 198 0
175 198 0
173 196 0
172 196 0
174 197 0
173 197 0
174 197 0
174 197 0
174 197 0
173 197 0
172 195 0
174 197 0
172 196 0
174 197 0
173 197 0
172 196 0
174 197 0
172 196 0
173 197 0
172 196 0
173 196 0
171 195 0
176 198 0
174 197 0
172 196 0
174 197 0
172 196 0
175 198 0
174 197 0
172 196 0
171 195 0
172 196 0
174 197 0
171 195 0
174 198 0
172 196 0
171 195 0
172 196 0
172 196 0
172 196 0
172 196 0
176 199 0
174 198 0
174 197 0
173 196 0
173 196 0
175 198 0
172 196 0
173 197 0
170 194 0
171 195 0
174 197 0
168 192 0
173 196 0
173 196 0
173 197 0
169 192 0
170 194 0
172 196 0
174 197 0
170 195 0
174 198 0
173 196 0
173 196 0
174 196 0
174 198 0
171 195 0
173 196 0
172 196 0
174 197 0
171 195 0
173 197 0
171 195 0
171 194 0
172 195 0
172 195 0
172 196 0
171 195 0
173 196 0
173 196 0
171 193 0
173 195 0
174 197 0
172 196 0
173 196 0
171 195 0
172 196 0
172 194 0
172 196 0
171 195 0
172 195 0
171 195 0
172 194 0
171 195 0
172 195 0
173 196 0
173 196 0
168 191 0
173 196 0
172 194 0
171 195 0
174 197 0
171 194 0
172 195 0
171 194 0
172 195 0
171 194 0
173 196 0
170 192 18
150 174 90
127 153 126
78 110 167
62 99 173
62 99 175
62 99 177
62 99 174
62 99 178
62 98 173
61 99 179
62 99 178
62 99 181
62 99 180
61 98 175
62 99 180
62 99 177
61 99 179
62 99 176
62 99 179
62 99 180
62 99 179
62 99 179
62 99 180
62 99 180
62 99 180
62 99 179
62 99 181
62 99 179
62 99 179
62 99 181
62 99 180
62 99 181
62 99 181
62 99 178
62 99 180
61 99 181
62 99 181
62 99 181
61 99 181
61 99 181
62 99 181
61 99 180
61 99 181
62 99 181
62 99 180
62 99 181
62 99 180
61 99 181
61 99 181
62 99 181
62 99 181
61 99 181
61 99 181
62 99 181
61 98 179
62 99 181
62 99 179
62 99 181
62 99 180
62 99 181
62 99 181
62 99 181
61 98 180
62 99 181
62 99 181
62 99 181
62 99 180
62 99 181
62 99 180
62 99 180
61 99 181
61 98 178
62 99 180
61 99 180
62 99 179
62 99 181
62 99 180
61 99 178
62 99 179
62 99 179
62 99 181
62 99 180
62 99 180
62 99 177
61 98 175
62 98 174
62 99 179
62 99 178
62 99 179
62 99 178
62 99 176
62 99 177
62 99 177
62 98 174
62 99 174
62 99 176
62 98 176
62 99 176
61 98 177
62 98 174
62 98 174
66 99 169
95 115 161
122 130 129
149 150 95
164 160 72
173 166 70
172 164 69
176 167 75
184 172 91
184 172 96
182 170 95
177 166 96
176 165 103
175 164 103
168 158 102
162 153 101
142 138 94
141 137 95
137 133 93
142 138 94
129 128 90
135 132 93
140 137 95
130 129 93
116 118 88
128 129 93
125 126 91
134 134 96
151 149 103
145 143 100
155 152 104
152 150 104
154 151 104
163 159 108
173 168 111
176 170 112
180 174 114
179 173 114
179 173 114
178 173 114
178 173 114
177 172 114
177 172 114
176 172 114
176 172 114
176 172 114
175 172 114
175 171 114
174 171 114
174 171 114
174 171 114
173 171 114
173 171 114
173 171 114
173 171 114
172 170 114
173 170 114
172 170 114
172 170 114
172 170 114
172 170 114
172 170 114
172 170 114
172 170 114
172 170 114
172 170 114
172 170 114
172 170 114
172 170 114
172 170 114
172 170 114
172 170 114
172 170 114
172 170 114
172 170 114
172 170 114
173 170 114
173 171 114
173 171 114
174 171 114
174 171 114
174 171 114
174 171 114
175 171 114
175 171 114
175 172 114
175 172 114
176 172 114
177 172 114
177 173 114
177 173 114
178 173 114
179 173 114
179 173 114
179 173 114
180 174 114
180 174 114
181 174 114
181 174 114
183 175 114
183 175 114
184 176 114
185 176 114
185 176 114
186 177 114
187 177 114
187 177 114
188 178 114
189 178 114
190 178 114
191 179 114
192 179 114
193 180 114
194 180 114
194 181 114
196 182 114
196 181 113
190 177 103
191 177 103
185 173 93
178 168 77
176 169 71
171 171 56
172 173 52
167 172 30
165 173 16
166 180 0
168 184 0
172 192 0
173 193 0
173 195 0
172 193 0
174 198 0
173 196 0
175 198 0
173 196 0
173 196 0
174 196 0
174 197 0
174 197 0
175 196 0
175 197 0
173 197 0
174 197 0
173 196 0
173 197 0
175 197 0
173 196 0
172 196 0
175 198 0
175 198 0
172 195 0
175 197 0
172 196 0
174 197 0
173 196 0
174 196 0
173 196 0
175 197 0
173 196 0
173 196 0
172 195 0
175 198 0
172 195 0
174 197 0
174 198 0
174 197 0
172 196 0
174 197 0
175 198 0
174 197 0
174 197 0
171 195 0
173 197 0
175 198 0
173 197 0
175 198 0
175 197 0
175 198 0
175 198 0
173 197 0
174 197 0
174 198 0
173 196 0
173 196 0
173 196 0
171 195 0
173 196 0
174 198 0
174 197 0
174 197 0
172 196 0
172 195 0
175 198 0
173 196 0
173 197 0
173 197 0
171 195 0
172 195 0
174 197 0
173 196 0
172 196 0
174 198 0
174 197 0
175 198 0
171 195 0
173 197 0
172 196 0
175 198 0
173 197 0
173 196 0
174 198 0
172 196 0
173 197 0
173 196 0
173 197 0
173 197 0
173 196 0
170 194 0
174 197 0
172 196 0
170 194 0
174 197 0
172 195 0
173 196 0
173 197 0
172 196 0
173 196 0
172 196 0
174 197 0
174 197 0
172 195 0
175 198 0
173 196 0
175 198 0
173 197 0
173 197 0
173 196 0
173 196 0
175 197 0
175 197 0
170 193 0
172 195 0
172 196 0
174 198 0
172 196 0
170 194 0
173 197 0
174 197 0
172 196 0
172 196 0
172 195 0
173 196 0
172 196 0
171 195 0
173 196 0
171 194 0
173 197 0
170 193 0
174 197 0
172 196 0
172 196 0
172 195 0
173 195 0
170 194 0
173 197 0
172 196 0
172 196 0
172 196 0
172 195 0
173 196 0
173 195 0
173 196 0
173 197 0
172 196 0
171 195 0
173 197 0
174 197 0
173 196 0
175 198 0
174 197 0
173 196 0
173 195 0
170 194 0
171 194 0
170 194 0
172 195 0
173 196 0
174 197 0
169 193 0
175 197 0
172 196 0
173 196 0
173 196 0
171 195 0
173 196 0
171 195 0
171 194 31
157 180 76
132 157 118
79 111 163
62 99 172
62 99 176
63 99 177
62 99 179
62 99 176
62 99 177
62 99 178
62 99 178
62 99 176
62 99 179
62 99 178
62 99 180
62 99 178
62 99 178
62 99 178
62 99 179
62 99 180
62 99 180
62 99 176
61 98 178
62 99 180
62 99 180
62 99 181
62 99 181
61 98 177
62 99 180
62 99 181
62 99 181
62 99 181
62 99 180
61 98 180
62 99 181
62 99 181
62 99 180
62 99 180
61 99 180
62 99 180
62 99 181
62 99 181
61 98 181
62 99 180
61 99 180
62 99 181
62 99 181
62 99 180
62 99 181
62 99 180
62 99 180
61 99 180
61 99 181
62 99 181
62 99 181
62 99 180
62 99 181
62 99 180
62 99 181
61 98 180
62 99 180
62 99 181
62 99 181
61 99 179
62 99 180
61 98 181
62 99 180
62 99 181
61 99 179
62 99 179
61 99 179
62 99 181
62 99 180
62 99 180
62 99 180
62 99 180
62 99 180
62 99 180
61 99 180
62 98 177
62 99 180
62 99 177
62 99 180
62 99 178
62 99 179
62 99 180
61 98 176
63 100 178
62 99 178
61 98 177
62 99 177
61 98 174
61 98 175
62 99 176
62 98 175
61 98 174
62 99 177
62 98 176
61 98 174
61 97 171
61 97 166
62 97 171
61 98 174
61 96 164
90 111 161
125 132 126
152 152 93
163 158 69
174 166 73
181 170 84
176 166 82
173 163 88
169 160 87
170 161 90
158 150 94
158 149 96
155 147 97
153 146 98
134 131 91
146 141 96
131 129 91
127 126 89
125 124 88
110 113 84
118 119 88
109 112 85
115 118 89
117 119 88
132 131 93
128 128 94
148 145 99
128 129 92
131 131 95
141 140 99
153 151 104
151 149 103
163 159 108
169 164 110
173 168 112
178 172 113
179 173 114
179 173 114
178 173 114
178 173 114
178 173 114
177 172 114
177 172 114
176 172 114
176 172 114
176 172 114
175 172 114
175 172 114
175 171 114
174 171 114
174 171 114
174 171 114
173 171 114
173 171 114
173 171 114
173 171 114
173 171 114
173 171 114
172 170 114
172 170 114
173 170 114
172 170 114
172 170 114
172 170 114
172 170 114
172 170 114
173 170 114
173 170 114
173 171 114
173 170 114
173 170 114
173 171 114
173 171 114
173 171 114
173 171 114
174 171 114
174 171 114
174 171 114
175 171 114
175 171 114
175 172 114
176 172 114
176 172 114
176 172 114
176 172 114
177 172 114
177 172 114
177 173 114
178 173 114
179 173 114
179 173 114
180 174 114
180 174 114
181 174 114
181 174 114
182 175 114
182 175 114
183 175 114
184 176 114
184 176 114
185 176 114
186 176 114
187 177 114
187 177 114
188 178 114
188 178 114
190 179 114
191 179 114
191 179 114
192 180 114
193 180 114
194 180 114
195 181 114
196 181 113
197 182 114
194 180 109
184 173 93
186 174 95
184 172 87
178 170 75
168 165 52
170 172 52
167 172 36
167 178 19
167 181 11
167 182 0
168 186 0
171 191 0
171 193 0
172 194 0
173 196 0
175 196 0
172 195 0
172 195 0
174 196 0
174 196 0
174 196 0
173 196 0
173 196 0
175 196 0
174 197 0
175 198 0
173 197 0
173 196 0
174 197 0
174 197 0
173 197 0
174 197 0
174 197 0
174 197 0
174 196 0
175 198 0
175 198 0
173 197 0
174 197 0
173 196 0
174 197 0
173 196 0
174 198 0
172 196 0
172 196 0
173 197 0
175 198 0
175 198 0
173 195 0
174 197 0
174 197 0
172 196 0
175 198 0
174 197 0
174 197 0
173 196 0
172 195 0
174 197 0
174 198 0
173 196 0
174 197 0
173 197 0
173 197 0
174 197 0
173 196 0
175 198 0
174 198 0
173 196 0
174 197 0
174 198 0
174 197 0
174 198 0
174 197 0
172 195 0
172 196 0
174 198 0
173 197 0
174 197 0
172 195 0
173 197 0
174 197 0
173 197 0
174 197 0
173 197 0
172 196 0
172 195 0
174 197 0
174 197 0
175 198 0
175 198 0
173 197 0
171 195 0
173 197 0
174 197 0
175 198 0
173 196 0
172 195 0
173 196 0
171 195 0
174 197 0
172 196 0
173 197 0
173 197 0
174 198 0
176 198 0
174 197 0
174 197 0
170 193 0
171 195 0
172 195 0
173 196 0
174 197 0
174 198 0
171 195 0
173 196 0
174 196 0
171 194 0
172 196 0
174 198 0
175 198 0
173 196 0
171 194 0
173 196 0
171 195 0
173 196 0
168 192 0
173 197 0
175 198 0
174 197 0
171 195 0
171 195 0
172 196 0
173 197 0
174 197 0
173 195 0
174 197 0
172 195 0
176 198 0
171 194 0
170 193 0
173 197 0
173 196 0
170 194 0
174 197 0
174 197 0
170 193 0
172 196 0
174 197 0
172 196 0
170 193 0
174 198 0
171 194 0
175 198 0
174 197 0
170 194 0
173 196 0
173 196 0
172 196 0
170 193 0
170 193 0
174 198 0
173 196 0
172 195 0
172 194 0
170 194 0
173 196 0
173 196 0
173 197 0
172 196 0
172 196 0
174 197 0
174 198 0
171 194 0
169 193 0
174 197 0
173 195 0
174 197 0
174 197 0
171 195 0
165 189 51
135 160 120
76 109 163
62 98 171
62 99 175
62 98 173
61 98 173
62 99 175
63 99 178
62 99 177
62 99 176
62 99 178
61 98 176
62 99 178
62 99 180
62 99 180
62 99 180
62 99 180
62 99 179
62 99 177
62 99 180
62 99 179
62 99 179
62 99 181
62 99 180
62 99 179
62 99 181
62 99 180
62 99 179
62 99 179
62 99 181
62 99 181
62 99 180
62 99 181
62 99 181
62 99 180
61 99 180
62 99 181
62 99 181
62 99 180
62 99 181
62 99 181
61 99 181
62 99 180
62 99 181
61 98 179
62 99 181
61 99 180
62 99 178
62 99 181
62 99 181
62 99 181
61 99 181
62 99 181
62 99 180
61 98 181
62 99 181
62 99 178
61 99 180
62 99 180
61 99 181
61 99 180
61 99 180
62 99 180
62 99 180
62 99 180
61 99 181
62 99 181
61 98 177
62 99 181
62 99 180
61 99 181
62 99 180
62 99 181
62 99 180
62 99 180
61 99 180
62 99 179
62 99 180
62 99 180
61 99 179
62 99 176
61 99 179
62 99 181
62 99 178
62 99 180
62 99 179
62 99 178
61 98 177
61 98 179
62 99 178
62 99 179
61 98 176
62 99 177
61 98 172
63 99 176
61 98 172
62 98 176
61 98 171
62 98 175
62 98 174
61 98 176
61 98 170
61 97 170
62 98 172
64 98 166
97 115 154
130 135 126
154 150 81
172 164 73
174 166 76
170 162 76
168 159 81
172 162 88
162 153 92
161 152 91
156 148 96
148 141 95
138 133 92
134 131 92
124 123 89
109 111 83
108 110 81
104 106 78
98 102 78
107 110 83
90 97 79
89 97 80
95 102 82
98 104 83
116 118 87
115 118 89
106 111 85
132 132 94
135 135 95
150 147 102
142 141 98
146 144 101
166 161 108
168 164 109
170 165 110
177 172 113
179 173 114
179 173 114
179 173 114
178 173 114
178 173 114
177 173 114
177 173 114
177 172 114
176 172 114
176 172 114
176 172 114
176 172 114
175 171 114
175 172 114
175 171 114
174 171 114
174 171 114
174 171 114
174 171 114
174 171 114
174 171 114
174 171 114
174 171 114
174 171 114
173 171 114
174 171 114
173 171 114
173 171 114
173 171 114
173 171 114
174 171 114
173 171 114
173 171 114
173 171 114
174 171 114
174 171 114
174 171 114
174 171 114
174 171 114
175 171 114
175 172 114
175 172 114
176 172 114
176 172 114
176 172 114
176 172 114
177 172 114
177 172 114
178 173 114
178 173 114
178 173 114
179 173 114
179 173 114
180 174 114
180 174 114
181 174 114
181 174 114
182 175 114
182 175 114
183 175 114
183 175 114
184 176 114
185 176 114
185 176 114
186 177 114
187 177 114
188 177 114
189 178 114
189 178 114
190 179 114
191 179 114
191 179 114
193 180 114
193 180 114
195 181 114
196 181 114
196 181 113
195 181 111
190 177 103
187 175 97
186 174 94
180 170 83
175 169 69
170 167 56
167 166 41
167 171 34
163 170 11
165 177 0
168 185 0
170 190 0
172 192 0
173 194 0
172 196 0
174 196 0
173 196 0
173 196 0
172 196 0
173 194 0
174 196 0
174 196 0
174 197 0
175 198 0
174 197 0
172 195 0
173 195 0
173 197 0
173 195 0
174 197 0
175 198 0
174 196 0
173 196 0
173 196 0
173 197 0
175 198 0
173 196 0
175 198 0
174 197 0
172 196 0
172 196 0
173 195 0
175 198 0
175 198 0
173 197 0
175 198 0
174 197 0
173 197 0
174 197 0
173 197 0
174 197 0
176 199 0
174 197 0
174 197 0
174 197 0
174 197 0
174 198 0
171 196 0
175 197 0
173 197 0
172 196 0
173 197 0
174 197 0
174 197 0
173 196 0
174 198 0
173 197 0
174 198 0
174 197 0
176 199 0
173 197 0
173 197 0
173 197 0
173 197 0
173 197 0
172 196 0
171 194 0
174 197 0
175 198 0
174 198 0
175 198 0
171 195 0
171 194 0
172 195 0
171 194 0
175 197 0
174 198 0
172 196 0
174 198 0
173 197 0
173 196 0
172 195 0
171 194 0
171 195 0
175 198 0
172 195 0
174 197 0
172 196 0
174 197 0
175 198 0
173 196 0
174 197 0
172 195 0
174 198 0
171 195 0
173 197 0
174 197 0
174 198 0
174 198 0
172 196 0
175 198 0
172 196 0
173 197 0
172 196 0
175 198 0
174 196 0
176 198 0
172 196 0
175 198 0
172 196 0
174 197 0
171 195 0
170 193 0
172 195 0
172 196 0
172 196 0
170 194 0
175 197 0
173 196 0
173 196 0
171 195 0
173 196 0
171 194 0
171 195 0
169 193 0
173 197 0
172 195 0
171 194 0
170 194 0
171 194 0
170 194 0
173 197 0
171 194 0
173 196 0
172 196 0
173 196 0
172 195 0
173 196 0
172 196 0
173 196 0
173 196 0
175 197 0
170 194 0
173 196 0
173 196 0
175 198 0
174 197 0
171 195 0
173 197 0
173 196 0
171 194 0
171 194 0
168 191 0
172 195 0
171 194 0
172 196 0
173 196 0
174 197 0
171 195 0
170 193 0
171 195 0
173 196 0
172 196 0
172 195 0
170 194 0
170 193 0
169 192 0
170 193 0
170 192 0
165 188 47
139 163 108
83 115 160
62 99 173
62 99 173
62 98 171
62 99 176
63 100 178
62 99 176
62 99 176
62 99 177
63 100 179
62 99 177
62 99 178
62 99 175
62 99 178
62 99 178
62 99 180
62 99 179
63 99 179
61 98 177
62 99 179
62 99 180
62 99 180
62 99 181
62 99 178
62 99 181
61 99 179
62 99 181
62 99 181
61 99 179
63 99 179
62 99 180
62 99 180
62 99 181
62 99 179
61 99 178
62 99 180
62 99 180
61 99 181
61 99 181
62 99 179
62 99 181
62 99 180
62 99 180
62 99 180
62 99 180
62 99 180
62 99 181
62 99 181
62 99 180
62 99 180
62 99 181
61 99 180
62 99 180
62 99 181
62 99 179
61 99 179
61 99 181
62 99 181
61 99 181
61 99 178
61 98 181
62 99 181
62 99 180
62 99 180
62 99 181
61 99 181
62 99 180
62 99 181
62 99 180
62 99 180
62 99 179
61 98 178
61 99 179
62 99 180
62 99 178
61 99 178
62 99 180
62 99 178
62 99 179
61 99 180
62 99 180
62 99 178
62 99 179
62 99 176
62 99 180
63 100 180
62 99 178
62 99 178
61 98 178
62 99 180
62 99 177
62 99 176
62 99 177
62 99 176
62 98 173
61 98 172
62 98 173
61 98 175
62 98 173
62 99 174
62 98 170
61 97 172
62 98 174
61 97 171
62 97 170
64 98 168
98 114 154
138 140 124
155 152 104
165 158 68
159 153 70
158 151 83
144 139 77
153 146 86
150 143 88
138 133 83
134 130 85
118 116 81
110 111 80
107 108 80
94 99 78
90 96 77
85 91 74
77 86 70
77 87 71
70 83 74
73 85 74
70 83 73
77 88 76
87 96 81
96 103 82
101 107 86
108 112 87
112 116 88
107 113 88
137 137 99
151 149 104
143 142 100
165 161 108
170 165 110
174 168 111
178 172 113
180 174 114
179 173 114
179 173 114
179 173 114
178 173 114
178 173 114
177 173 114
177 173 114
177 172 114
176 172 114
176 172 114
176 172 114
176 172 114
175 172 114
175 172 114
175 172 114
175 172 114
175 171 114
175 171 114
174 171 114
174 171 114
174 171 114
175 171 114
174 171 114
174 171 114
174 171 114
174 171 114
174 171 114
174 171 114
174 171 114
174 171 114
174 171 114
174 171 114
175 171 114
175 171 114
175 172 114
175 172 114
176 172 114
176 172 114
175 172 114
176 172 114
176 172 114
176 172 114
177 172 114
177 173 114
177 172 114
178 173 114
178 173 114
178 173 114
179 173 114
179 173 114
180 174 114
180 174 114
181 174 114
181 174 114
182 175 114
182 175 114
183 175 114
184 176 114
184 176 114
184 176 114
185 176 114
186 177 114
187 177 114
187 177 114
188 178 114
189 178 114
190 178 114
190 179 114
192 179 114
192 180 114
193 180 114
194 181 114
194 181 114
196 181 114
196 181 113
194 180 110
190 177 101
187 175 97
184 172 90
177 168 78
179 170 80
172 168 61
167 169 45
163 168 25
162 169 19
165 176 11
165 178 0
169 186 0
172 191 0
172 194 0
174 195 0
173 195 0
176 198 0
172 194 0
174 196 0
173 197 0
174 196 0
173 196 0
174 197 0
173 196 0
174 197 0
175 198 0
173 196 0
173 196 0
171 195 0
174 197 0
174 196 0
172 196 0
172 195 0
174 197 0
172 195 0
175 198 0
174 197 0
173 196 0
174 197 0
174 197 0
174 197 0
174 197 0
174 197 0
175 197 0
176 199 0
173 196 0
173 196 0
172 196 0
171 194 0
173 196 0
174 196 0
174 196 0
174 197 0
172 195 0
173 195 0
173 197 0
174 198 0
174 197 0
173 197 0
173 197 0
173 196 0
174 198 0
172 196 0
174 197 0
172 195 0
172 196 0
171 195 0
173 197 0
174 197 0
172 196 0
171 195 0
173 196 0
175 198 0
173 197 0
173 196 0
172 197 0
176 199 0
174 197 0
174 197 0
174 197 0
172 196 0
172 196 0
172 196 0
175 198 0
175 197 0
172 195 0
174 197 0
174 198 0
172 196 0
172 196 0
173 197 0
175 198 0
174 197 0
172 195 0
173 197 0
172 196 0
176 198 0
171 195 0
173 195 0
172 196 0
174 197 0
171 195 0
173 197 0
173 196 0
172 195 0
171 195 0
173 196 0
175 198 0
173 196 0
173 197 0
173 197 0
173 196 0
173 196 0
173 196 0
173 197 0
175 197 0
172 196 0
172 196 0
171 195 0
173 197 0
176 198 0
172 196 0
173 196 0
172 196 0
172 196 0
174 197 0
172 196 0
172 195 0
171 195 0
175 197 0
173 196 0
174 197 0
173 196 0
172 195 0
170 194 0
172 196 0
168 192 0
173 195 0
172 196 0
173 196 0
171 195 0
173 196 0
171 195 0
173 196 0
173 197 0
173 197 0
173 195 0
173 196 0
175 198 0
174 198 0
170 193 0
171 194 0
171 194 0
171 195 0
168 191 0
173 197 0
173 197 0
171 195 0
172 196 0
174 197 0
175 198 0
170 194 0
172 194 0
170 194 0
172 196 0
173 196 0
173 196 0
168 192 0
173 197 0
173 197 0
172 194 0
173 196 0
172 196 0
172 195 0
169 192 0
169 193 0
172 195 0
174 197 0
167 190 44
142 166 108
89 119 155
62 98 171
62 99 176
62 99 172
62 99 175
62 99 177
62 99 175
62 99 177
63 99 179
62 99 177
63 99 176
62 99 178
62 99 176
62 99 180
62 99 176
62 99 177
62 99 179
62 99 176
62 99 179
62 99 180
61 99 181
62 99 181
62 99 181
62 99 179
62 99 178
62 99 179
62 99 180
62 99 180
62 99 180
61 99 180
62 99 180
62 99 180
62 99 181
62 99 181
62 99 180
62 99 180
62 99 181
62 99 181
61 98 181
62 99 180
62 99 180
62 99 179
62 99 181
62 99 180
62 99 181
62 99 181
62 99 181
61 98 177
61 99 181
62 99 180
61 98 179
62 99 181
61 98 181
62 99 179
62 99 179
62 99 181
62 99 180
62 99 181
62 99 180
62 99 180
61 99 181
62 99 179
61 98 181
63 100 180
62 99 180
62 99 180
61 98 179
62 99 178
62 99 181
61 98 179
62 99 179
62 99 181
62 99 181
62 99 180
62 99 178
62 99 181
62 99 179
61 99 179
62 99 179
62 99 177
61 99 177
62 99 179
63 100 180
62 99 178
62 99 178
62 99 179
62 99 180
62 99 178
62 99 176
62 99 178
62 99 180
62 99 178
62 99 179
62 99 175
62 99 175
63 99 177
62 99 177
62 99 177
61 98 172
61 98 173
62 99 178
62 99 177
62 98 173
61 97 170
62 98 176
61 96 168
60 96 166
72 102 166
101 117 159
135 137 116
159 154 94
167 159 78
161 153 81
152 146 77
137 133 82
138 133 83
134 129 86
102 103 71
116 115 81
94 97 74
72 81 66
72 82 70
66 78 68
61 76 69
57 72 66
59 75 71
56 73 69
55 72 69
61 76 72
55 72 69
67 82 76
65 79 70
79 90 79
88 97 81
108 112 86
97 105 87
115 118 88
125 126 94
143 142 99
156 153 104
153 151 104
175 169 112
173 167 111
180 173 114
180 174 114
180 174 114
179 173 114
179 173 114
178 173 114
178 173 114
178 173 114
178 173 114
177 173 114
177 172 114
177 172 114
177 172 114
176 172 114
176 172 114
176 172 114
176 172 114
176 172 114
176 172 114
175 172 114
175 172 114
175 172 114
175 171 114
175 172 114
175 172 114
175 172 114
175 171 114
175 172 114
175 171 114
175 171 114
175 171 114
175 172 114
175 172 114
175 172 114
176 172 114
176 172 114
176 172 114
176 172 114
176 172 114
176 172 114
177 172 114
177 172 114
177 172 114
178 173 114
178 173 114
178 173 114
178 173 114
179 173 114
179 174 114
180 174 114
180 174 114
180 174 114
181 174 114
182 175 114
182 175 114
183 175 114
183 175 114
184 176 114
184 176 114
185 176 114
186 176 114
186 176 114
187 177 114
187 177 114
188 177 114
189 178 114
189 178 114
190 179 114
191 179 114
192 179 114
192 180 114
193 180 114
194 180 114
195 181 114
196 181 114
195 181 112
193 179 108
188 175 97
185 173 94
182 171 85
173 164 69
171 166 59
167 166 49
168 167 45
166 173 28
162 170 0
167 179 0
168 184 0
170 187 0
172 191 0
174 194 0
173 195 0
173 195 0
173 195 0
172 195 0
172 195 0
172 196 0
173 197 0
173 195 0
175 197 0
174 196 0
172 195 0
173 196 0
175 198 0
172 195 0
172 196 0
173 196 0
175 197 0
173 196 0
175 197 0
173 195 0
171 195 0
174 197 0
175 196 0
174 196 0
173 196 0
174 198 0
174 197 0
173 196 0
173 196 0
173 196 0
175 198 0
173 196 0
174 197 0
174 196 0
174 195 0
170 194 0
174 197 0
175 196 0
174 198 0
174 197 0
175 198 0
174 197 0
173 197 0
173 196 0
174 197 0
174 197 0
174 196 0
174 198 0
173 197 0
173 197 0
174 198 0
174 198 0
174 197 0
174 197 0
173 197 0
170 195 0
175 198 0
173 196 0
174 198 0
172 196 0
174 197 0
173 197 0
172 197 0
174 197 0
174 197 0
173 196 0
171 195 0
173 197 0
172 196 0
171 195 0
173 196 0
176 199 0
172 196 0
173 197 0
173 197 0
174 198 0
172 195 0
173 196 0
173 196 0
174 196 0
172 196 0
173 197 0
174 197 0
174 197 0
173 197 0
174 197 0
173 196 0
173 196 0
172 195 0
172 196 0
173 196 0
174 197 0
174 197 0
172 196 0
173 197 0
172 195 0
173 196 0
172 196 0
173 197 0
173 197 0
171 195 0
173 197 0
174 197 0
170 193 0
172 195 0
175 198 0
172 195 0
171 195 0
174 198 0
174 197 0
174 197 0
170 195 0
172 195 0
172 196 0
172 195 0
171 194 0
172 195 0
173 196 0
171 195 0
172 195 0
172 195 0
174 197 0
174 197 0
173 196 0
171 194 0
172 195 0
174 197 0
172 195 0
173 197 0
174 196 0
174 197 0
173 197 0
173 196 0
172 195 0
169 193 0
173 197 0
172 196 0
173 197 0
173 196 0
172 195 0
173 196 0
172 195 0
173 196 0
171 194 0
174 197 0
173 196 0
169 192 0
173 197 0
171 194 0
172 195 0
172 195 0
171 194 0
172 196 0
171 195 0
174 197 0
167 190 0
173 197 0
173 196 0
171 194 0
171 195 0
171 194 0
171 195 0
172 195 0
164 186 51
143 168 103
98 127 148
64 100 171
62 99 177
62 99 175
62 99 178
62 99 177
62 99 175
62 99 175
63 100 180
62 99 175
62 99 177
62 99 175
62 99 176
62 99 177
62 99 176
62 99 178
62 99 179
62 99 179
62 99 178
62 99 179
62 99 178
62 99 179
62 99 179
62 99 179
62 99 179
62 99 180
62 99 179
62 99 179
62 99 181
63 100 181
62 99 179
62 99 181
61 99 181
62 99 180
62 99 180
62 99 181
62 99 177
62 99 181
62 99 179
63 100 181
62 99 179
62 99 180
62 99 179
62 99 181
62 99 181
62 99 180
62 99 181
62 99 181
62 99 181
62 99 180
61 99 180
62 99 177
62 99 181
62 99 180
62 99 180
62 99 180
62 99 181
63 99 180
62 99 181
62 99 180
62 99 181
62 99 181
62 99 180
62 99 180
62 99 180
62 99 180
62 99 180
61 99 179
62 99 179
62 99 179
62 99 179
61 99 178
61 99 180
62 99 180
62 99 180
62 99 180
62 99 180
63 99 179
61 99 178
62 99 180
62 99 180
62 99 179
62 99 178
62 99 180
61 98 176
62 99 176
61 98 179
63 99 177
62 99 179
61 98 174
62 99 177
62 99 178
62 99 178
61 99 176
63 99 178
61 98 175
62 98 172
62 99 177
62 98 174
62 99 174
62 98 173
62 99 175
62 99 174
62 98 174
61 98 171
62 98 169
62 98 174
61 96 166
61 96 168
63 96 161
109 120 148
139 138 111
148 143 80
146 141 75
154 147 77
133 129 70
125 122 80
122 120 79
104 105 75
92 96 74
91 95 73
73 81 65
58 73 68
51 68 64
51 69 68
51 69 66
51 68 63
52 69 65
52 69 66
53 71 69
53 72 71
52 70 67
57 75 73
66 81 75
66 80 73
86 96 81
107 112 88
111 115 90
124 126 94
128 129 93
145 143 101
160 156 106
159 156 106
165 160 108
178 172 113
179 173 113
181 174 114
180 174 114
180 174 114
179 174 114
179 173 114
179 173 114
179 173 114
178 173 114
178 173 114
178 173 114
177 173 114
177 173 114
177 172 114
177 172 114
176 172 114
177 172 114
176 172 114
176 172 114
176 172 114
176 172 114
176 172 114
176 172 114
176 172 114
176 172 114
176 172 114
176 172 114
176 172 114
176 172 114
176 172 114
176 172 114
176 172 114
176 172 114
176 172 114
176 172 114
177 172 114
177 172 114
177 173 114
177 172 114
177 173 114
178 173 114
178 173 114
179 173 114
179 173 114
179 173 114
179 173 114
180 174 114
180 174 114
180 174 114
181 174 114
181 174 114
182 175 114
182 175 114
183 175 114
183 175 114
184 176 114
184 176 114
185 176 114
185 176 114
186 177 114
187 177 114
187 177 114
188 178 114
189 178 114
189 178 114
190 178 114
191 179 114
192 179 114
192 180 114
193 180 114
194 181 114
195 181 114
196 181 114
196 182 113
194 180 109
191 178 103
189 176 99
185 173 90
179 168 80
174 165 72
169 162 61
170 166 62
167 168 39
163 170 22
163 173 0
167 179 0
168 180 0
170 188 0
170 189 0
172 193 0
173 195 0
172 196 0
173 195 0
173 196 0
172 195 0
174 197 0
173 196 0
176 198 0
172 195 0
173 196 0
173 197 0
174 196 0
175 197 0
174 197 0
173 195 0
173 196 0
174 197 0
174 196 0
173 196 0
173 197 0
173 196 0
174 196 0
174 197 0
173 196 0
175 197 0
172 196 0
175 197 0
174 196 0
174 197 0
176 198 0
175 198 0
174 196 0
173 197 0
174 197 0
173 196 0
174 198 0
175 198 0
174 197 0
174 197 0
173 196 0
174 197 0
173 197 0
173 196 0
174 197 0
174 197 0
173 197 0
173 197 0
174 198 0
171 195 0
172 196 0
173 197 0
173 197 0
175 198 0
171 195 0
173 197 0
174 198 0
173 196 0
172 196 0
174 198 0
174 197 0
173 196 0
175 198 0
175 198 0
171 194 0
175 198 0
174 197 0
174 197 0
173 196 0
174 197 0
174 197 0
173 197 0
173 196 0
174 197 0
173 196 0
173 196 0
174 197 0
173 197 0
174 197 0
173 197 0
174 197 0
175 197 0
174 198 0
172 196 0
173 197 0
171 195 0
174 197 0
172 196 0
173 197 0
174 197 0
172 195 0
174 197 0
175 198 0
172 197 0
174 196 0
171 194 0
173 196 0
173 197 0
174 197 0
172 195 0
171 195 0
171 194 0
173 196 0
172 196 0
171 194 0
171 195 0
174 197 0
175 198 0
172 196 0
173 196 0
172 195 0
174 197 0
174 198 0
171 194 0
172 195 0
173 196 0
173 195 0
172 195 0
176 198 0
172 196 0
173 196 0
171 195 0
173 197 0
173 197 0
173 196 0
174 197 0
172 195 0
172 194 0
174 197 0
172 196 0
172 195 0
169 193 0
172 194 0
172 195 0
172 195 0
174 196 0
174 197 0
172 195 0
172 195 0
175 198 0
173 196 0
174 197 0
174 197 0
173 197 0
173 196 0
172 196 0
172 195 0
172 194 0
172 196 0
173 196 0
173 197 0
171 194 0
173 197 0
174 197 0
175 198 0
170 194 0
170 194 0
171 194 0
172 196 0
173 197 0
171 194 0
168 192 0
173 196 0
169 193 31
155 179 67
117 144 133
70 105 173
62 98 172
62 98 167
62 99 176
62 99 173
62 99 175
62 99 172
62 98 172
62 99 177
62 99 175
62 99 176
62 98 174
62 99 178
62 99 176
61 98 175
62 99 178
62 99 178
62 99 180
62 99 180
62 99 178
61 98 175
62 99 179
62 99 178
61 98 176
62 99 178
62 99 181
62 99 180
62 99 179
62 99 181
61 99 177
62 99 180
62 99 178
62 99 181
62 99 181
62 99 181
62 99 180
62 99 181
62 99 180
62 99 181
61 99 179
62 99 179
62 100 181
61 98 180
62 99 180
62 99 180
61 98 179
62 99 181
61 98 178
61 98 180
62 99 180
62 99 180
62 99 180
62 99 180
61 98 181
62 99 181
62 99 180
62 99 180
62 99 180
61 99 179
62 99 179
62 99 180
63 99 179
62 99 178
62 99 180
62 99 181
62 99 179
62 99 179
62 99 180
62 99 178
62 99 181
62 99 176
62 99 179
62 99 176
62 99 180
61 99 181
62 99 179
62 99 179
62 99 177
62 99 176
61 99 178
62 99 179
62 99 178
62 99 178
61 98 175
62 99 177
61 99 177
62 99 176
62 99 179
62 99 180
62 99 178
62 99 174
62 99 175
62 99 175
62 99 178
62 99 177
62 99 177
62 99 180
62 98 173
62 99 176
62 98 173
61 97 172
62 98 172
61 98 172
62 98 171
61 98 175
61 97 170
61 97 166
61 97 168
61 96 167
61 97 166
79 104 162
120 127 141
122 127 124
128 127 76
126 124 71
135 130 76
103 104 64
107 107 68
86 91 70
73 81 65
71 81 66
53 68 61
50 67 65
50 67 62
50 68 66
50 66 62
52 70 68
51 67 62
52 70 69
52 70 67
52 69 66
54 72 70
53 71 68
52 70 67
59 76 74
68 81 74
81 91 78
93 101 82
107 112 87
125 126 92
126 127 93
141 140 98
154 151 104
150 148 103
168 163 109
178 171 113
181 174 114
181 174 114
181 174 114
180 174 114
180 174 114
180 174 114
179 174 114
179 173 114
179 173 114
178 173 114
178 173 114
179 173 114
177 173 114
177 173 114
177 173 114
177 172 114
177 172 114
177 172 114
177 172 114
177 173 114
177 172 114
177 172 114
177 172 114
177 172 114
177 172 114
177 172 114
177 172 114
176 172 114
177 172 114
177 172 114
177 172 114
177 173 114
177 172 114
177 173 114
178 173 114
178 173 114
178 173 114
178 173 114
178 173 114
179 173 114
179 173 114
179 173 114
179 174 114
180 174 114
180 174 114
181 174 114
181 174 114
181 174 114
182 175 114
182 175 114
182 175 114
183 175 114
183 175 114
184 176 114
184 176 114
185 176 114
185 176 114
186 177 114
187 177 114
187 177 114
188 178 114
188 178 114
189 178 114
190 179 114
191 179 114
192 179 114
192 180 114
193 180 114
194 180 114
195 181 114
195 181 114
196 181 114
197 182 113
192 178 105
191 178 104
191 177 101
182 171 87
179 168 79
175 166 74
171 163 64
167 163 51
165 166 41
162 166 25
162 170 16
162 172 0
166 181 0
166 181 0
170 188 0
172 192 0
173 194 0
173 195 0
171 194 0
173 195 0
173 196 0
175 197 0
174 196 0
172 195 0
174 197 0
173 195 0
175 197 0
172 196 0
175 197 0
173 196 0
173 195 0
172 195 0
172 196 0
174 197 0
171 194 0
174 197 0
173 196 0
173 196 0
173 196 0
175 198 0
173 196 0
174 197 0
173 196 0
173 197 0
174 196 0
172 195 0
173 196 0
175 198 0
173 196 0
174 197 0
175 198 0
173 195 0
172 196 0
174 197 0
175 197 0
174 197 0
173 196 0
174 198 0
175 198 0
176 199 0
175 198 0
175 198 0
172 196 0
173 197 0
172 197 0
172 196 0
174 197 0
174 197 0
173 197 0
171 196 0
173 197 0
172 196 0
174 197 0
174 198 0
173 196 0
171 195 0
175 198 0
174 198 0
173 196 0
173 196 0
175 197 0
172 197 0
174 197 0
175 198 0
174 197 0
172 196 0
175 198 0
173 197 0
173 197 0
172 195 0
173 196 0
175 198 0
173 196 0
174 197 0
173 196 0
173 197 0
174 197 0
176 199 0
173 197 0
174 197 0
174 198 0
173 196 0
175 198 0
174 197 0
172 195 0
175 198 0
173 197 0
171 195 0
173 196 0
175 198 0
174 197 0
170 193 0
175 198 0
173 197 0
172 195 0
172 196 0
174 197 0
172 196 0
170 194 0
172 196 0
173 197 0
173 196 0
172 195 0
174 197 0
171 194 0
174 197 0
175 198 0
173 196 0
174 197 0
172 196 0
173 196 0
172 196 0
173 197 0
170 194 0
173 195 0
172 195 0
172 196 0
173 196 0
173 196 0
174 197 0
174 197 0
172 196 0
173 196 0
172 195 0
173 197 0
174 196 0
174 197 0
173 196 0
173 197 0
173 197 0
173 196 0
174 197 0
172 196 0
172 195 0
174 198 0
173 196 0
174 197 0
172 196 0
174 197 0
174 197 0
172 195 0
172 196 0
172 195 0
171 195 0
172 195 0
173 195 0
172 195 0
171 194 0
171 195 0
173 196 0
170 194 0
171 194 0
173 196 0
170 193 0
171 195 0
170 194 0
170 194 0
171 195 0
159 183 57
129 154 115
80 112 160
62 99 168
62 99 174
63 99 168
62 98 172
62 99 175
62 98 169
62 99 176
62 99 175
63 99 175
62 99 177
62 99 174
62 99 177
62 99 179
62 99 180
62 99 178
61 98 177
62 99 179
62 99 179
62 99 179
62 99 179
62 99 177
62 99 180
62 99 178
62 99 179
62 99 177
61 99 180
62 99 180
62 99 181
62 99 180
62 99 179
62 99 179
62 99 181
62 99 180
61 99 179
62 99 179
62 99 180
62 99 181
61 99 179
61 99 179
62 99 181
61 99 180
61 99 179
62 99 180
61 99 181
61 98 180
62 99 181
62 99 181
62 99 179
62 99 179
62 99 179
62 99 180
62 99 180
62 99 179
62 99 180
62 99 181
61 98 179
62 99 181
61 98 178
62 99 179
62 99 181
61 99 179
61 99 177
62 99 180
62 99 180
62 99 180
62 99 179
62 99 179
62 99 179
61 99 177
62 99 179
62 99 180
61 99 181
62 99 180
62 99 179
62 99 178
62 99 179
62 99 181
62 99 180
62 99 179
62 99 179
62 99 177
62 99 176
62 99 180
63 99 180
62 99 179
61 99 178
62 99 179
62 99 178
62 99 179
62 99 178
62 99 177
62 99 175
62 99 174
62 99 178
63 100 177
61 98 173
62 99 177
62 98 174
61 98 174
62 99 174
61 97 169
62 99 176
63 99 176
61 98 174
62 98 174
61 98 170
61 97 168
62 97 172
62 98 173
61 96 164
61 96 166
82 104 153
114 121 131
104 110 94
125 124 76
112 112 60
92 95 61
95 97 66
87 91 67
65 75 63
52 67 60
50 67 62
49 65 58
51 67 63
50 67 62
50 67 64
50 67 63
50 66 60
52 70 68
50 66 62
52 69 67
51 69 66
52 70 69
52 70 68
54 73 74
56 74 73
59 77 74
78 89 77
91 99 82
104 109 85
116 120 92
133 134 97
146 144 100
148 146 101
167 161 108
173 167 111
179 172 113
182 175 114
182 175 114
181 174 114
181 174 114
180 174 114
180 174 114
180 174 114
180 174 114
179 173 114
179 174 114
179 173 114
178 173 114
179 173 114
178 173 114
178 173 114
178 173 114
178 173 114
178 173 114
178 173 114
178 173 114
178 173 114
178 173 114
177 173 114
178 173 114
178 173 114
177 173 114
177 173 114
178 173 114
178 173 114
178 173 114
178 173 114
178 173 114
178 173 114
179 173 114
179 173 114
179 173 114
179 173 114
179 173 114
179 173 114
180 174 114
180 174 114
180 174 114
181 174 114
181 174 114
181 174 114
181 174 114
182 175 114
182 175 114
183 175 114
183 175 114
184 176 114
184 176 114
184 176 114
185 176 114
186 176 114
186 177 114
187 177 114
187 177 114
188 178 114
189 178 114
189 178 114
189 178 114
190 179 114
191 179 114
192 180 114
192 180 114
194 180 114
194 181 114
195 181 114
196 181 114
196 182 113
196 181 112
194 180 109
189 176 100
185 173 93
185 173 92
175 166 72
169 162 59
170 162 56
163 162 34
166 167 37
166 171 28
164 174 0
166 179 0
167 183 0
170 187 0
171 191 0
173 193 0
173 194 0
173 195 0
175 196 0
173 196 0
174 197 0
171 195 0
174 197 0
174 196 0
174 197 0
173 196 0
174 195 0
174 197 0
172 196 0
174 196 0
172 196 0
174 196 0
175 197 0
175 198 0
173 195 0
174 197 0
174 196 0
172 195 0
172 196 0
174 197 0
173 196 0
174 196 0
174 197 0
173 195 0
172 195 0
173 196 0
175 198 0
174 196 0
175 197 0
175 197 0
173 196 0
174 196 0
175 198 0
173 197 0
173 195 0
174 197 0
175 198 0
173 196 0
175 198 0
174 197 0
174 198 0
174 197 0
175 198 0
174 198 0
172 196 0
173 197 0
173 196 0
172 197 0
173 197 0
170 194 0
174 197 0
173 197 0
173 197 0
176 198 0
173 197 0
172 196 0
170 194 0
175 198 0
172 196 0
176 198 0
173 197 0
174 197 0
172 196 0
172 195 0
174 197 0
176 198 0
173 197 0
174 198 0
172 196 0
172 196 0
175 198 0
174 197 0
172 196 0
174 197 0
173 196 0
173 196 0
173 196 0
172 196 0
173 196 0
172 196 0
172 196 0
173 196 0
176 198 0
173 196 0
174 197 0
173 197 0
173 196 0
174 196 0
172 196 0
174 197 0
172 196 0
174 198 0
172 196 0
172 196 0
174 197 0
173 196 0
171 195 0
175 198 0
172 195 0
171 195 0
172 195 0
170 194 0
174 196 0
170 193 0
170 194 0
172 196 0
173 197 0
173 196 0
171 195 0
173 196 0
170 193 0
171 195 0
174 197 0
173 197 0
176 198 0
173 197 0
172 195 0
173 197 0
174 197 0
173 196 0
172 196 0
173 196 0
172 196 0
171 194 0
170 193 0
173 196 0
173 196 0
170 194 0
172 195 0
174 197 0
171 195 0
172 196 0
173 196 0
172 195 0
173 196 0
171 195 0
170 192 0
172 197 0
172 196 0
170 194 0
171 194 0
171 195 0
174 197 0
169 192 0
169 193 0
170 192 0
170 194 0
170 193 0
173 195 0
171 194 0
171 194 0
174 197 0
173 197 0
173 196 0
172 195 0
170 194 0
173 196 0
161 184 60
131 157 117
82 113 159
62 99 170
62 99 172
62 98 170
63 99 170
62 99 178
62 99 175
62 99 172
62 99 175
62 99 178
62 99 174
62 99 174
63 100 178
62 99 178
62 99 178
62 99 175
62 99 176
62 99 178
62 99 175
62 99 180
62 99 178
62 99 178
62 99 178
62 99 177
62 99 181
62 99 179
62 99 179
62 99 179
62 99 180
62 99 180
62 99 181
62 99 181
62 99 180
62 99 180
62 99 179
62 99 181
62 99 180
62 99 179
62 99 179
61 99 180
62 99 180
62 99 179
63 99 179
63 100 179
62 99 180
61 99 181
61 99 179
62 99 180
61 98 178
62 99 181
61 99 179
62 99 181
62 99 181
62 99 181
62 99 178
62 99 180
62 99 179
62 99 180
61 98 179
62 99 179
62 99 181
62 99 181
62 99 180
62 99 178
61 99 180
62 99 181
62 99 180
62 99 181
62 99 178
62 99 180
62 99 180
62 99 180
62 99 179
62 99 180
62 99 179
62 99 180
62 99 179
63 100 179
62 99 179
62 99 180
62 99 177
61 98 177
63 99 179
62 99 178
61 98 179
62 99 176
62 99 179
62 99 180
62 98 175
62 99 181
62 99 180
62 99 173
62 99 177
62 99 177
62 99 178
62 99 179
63 100 178
62 99 178
62 99 174
62 98 169
62 98 174
62 98 173
62 98 174
61 98 174
62 99 175
62 98 171
62 98 172
62 98 172
62 98 174
62 99 174
62 99 175
61 98 172
60 95 162
61 96 163
74 99 150
99 108 113
104 108 86
113 113 68
101 102 60
76 83 60
57 68 57
49 65 59
46 62 57
46 62 58
50 65 57
49 65 60
49 64 57
49 65 61
49 66 62
52 68 65
50 67 64
52 69 64
51 68 64
52 70 67
52 70 67
52 70 67
53 72 71
54 73 71
53 72 70
62 78 73
64 80 75
81 92 80
107 112 86
122 123 90
121 123 92
145 144 101
153 150 103
170 164 109
175 168 111
181 174 113
182 175 114
182 175 114
182 175 114
181 174 114
181 174 114
181 174 114
181 174 114
180 174 114
180 174 114
180 174 114
180 174 114
180 174 114
179 173 114
179 173 114
179 173 114
179 173 114
179 173 114
178 173 114
179 173 114
178 173 114
179 173 114
178 173 114
179 173 114
179 173 114
179 173 114
178 173 114
179 173 114
178 173 114
179 173 114
179 173 114
179 173 114
179 173 114
179 173 114
179 174 114
180 174 114
180 174 114
180 174 114
180 174 114
181 174 114
181 174 114
181 174 114
181 175 114
182 175 114
182 175 114
182 175 114
183 175 114
183 175 114
184 175 114
184 176 114
184 176 114
185 176 114
185 176 114
186 177 114
186 177 114
187 177 114
187 177 114
188 178 114
189 178 114
189 178 114
190 178 114
190 179 114
191 179 114
192 180 114
193 180 114
193 180 114
194 180 114
195 181 114
196 181 114
196 182 114
196 181 113
195 181 110
190 177 101
188 175 97
181 171 87
182 171 86
178 168 79
176 166 72
168 162 57
166 163 47
164 167 34
162 168 11
162 170 0
162 171 0
165 179 0
167 183 0
171 190 0
173 192 0
173 196 0
174 196 0
171 194 0
175 197 0
172 196 0
175 197 0
174 197 0
174 196 0
175 197 0
173 196 0
173 197 0
174 198 0
174 196 0
174 196 0
174 196 0
174 197 0
174 197 0
174 197 0
173 195 0
172 196 0
174 197 0
174 197 0
174 197 0
173 194 0
173 195 0
174 198 0
174 196 0
173 196 0
174 197 0
174 197 0
174 196 0
175 198 0
174 197 0
175 198 0
173 195 0
173 196 0
174 197 0
173 197 0
174 196 0
174 197 0
174 197 0
173 197 0
174 198 0
173 196 0
175 198 0
175 198 0
173 196 0
171 195 0
175 198 0
173 197 0
173 197 0
175 198 0
173 196 0
173 197 0
173 196 0
175 198 0
173 197 0
173 197 0
173 195 0
175 198 0
175 198 0
173 196 0
174 197 0
174 197 0
172 196 0
172 195 0
174 197 0
174 198 0
174 197 0
174 197 0
173 196 0
176 198 0
170 194 0
172 196 0
174 197 0
174 197 0
173 197 0
174 198 0
173 196 0
173 197 0
173 196 0
174 197 0
171 195 0
172 195 0
173 196 0
174 197 0
174 197 0
173 197 0
173 197 0
173 195 0
172 195 0
175 198 0
174 197 0
173 197 0
172 195 0
173 196 0
172 195 0
173 196 0
173 196 0
174 197 0
174 197 0
173 196 0
172 196 0
172 195 0
172 195 0
172 195 0
173 196 0
173 196 0
173 196 0
173 196 0
173 196 0
169 192 0
173 197 0
174 196 0
174 198 0
169 193 0
173 196 0
174 197 0
173 196 0
172 196 0
171 195 0
174 197 0
172 195 0
170 193 0
171 194 0
172 196 0
171 193 0
171 195 0
170 194 0
174 196 0
173 197 0
170 194 0
173 197 0
170 194 0
170 193 0
173 196 0
173 197 0
170 194 0
172 196 0
173 196 0
173 196 0
172 195 0
171 195 0
173 195 0
171 195 0
170 194 0
172 195 0
171 194 0
172 196 0
170 193 0
172 196 0
167 190 0
170 194 0
173 196 0
171 194 0
171 194 0
170 193 0
170 193 0
171 194 0
171 195 0
167 191 44
150 175 84
99 128 142
62 99 173
62 99 173
62 98 172
63 99 171
62 99 173
63 100 176
63 100 177
63 99 175
62 98 172
62 98 171
61 98 172
63 100 180
62 99 174
62 99 176
62 99 176
62 99 175
62 99 179
62 99 178
61 98 177
62 99 177
63 100 179
63 99 177
62 99 178
62 99 178
62 99 181
63 100 181
62 99 177
62 99 180
63 99 179
61 99 180
62 99 178
62 99 178
63 99 178
62 99 177
62 99 180
61 99 181
62 99 180
62 99 180
61 98 180
62 99 181
62 99 181
62 99 181
62 99 181
62 99 181
62 99 180
61 98 180
62 99 179
62 99 179
62 99 181
61 99 181
62 99 177
62 99 180
62 99 181
62 99 180
61 99 179
62 99 179
62 99 180
61 98 181
62 99 176
62 99 178
62 99 181
62 99 180
62 99 179
62 99 178
62 99 179
62 99 179
62 99 179
62 99 179
62 99 181
61 99 178
62 99 178
62 99 179
62 99 178
62 99 178
62 99 181
62 99 181
62 99 179
62 99 180
61 98 176
62 99 177
62 99 177
62 99 178
62 99 178
62 99 180
61 98 179
61 99 177
61 99 176
62 99 179
63 99 176
61 99 177
62 99 179
62 99 180
62 99 174
62 99 177
62 99 178
63 99 178
63 99 177
62 99 178
62 98 175
62 99 174
62 98 174
62 99 174
61 98 172
61 98 174
62 99 175
61 98 169
61 98 176
61 98 175
62 99 172
61 98 171
61 97 170
62 98 169
61 97 168
62 97 169
60 95 159
75 98 143
78 91 101
82 89 69
85 89 58
75 81 60
54 67 60
47 63 57
49 66 61
46 61 53
48 63 56
49 65 60
48 64 59
49 66 61
51 68 64
49 65 59
51 68 65
52 70 66
51 68 63
50 68 66
51 68 65
52 70 67
51 69 64
54 73 73
54 73 72
53 72 72
61 78 73
75 86 72
94 102 84
109 113 86
123 125 91
143 141 99
151 147 101
158 154 105
173 166 110
179 171 112
183 175 114
183 175 114
182 175 114
182 175 114
182 175 114
182 175 114
181 174 114
181 174 114
181 174 114
181 174 114
180 174 114
180 174 114
180 174 114
180 174 114
180 174 114
180 174 114
179 174 114
180 174 114
179 173 114
180 174 114
179 173 114
179 173 114
180 174 114
179 174 114
179 174 114
179 174 114
179 173 114
179 174 114
180 174 114
180 174 114
180 174 114
180 174 114
180 174 114
180 174 114
181 174 114
181 174 114
181 174 114
181 174 114
181 174 114
181 174 114
182 175 114
182 175 114
182 175 114
183 175 114
183 175 114
184 176 114
184 176 114
185 176 114
185 176 114
185 176 114
186 177 114
186 177 114
186 177 114
187 177 114
188 177 114
189 178 114
189 178 114
189 178 114
190 178 114
191 179 114
192 179 114
192 179 114
192 180 114
193 180 114
194 180 114
195 181 114
195 181 114
196 182 114
197 182 114
196 181 112
192 178 105
189 176 99
188 175 96
181 170 86
176 167 75
172 164 67
172 164 65
168 162 56
164 163 42
160 162 16
161 165 0
163 170 0
168 182 0
166 182 0
168 184 0
170 189 0
171 192 0
174 195 0
174 197 0
174 196 0
174 196 0
174 196 0
175 198 0
173 195 0
174 196 0
173 196 0
172 196 0
173 196 0
173 195 0
173 196 0
174 197 0
173 196 0
173 196 0
173 196 0
173 197 0
173 197 0
174 196 0
172 195 0
174 197 0
172 196 0
173 196 0
173 197 0
174 197 0
173 196 0
172 195 0
175 198 0
174 197 0
173 197 0
172 196 0
176 198 0
174 197 0
173 196 0
173 195 0
175 198 0
173 196 0
173 196 0
175 197 0
173 196 0
174 198 0
171 195 0
174 197 0
173 197 0
173 197 0
174 197 0
174 197 0
171 195 0
173 197 0
174 198 0
173 195 0
174 197 0
173 196 0
172 196 0
173 197 0
172 196 0
173 196 0
174 198 0
173 197 0
173 197 0
174 197 0
171 195 0
174 197 0
172 196 0
173 197 0
173 196 0
173 197 0
173 197 0
175 198 0
169 193 0
174 197 0
172 196 0
172 196 0
170 194 0
173 197 0
172 196 0
173 197 0
173 197 0
170 194 0
171 195 0
172 195 0
171 195 0
173 195 0
172 195 0
172 196 0
174 198 0
172 194 0
175 197 0
173 197 0
173 197 0
171 195 0
172 196 0
172 195 0
172 195 0
173 196 0
175 198 0
175 198 0
174 198 0
174 197 0
174 197 0
172 195 0
171 195 0
172 196 0
172 196 0
170 194 0
171 195 0
170 194 0
175 198 0
175 198 0
173 196 0
172 196 0
172 195 0
171 195 0
173 196 0
174 197 0
174 198 0
172 195 0
172 195 0
173 195 0
172 195 0
174 197 0
171 193 0
172 196 0
172 196 0
172 196 0
171 195 0
174 197 0
172 195 0
172 196 0
173 196 0
174 196 0
173 197 0
173 196 0
171 195 0
171 194 0
172 195 0
172 196 0
173 196 0
173 196 0
171 195 0
171 195 0
173 197 0
172 196 0
173 196 0
171 194 0
172 195 0
169 193 0
169 192 0
171 194 0
175 197 0
172 194 0
172 195 0
168 191 0
173 196 0
169 193 0
170 193 0
173 196 0
173 196 0
170 193 18
154 178 70
124 150 117
63 99 167
61 98 165
62 99 172
62 99 176
62 99 174
62 99 173
62 99 175
62 99 176
61 98 172
62 99 173
62 98 174
62 99 179
62 99 176
62 99 176
62 99 176
62 99 175
62 99 176
62 99 180
62 99 178
62 99 178
62 99 177
63 99 178
62 99 177
62 100 181
63 100 179
62 99 177
62 99 179
62 99 179
62 99 179
62 99 180
62 99 180
62 99 180
62 99 181
62 99 180
61 99 181
62 99 178
62 99 180
62 99 178
62 99 181
62 99 181
62 99 180
62 99 178
62 99 178
62 99 180
62 99 176
62 99 180
62 99 180
62 99 180
62 99 179
62 99 179
62 99 181
61 98 176
62 99 179
62 99 181
61 99 181
62 99 178
62 99 180
62 99 180
62 99 181
62 99 177
63 99 179
62 99 179
62 99 179
62 99 180
62 99 176
63 100 180
62 99 180
63 100 180
62 99 179
62 99 179
62 99 180
62 99 178
62 99 176
62 99 180
61 98 176
62 99 179
62 99 178
62 99 179
62 99 178
61 98 178
62 99 175
62 99 177
62 99 179
62 99 179
61 98 177
62 99 178
61 99 177
62 99 176
62 99 180
62 99 178
62 99 179
62 99 176
62 99 176
62 99 178
62 98 173
62 99 178
63 99 175
61 98 175
62 99 176
62 98 173
61 98 173
62 98 176
61 98 173
62 98 171
61 98 171
62 98 173
61 98 172
62 99 173
62 98 169
62 98 174
62 98 171
61 97 170
62 97 168
62 97 166
61 97 167
62 97 166
63 96 160
67 88 128
75 89 100
73 80 66
56 67 53
46 60 51
47 62 55
48 63 56
46 60 53
47 61 55
46 61 56
47 63 58
49 65 60
48 63 57
46 61 54
51 68 64
50 67 63
51 67 64
51 67 64
50 68 66
52 70 66
53 71 68
54 72 69
52 71 69
53 72 70
54 73 73
64 79 72
77 88 75
89 98 81
110 114 86
125 126 92
142 140 98
160 155 105
158 154 104
176 168 110
181 173 113
184 176 114
183 175 114
183 175 114
183 175 114
183 175 114
182 175 114
182 175 114
182 175 114
182 175 114
181 174 114
181 174 114
181 174 114
180 174 114
181 174 114
181 174 114
181 174 114
180 174 114
180 174 114
180 174 114
180 174 114
180 174 114
180 174 114
180 174 114
180 174 114
180 174 114
180 174 114
181 174 114
180 174 114
181 174 114
180 174 114
181 174 114
181 174 114
181 174 114
182 175 114
181 174 114
181 174 114
182 175 114
182 175 114
183 175 114
183 175 114
183 175 114
184 175 114
184 176 114
184 176 114
184 176 114
185 176 114
185 176 114
185 176 114
186 177 114
186 177 114
187 177 114
187 177 114
188 178 114
188 178 114
189 178 114
189 178 114
190 179 114
190 179 114
191 179 114
192 179 114
192 180 114
193 180 114
193 180 114
195 181 114
196 181 114
196 182 114
197 182 114
196 181 112
195 180 109
189 176 100
192 178 103
186 174 95
183 171 87
175 166 70
171 163 65
174 165 68
162 158 41
162 159 36
160 163 19
161 167 0
164 174 0
164 174 0
167 182 0
171 188 0
173 193 0
172 192 0
173 195 0
173 196 0
174 196 0
172 195 0
175 197 0
173 196 0
172 196 0
171 194 0
172 196 0
174 197 0
173 196 0
173 196 0
174 195 0
173 196 0
173 197 0
173 196 0
173 196 0
174 196 0
174 197 0
172 195 0
172 195 0
175 197 0
173 197 0
174 196 0
173 196 0
172 195 0
174 196 0
172 196 0
174 197 0
174 196 0
173 195 0
174 197 0
173 196 0
172 194 0
175 198 0
173 196 0
175 198 0
174 198 0
174 197 0
174 197 0
173 196 0
174 197 0
176 199 0
175 198 0
174 197 0
173 197 0
172 195 0
172 195 0
176 198 0
170 194 0
173 197 0
174 197 0
174 197 0
172 195 0
173 197 0
174 198 0
171 195 0
172 196 0
173 197 0
173 196 0
175 198 0
171 195 0
170 194 0
172 197 0
174 197 0
174 197 0
172 196 0
171 195 0
174 197 0
173 196 0
171 195 0
172 195 0
174 197 0
174 197 0
173 196 0
170 193 0
173 196 0
172 196 0
174 197 0
173 197 0
174 197 0
172 196 0
170 194 0
174 198 0
173 196 0
173 196 0
174 197 0
174 197 0
173 196 0
174 197 0
173 195 0
173 196 0
173 197 0
173 196 0
172 195 0
175 198 0
172 195 0
173 196 0
174 196 0
173 196 0
175 197 0
173 196 0
174 197 0
174 197 0
174 198 0
172 195 0
171 195 0
171 195 0
173 197 0
171 194 0
169 194 0
173 197 0
170 193 0
170 194 0
171 194 0
171 194 0
172 196 0
174 197 0
171 194 0
174 197 0
173 196 0
172 196 0
173 196 0
172 196 0
169 192 0
172 195 0
175 197 0
172 196 0
169 193 0
173 196 0
173 196 0
170 193 0
172 196 0
173 195 0
173 197 0
170 194 0
171 193 0
171 195 0
172 195 0
171 194 0
172 195 0
171 194 0
174 197 0
173 197 0
171 195 0
173 196 0
173 196 0
171 194 0
173 196 0
170 194 0
174 196 0
171 195 0
171 194 0
171 194 0
172 196 0
170 193 0
171 193 0
173 195 0
169 192 0
164 188 44
136 160 111
78 110 162
61 98 166
61 98 170
62 99 171
62 99 175
63 99 177
63 99 177
62 99 176
62 99 175
62 98 172
62 99 179
62 99 177
63 99 176
62 99 180
62 99 177
62 99 179
62 99 177
62 99 176
61 99 179
62 99 178
62 99 176
62 99 178
61 99 178
62 99 180
62 99 179
62 99 179
62 99 177
61 99 181
62 99 179
62 99 179
62 99 179
62 99 177
62 99 180
62 99 178
62 99 178
61 98 179
61 99 179
62 99 179
62 99 178
62 99 177
62 99 181
62 99 181
62 99 179
62 99 180
63 100 179
62 99 181
62 99 179
62 99 179
62 99 179
62 99 179
63 100 181
62 99 178
62 99 179
62 99 180
62 99 179
62 99 178
61 99 178
62 99 180
63 99 175
62 99 180
62 99 179
62 99 179
62 99 181
62 99 179
62 99 178
62 99 178
62 99 181
62 99 180
62 99 177
62 99 179
62 99 180
61 99 180
63 100 179
62 99 179
62 99 177
62 99 178
62 99 180
62 99 178
62 99 179
62 99 179
62 99 178
62 99 179
62 99 177
62 99 177
62 99 179
62 99 176
62 99 179
62 99 179
62 99 176
62 99 174
62 99 178
61 98 177
62 99 177
62 99 178
62 99 172
62 99 174
62 99 175
62 99 176
62 98 173
62 99 177
61 98 175
62 99 174
62 98 172
62 99 173
61 97 170
62 99 175
62 98 175
62 99 176
62 98 170
61 98 173
61 98 170
62 98 172
62 97 166
61 98 172
62 97 168
60 96 162
60 95 161
61 95 157
59 91 151
55 79 122
61 72 70
47 62 54
46 60 54
45 59 54
45 60 53
46 60 51
47 62 57
46 61 55
46 61 57
49 64 57
49 66 61
49 64 58
49 65 60
48 65 60
49 64 59
51 68 64
51 68 65
52 69 65
49 66 61
52 70 67
52 69 65
52 68 61
53 72 69
54 73 73
70 84 76
86 95 79
98 105 83
118 120 92
137 136 95
152 149 103
164 159 106
171 164 109
182 174 113
185 176 114
185 176 114
184 176 114
184 176 114
183 175 114
183 175 114
183 175 114
183 175 114
183 175 114
182 175 114
182 175 114
182 175 114
182 175 114
182 175 114
182 175 114
181 175 114
181 174 114
182 175 114
181 174 114
181 174 114
181 174 114
181 174 114
181 174 114
181 174 114
181 174 114
181 174 114
181 174 114
182 175 114
181 174 114
182 175 114
182 175 114
182 175 114
182 175 114
182 175 114
182 175 114
183 175 114
183 175 114
183 175 114
184 176 114
184 176 114
184 176 114
184 176 114
185 176 114
184 176 114
185 176 114
186 177 114
186 177 114
186 177 114
187 177 114
187 177 114
188 177 114
188 178 114
189 178 114
189 178 114
190 178 114
190 179 114
191 179 114
191 179 114
192 179 114
193 180 114
193 180 114
193 180 114
194 181 114
196 181 114
196 181 114
197 182 114
196 181 113
196 181 111
193 179 107
189 176 99
185 173 92
182 171 86
177 168 78
171 163 60
171 163 62
167 160 57
162 158 36
162 160 34
159 160 16
162 169 0
162 170 0
165 176 0
166 181 0
169 185 0
171 190 0
171 191 0
173 195 0
173 196 0
173 195 0
174 196 0
173 195 0
171 194 0
172 195 0
174 196 0
174 197 0
174 196 0
174 196 0
173 195 0
174 196 0
171 194 0
173 196 0
173 196 0
174 195 0
173 195 0
173 196 0
174 197 0
173 195 0
174 196 0
173 197 0
174 196 0
173 196 0
173 194 0
172 195 0
174 197 0
173 197 0
175 197 0
175 197 0
173 197 0
172 195 0
173 196 0
172 194 0
175 197 0
174 197 0
174 197 0
175 198 0
172 193 0
174 196 0
175 197 0
173 196 0
173 197 0
173 195 0
173 196 0
173 196 0
174 197 0
175 197 0
172 196 0
173 197 0
175 198 0
174 198 0
175 198 0
172 196 0
174 197 0
172 196 0
175 198 0
172 196 0
171 195 0
173 197 0
173 196 0
171 195 0
174 197 0
174 197 0
173 196 0
172 196 0
173 197 0
174 197 0
174 197 0
174 198 0
173 197 0
173 195 0
173 197 0
172 196 0
173 196 0
173 196 0
173 197 0
173 197 0
173 197 0
175 197 0
170 194 0
174 197 0
173 196 0
172 196 0
173 197 0
174 198 0
174 197 0
174 198 0
175 198 0
173 195 0
170 194 0
172 196 0
172 196 0
174 197 0
173 196 0
172 196 0
171 194 0
174 197 0
173 196 0
173 196 0
172 196 0
174 197 0
172 196 0
172 196 0
175 198 0
173 197 0
174 197 0
173 196 0
171 194 0
170 194 0
171 194 0
172 196 0
172 196 0
171 195 0
172 194 0
171 195 0
173 196 0
173 195 0
172 196 0
170 193 0
172 195 0
173 197 0
172 195 0
173 196 0
169 193 0
173 196 0
173 196 0
171 194 0
172 195 0
171 194 0
171 195 0
171 194 0
172 196 0
173 195 0
171 195 0
174 197 0
171 194 0
169 193 0
174 197 0
172 195 0
172 196 0
171 195 0
171 194 0
171 194 0
170 194 0
171 195 0
172 196 0
170 193 0
168 191 0
172 194 0
172 196 0
171 195 0
173 196 0
172 195 0
173 197 0
172 195 0
168 192 0
169 192 18
148 172 94
81 113 160
67 102 172
63 99 169
62 99 170
63 99 174
62 99 175
62 99 172
62 99 173
63 99 175
62 99 173
62 99 175
62 99 175
62 99 174
62 99 173
62 99 175
63 100 176
63 100 179
62 99 176
61 98 175
62 99 177
62 99 180
62 99 178
63 99 175
62 99 179
62 99 179
63 100 180
62 99 178
62 99 178
62 99 177
62 99 178
62 99 173
62 99 180
62 99 179
63 100 179
62 99 178
62 99 181
62 99 180
62 99 176
62 99 179
62 99 179
62 99 178
62 99 180
62 99 180
62 99 180
62 98 175
62 99 178
61 98 179
62 99 181
61 99 180
62 99 180
62 99 179
62 99 178
62 99 180
62 99 181
62 99 178
62 99 180
62 99 177
62 99 178
62 99 178
62 99 180
62 99 177
61 99 181
62 99 179
62 99 179
62 99 179
63 99 179
62 99 179
62 99 178
61 99 179
61 98 175
62 99 176
62 99 176
62 99 180
62 99 176
62 99 175
62 99 179
62 99 179
62 99 179
62 99 177
62 99 178
63 99 178
62 99 178
61 99 177
62 99 177
62 99 179
62 99 178
63 100 175
62 99 175
62 99 178
62 99 177
63 99 176
62 99 175
62 99 177
62 99 174
63 99 176
62 99 174
62 98 176
62 99 177
62 98 175
62 98 171
62 99 170
62 99 175
62 99 175
62 98 174
63 99 174
62 98 174
62 98 173
62 99 173
62 98 171
62 98 174
62 98 170
63 100 177
62 98 169
62 98 168
62 98 171
61 97 167
62 97 167
61 97 166
61 97 167
60 94 153
56 87 140
52 75 103
44 59 66
43 58 53
43 56 48
44 58 51
45 60 54
45 58 48
47 62 55
46 60 54
48 64 58
48 64 59
47 61 54
47 63 58
47 62 57
50 66 59
50 66 61
50 67 62
52 69 65
52 70 66
51 69 67
53 71 68
53 71 66
54 72 71
54 73 71
59 76 70
71 84 73
96 103 82
102 107 81
118 121 90
142 140 98
155 151 103
162 157 106
177 170 111
180 172 112
185 176 114
185 176 114
185 176 114
184 176 114
184 176 114
184 176 114
183 175 114
183 175 114
183 175 114
183 175 114
182 175 114
183 175 114
183 175 114
182 175 114
182 175 114
182 175 114
182 175 114
182 175 114
182 175 114
182 175 114
182 175 114
182 175 114
182 175 114
182 175 114
182 175 114
182 175 114
182 175 114
183 175 114
183 175 114
182 175 114
182 175 114
183 175 114
183 175 114
183 175 114
184 176 114
184 176 114
184 176 114
184 176 114
185 176 114
185 176 114
185 176 114
185 176 114
186 177 114
186 177 114
186 177 114
186 177 114
187 177 114
187 177 114
189 178 114
188 178 114
189 178 114
189 178 114
190 179 114
190 179 114
191 179 114
191 179 114
192 180 114
193 180 114
193 180 114
194 180 114
194 181 114
195 181 114
195 181 114
196 182 114
196 182 113
196 181 111
193 179 106
193 179 106
189 176 98
180 170 84
181 171 86
177 167 76
172 164 66
165 159 48
160 156 34
162 157 37
159 161 16
161 165 0
161 164 0
163 166 0
164 177 0
168 182 0
171 188 0
170 190 0
171 191 0
172 194 0
175 197 0
173 194 0
172 195 0
172 194 0
174 197 0
173 195 0
173 195 0
173 196 0
173 195 0
173 194 0
174 196 0
171 195 0
175 197 0
176 198 0
174 197 0
173 195 0
174 197 0
174 196 0
173 197 0
175 196 0
175 196 0
173 196 0
174 197 0
173 197 0
174 196 0
172 195 0
171 194 0
174 196 0
173 196 0
174 195 0
173 195 0
173 196 0
173 197 0
173 197 0
173 196 0
172 197 0
174 197 0
175 197 0
174 197 0
172 194 0
174 197 0
173 197 0
173 196 0
173 197 0
174 197 0
173 197 0
173 196 0
173 197 0
174 197 0
174 197 0
173 197 0
172 195 0
175 198 0
173 196 0
171 195 0
175 198 0
172 195 0
173 197 0
173 197 0
172 196 0
173 197 0
172 196 0
172 196 0
175 198 0
173 196 0
171 195 0
174 198 0
175 198 0
173 196 0
172 196 0
173 196 0
174 197 0
174 198 0
174 197 0
175 198 0
174 197 0
175 198 0
175 198 0
170 195 0
172 196 0
174 197 0
175 198 0
174 197 0
174 197 0
172 196 0
172 194 0
172 195 0
173 196 0
170 194 0
173 196 0
173 196 0
173 197 0
170 193 0
173 196 0
174 197 0
172 196 0
172 196 0
174 197 0
172 195 0
173 196 0
173 196 0
172 196 0
173 197 0
171 195 0
170 194 0
173 196 0
171 194 0
171 195 0
172 195 0
171 196 0
172 197 0
171 194 0
170 193 0
171 195 0
172 196 0
172 195 0
174 196 0
174 197 0
172 195 0
173 197 0
173 196 0
174 196 0
173 197 0
170 194 0
173 196 0
172 194 0
173 195 0
171 195 0
168 192 0
171 195 0
173 196 0
172 194 0
172 195 0
171 194 0
171 194 0
168 191 0
172 195 0
174 197 0
171 194 0
168 192 0
170 194 0
173 196 0
170 194 0
169 192 0
171 194 0
169 192 0
173 196 0
172 196 0
171 195 0
172 194 0
171 194 0
174 197 0
171 195 0
173 196 0
172 196 0
170 194 0
169 193 25
153 177 80
120 145 121
66 102 170
62 99 168
63 99 170
62 98 171
62 99 169
63 99 173
62 99 175
62 99 174
62 99 173
62 98 171
62 99 170
62 98 172
62 99 175
63 99 177
62 99 175
62 99 178
62 99 177
62 99 176
62 99 172
61 99 179
61 98 176
62 99 174
61 98 176
61 98 179
62 99 178
62 99 178
62 99 180
62 99 176
62 99 176
62 99 178
62 99 177
62 99 178
62 99 179
62 99 180
62 99 178
62 99 178
62 99 178
62 99 181
63 100 180
61 98 178
62 99 180
61 99 180
62 99 178
62 99 177
62 99 181
63 99 178
62 99 178
61 99 180
62 99 181
62 99 179
62 99 180
61 99 177
62 99 181
63 100 181
62 99 176
63 99 179
62 99 181
62 99 179
62 99 181
62 99 178
62 99 178
62 99 179
63 100 180
62 99 178
62 99 180
62 99 180
62 99 178
62 99 180
62 99 179
62 99 179
61 98 176
61 98 177
62 99 179
62 99 178
63 99 179
62 99 177
62 99 181
62 99 180
61 98 175
62 99 180
63 100 177
63 100 180
62 99 178
61 98 174
62 99 178
62 99 177
62 99 179
63 99 179
62 99 175
62 99 178
62 99 175
62 98 172
63 99 176
61 98 173
62 99 177
62 99 175
62 99 173
63 100 179
62 99 177
62 98 172
62 98 176
62 98 172
62 99 174
61 98 174
62 99 175
62 99 175
63 100 179
62 99 175
61 98 171
61 97 171
62 98 172
62 98 172
62 97 167
62 99 174
61 97 162
61 96 160
62 98 169
62 97 168
61 96 163
61 94 158
61 94 161
55 83 135
47 65 79
42 56 56
44 57 46
42 56 50
46 60 52
44 58 52
44 59 51
45 59 52
44 58 51
46 62 58
46 61 56
47 63 57
47 63 59
50 67 64
51 68 63
51 67 62
51 67 61
51 68 63
51 68 62
53 71 68
52 70 67
51 68 63
54 73 69
54 74 72
57 74 70
74 87 78
110 113 85
94 102 81
132 132 95
148 145 99
162 156 105
169 163 108
182 173 113
186 177 114
186 177 114
185 176 114
185 176 114
185 176 114
185 176 114
184 176 114
184 176 114
184 176 114
184 176 114
184 176 114
183 175 114
183 175 114
183 175 114
183 175 114
183 175 114
183 175 114
183 175 114
184 176 114
183 175 114
183 175 114
183 175 114
183 175 114
183 175 114
183 175 114
183 175 114
183 175 114
183 175 114
184 175 114
183 175 114
184 176 114
184 176 114
184 176 114
184 176 114
185 176 114
185 176 114
185 176 114
185 176 114
185 176 114
186 177 114
186 177 114
186 177 114
187 177 114
187 177 114
187 177 114
187 177 114
188 178 114
188 178 114
189 178 114
189 178 114
190 179 114
190 178 114
190 179 114
191 179 114
192 179 114
192 180 114
192 180 114
193 180 114
194 180 114
195 181 114
195 181 114
196 182 114
196 181 114
197 182 113
197 182 113
194 179 106
190 177 101
187 174 95
185 173 91
181 170 84
178 168 78
174 165 71
169 162 61
165 159 47
160 155 30
164 160 41
156 155 0
160 163 0
163 171 0
165 175 0
164 176 0
167 181 0
168 182 0
170 190 0
172 192 0
175 196 0
174 196 0
174 197 0
174 195 0
173 196 0
174 196 0
173 195 0
174 197 0
171 194 0
172 196 0
174 196 0
173 195 0
172 194 0
175 198 0
175 197 0
174 197 0
174 196 0
173 196 0
174 196 0
173 195 0
173 196 0
175 197 0
174 197 0
172 196 0
174 196 0
174 196 0
173 195 0
174 196 0
174 196 0
172 195 0
172 195 0
175 197 0
175 197 0
173 196 0
176 197 0
173 197 0
173 197 0
173 195 0
175 197 0
173 195 0
173 197 0
175 198 0
174 197 0
174 198 0
174 197 0
174 197 0
173 196 0
173 196 0
172 195 0
174 197 0
174 197 0
172 196 0
172 195 0
172 196 0
173 197 0
174 197 0
173 197 0
175 198 0
173 197 0
172 195 0
173 197 0
173 197 0
173 197 0
173 196 0
173 197 0
174 197 0
174 197 0
175 198 0
173 197 0
173 196 0
172 196 0
172 196 0
173 197 0
173 196 0
174 197 0
173 196 0
174 197 0
172 195 0
172 195 0
171 195 0
174 197 0
172 196 0
174 197 0
172 196 0
172 196 0
173 196 0
171 196 0
172 195 0
174 197 0
172 195 0
171 195 0
173 196 0
174 197 0
171 195 0
174 198 0
171 195 0
170 194 0
173 197 0
172 196 0
175 197 0
171 195 0
169 192 0
172 196 0
169 192 0
172 195 0
172 195 0
171 195 0
172 196 0
172 195 0
173 197 0
174 196 0
172 195 0
174 198 0
170 193 0
173 196 0
173 196 0
171 194 0
173 196 0
173 196 0
171 194 0
170 193 0
173 196 0
172 196 0
170 194 0
173 195 0
174 197 0
171 195 0
173 196 0
173 196 0
173 196 0
172 195 0
172 195 0
173 197 0
172 196 0
169 193 0
172 196 0
172 195 0
169 192 0
170 192 0
171 194 0
173 195 0
171 195 0
173 197 0
172 196 0
171 195 0
171 194 0
169 192 0
174 197 0
171 195 0
171 195 0
171 196 0
172 196 0
171 195 0
173 197 0
172 196 0
169 192 0
170 194 0
162 186 36
132 157 108
88 118 156
63 99 169
61 98 164
62 99 172
63 100 176
62 98 167
63 99 178
62 99 169
62 98 170
62 99 174
63 99 176
62 99 173
63 99 176
62 99 172
63 99 177
62 99 173
62 99 178
62 99 177
62 99 172
62 99 176
62 99 176
62 99 179
62 99 176
61 98 175
63 99 178
63 99 177
62 99 176
63 100 178
62 99 179
62 99 179
62 99 179
63 100 179
62 99 176
62 99 178
63 99 176
63 99 180
62 99 177
63 99 176
62 99 177
62 99 178
61 98 180
62 99 178
62 99 181
62 99 180
62 99 179
63 100 179
61 99 178
62 99 180
63 99 178
62 99 181
61 99 178
62 99 178
62 99 178
61 99 179
62 99 179
61 98 178
62 99 180
62 99 179
62 99 178
62 99 178
62 99 181
61 98 178
62 99 180
62 99 179
62 99 180
62 99 180
61 98 172
62 99 176
63 100 179
62 99 176
62 99 178
62 99 177
62 99 179
61 99 179
62 99 178
62 99 178
62 99 177
62 99 178
62 99 178
62 99 179
63 99 176
61 98 178
62 99 178
62 99 175
62 99 173
62 99 178
62 99 177
62 99 179
62 99 178
62 99 174
62 99 179
62 99 177
62 99 176
62 99 172
63 99 177
62 99 177
62 99 176
61 98 174
63 100 177
62 99 177
62 98 173
63 99 178
62 99 175
62 99 174
62 98 174
62 99 176
62 99 174
61 98 172
62 99 175
62 99 174
62 99 172
63 99 172
62 99 172
62 99 174
62 97 170
62 98 173
61 97 166
62 97 165
61 97 166
61 97 165
61 97 168
60 94 156
57 88 144
51 77 117
47 64 77
42 56 50
43 56 48
43 57 51
45 58 51
46 59 52
44 57 48
43 57 50
45 59 52
49 65 59
47 61 54
48 63 56
45 59 47
49 64 56
50 66 60
50 67 62
51 68 63
51 68 61
52 70 66
52 69 63
52 71 65
52 70 65
53 72 67
53 73 70
70 83 75
76 87 74
103 108 84
124 124 90
149 145 98
154 149 102
170 163 107
178 170 110
185 176 113
187 177 114
186 177 114
186 177 114
185 176 114
186 177 114
186 177 114
185 176 114
185 176 114
185 176 114
185 176 114
185 176 114
185 176 114
184 176 114
184 176 114
184 176 114
184 176 114
184 176 114
184 176 114
184 176 114
184 176 114
184 176 114
184 176 114
184 176 114
184 176 114
184 176 114
184 176 114
184 176 114
184 176 114
184 176 114
185 176 114
185 176 114
185 176 114
185 176 114
185 176 114
186 177 114
186 177 114
186 177 114
186 177 114
187 177 114
187 177 114
187 177 114
187 177 114
188 178 114
188 178 114
188 178 114
189 178 114
189 178 114
190 179 114
190 178 114
190 179 114
191 179 114
192 179 114
192 180 114
192 180 114
193 180 114
194 180 114
194 180 114
195 181 114
195 181 114
195 181 114
197 182 114
197 182 114
194 180 109
194 179 108
192 178 106
191 177 102
183 172 87
181 170 84
178 168 79
178 168 78
176 166 75
165 159 47
162 157 41
162 157 39
159 158 16
157 158 0
160 164 0
160 165 0
165 175 0
164 174 0
168 184 0
169 183 0
172 192 0
171 192 0
173 194 0
171 194 0
172 194 0
171 195 0
173 196 0
175 197 0
174 197 0
173 195 0
174 195 0
174 196 0
173 196 0
174 197 0
173 196 0
172 195 0
174 197 0
174 197 0
173 196 0
173 196 0
174 195 0
173 196 0
172 195 0
174 197 0
173 195 0
173 196 0
173 196 0
173 196 0
175 197 0
174 196 0
173 197 0
173 196 0
174 196 0
172 196 0
173 196 0
175 198 0
173 196 0
173 196 0
171 195 0
173 195 0
173 196 0
173 195 0
175 197 0
174 197 0
175 198 0
172 195 0
175 198 0
172 196 0
173 196 0
171 194 0
175 198 0
170 194 0
173 197 0
174 197 0
171 195 0
173 196 0
173 196 0
172 196 0
172 196 0
172 196 0
172 196 0
173 196 0
174 198 0
174 198 0
173 197 0
174 197 0
176 198 0
171 194 0
173 197 0
173 197 0
171 195 0
172 196 0
174 197 0
174 197 0
176 198 0
173 197 0
173 196 0
173 197 0
173 197 0
170 194 0
171 195 0
174 197 0
172 197 0
171 195 0
172 196 0
174 197 0
173 197 0
171 194 0
172 195 0
174 197 0
170 194 0
171 194 0
175 197 0
173 196 0
171 194 0
173 197 0
173 196 0
171 195 0
173 196 0
173 196 0
172 195 0
173 196 0
170 194 0
174 197 0
171 195 0
176 198 0
171 195 0
175 198 0
172 196 0
174 197 0
175 198 0
172 196 0
173 196 0
171 195 0
172 196 0
172 196 0
173 197 0
174 196 0
173 195 0
169 192 0
171 193 0
171 194 0
172 195 0
173 196 0
169 193 0
170 194 0
171 194 0
171 195 0
169 193 0
173 196 0
172 196 0
171 195 0
172 196 0
170 193 0
172 196 0
170 194 0
172 195 0
173 196 0
170 193 0
171 194 0
168 191 0
171 195 0
173 196 0
169 193 0
170 193 0
171 195 0
171 195 0
171 194 0
172 195 0
171 193 0
173 197 0
171 194 0
174 197 0
171 195 0
171 194 0
173 196 0
172 195 0
171 194 0
169 192 0
157 180 70
108 135 144
63 100 172
62 99 171
62 99 168
63 99 166
62 99 177
62 99 173
62 99 173
62 99 172
62 99 174
62 99 173
62 99 171
62 98 173
62 98 173
62 99 174
62 99 179
62 99 176
62 99 178
62 99 176
63 99 177
62 99 174
62 99 176
62 99 176
63 99 179
62 99 175
62 99 175
62 99 174
62 99 180
61 98 178
61 98 175
62 99 177
62 99 178
62 99 178
62 99 181
62 99 178
62 98 176
62 99 181
62 99 178
62 99 176
62 99 179
62 99 177
62 99 179
61 98 177
62 99 180
61 98 176
62 99 178
62 99 176
62 99 181
62 99 176
62 99 177
62 99 178
61 99 177
62 99 178
62 99 178
62 99 178
62 99 181
62 99 178
62 99 179
62 99 181
61 98 177
62 99 175
62 99 178
62 99 180
61 98 176
62 99 178
62 99 178
62 99 179
62 99 180
62 99 178
62 99 177
63 100 180
62 99 178
62 99 179
62 99 179
62 99 178
62 99 178
62 99 178
62 99 179
62 99 180
62 99 176
62 99 177
62 99 175
63 99 180
62 99 175
62 99 177
62 98 173
62 99 181
62 99 177
62 98 175
62 99 179
62 99 176
62 99 179
62 99 172
62 99 177
61 98 171
61 98 176
62 98 171
62 99 177
62 99 175
61 99 179
62 98 174
62 99 173
63 99 175
62 99 173
62 98 169
62 98 173
62 99 172
62 99 170
63 99 174
62 99 174
62 98 169
62 98 172
61 98 170
62 98 169
63 99 173
61 98 171
62 99 171
62 98 169
62 98 170
62 98 170
61 97 161
61 96 162
61 96 164
60 94 155
56 85 140
47 67 95
44 60 62
41 53 44
42 53 42
42 56 49
43 57 52
44 57 51
45 59 52
45 59 49
49 64 57
45 59 52
47 61 53
47 62 54
49 66 61
50 66 58
50 66 60
50 66 60
51 67 59
51 68 62
53 70 66
52 69 65
52 70 65
52 70 64
54 74 71
55 73 69
68 83 74
93 100 80
112 115 86
141 138 95
147 143 98
167 160 106
173 165 108
183 174 112
188 177 114
187 177 114
187 177 114
187 177 114
186 177 114
186 177 114
186 177 114
186 177 114
186 177 114
186 177 114
186 176 114
185 176 114
185 176 114
185 176 114
185 176 114
185 176 114
185 176 114
185 176 114
185 176 114
185 176 114
185 176 114
185 176 114
185 176 114
185 176 114
185 176 114
185 176 114
185 176 114
185 176 114
185 176 114
185 176 114
186 177 114
186 177 114
186 177 114
186 177 114
187 177 114
187 177 114
187 177 114
187 177 114
187 177 114
188 177 114
188 178 114
189 178 114
188 178 114
189 178 114
189 178 114
190 178 114
190 178 114
190 179 114
191 179 114
191 179 114
192 179 114
192 180 114
193 180 114
193 180 114
194 180 114
194 181 114
194 181 114
195 181 114
196 181 114
197 182 114
197 182 114
196 181 112
196 181 110
193 179 106
189 176 98
186 174 94
183 172 88
179 169 80
173 165 68
170 163 64
166 160 51
162 157 39
163 158 41
157 153 16
158 157 0
157 157 0
161 163 0
162 168 0
162 171 0
164 175 0
166 180 0
167 185 0
171 190 0
172 191 0
174 195 0
173 196 0
173 195 0
173 194 0
174 196 0
173 196 0
175 197 0
172 194 0
173 195 0
173 196 0
174 197 0
173 196 0
173 195 0
172 195 0
173 196 0
175 197 0
173 196 0
172 196 0
172 194 0
172 195 0
171 193 0
172 194 0
172 195 0
173 196 0
174 196 0
173 196 0
174 197 0
174 196 0
172 196 0
172 195 0
175 198 0
173 195 0
174 197 0
174 197 0
173 195 0
173 195 0
173 197 0
174 197 0
172 194 0
173 196 0
172 196 0
176 199 0
174 197 0
173 196 0
174 197 0
174 197 0
174 197 0
173 196 0
173 196 0
172 195 0
175 198 0
175 198 0
175 198 0
175 198 0
173 196 0
174 197 0
174 197 0
175 198 0
174 197 0
174 198 0
175 198 0
174 198 0
171 194 0
173 196 0
173 197 0
173 196 0
174 197 0
173 197 0
173 197 0
173 196 0
173 196 0
174 197 0
174 198 0
171 195 0
171 195 0
173 197 0
173 196 0
171 194 0
172 195 0
174 197 0
173 196 0
172 195 0
176 198 0
173 197 0
173 197 0
173 196 0
173 197 0
173 197 0
172 196 0
171 196 0
173 196 0
168 192 0
175 197 0
172 196 0
174 197 0
172 196 0
170 194 0
172 195 0
171 194 0
173 195 0
173 196 0
174 197 0
174 197 0
169 192 0
174 197 0
172 196 0
175 198 0
174 197 0
173 196 0
175 198 0
173 196 0
170 194 0
170 195 0
175 198 0
172 195 0
174 196 0
172 196 0
167 192 0
169 191 0
173 197 0
173 197 0
173 197 0
170 193 0
169 192 0
174 197 0
170 194 0
172 196 0
171 195 0
171 194 0
170 193 0
172 196 0
171 195 0
171 195 0
174 197 0
174 197 0
174 196 0
172 196 0
173 196 0
172 196 0
171 194 0
172 195 0
173 196 0
170 193 0
170 194 0
171 194 0
171 194 0
167 191 0
172 194 0
170 193 0
173 197 0
168 191 0
169 194 0
173 196 0
172 195 0
169 192 0
168 191 0
163 187 40
131 156 108
76 109 161
62 99 170
63 100 174
62 99 169
63 99 171
62 99 176
62 99 171
62 99 176
63 99 175
62 99 174
62 99 170
62 99 176
62 99 174
63 99 173
62 98 171
63 99 177
62 99 175
62 99 176
62 99 176
62 99 175
62 99 174
62 99 177
62 99 178
62 99 176
63 99 177
62 99 178
63 100 181
62 99 178
62 99 176
61 98 176
62 99 180
62 99 176
63 100 181
62 99 179
61 99 178
62 99 179
62 99 176
62 99 179
62 99 179
62 99 177
62 99 180
62 99 176
62 99 178
62 99 175
62 99 177
62 99 179
62 99 180
62 99 178
62 99 180
62 99 178
63 100 180
62 99 180
62 99 180
63 100 179
62 99 180
62 99 180
62 99 178
62 99 180
61 99 179
62 99 178
62 99 176
61 98 176
62 99 180
61 98 172
62 99 178
62 99 177
62 99 177
62 99 179
62 99 174
63 99 177
62 99 177
62 99 179
62 99 179
63 99 175
62 99 177
62 99 179
62 99 177
62 99 174
63 100 178
62 99 178
62 99 180
62 99 178
62 99 180
62 99 178
61 98 173
63 99 178
62 99 179
61 98 175
62 99 177
62 99 178
62 99 175
63 99 175
62 98 172
62 99 178
61 98 175
61 98 175
62 99 173
62 99 179
62 99 175
62 99 178
62 99 176
62 99 173
62 99 171
61 98 170
62 98 172
62 99 173
62 99 174
61 97 168
62 99 172
63 99 174
62 98 173
61 97 167
62 99 171
62 98 170
62 99 176
62 97 165
62 99 175
62 97 169
62 98 166
62 97 165
61 96 158
61 96 163
61 96 159
61 96 159
58 90 146
49 72 106
45 62 69
37 49 43
44 58 51
41 54 46
44 58 50
44 58 51
45 58 50
45 59 52
46 60 54
45 60 54
48 65 59
49 63 54
47 62 56
49 65 58
49 65 59
48 64 56
51 68 62
51 67 61
51 69 67
52 69 63
53 70 66
53 71 67
54 72 69
52 71 64
67 81 71
95 101 81
117 119 88
128 127 90
143 140 96
159 153 103
171 163 108
181 171 111
188 178 114
188 178 114
188 178 114
188 178 114
188 178 114
187 177 114
187 177 114
187 177 114
187 177 114
187 177 114
186 177 114
186 177 114
186 177 114
186 177 114
186 177 114
186 177 114
186 177 114
186 177 114
186 177 114
186 176 114
186 177 114
186 177 114
186 177 114
186 177 114
186 177 114
186 177 114
186 177 114
187 177 114
187 177 114
187 177 114
187 177 114
187 177 114
187 177 114
187 177 114
188 177 114
188 177 114
188 178 114
188 178 114
189 178 114
188 178 114
189 178 114
189 178 114
189 178 114
190 178 114
190 179 114
190 179 114
191 179 114
191 179 114
191 179 114
192 180 114
193 180 114
193 180 114
194 180 114
194 181 114
195 181 114
195 181 114
196 181 114
197 182 114
196 182 114
197 182 113
197 182 113
194 180 109
193 179 106
188 175 98
184 172 91
182 171 87
182 171 85
177 167 76
176 166 74
168 161 56
165 159 48
166 159 48
158 154 22
156 153 0
155 153 0
159 159 0
158 162 0
160 163 0
166 176 0
166 179 0
170 186 0
170 188 0
169 189 0
172 192 0
172 193 0
173 195 0
173 195 0
174 197 0
175 198 0
172 195 0
174 197 0
174 197 0
173 197 0
172 196 0
173 193 0
172 196 0
173 196 0
172 194 0
173 196 0
172 194 0
173 195 0
173 195 0
173 195 0
173 194 0
174 196 0
174 197 0
175 197 0
174 196 0
173 196 0
173 197 0
172 196 0
173 195 0
175 197 0
174 196 0
173 196 0
173 196 0
173 195 0
173 196 0
174 196 0
174 196 0
175 196 0
174 198 0
172 195 0
173 195 0
173 196 0
174 198 0
176 198 0
173 197 0
173 196 0
172 196 0
173 197 0
174 197 0
172 195 0
169 193 0
172 196 0
174 197 0
173 197 0
172 196 0
172 195 0
175 197 0
175 198 0
174 197 0
173 196 0
175 198 0
174 197 0
173 197 0
174 197 0
174 197 0
171 195 0
173 196 0
175 198 0
173 196 0
173 196 0
172 196 0
174 197 0
173 196 0
171 195 0
173 197 0
172 196 0
171 195 0
173 196 0
172 196 0
175 197 0
173 196 0
173 196 0
173 197 0
171 195 0
172 196 0
170 194 0
174 198 0
173 196 0
171 195 0
173 196 0
172 194 0
172 195 0
171 194 0
174 197 0
173 197 0
171 194 0
172 195 0
174 197 0
171 195 0
172 195 0
173 196 0
174 196 0
171 194 0
171 194 0
174 197 0
169 193 0
172 196 0
171 194 0
172 195 0
173 196 0
171 194 0
173 197 0
170 194 0
173 196 0
170 193 0
175 197 0
173 197 0
173 196 0
172 196 0
172 195 0
175 197 0
172 196 0
172 196 0
170 194 0
171 195 0
173 196 0
172 195 0
171 195 0
172 196 0
172 195 0
170 193 0
170 193 0
169 194 0
172 195 0
173 197 0
173 196 0
173 196 0
171 195 0
169 192 0
171 194 0
172 195 0
172 194 0
171 193 0
169 193 0
172 196 0
169 192 0
171 195 0
173 197 0
172 195 0
171 194 0
170 194 0
171 194 0
171 194 0
173 196 0
170 194 0
172 195 0
173 196 0
145 170 100
99 127 145
61 98 163
61 98 161
62 98 167
62 99 172
62 99 168
62 99 169
62 99 170
62 99 174
62 98 169
62 98 167
62 98 166
62 99 175
62 99 173
62 98 170
62 99 175
62 99 172
63 100 175
62 99 174
62 99 174
62 99 175
62 99 175
62 99 178
61 99 177
62 99 178
61 98 170
62 99 176
62 99 178
62 99 178
62 99 175
62 99 179
62 99 179
62 99 174
61 98 176
63 100 179
62 99 176
62 99 180
62 99 179
62 99 178
63 100 179
62 99 179
63 100 180
62 99 179
62 99 178
61 98 179
62 99 175
63 100 181
62 99 177
61 99 178
62 99 180
62 99 179
62 99 180
62 99 181
62 99 181
63 100 181
63 99 178
61 99 181
62 99 177
62 99 175
63 99 179
62 99 179
61 98 177
62 99 179
62 99 176
62 99 177
62 99 179
62 99 180
62 99 179
62 99 178
62 99 177
62 99 178
61 99 180
62 99 178
61 99 178
62 99 179
63 99 178
62 99 174
62 99 178
62 99 181
62 99 176
63 100 179
62 99 175
63 99 177
62 99 177
62 99 174
62 99 178
62 99 177
63 99 174
61 98 175
62 99 178
62 99 176
62 99 180
62 99 174
62 99 175
62 99 176
63 99 175
62 99 178
62 98 173
62 99 176
62 99 175
62 99 176
63 100 177
62 99 175
62 99 176
62 99 171
62 99 177
62 99 176
61 98 169
62 98 172
62 99 174
62 98 171
62 98 168
61 98 169
61 98 170
62 98 173
63 99 176
62 97 168
62 98 169
62 98 172
62 99 174
62 98 168
61 96 163
62 98 167
61 95 157
61 96 162
60 94 160
53 79 119
50 73 101
38 53 60
42 56 49
41 54 47
41 54 47
43 55 45
41 55 49
44 57 46
47 62 54
46 60 51
46 62 58
48 63 56
49 63 54
46 61 55
51 68 61
50 67 60
51 68 62
52 69 63
52 69 64
51 68 61
51 68 60
53 71 68
54 73 70
54 73 71
53 72 66
77 88 75
97 103 80
112 114 84
144 140 97
165 157 105
161 154 103
183 173 111
190 178 114
189 178 114
189 178 114
189 178 114
189 178 114
188 178 114
188 178 114
188 178 114
188 177 114
187 177 114
188 177 114
188 177 114
187 177 114
187 177 114
188 177 114
187 177 114
187 177 114
187 177 114
187 177 114
187 177 114
187 177 114
187 177 114
187 177 114
187 177 114
187 177 114
187 177 114
187 177 114
187 177 114
187 177 114
188 177 114
188 177 114
188 177 114
188 177 114
188 177 114
188 177 114
189 178 114
189 178 114
189 178 114
189 178 114
190 178 114
190 178 114
190 179 114
190 179 114
191 179 114
191 179 114
191 179 114
192 180 114
192 180 114
192 180 114
193 180 114
194 180 114
194 180 114
194 181 114
195 181 114
196 181 114
196 181 114
196 182 114
197 182 114
197 182 114
195 180 110
194 180 109
193 179 106
190 176 100
188 175 95
188 175 95
181 170 84
176 167 75
171 163 62
169 162 59
164 158 48
161 156 37
157 154 22
156 153 11
157 154 11
156 155 0
158 160 0
160 162 0
161 167 0
166 176 0
167 181 0
165 178 0
167 180 0
172 192 0
173 193 0
174 196 0
173 196 0
172 194 0
175 197 0
173 195 0
172 195 0
173 194 0
174 196 0
171 195 0
173 194 0
175 197 0
173 194 0
172 194 0
172 195 0
174 197 0
173 196 0
173 195 0
176 198 0
174 196 0
174 197 0
171 196 0
175 197 0
173 196 0
173 195 0
173 195 0
175 198 0
173 196 0
175 198 0
173 196 0
173 196 0
173 194 0
174 197 0
175 197 0
174 197 0
173 196 0
173 196 0
173 195 0
173 197 0
173 196 0
174 196 0
174 196 0
173 197 0
175 198 0
175 198 0
174 197 0
174 197 0
175 198 0
172 196 0
174 197 0
174 197 0
174 197 0
173 196 0
174 197 0
172 195 0
172 196 0
174 197 0
174 197 0
175 198 0
172 196 0
173 196 0
173 197 0
172 196 0
174 197 0
173 196 0
174 197 0
172 195 0
173 197 0
172 195 0
174 197 0
174 197 0
174 197 0
172 195 0
173 196 0
170 193 0
175 198 0
171 195 0
172 195 0
172 195 0
171 196 0
171 195 0
174 197 0
173 197 0
172 196 0
173 197 0
171 195 0
173 196 0
173 196 0
174 197 0
170 194 0
173 197 0
172 196 0
173 196 0
175 198 0
171 194 0
172 196 0
173 196 0
173 196 0
173 196 0
173 197 0
173 197 0
172 195 0
170 193 0
171 194 0
170 194 0
172 195 0
172 196 0
173 196 0
173 197 0
170 194 0
171 195 0
171 194 0
171 195 0
171 195 0
173 197 0
171 194 0
173 195 0
169 192 0
172 195 0
173 197 0
170 193 0
172 194 0
169 193 0
170 194 0
171 195 0
171 195 0
170 193 0
170 194 0
170 194 0
173 196 0
172 195 0
172 196 0
172 196 0
168 191 0
172 195 0
171 194 0
170 193 0
172 195 0
170 194 0
172 195 0
171 195 0
168 191 0
171 194 0
171 195 0
170 193 0
172 195 0
171 194 0
167 190 0
170 194 0
168 191 0
171 195 0
171 194 0
166 190 0
173 196 0
168 192 0
171 194 0
160 183 70
125 149 121
73 107 158
62 98 171
63 100 172
62 98 166
62 98 168
62 99 171
62 99 168
61 98 167
62 98 171
62 98 173
63 99 175
62 99 177
62 99 173
62 99 173
62 99 174
62 99 175
62 99 177
61 98 176
61 98 169
62 99 176
62 99 176
62 99 178
63 99 176
62 99 175
62 99 176
62 99 178
62 99 173
62 99 180
63 100 179
62 99 178
62 99 176
62 99 178
62 99 178
63 99 176
62 99 176
62 99 180
62 99 180
62 99 176
62 99 175
61 99 176
62 99 178
61 99 180
62 99 179
62 99 178
63 100 180
61 98 177
61 98 174
62 99 179
62 99 176
62 99 179
61 99 179
62 99 179
62 99 181
62 99 177
62 99 177
63 100 179
61 98 175
62 99 178
61 99 178
62 99 180
62 99 177
62 99 180
62 99 180
62 99 178
63 99 175
62 99 180
62 99 177
62 99 179
62 99 179
62 99 180
62 99 178
62 99 180
61 98 176
63 99 177
62 99 176
62 99 177
62 99 176
61 99 177
63 99 177
62 99 175
62 99 178
62 99 173
62 99 176
62 99 178
62 99 177
62 99 175
62 99 178
61 98 172
62 98 172
62 99 173
62 99 177
62 99 176
61 98 174
62 99 177
61 98 173
62 99 176
62 99 174
63 99 178
63 99 174
62 99 172
62 98 173
61 98 175
62 99 171
61 98 170
63 99 175
62 99 174
62 99 172
62 99 174
63 99 175
62 98 172
62 99 172
61 97 167
62 99 175
62 99 172
61 97 168
62 98 168
61 98 171
62 99 174
62 97 167
61 97 163
61 96 162
61 98 169
61 96 157
62 97 165
61 95 155
61 97 165
59 92 155
49 73 103
47 67 91
40 52 46
36 48 43
41 54 48
43 56 46
43 57 52
45 59 52
43 56 46
46 60 52
45 58 49
49 63 53
49 63 55
48 64 56
48 65 59
48 64 58
49 66 60
50 66 59
51 68 61
52 69 64
53 71 67
52 69 65
53 70 61
53 72 69
54 73 70
67 81 69
91 98 76
114 115 85
140 136 93
148 144 98
163 156 104
180 170 110
184 174 111
190 179 114
190 179 114
190 179 114
189 178 114
189 178 114
189 178 114
189 178 114
189 178 114
188 178 114
188 178 114
188 178 114
188 178 114
188 178 114
188 178 114
188 178 114
188 178 114
188 178 114
188 178 114
188 178 114
188 177 114
188 178 114
188 177 114
188 178 114
188 178 114
188 178 114
188 178 114
188 178 114
188 177 114
189 178 114
189 178 114
189 178 114
189 178 114
189 178 114
189 178 114
190 178 114
190 178 114
190 178 114
190 178 114
191 179 114
191 179 114
191 179 114
191 179 114
192 179 114
192 179 114
193 180 114
192 180 114
193 180 114
194 180 114
194 180 114
194 180 114
195 181 114
195 181 114
196 181 114
196 182 114
196 182 114
196 181 113
197 182 113
195 180 110
193 179 106
191 177 101
186 174 94
184 173 91
182 171 87
181 170 83
178 168 79
175 166 73
168 161 57
164 158 45
164 158 44
162 157 39
159 154 25
156 153 0
157 155 0
156 154 0
158 159 0
161 164 0
160 163 0
164 174 0
164 176 0
168 185 0
169 185 0
170 189 0
172 193 0
171 194 0
172 193 0
173 194 0
173 194 0
172 195 0
171 194 0
173 195 0
174 197 0
173 196 0
171 194 0
172 194 0
172 194 0
174 196 0
172 194 0
173 194 0
172 194 0
173 195 0
173 195 0
174 197 0
172 195 0
173 195 0
174 195 0
173 196 0
175 197 0
172 196 0
173 196 0
174 196 0
175 196 0
171 194 0
173 195 0
172 196 0
173 196 0
172 196 0
174 198 0
173 195 0
173 195 0
175 197 0
174 197 0
172 196 0
174 197 0
174 197 0
174 198 0
174 197 0
173 197 0
175 198 0
175 198 0
172 196 0
172 196 0
174 197 0
170 194 0
176 198 0
172 196 0
173 197 0
171 195 0
171 195 0
173 196 0
173 196 0
174 197 0
172 196 0
173 196 0
172 195 0
174 197 0
173 196 0
174 198 0
173 197 0
172 196 0
172 196 0
170 194 0
173 197 0
171 195 0
172 195 0
172 196 0
172 196 0
174 197 0
172 196 0
170 193 0
173 197 0
172 195 0
172 196 0
168 192 0
174 197 0
171 195 0
174 198 0
171 195 0
172 196 0
175 198 0
173 196 0
172 195 0
175 198 0
173 196 0
171 195 0
173 197 0
171 196 0
174 198 0
172 196 0
173 196 0
171 195 0
171 193 0
174 197 0
174 196 0
172 196 0
171 195 0
171 194 0
172 196 0
171 195 0
173 196 0
170 194 0
172 196 0
171 194 0
171 194 0
172 194 0
172 195 0
173 196 0
175 198 0
171 195 0
173 196 0
173 197 0
172 195 0
174 196 0
169 193 0
172 196 0
169 193 0
174 197 0
169 193 0
170 195 0
172 195 0
173 196 0
171 194 0
171 195 0
171 194 0
174 197 0
174 197 0
174 196 0
171 194 0
172 196 0
173 196 0
173 196 0
171 194 0
171 194 0
169 192 0
172 195 0
169 192 0
169 191 0
170 193 0
168 192 0
170 193 0
169 193 0
173 196 0
171 194 0
169 191 0
172 195 0
171 194 0
169 193 0
172 195 0
171 195 0
152 176 90
98 128 148
62 98 156
61 98 162
62 98 171
61 97 161
62 98 169
62 99 171
62 99 174
62 98 169
62 99 175
62 98 166
63 99 175
62 99 175
62 99 177
62 99 173
62 99 169
62 98 171
61 98 175
62 99 174
62 99 174
62 98 172
62 98 174
63 100 180
62 99 175
62 99 176
61 98 175
62 99 177
62 99 178
62 99 176
62 99 176
63 99 176
61 98 177
62 99 180
62 99 176
62 99 178
62 99 177
62 99 179
62 99 176
62 99 177
62 99 178
62 99 179
62 99 177
61 98 176
62 99 179
62 99 179
62 99 178
62 99 178
62 99 178
62 99 174
62 99 174
62 99 175
62 99 179
61 98 175
62 99 179
62 99 178
62 99 179
62 99 179
62 99 178
61 99 177
62 99 179
62 99 178
61 98 177
61 99 180
61 98 174
62 99 178
62 99 175
62 99 178
62 99 175
62 99 179
63 100 181
62 99 179
62 99 177
61 99 179
62 99 176
62 99 178
61 98 175
62 99 173
62 99 179
61 98 172
62 99 177
62 99 176
63 99 176
62 99 177
62 99 177
62 99 173
62 99 175
62 99 176
63 99 175
62 98 172
62 99 174
61 98 174
62 99 173
62 99 176
62 99 172
62 99 177
62 99 173
62 98 170
63 100 178
61 98 174
62 99 178
62 99 174
61 98 171
61 98 173
61 98 175
62 98 171
62 98 173
63 99 176
62 98 176
62 98 167
62 98 168
61 98 167
62 99 175
61 98 170
63 99 174
61 98 172
61 97 170
62 97 164
63 99 173
62 98 170
61 97 167
61 97 162
62 98 174
62 98 172
62 97 161
60 95 159
61 96 166
62 97 164
60 95 159
56 85 139
45 65 91
42 58 72
40 52 41
39 51 42
41 53 44
41 55 49
43 57 49
44 58 50
44 58 49
45 59 52
47 61 54
47 62 54
47 62 54
47 62 53
48 63 56
49 64 57
50 66 61
51 67 62
50 67 61
51 68 61
52 69 63
54 72 67
54 73 67
55 74 70
57 75 69
75 87 73
106 109 80
128 127 90
150 145 98
168 160 105
171 162 106
184 173 112
190 178 113
191 179 114
191 179 114
190 179 114
190 179 114
190 179 114
190 179 114
190 179 114
190 179 114
189 178 114
190 178 114
189 178 114
190 178 114
189 178 114
189 178 114
189 178 114
189 178 114
189 178 114
189 178 114
189 178 114
189 178 114
189 178 114
188 178 114
189 178 114
189 178 114
189 178 114
189 178 114
189 178 114
190 178 114
190 179 114
190 178 114
190 178 114
190 179 114
190 179 114
191 179 114
191 179 114
191 179 114
191 179 114
191 179 114
191 179 114
192 179 114
192 180 114
192 180 114
193 180 114
193 180 114
193 180 114
194 181 114
194 181 114
195 181 114
195 181 114
196 181 114
196 181 114
196 182 114
197 182 114
196 181 113
195 181 111
194 179 108
191 177 102
190 177 101
191 177 101
187 174 95
187 174 94
177 167 76
175 166 71
171 163 63
169 162 59
166 160 52
159 155 32
160 156 32
158 154 25
156 153 11
155 153 0
155 152 0
156 155 0
157 156 0
160 166 0
161 169 0
164 173 0
168 182 0
166 183 0
170 188 0
170 190 0
172 192 0
172 193 0
173 195 0
173 194 0
174 196 0
172 194 0
174 197 0
174 195 0
171 193 0
171 194 0
173 196 0
172 194 0
174 196 0
173 195 0
175 197 0
172 195 0
173 195 0
173 196 0
172 195 0
174 197 0
174 196 0
174 196 0
171 194 0
173 196 0
172 196 0
173 196 0
173 195 0
171 195 0
172 196 0
173 195 0
172 194 0
174 196 0
171 194 0
174 197 0
174 197 0
172 196 0
174 196 0
174 197 0
173 195 0
174 197 0
173 196 0
174 197 0
171 194 0
175 198 0
173 196 0
174 198 0
176 199 0
170 194 0
173 196 0
173 197 0
173 197 0
172 196 0
175 198 0
173 196 0
174 198 0
172 196 0
175 198 0
174 197 0
173 197 0
171 195 0
173 197 0
173 196 0
170 194 0
172 195 0
176 199 0
173 196 0
171 196 0
173 197 0
173 196 0
172 196 0
170 195 0
174 197 0
174 198 0
172 196 0
173 196 0
172 195 0
172 196 0
172 196 0
172 196 0
170 194 0
172 195 0
174 197 0
174 197 0
174 197 0
173 196 0
171 195 0
174 197 0
172 196 0
171 195 0
171 195 0
172 196 0
172 195 0
172 195 0
173 196 0
172 195 0
170 194 0
171 195 0
171 195 0
172 195 0
174 197 0
173 195 0
172 195 0
175 198 0
171 194 0
172 195 0
170 194 0
171 195 0
174 197 0
172 196 0
172 195 0
171 194 0
172 195 0
169 193 0
171 195 0
171 194 0
172 195 0
173 195 0
173 196 0
170 194 0
169 193 0
170 193 0
172 195 0
174 198 0
170 193 0
173 196 0
167 191 0
169 192 0
173 197 0
171 194 0
170 194 0
171 194 0
169 192 0
170 194 0
172 195 0
171 195 0
172 195 0
173 196 0
172 195 0
172 194 0
175 198 0
173 197 0
172 196 0
169 192 0
171 194 0
173 196 0
169 192 0
170 194 0
171 195 0
172 195 0
171 194 0
170 193 0
170 193 0
173 196 0
175 198 0
172 196 0
162 185 47
131 156 113
73 106 158
62 98 164
62 99 167
62 98 165
63 99 167
62 98 167
62 99 172
62 98 172
61 98 170
62 99 173
61 98 170
62 99 170
62 99 172
61 98 170
63 99 172
63 99 177
62 99 176
62 99 178
61 98 174
62 99 174
62 99 172
62 99 175
62 99 180
62 99 177
61 98 176
62 99 176
62 99 177
62 99 175
62 99 177
62 99 173
62 99 179
62 99 179
62 99 177
62 99 175
62 99 175
62 99 176
62 99 178
62 99 178
62 99 173
61 98 177
62 99 175
63 100 180
62 98 176
62 99 176
62 99 178
61 98 178
62 99 179
63 100 179
62 99 180
62 99 176
62 98 175
62 99 175
63 100 181
62 99 180
62 99 177
62 99 177
61 98 176
62 99 179
62 99 179
62 99 178
61 98 176
62 99 179
61 98 175
62 99 177
62 99 177
63 99 176
62 99 175
62 99 174
61 98 175
62 99 176
62 99 174
61 98 173
62 99 176
62 99 176
62 99 175
62 99 177
63 100 178
61 99 177
61 98 173
62 98 174
62 99 174
63 99 178
61 98 173
62 99 174
62 99 177
63 100 178
62 99 179
61 98 171
62 99 177
62 99 176
62 99 178
62 99 177
63 99 174
61 99 177
62 99 177
62 99 174
62 99 168
62 99 173
62 99 174
62 99 174
62 99 175
62 98 170
62 99 175
62 99 176
62 98 174
62 98 170
62 99 174
62 98 172
62 98 169
63 100 174
62 98 164
61 97 170
62 98 169
62 98 164
62 98 170
62 98 167
62 98 170
62 98 166
62 98 167
62 97 166
63 99 170
61 97 162
62 97 165
61 96 164
62 97 167
62 97 164
61 96 158
60 94 156
58 91 145
49 74 108
43 59 68
37 47 37
37 49 41
36 48 41
41 53 44
40 53 44
44 58 51
42 55 46
46 60 51
44 57 50
48 64 56
48 64 54
48 64 58
47 62 54
50 67 64
50 67 59
51 68 61
51 68 62
51 68 60
52 70 65
52 69 59
53 71 65
53 71 64
60 77 71
77 88 72
111 113 85
119 119 86
140 136 92
149 144 97
174 164 106
188 176 112
189 177 113
192 179 114
192 179 114
191 179 114
191 179 114
191 179 114
191 179 114
191 179 114
190 179 114
191 179 114
190 179 114
191 179 114
190 179 114
191 179 114
190 179 114
190 178 114
190 179 114
190 179 114
190 178 114
190 178 114
189 178 114
190 179 114
190 178 114
190 179 114
190 179 114
190 178 114
190 179 114
190 179 114
190 179 114
191 179 114
191 179 114
191 179 114
191 179 114
191 179 114
191 179 114
192 179 114
192 179 114
192 180 114
192 179 114
193 180 114
193 180 114
194 180 114
193 180 114
194 180 114
194 180 114
195 181 114
195 181 114
195 181 114
195 181 114
196 181 114
196 182 114
197 182 114
197 182 113
196 181 112
195 180 109
193 179 107
192 178 103
188 175 97
188 175 97
184 173 90
176 167 75
181 170 84
177 167 75
173 165 67
166 160 53
169 162 59
163 157 47
159 155 25
156 153 16
156 153 11
157 153 0
153 151 0
155 153 0
158 158 0
161 163 0
162 169 0
162 170 0
164 175 0
166 180 0
170 187 0
170 189 0
169 189 0
173 195 0
174 196 0
172 194 0
173 195 0
174 196 0
174 196 0
171 193 0
173 193 0
172 194 0
174 197 0
172 195 0
174 196 0
172 195 0
173 195 0
172 195 0
174 198 0
172 194 0
173 195 0
174 196 0
174 196 0
172 195 0
174 195 0
175 197 0
172 195 0
173 197 0
174 197 0
173 196 0
173 197 0
172 196 0
173 196 0
173 197 0
173 195 0
173 196 0
173 195 0
173 195 0
172 194 0
175 197 0
173 196 0
172 195 0
172 194 0
172 195 0
173 195 0
174 197 0
172 196 0
174 197 0
170 194 0
173 196 0
174 197 0
173 197 0
172 195 0
175 198 0
172 195 0
172 196 0
172 196 0
174 197 0
173 197 0
170 194 0
174 197 0
172 195 0
171 194 0
173 197 0
168 192 0
174 197 0
172 196 0
169 193 0
172 196 0
172 196 0
171 195 0
172 196 0
173 196 0
173 196 0
173 197 0
175 197 0
174 197 0
171 195 0
174 197 0
172 196 0
173 196 0
173 196 0
175 198 0
173 196 0
172 195 0
170 194 0
170 194 0
173 196 0
172 195 0
171 196 0
173 196 0
172 196 0
171 194 0
171 195 0
170 194 0
174 197 0
173 197 0
175 197 0
170 194 0
170 194 0
173 196 0
173 196 0
174 197 0
172 196 0
171 195 0
171 195 0
172 196 0
172 195 0
172 196 0
169 192 0
174 198 0
172 196 0
171 195 0
173 197 0
170 192 0
170 193 0
172 195 0
172 195 0
170 194 0
171 194 0
175 198 0
171 194 0
170 194 0
171 195 0
171 194 0
170 193 0
171 195 0
171 194 0
173 197 0
171 195 0
172 196 0
171 195 0
172 196 0
173 196 0
174 196 0
172 195 0
171 194 0
173 196 0
169 194 0
171 195 0
171 194 0
172 196 0
171 194 0
172 196 0
172 195 0
170 193 0
172 195 0
172 195 0
174 196 0
172 196 0
168 192 0
170 194 0
169 192 0
169 192 0
171 194 0
167 190 0
169 193 0
170 193 0
151 175 80
108 134 135
62 99 167
61 98 163
62 99 170
63 99 171
63 99 170
62 99 169
63 99 171
61 97 164
62 98 169
62 98 169
61 98 161
62 98 167
62 98 169
62 99 173
62 99 174
63 99 173
62 98 169
62 99 170
63 99 176
62 99 174
63 99 175
62 99 176
62 99 174
62 99 174
62 99 173
62 99 176
62 99 176
63 100 179
62 99 177
63 99 175
62 99 176
62 99 174
62 99 176
63 100 177
62 99 177
62 99 180
62 99 179
62 99 180
62 99 176
63 99 177
62 99 174
63 100 178
62 99 174
62 99 176
62 99 178
61 98 177
61 98 176
62 99 178
62 99 179
62 99 176
62 99 179
62 99 177
62 99 180
62 99 178
62 99 177
62 99 177
62 99 181
62 99 176
63 99 176
62 99 177
62 99 180
62 99 176
62 99 175
63 100 179
63 99 176
62 99 178
62 99 176
61 98 173
62 99 177
61 98 176
62 99 175
62 99 178
62 99 180
62 99 175
62 98 173
62 99 177
62 99 175
62 99 178
62 99 174
62 99 173
62 99 180
62 99 174
62 99 176
62 99 174
62 99 178
62 99 177
62 99 175
63 99 175
63 99 172
62 99 178
63 100 177
62 99 172
62 99 172
63 99 175
62 99 177
63 99 176
63 99 175
63 99 174
62 99 176
62 98 168
62 99 173
62 99 173
62 98 166
62 99 173
62 99 177
62 99 175
62 99 176
62 98 171
62 99 172
62 99 173
62 98 173
63 99 172
62 98 170
62 98 168
62 98 167
62 98 163
62 98 165
61 97 167
61 97 157
61 96 160
63 98 163
62 98 163
62 98 168
62 98 167
62 98 167
61 95 159
61 97 166
61 95 162
60 94 152
54 80 122
44 63 88
38 52 56
40 51 41
37 49 40
40 53 45
43 56 46
42 55 45
43 56 45
43 56 47
44 58 50
45 60 51
47 62 54
49 64 54
49 65 58
48 62 52
50 66 58
49 65 55
52 69 62
50 66 56
52 70 63
52 71 66
52 70 64
53 71 62
57 74 68
62 78 70
101 105 80
121 121 86
127 126 88
151 145 97
171 162 105
181 170 109
187 175 112
193 180 114
193 180 114
192 179 114
192 180 114
192 180 114
192 180 114
192 179 114
191 179 114
191 179 114
191 179 114
191 179 114
191 179 114
191 179 114
191 179 114
191 179 114
191 179 114
191 179 114
191 179 114
190 179 114
191 179 114
191 179 114
191 179 114
191 179 114
191 179 114
191 179 114
191 179 114
191 179 114
192 179 114
191 179 114
192 179 114
192 180 114
192 180 114
192 179 114
192 180 114
192 180 114
193 180 114
193 180 114
194 180 114
194 180 114
194 180 114
194 181 114
194 181 114
195 181 114
195 181 114
195 181 114
196 181 114
196 182 114
196 182 114
196 182 114
197 182 114
197 182 112
193 179 108
192 178 106
192 178 104
189 176 100
190 177 101
185 173 93
181 170 85
177 168 79
177 168 78
175 166 74
176 166 74
169 162 60
167 160 56
162 157 41
161 156 37
156 153 16
158 154 11
154 152 0
157 153 0
156 153 0
157 154 0
158 159 0
159 160 0
161 166 0
164 172 0
163 173 0
168 182 0
169 186 0
169 187 0
170 191 0
171 194 0
172 194 0
173 195 0
173 196 0
172 194 0
172 194 0
173 194 0
173 196 0
173 196 0
172 195 0
173 196 0
172 194 0
172 195 0
172 195 0
174 196 0
173 194 0
173 196 0
172 194 0
174 196 0
172 195 0
174 196 0
173 195 0
175 196 0
171 194 0
175 197 0
173 196 0
174 196 0
171 194 0
173 197 0
174 197 0
173 194 0
174 196 0
172 194 0
173 196 0
174 196 0
173 196 0
175 196 0
172 195 0
173 196 0
174 196 0
174 197 0
173 195 0
174 196 0
173 196 0
174 197 0
173 197 0
173 197 0
173 196 0
173 197 0
171 195 0
172 196 0
172 195 0
173 196 0
173 197 0
174 198 0
173 196 0
174 198 0
173 196 0
173 197 0
173 197 0
172 196 0
174 197 0
174 197 0
171 194 0
174 197 0
173 197 0
172 196 0
172 196 0
170 194 0
173 196 0
172 195 0
173 196 0
173 197 0
173 196 0
173 196 0
172 195 0
173 196 0
172 196 0
174 196 0
176 199 0
173 197 0
171 194 0
174 197 0
173 196 0
171 194 0
171 194 0
173 196 0
173 197 0
172 196 0
174 197 0
171 195 0
170 192 0
172 196 0
171 195 0
173 197 0
170 193 0
171 195 0
173 196 0
171 196 0
174 197 0
173 196 0
173 197 0
172 195 0
171 195 0
173 196 0
170 193 0
172 196 0
169 193 0
171 195 0
171 194 0
172 195 0
174 197 0
170 194 0
171 193 0
172 195 0
173 196 0
172 195 0
171 195 0
169 193 0
171 195 0
170 193 0
173 195 0
170 193 0
169 192 0
170 194 0
172 194 0
173 197 0
172 195 0
173 196 0
171 194 0
171 195 0
171 195 0
171 195 0
171 195 0
170 194 0
171 194 0
173 196 0
171 195 0
171 194 0
170 194 0
171 193 0
172 195 0
172 195 0
171 194 0
173 195 0
171 195 0
170 192 0
169 193 0
171 194 0
173 196 0
170 193 0
173 196 0
167 191 0
171 193 0
163 186 54
135 160 100
84 115 158
62 98 164
62 99 169
62 98 166
62 99 166
62 98 169
62 99 168
62 99 173
62 99 173
62 98 170
62 99 174
62 98 169
62 98 171
63 99 173
62 99 177
62 99 175
63 99 174
63 99 174
62 99 175
62 98 171
63 100 177
62 98 170
62 99 177
62 99 178
63 99 173
62 99 172
62 99 177
62 99 174
62 99 174
62 99 177
63 99 174
63 99 177
62 99 177
61 98 171
62 98 172
62 99 178
62 99 176
63 100 178
62 99 177
62 99 180
62 98 174
62 99 177
62 99 180
63 99 178
62 99 178
62 99 177
61 98 175
62 99 179
62 98 172
62 99 178
62 99 176
62 99 176
62 99 176
62 99 178
62 99 177
62 99 176
61 98 176
61 98 176
61 98 176
61 98 176
63 99 176
62 99 180
62 99 179
62 99 178
62 99 178
62 99 181
62 99 177
62 99 175
62 99 174
62 99 176
63 99 178
61 98 174
62 99 177
62 99 177
61 98 175
63 99 175
62 99 175
62 99 177
62 98 173
62 99 172
61 98 174
62 99 177
62 99 171
62 99 176
62 99 175
63 99 178
62 99 178
61 98 172
63 99 174
62 99 177
62 99 176
61 98 173
63 99 174
63 99 175
62 99 175
62 99 178
62 99 172
62 99 174
62 98 173
62 98 173
63 99 173
61 98 170
62 99 173
63 99 176
62 98 171
62 99 172
62 99 174
62 98 171
62 98 171
62 98 173
63 100 179
61 98 172
62 99 173
62 99 175
62 98 168
62 98 172
62 98 168
62 99 173
62 98 167
63 99 176
62 98 169
61 97 162
61 97 165
61 97 163
62 98 172
62 97 166
62 98 168
61 96 157
60 96 159
60 94 148
57 88 140
48 69 92
38 54 62
38 50 40
38 49 38
38 50 41
42 56 46
42 55 45
43 56 47
43 56 47
43 57 48
45 59 47
47 62 55
46 60 51
47 62 55
49 65 54
50 65 57
49 64 53
49 65 55
50 66 58
50 67 58
52 69 59
52 70 62
53 71 63
53 71 63
68 80 67
100 104 80
117 118 84
126 124 85
150 144 97
174 163 105
182 171 109
191 178 113
194 180 114
194 180 114
193 180 114
193 180 114
193 180 114
193 180 114
193 180 114
192 179 114
193 180 114
193 180 114
193 180 114
192 180 114
193 180 114
192 179 114
192 180 114
192 180 114
192 179 114
192 179 114
192 180 114
192 180 114
192 179 114
192 179 114
192 180 114
192 180 114
192 180 114
192 180 114
192 179 114
192 180 114
192 180 114
193 180 114
193 180 114
193 180 114
193 180 114
194 180 114
194 180 114
194 180 114
194 180 114
194 180 114
194 181 114
195 181 114
195 181 114
195 181 114
195 181 114
196 182 114
196 181 114
197 182 114
197 182 114
197 182 113
196 181 112
195 180 110
196 181 110
192 178 103
190 176 101
189 176 98
185 173 91
184 172 90
184 172 90
180 170 84
174 165 70
175 166 72
173 164 68
169 162 60
165 159 49
164 158 47
157 154 25
158 154 22
156 153 11
155 152 0
157 153 0
155 152 0
155 153 0
158 155 0
157 159 0
159 161 0
162 170 0
163 172 0
165 178 0
165 178 0
167 184 0
169 188 0
172 193 0
173 194 0
174 196 0
172 194 0
171 194 0
173 194 0
171 193 0
172 193 0
173 195 0
172 195 0
173 195 0
171 193 0
173 195 0
173 194 0
171 193 0
174 197 0
172 194 0
171 194 0
171 194 0
174 197 0
171 194 0
173 195 0
174 197 0
173 197 0
173 196 0
173 196 0
173 197 0
173 196 0
174 198 0
172 195 0
174 196 0
174 197 0
175 198 0
172 195 0
173 197 0
173 196 0
175 197 0
174 197 0
173 196 0
174 196 0
173 195 0
174 195 0
174 197 0
174 197 0
173 196 0
172 196 0
174 197 0
173 196 0
173 197 0
171 196 0
171 195 0
173 197 0
175 198 0
174 196 0
173 197 0
175 198 0
174 197 0
173 196 0
174 197 0
174 198 0
172 196 0
173 196 0
173 197 0
171 195 0
171 195 0
175 198 0
172 196 0
172 196 0
171 195 0
175 198 0
175 197 0
174 197 0
174 197 0
170 195 0
170 194 0
171 194 0
173 197 0
171 195 0
173 196 0
171 194 0
172 196 0
173 196 0
170 194 0
172 196 0
173 196 0
175 198 0
172 195 0
171 195 0
172 196 0
170 193 0
175 197 0
173 196 0
171 194 0
174 197 0
174 198 0
173 196 0
169 192 0
173 195 0
173 196 0
170 194 0
173 196 0
175 198 0
171 194 0
171 195 0
172 195 0
172 195 0
173 197 0
174 197 0
169 192 0
168 192 0
172 195 0
170 194 0
171 194 0
174 197 0
173 196 0
173 196 0
171 195 0
170 193 0
170 194 0
172 196 0
173 195 0
171 195 0
171 195 0
172 193 0
169 192 0
169 192 0
171 194 0
168 192 0
170 193 0
172 195 0
172 196 0
172 195 0
171 195 0
173 195 0
171 194 0
172 195 0
172 195 0
173 196 0
167 190 0
173 196 0
168 191 0
171 194 0
171 195 0
169 192 0
170 194 0
170 193 0
168 192 0
170 193 0
171 195 0
169 191 0
171 195 0
169 192 0
169 191 0
170 194 0
168 192 0
156 180 74
120 145 125
67 102 165
62 98 159
62 98 165
61 97 159
62 98 169
62 98 169
62 98 165
62 98 169
62 99 171
62 98 166
62 99 173
62 98 171
61 98 167
61 98 171
62 99 174
63 99 175
62 99 175
61 97 164
61 98 174
62 99 175
62 99 171
62 99 175
63 99 173
62 99 175
63 99 177
63 100 178
62 99 176
62 99 173
63 99 176
61 98 174
62 99 179
62 99 176
62 99 177
62 99 174
62 99 175
63 100 178
61 98 174
62 99 178
62 99 176
62 99 174
62 99 176
62 99 178
62 99 178
62 99 178
62 99 176
61 98 176
62 99 174
63 99 177
62 99 174
62 99 176
62 99 177
62 99 180
63 99 180
62 99 177
62 99 179
62 99 179
62 99 178
62 99 174
62 99 179
62 99 179
62 99 179
62 99 180
62 99 178
62 99 178
62 99 177
62 99 176
62 99 177
62 99 174
62 99 179
61 98 177
63 99 177
62 99 179
61 98 173
62 99 175
63 100 180
62 99 174
63 99 177
62 98 172
61 98 171
62 99 176
63 99 178
63 99 177
63 99 176
62 99 175
63 100 178
62 99 177
62 99 176
62 99 176
62 99 175
62 99 174
62 99 172
63 99 176
62 99 170
62 99 172
62 99 176
62 99 172
62 99 176
62 98 174
62 99 171
62 99 174
62 99 175
62 99 176
62 99 172
62 98 173
62 99 174
62 98 171
62 99 168
62 98 174
61 98 170
62 99 170
61 98 164
61 97 169
63 99 171
62 99 170
63 99 171
62 99 172
62 99 171
63 99 172
62 98 165
61 97 162
62 98 166
61 98 164
61 97 158
62 98 168
62 98 166
61 97 159
61 97 163
61 96 161
60 94 149
61 96 159
59 92 148
53 81 128
44 61 79
37 49 47
41 54 48
40 53 44
40 52 41
41 54 47
40 53 40
42 55 46
45 58 47
43 56 43
45 59 49
46 60 50
49 65 57
50 66 56
48 63 56
48 63 53
49 65 55
51 69 61
50 67 58
52 69 61
52 70 60
51 68 59
53 71 62
59 75 65
98 102 73
103 106 77
140 135 90
160 152 99
165 156 99
184 172 109
186 174 110
194 180 113
195 181 114
194 181 114
194 181 114
194 181 114
194 181 114
194 180 114
194 180 114
194 180 114
193 180 114
193 180 114
193 180 114
193 180 114
193 180 114
193 180 114
193 180 114
193 180 114
193 180 114
193 180 114
193 180 114
193 180 114
193 180 114
193 180 114
193 180 114
193 180 114
193 180 114
194 180 114
194 180 114
194 180 114
194 180 114
194 180 114
194 180 114
194 180 114
194 181 114
194 181 114
195 181 114
195 181 114
195 181 114
195 181 114
195 181 114
196 182 114
196 182 114
197 182 114
197 182 114
196 182 113
197 182 113
196 181 111
195 180 110
195 180 109
194 179 108
191 177 101
192 178 104
188 175 97
185 173 93
180 170 83
177 168 76
178 168 80
176 167 75
172 164 67
173 164 65
167 160 52
162 157 42
162 157 39
160 156 32
157 154 22
157 153 0
155 152 0
156 153 0
155 152 0
156 152 0
156 154 0
158 157 0
159 161 0
160 166 0
160 166 0
161 168 0
165 178 0
167 181 0
170 188 0
170 188 0
172 193 0
174 195 0
172 195 0
172 195 0
174 195 0
172 194 0
173 196 0
173 194 0
173 196 0
172 195 0
173 196 0
174 196 0
174 195 0
175 197 0
173 194 0
172 194 0
173 195 0
175 196 0
172 194 0
173 196 0
175 197 0
172 196 0
173 196 0
173 196 0
173 194 0
175 196 0
173 195 0
172 193 0
173 197 0
173 195 0
174 197 0
174 196 0
174 196 0
172 194 0
175 197 0
174 197 0
173 196 0
171 195 0
173 196 0
173 195 0
175 197 0
173 196 0
173 196 0
171 195 0
174 198 0
172 196 0
174 198 0
173 197 0
174 198 0
172 195 0
174 197 0
172 196 0
174 197 0
170 194 0
173 196 0
172 196 0
174 198 0
173 197 0
171 194 0
172 196 0
173 196 0
173 196 0
173 196 0
172 196 0
174 197 0
170 195 0
172 195 0
170 195 0
174 198 0
174 197 0
171 194 0
175 198 0
173 196 0
172 196 0
174 197 0
175 197 0
173 197 0
170 193 0
172 195 0
171 195 0
172 196 0
172 195 0
173 197 0
173 196 0
171 195 0
174 198 0
171 196 0
174 197 0
172 196 0
170 194 0
172 196 0
172 196 0
173 196 0
172 196 0
172 196 0
174 197 0
171 194 0
172 196 0
171 194 0
171 194 0
171 195 0
175 197 0
172 196 0
172 195 0
172 195 0
172 196 0
171 195 0
174 197 0
171 194 0
171 195 0
173 197 0
169 193 0
172 195 0
172 196 0
172 196 0
170 194 0
173 196 0
174 197 0
171 194 0
168 192 0
172 195 0
167 190 0
171 195 0
171 193 0
170 194 0
170 193 0
171 194 0
172 195 0
170 193 0
170 192 0
171 194 0
170 192 0
169 193 0
172 195 0
170 193 0
172 196 0
172 195 0
168 191 0
168 192 0
171 193 0
171 194 0
169 192 0
167 191 0
172 195 0
172 195 0
169 194 0
174 196 0
170 194 0
171 195 0
166 189 0
172 195 0
168 191 0
171 193 0
171 195 0
165 189 25
136 160 103
93 122 143
62 98 166
62 98 163
62 98 163
63 99 167
62 99 169
62 99 166
63 99 173
61 98 170
61 97 160
62 98 171
62 98 171
62 99 168
62 99 175
62 99 174
62 99 170
62 98 172
63 99 172
62 99 174
62 99 173
62 98 169
63 99 173
62 99 173
61 98 175
61 98 170
62 99 177
62 99 177
62 99 177
62 99 178
62 99 179
62 99 177
62 99 177
62 99 177
62 99 174
62 99 174
62 99 176
61 98 172
62 99 179
63 99 176
62 99 174
62 99 175
62 99 176
62 99 178
62 99 180
62 99 174
62 99 175
62 99 177
62 99 178
62 99 177
62 99 177
61 98 172
62 99 176
62 98 173
62 99 177
62 99 176
62 99 178
62 99 179
61 98 175
62 99 176
62 99 177
61 98 175
62 99 173
62 99 178
62 99 177
61 98 171
62 98 174
63 99 177
62 99 175
62 99 175
62 99 176
62 99 178
62 99 176
62 99 175
62 98 170
62 99 175
62 99 177
62 99 177
62 99 174
62 99 174
62 99 176
62 99 174
62 99 175
62 99 172
62 99 177
62 99 174
62 99 176
62 99 175
62 99 175
62 99 174
62 99 172
62 99 178
62 99 175
63 99 177
62 99 175
62 99 173
62 99 175
62 99 172
62 99 175
62 98 170
62 99 172
63 99 173
61 98 170
62 99 170
62 99 173
61 97 170
62 99 173
62 99 169
63 99 174
62 98 171
62 98 168
61 98 170
62 98 170
63 99 173
62 99 174
62 98 167
63 99 171
63 99 172
61 97 161
62 98 170
62 98 165
62 99 170
62 98 172
62 97 161
62 98 166
62 99 170
61 97 165
61 97 156
61 97 160
61 97 164
61 96 162
61 96 159
60 95 156
57 87 132
44 66 92
39 54 57
40 52 44
39 49 38
38 51 43
40 52 41
42 54 44
44 59 52
44 58 47
44 58 47
47 61 52
47 61 50
47 63 55
49 66 56
48 64 51
49 66 57
51 68 56
50 67 57
50 67 53
53 70 61
50 68 57
53 72 66
52 71 62
59 75 62
93 98 76
109 111 79
126 124 86
151 144 95
169 159 103
180 168 108
189 176 111
196 181 114
196 181 114
195 181 114
195 181 114
195 181 114
195 181 114
195 181 114
194 181 114
195 181 114
194 181 114
194 181 114
194 181 114
194 180 114
194 181 114
194 180 114
194 180 114
193 180 114
195 181 114
194 180 114
193 180 114
194 180 114
194 180 114
194 180 114
194 180 114
194 181 114
194 181 114
194 181 114
194 181 114
195 181 114
194 180 114
195 181 114
194 181 114
195 181 114
195 181 114
196 181 114
196 181 114
196 181 114
196 181 114
197 182 114
196 182 114
197 182 113
196 182 113
196 182 113
196 181 112
196 181 111
193 179 106
194 179 108
194 180 108
189 176 99
188 175 97
187 175 96
183 172 89
180 170 83
180 170 83
182 171 85
177 168 78
176 166 75
165 159 53
162 157 42
161 156 39
166 160 52
160 156 32
160 156 28
156 153 11
157 154 11
156 153 0
154 152 0
155 153 0
156 153 0
154 151 0
155 154 0
158 155 0
158 159 0
159 162 0
160 167 0
164 176 0
166 181 0
167 181 0
168 188 0
169 188 0
169 191 0
174 194 0
171 193 0
172 195 0
172 194 0
175 196 0
172 193 0
170 193 0
172 195 0
173 193 0
173 195 0
173 195 0
172 195 0
172 193 0
172 193 0
172 194 0
172 194 0
173 194 0
174 196 0
171 192 0
174 196 0
173 196 0
174 197 0
172 195 0
172 195 0
174 196 0
172 193 0
172 195 0
174 196 0
173 197 0
174 196 0
174 197 0
174 196 0
174 196 0
173 196 0
172 195 0
172 196 0
173 196 0
172 195 0
176 197 0
173 195 0
173 197 0
174 196 0
173 197 0
175 198 0
174 198 0
173 197 0
173 197 0
172 196 0
173 196 0
174 197 0
172 196 0
173 197 0
174 197 0
172 195 0
174 197 0
174 197 0
172 196 0
172 196 0
173 196 0
176 199 0
175 198 0
173 196 0
171 196 0
168 192 0
173 197 0
172 195 0
175 198 0
172 196 0
174 198 0
174 196 0
173 196 0
172 196 0
174 197 0
172 195 0
169 193 0
173 197 0
171 194 0
169 193 0
171 194 0
174 198 0
172 196 0
171 195 0
171 194 0
171 195 0
172 195 0
173 197 0
172 196 0
170 194 0
172 196 0
173 196 0
170 194 0
173 196 0
174 198 0
175 198 0
169 192 0
172 195 0
171 195 0
173 196 0
170 194 0
173 197 0
171 194 0
173 196 0
174 198 0
173 195 0
169 192 0
171 195 0
174 196 0
173 196 0
173 196 0
171 194 0
170 193 0
170 194 0
172 196 0
172 195 0
172 195 0
171 194 0
170 193 0
169 193 0
169 192 0
171 194 0
170 194 0
169 193 0
171 194 0
173 197 0
172 196 0
172 195 0
168 192 0
173 196 0
171 193 0
173 196 0
172 196 0
170 193 0
171 194 0
169 193 0
173 196 0
171 195 0
173 196 0
170 193 0
167 191 0
172 195 0
169 192 0
169 193 0
171 194 0
170 193 0
170 193 0
172 195 0
171 195 0
172 195 0
169 193 0
169 193 0
170 193 0
168 191 0
170 193 0
161 184 57
129 154 110
74 107 157
62 97 157
62 98 168
62 98 164
62 98 165
62 98 164
62 98 169
62 98 169
62 98 167
62 98 168
62 99 172
62 98 167
62 98 168
63 99 174
62 98 169
62 99 169
62 99 174
62 98 171
61 98 168
63 99 169
62 99 171
62 99 172
62 98 172
63 99 177
63 99 175
62 99 174
62 99 173
62 99 177
62 99 174
63 99 175
62 99 173
62 99 175
62 99 176
62 98 174
62 99 175
62 99 177
62 99 171
62 99 173
62 99 176
62 98 173
62 99 177
62 99 177
62 99 172
62 99 178
62 99 178
62 99 177
62 99 178
62 99 179
63 100 181
62 99 179
62 99 177
62 99 176
62 99 177
62 99 176
62 99 176
62 99 176
61 98 176
62 99 177
62 99 176
62 99 174
62 99 177
61 98 176
62 99 173
62 99 175
62 99 176
62 99 177
61 98 174
62 99 173
62 99 178
62 99 171
62 99 178
62 99 176
62 99 174
63 100 175
61 98 172
62 99 174
62 99 175
62 99 172
62 99 176
63 99 176
62 99 176
62 99 177
63 100 177
62 99 175
63 99 176
62 99 175
62 98 169
62 99 177
62 99 173
62 98 170
62 99 175
62 99 176
62 99 175
61 98 169
62 99 174
62 99 178
62 99 173
62 99 170
62 98 171
62 99 176
62 99 172
62 98 170
61 98 172
61 98 168
63 99 174
62 99 170
62 98 172
63 99 170
62 98 169
62 98 163
63 99 172
62 99 173
62 99 171
61 98 166
62 98 168
61 98 165
63 100 174
63 99 165
62 98 169
62 98 166
62 98 169
62 99 168
61 98 163
62 98 167
62 98 167
62 97 165
62 98 167
61 97 157
62 97 161
61 96 152
61 96 158
61 95 155
57 89 144
49 71 96
41 59 75
34 44 37
34 44 35
37 48 35
41 54 45
41 54 47
44 57 46
41 54 42
44 58 48
45 59 49
46 60 51
48 63 53
45 59 47
48 63 50
47 62 54
51 67 60
48 64 55
50 66 54
51 68 58
52 70 60
53 70 63
53 70 62
68 81 65
82 90 70
98 103 77
136 132 89
142 137 91
163 154 96
180 168 104
186 173 107
194 180 111
196 181 113
196 181 114
197 182 114
196 182 114
196 182 114
196 181 114
196 181 114
196 181 114
196 181 114
195 181 114
195 181 114
195 181 114
195 181 114
195 181 114
195 181 114
195 181 114
195 181 114
194 181 114
195 181 114
195 181 114
195 181 114
195 181 114
195 181 114
195 181 114
196 181 114
195 181 114
196 181 114
196 181 114
195 181 114
196 181 114
196 181 114
196 181 114
196 181 114
196 182 114
197 182 114
196 182 114
197 182 114
197 182 113
197 182 114
196 181 111
195 181 110
195 180 109
192 178 106
191 177 103
191 178 103
189 176 100
189 176 99
185 173 92
185 173 92
181 171 87
179 169 82
181 170 83
177 167 76
176 166 73
172 164 67
168 161 58
168 161 57
164 159 47
161 157 34
160 156 34
157 154 22
156 153 19
157 153 0
156 153 0
156 153 0
155 152 0
154 151 0
157 153 0
154 151 0
155 153 0
159 161 0
158 160 0
159 163 0
161 166 0
165 177 0
167 183 0
166 183 0
168 188 0
172 192 0
172 194 0
173 195 0
171 194 0
174 196 0
173 195 0
171 194 0
172 194 0
173 196 0
174 196 0
175 196 0
171 193 0
173 196 0
171 193 0
174 197 0
173 195 0
172 196 0
172 195 0
173 194 0
174 197 0
171 191 0
173 196 0
172 195 0
174 195 0
172 193 0
174 195 0
173 195 0
173 194 0
173 195 0
173 196 0
174 197 0
173 195 0
173 196 0
173 195 0
175 197 0
173 195 0
172 195 0
173 195 0
174 196 0
172 195 0
173 195 0
172 194 0
172 195 0
175 197 0
174 197 0
173 196 0
174 197 0
172 195 0
172 196 0
171 194 0
171 195 0
173 196 0
173 197 0
172 196 0
173 196 0
173 196 0
173 196 0
173 197 0
173 196 0
173 197 0
172 196 0
173 196 0
173 197 0
169 193 0
173 196 0
170 194 0
173 197 0
175 198 0
170 194 0
171 195 0
170 194 0
173 196 0
174 197 0
173 197 0
174 197 0
175 198 0
174 198 0
173 196 0
175 198 0
173 195 0
171 195 0
174 198 0
172 194 0
173 196 0
170 193 0
174 197 0
171 195 0
172 195 0
173 197 0
170 193 0
170 193 0
175 198 0
169 193 0
172 195 0
171 195 0
172 194 0
173 195 0
171 194 0
172 195 0
173 196 0
172 196 0
168 191 0
173 196 0
172 196 0
169 193 0
173 196 0
173 197 0
173 196 0
170 193 0
172 195 0
171 194 0
173 196 0
173 196 0
171 193 0
172 195 0
174 197 0
171 195 0
171 194 0
169 193 0
171 194 0
170 194 0
170 193 0
169 192 0
171 194 0
173 197 0
173 196 0
170 194 0
172 196 0
171 195 0
167 191 0
169 192 0
172 195 0
169 192 0
170 193 0
171 194 0
172 195 0
172 195 0
174 196 0
172 196 0
172 195 0
171 195 0
168 192 0
173 196 0
169 193 0
170 193 0
172 196 0
170 194 0
173 197 0
171 195 0
169 192 0
171 194 0
171 194 0
168 192 0
167 190 0
169 191 18
152 177 80
103 131 134
63 99 166
61 98 161
62 98 163
62 98 167
61 98 165
62 98 164
62 99 169
62 98 169
62 98 169
63 99 173
63 99 170
62 98 172
62 99 173
62 99 175
63 99 171
63 100 174
62 99 171
62 99 170
62 99 174
62 99 174
62 98 171
62 99 176
62 99 176
62 99 172
62 99 175
62 99 174
62 98 170
61 98 170
62 99 175
63 99 177
63 99 178
62 99 176
62 99 178
62 99 175
62 99 176
61 98 175
61 98 175
63 99 176
62 99 177
62 99 175
62 99 173
62 99 176
62 99 176
62 99 177
62 99 173
62 99 177
62 99 175
62 99 174
63 100 174
62 99 178
63 100 178
62 99 174
62 99 178
62 99 174
62 99 173
62 99 172
62 99 177
62 99 172
62 99 178
61 98 174
62 99 173
63 99 174
62 99 175
62 99 174
62 99 175
63 100 176
62 99 175
62 99 177
63 99 175
61 98 173
62 98 171
62 99 174
62 99 177
62 99 173
62 99 178
62 99 178
62 99 175
62 99 177
62 98 173
63 100 180
61 98 171
61 98 171
61 98 173
61 98 172
62 99 174
62 99 174
62 99 173
62 99 176
62 98 169
63 100 175
62 99 172
61 98 174
62 99 174
62 99 172
62 99 175
62 98 173
62 98 171
62 99 173
61 98 170
63 99 171
62 99 173
62 98 167
62 99 175
63 99 174
63 100 173
62 99 172
62 99 171
62 99 172
62 98 171
62 99 173
62 99 168
62 99 171
63 99 174
62 98 164
62 98 173
62 98 167
63 99 169
62 98 170
62 98 166
62 98 168
62 98 169
62 98 167
61 96 158
62 98 167
62 97 163
62 98 168
61 96 159
61 96 157
62 97 161
60 95 157
61 95 153
61 96 156
60 94 153
52 80 124
46 67 90
40 54 50
38 49 38
38 49 39
42 55 45
42 55 46
42 54 41
43 56 44
41 55 44
46 61 49
47 62 52
45 59 48
48 63 51
50 66 55
49 66 57
49 64 53
50 67 57
50 67 61
50 67 57
51 68 58
52 70 63
52 70 62
57 74 66
73 83 66
109 110 77
133 129 87
149 143 95
157 149 90
171 161 97
186 174 102
189 176 106
193 179 108
194 180 109
195 181 111
196 181 112
196 181 113
196 181 113
196 181 113
197 182 114
197 182 114
196 182 114
196 182 114
196 182 114
196 181 114
196 181 114
196 181 114
196 182 114
196 181 114
196 181 114
196 181 114
196 181 114
196 181 114
196 181 114
196 181 114
196 182 114
196 181 114
196 181 114
196 182 114
196 182 114
196 182 114
197 182 114
197 182 114
197 182 113
197 182 114
197 182 113
197 182 114
196 181 112
195 181 110
196 181 111
194 179 108
194 179 107
192 178 104
190 177 102
190 176 99
191 177 102
188 175 97
184 172 90
179 169 80
178 168 77
185 173 92
182 171 87
180 170 83
174 165 68
173 165 68
170 162 58
165 159 51
166 160 51
163 158 41
162 157 42
158 154 28
159 155 25
157 153 11
155 152 0
155 152 0
157 153 0
156 153 0
155 152 0
155 152 0
155 152 0
156 153 0
155 154 0
158 160 0
161 166 0
160 166 0
162 171 0
165 178 0
165 178 0
166 182 0
169 186 0
171 189 0
172 192 0
175 197 0
174 194 0
172 193 0
171 192 0
172 195 0
171 192 0
172 195 0
172 194 0
174 195 0
173 196 0
174 197 0
173 195 0
175 197 0
174 195 0
173 195 0
174 195 0
171 194 0
172 193 0
172 195 0
172 194 0
172 194 0
171 192 0
173 195 0
172 195 0
171 193 0
174 196 0
173 195 0
173 196 0
174 196 0
174 197 0
172 194 0
171 195 0
174 197 0
172 195 0
174 197 0
173 196 0
173 196 0
174 196 0
175 196 0
173 196 0
173 197 0
174 197 0
173 197 0
172 196 0
171 195 0
172 196 0
172 195 0
173 197 0
172 196 0
173 197 0
173 196 0
175 198 0
172 195 0
174 198 0
176 198 0
172 196 0
172 196 0
174 198 0
173 197 0
172 196 0
173 196 0
172 195 0
173 197 0
173 197 0
172 195 0
172 195 0
174 197 0
174 198 0
172 196 0
170 194 0
171 194 0
173 197 0
172 195 0
173 196 0
172 195 0
174 197 0
174 197 0
168 192 0
168 192 0
174 197 0
173 196 0
172 195 0
168 192 0
173 196 0
173 197 0
174 198 0
170 194 0
171 194 0
174 197 0
173 196 0
173 197 0
172 197 0
173 197 0
172 196 0
173 195 0
172 195 0
172 196 0
171 194 0
174 196 0
174 197 0
171 195 0
172 196 0
171 195 0
169 192 0
169 193 0
172 196 0
167 191 0
172 195 0
171 194 0
172 195 0
171 194 0
172 196 0
171 194 0
170 193 0
171 195 0
171 194 0
172 195 0
172 195 0
169 194 0
171 194 0
168 191 0
172 196 0
171 194 0
173 196 0
168 193 0
171 194 0
170 194 0
167 190 0
170 193 0
171 195 0
169 192 0
170 193 0
170 194 0
170 194 0
170 194 0
174 197 0
170 193 0
170 193 0
170 194 0
169 192 0
173 195 0
171 193 0
170 194 0
170 193 0
170 192 0
169 193 0
171 195 0
172 195 0
170 193 0
169 193 0
171 194 0
168 191 0
167 191 25
146 170 95
81 113 156
63 99 164
62 98 158
62 99 166
62 98 169
62 98 161
61 98 165
61 97 162
63 100 175
63 99 171
61 98 165
62 99 173
61 98 171
62 98 168
62 99 172
62 98 171
62 98 168
62 99 170
62 99 176
62 99 172
61 98 172
62 98 167
62 99 173
62 99 170
62 99 172
62 99 174
62 99 174
62 99 176
62 99 174
62 99 176
63 99 176
62 99 178
62 99 177
62 99 176
62 99 172
62 99 177
63 100 178
62 99 179
62 99 173
61 98 173
62 98 172
62 99 174
62 99 177
63 99 177
63 100 179
62 99 177
62 99 178
63 100 178
62 99 179
62 99 176
63 100 178
61 98 176
62 99 177
61 98 171
62 99 171
62 99 177
62 99 177
62 99 177
62 99 176
62 99 175
62 99 177
62 99 173
62 99 175
63 99 179
62 99 177
62 99 176
62 99 175
62 99 177
62 99 176
61 98 175
62 99 177
62 99 175
62 99 177
62 99 176
63 99 176
62 99 170
62 99 177
62 99 176
62 99 172
62 99 178
62 99 176
62 98 172
61 98 172
62 99 174
62 98 168
62 99 172
62 99 175
63 100 180
62 99 173
63 100 177
62 99 177
62 99 171
62 99 176
62 99 178
63 100 177
62 99 179
62 99 174
62 98 170
61 98 168
62 98 170
63 99 172
63 99 173
62 98 169
63 99 172
62 98 170
62 99 175
63 99 172
62 99 174
62 99 172
63 99 175
62 99 168
61 97 164
62 98 168
62 98 170
63 99 170
62 98 169
62 99 171
61 97 163
62 98 173
62 98 164
63 98 168
61 98 166
62 98 166
62 98 166
63 99 167
63 99 166
61 96 164
61 96 157
62 97 161
62 97 164
61 96 159
61 96 158
60 95 156
61 95 156
57 88 131
48 71 100
39 52 57
35 45 35
40 51 38
37 49 41
41 53 40
40 52 43
42 54 42
41 55 41
46 60 49
44 57 46
48 62 49
46 60 43
47 61 50
49 63 52
50 65 52
50 67 58
52 70 58
52 69 59
50 66 55
51 68 59
53 70 60
62 76 63
90 96 69
102 106 74
117 117 78
133 131 78
148 142 82
175 164 97
180 168 100
187 174 98
189 176 99
191 178 104
193 179 106
193 179 106
194 179 108
195 180 110
193 179 106
196 181 112
196 181 112
195 181 111
197 182 114
197 182 113
196 181 113
197 182 113
197 182 113
196 181 113
196 181 112
196 182 113
196 181 112
197 182 114
196 181 113
197 182 113
197 182 113
196 181 113
196 181 112
195 180 110
195 180 110
197 182 113
196 181 113
194 180 109
196 181 110
193 179 107
194 180 109
193 179 106
190 177 101
192 178 104
191 178 104
191 178 104
192 178 104
191 177 102
189 176 98
185 173 93
187 174 95
185 172 91
183 171 88
180 170 84
178 168 78
179 169 80
174 165 70
173 164 69
176 166 75
171 163 62
166 159 51
166 160 52
163 158 47
164 158 45
159 155 28
158 155 28
158 154 19
155 153 0
155 153 0
156 153 0
156 152 0
157 153 0
155 153 0
157 153 0
155 151 0
153 151 0
156 154 0
155 155 0
160 165 0
159 163 0
161 168 0
163 173 0
166 178 0
165 177 0
167 185 0
169 189 0
171 191 0
171 193 0
172 194 0
170 191 0
173 195 0
173 194 0
172 195 0
174 195 0
172 192 0
172 193 0
171 192 0
172 195 0
171 194 0
172 195 0
172 194 0
172 194 0
173 194 0
171 193 0
173 195 0
173 196 0
173 194 0
175 196 0
170 193 0
172 195 0
172 194 0
172 194 0
174 196 0
172 195 0
173 195 0
173 196 0
173 196 0
173 197 0
173 195 0
175 198 0
174 197 0
174 196 0
172 195 0
174 196 0
173 196 0
173 195 0
171 195 0
173 196 0
173 196 0
174 196 0
174 197 0
174 197 0
172 195 0
173 196 0
173 197 0
173 197 0
173 196 0
172 195 0
174 197 0
171 195 0
172 195 0
173 196 0
172 197 0
170 193 0
174 197 0
173 197 0
172 195 0
172 195 0
173 196 0
174 197 0
173 196 0
173 197 0
174 198 0
172 195 0
173 197 0
173 197 0
173 196 0
173 197 0
174 197 0
171 194 0
169 193 0
171 195 0
175 198 0
174 197 0
172 196 0
171 195 0
173 196 0
174 198 0
172 196 0
171 195 0
173 196 0
172 196 0
172 195 0
172 196 0
171 195 0
174 198 0
172 196 0
173 196 0
172 196 0
172 195 0
171 195 0
169 193 0
172 195 0
169 193 0
170 194 0
169 193 0
170 193 0
169 192 0
175 197 0
172 195 0
173 196 0
171 195 0
170 194 0
173 197 0
169 192 0
172 196 0
173 196 0
172 194 0
172 194 0
173 196 0
173 196 0
168 192 0
170 193 0
173 196 0
171 194 0
172 195 0
172 195 0
172 196 0
168 192 0
169 192 0
167 191 0
172 195 0
172 195 0
169 191 0
171 194 0
170 194 0
170 193 0
172 195 0
171 195 0
171 195 0
169 192 0
173 196 0
170 194 0
169 193 0
171 193 0
167 191 0
173 195 0
170 193 0
168 191 0
171 193 0
171 194 0
171 194 0
170 194 0
171 194 0
170 193 0
170 192 0
168 192 0
167 189 0
164 186 0
169 193 0
163 186 54
117 142 122
68 103 160
62 98 169
62 98 164
62 98 164
62 98 167
61 97 160
63 99 168
61 97 165
63 99 173
62 98 164
61 98 168
63 99 165
61 98 168
62 99 170
61 98 167
63 99 173
62 98 170
62 98 173
62 98 174
62 99 172
62 99 171
62 99 174
62 99 173
62 99 176
62 99 177
62 99 176
63 100 174
62 99 170
62 99 174
62 99 176
62 99 178
62 99 175
62 99 174
62 99 177
62 99 175
62 99 178
62 99 176
62 98 174
62 99 178
62 99 176
62 98 173
62 99 177
62 99 176
62 99 171
62 99 177
63 99 172
61 98 171
62 99 173
62 99 175
62 99 178
61 98 170
63 99 177
63 100 178
62 99 180
63 99 174
62 99 177
62 99 176
62 99 177
62 99 177
63 99 174
62 99 175
62 99 171
62 99 173
63 100 179
62 99 175
62 99 175
62 99 173
62 99 176
62 99 174
62 99 177
63 99 175
62 99 178
62 99 179
62 99 172
62 99 176
62 99 178
62 99 177
61 98 173
61 98 170
62 99 177
62 99 176
62 99 175
63 99 173
62 98 174
63 100 175
62 99 179
62 98 173
61 98 168
62 99 173
62 99 173
62 98 169
62 98 174
63 100 175
62 99 173
62 99 171
62 99 171
63 99 176
62 99 175
62 99 172
63 99 174
62 98 173
62 99 174
61 97 166
62 99 172
62 99 171
62 99 171
62 98 168
62 98 168
62 98 165
62 98 170
62 98 170
62 98 169
62 99 171
63 99 169
62 98 169
62 98 168
62 98 165
62 98 165
63 99 171
62 98 168
62 98 168
62 98 166
62 98 168
62 98 164
62 98 168
61 97 165
61 96 150
62 98 163
62 98 168
62 97 163
62 96 160
62 97 161
60 95 160
61 96 160
59 92 147
51 78 118
40 56 65
36 48 45
36 46 34
40 52 39
40 51 41
40 52 43
44 56 45
43 56 43
44 57 44
42 54 43
49 63 51
48 63 50
49 64 53
46 60 45
48 62 52
50 66 55
49 64 52
50 66 52
52 69 61
52 68 56
53 70 57
58 73 60
80 89 61
92 98 63
123 122 76
136 133 77
151 145 80
161 154 86
175 165 88
185 173 93
186 174 94
186 174 94
190 177 101
189 176 99
189 176 99
190 177 101
192 178 105
191 178 104
192 178 104
189 176 101
192 178 105
192 178 106
193 179 108
193 179 108
194 180 108
193 179 106
195 181 110
193 179 106
193 179 107
194 180 109
195 180 110
194 179 107
194 179 108
193 179 107
193 179 106
194 179 108
192 178 106
193 179 106
193 178 105
193 179 105
190 177 102
191 177 103
192 178 104
189 176 99
191 177 103
193 179 106
188 175 98
184 172 90
186 174 93
185 173 94
181 170 84
181 170 84
182 171 87
175 166 74
176 166 75
179 169 81
174 165 69
170 163 67
173 164 67
171 163 63
167 161 56
167 160 53
164 158 42
159 155 28
158 155 25
157 154 25
155 152 16
155 152 0
155 152 0
155 152 0
156 153 0
155 153 0
155 151 0
155 152 0
157 153 0
156 153 0
155 152 0
155 152 0
155 151 0
159 160 0
155 158 0
158 162 0
162 169 0
164 174 0
162 170 0
169 184 0
170 188 0
171 191 0
171 191 0
172 193 0
172 193 0
173 193 0
172 195 0
173 195 0
174 194 0
172 195 0
172 193 0
172 194 0
173 196 0
174 194 0
172 194 0
173 195 0
171 192 0
172 194 0
173 195 0
172 193 0
172 194 0
173 196 0
173 193 0
173 196 0
173 196 0
171 192 0
173 195 0
172 196 0
173 196 0
173 196 0
172 195 0
175 197 0
172 194 0
172 195 0
171 193 0
173 196 0
174 196 0
174 197 0
173 196 0
173 196 0
173 196 0
174 196 0
172 195 0
175 198 0
173 195 0
175 198 0
174 197 0
175 198 0
175 198 0
176 198 0
172 196 0
174 197 0
174 197 0
173 196 0
175 198 0
172 196 0
173 196 0
173 197 0
172 195 0
173 197 0
171 195 0
174 197 0
172 196 0
173 196 0
172 196 0
173 197 0
170 194 0
174 196 0
175 198 0
172 195 0
169 193 0
172 195 0
173 197 0
174 197 0
174 197 0
172 196 0
174 197 0
174 197 0
170 193 0
173 196 0
172 196 0
173 196 0
172 196 0
172 196 0
174 197 0
175 198 0
172 196 0
171 194 0
172 195 0
172 196 0
171 194 0
173 197 0
172 197 0
171 195 0
172 196 0
173 197 0
173 196 0
172 195 0
169 192 0
173 197 0
173 196 0
170 193 0
170 193 0
174 197 0
171 195 0
171 195 0
173 196 0
172 195 0
170 192 0
173 196 0
173 195 0
174 197 0
173 196 0
172 196 0
172 194 0
171 194 0
170 194 0
168 192 0
172 196 0
173 196 0
173 196 0
170 194 0
172 195 0
174 196 0
174 197 0
170 194 0
172 195 0
169 193 0
173 196 0
170 193 0
172 195 0
172 195 0
169 193 0
172 194 0
171 195 0
173 196 0
172 195 0
173 197 0
170 194 0
170 193 0
171 195 0
171 194 0
170 194 0
170 194 0
170 193 0
170 194 0
171 194 0
166 189 0
170 193 0
172 195 0
171 194 0
171 194 0
170 193 0
168 191 0
168 190 0
169 192 25
152 175 65
113 139 131
61 98 163
63 99 171
62 98 155
62 98 166
62 98 168
61 97 163
62 98 165
62 98 168
62 99 172
62 99 168
62 98 164
61 98 168
61 98 172
62 98 168
61 97 166
61 98 163
62 99 172
62 99 170
62 98 172
62 99 174
62 99 169
62 98 175
63 99 176
62 99 173
61 98 172
62 99 173
62 99 172
63 100 176
61 98 175
63 99 176
62 99 174
62 99 174
62 99 173
62 99 176
62 99 175
62 99 175
62 99 176
62 98 173
62 99 177
63 99 175
62 99 179
63 99 175
62 98 173
62 99 177
62 99 175
62 99 172
62 99 171
62 99 176
62 99 176
62 99 175
62 99 174
62 99 176
62 99 174
62 98 169
62 99 168
62 99 176
62 98 173
61 98 178
62 98 173
61 98 171
62 99 176
61 98 171
62 99 176
62 99 176
62 99 178
62 99 176
62 99 175
62 99 172
62 99 174
62 99 175
63 99 171
62 99 174
62 99 175
62 99 175
62 99 173
62 98 171
62 99 174
62 99 174
63 99 176
63 99 174
62 98 170
63 99 175
62 99 171
62 99 176
62 99 176
62 99 168
62 99 176
62 99 174
63 99 174
63 99 173
62 99 172
62 98 167
62 99 171
62 98 172
62 99 174
62 98 167
62 99 179
62 99 174
61 98 170
62 99 170
62 99 173
63 99 174
62 99 171
62 99 172
62 99 174
62 99 173
63 99 177
62 99 170
61 98 169
61 98 166
62 99 172
62 98 167
62 99 170
62 98 168
62 99 171
62 98 169
62 98 164
62 98 164
62 98 169
63 99 171
61 97 161
62 98 165
62 98 163
62 98 161
62 98 168
62 98 170
62 97 166
62 98 160
61 96 158
62 98 166
61 95 154
61 96 154
62 97 161
61 96 154
60 95 155
54 82 123
45 66 94
38 50 45
36 47 34
40 52 39
41 52 39
42 53 39
42 55 42
41 53 40
41 53 37
45 59 48
44 58 45
46 59 46
47 62 48
47 61 49
49 66 55
49 66 56
50 66 55
49 66 55
52 69 58
51 69 56
53 70 60
54 71 58
75 86 57
103 107 66
111 113 71
130 128 70
144 139 72
159 151 78
177 167 86
179 169 85
179 169 83
183 172 88
184 172 90
183 172 88
186 174 96
187 175 97
184 172 90
188 176 99
190 176 99
188 175 98
188 175 97
190 177 101
191 177 104
191 178 103
189 176 101
188 175 97
190 177 101
194 180 108
190 177 102
190 177 102
190 177 102
191 177 101
191 177 103
192 178 104
189 176 99
189 176 99
190 176 101
193 179 106
186 174 95
185 173 93
184 172 91
184 172 90
185 173 93
184 172 90
187 175 96
182 171 86
184 173 90
182 171 87
180 170 84
175 166 74
176 167 75
177 168 76
173 164 67
175 166 71
170 163 62
172 164 66
167 161 56
165 159 51
166 160 52
164 158 49
162 157 39
163 157 41
159 155 28
155 153 16
158 154 16
156 153 0
156 153 0
156 153 0
154 152 0
154 152 0
154 152 0
154 152 0
154 152 0
155 152 0
155 152 0
151 149 0
156 152 0
156 152 0
155 154 0
158 158 0
159 163 0
161 166 0
162 172 0
163 173 0
165 179 0
165 177 0
171 189 0
170 188 0
171 191 0
172 194 0
171 193 0
173 193 0
174 196 0
174 195 0
171 192 0
175 194 0
173 195 0
172 195 0
173 194 0
173 193 0
173 195 0
173 194 0
175 196 0
172 192 0
172 194 0
173 196 0
174 195 0
171 195 0
172 194 0
174 196 0
174 195 0
172 193 0
172 194 0
174 195 0
174 195 0
173 196 0
174 196 0
174 196 0
174 196 0
174 195 0
174 196 0
172 195 0
174 197 0
173 196 0
171 195 0
173 195 0
174 196 0
174 195 0
171 194 0
174 196 0
172 195 0
173 196 0
172 196 0
172 196 0
174 197 0
171 195 0
175 198 0
171 194 0
173 196 0
175 198 0
173 196 0
170 194 0
171 195 0
174 197 0
173 196 0
173 197 0
173 196 0
171 194 0
171 194 0
174 197 0
172 195 0
172 196 0
174 197 0
171 195 0
174 197 0
172 195 0
174 197 0
170 194 0
173 196 0
173 196 0
172 195 0
174 197 0
173 197 0
174 197 0
173 196 0
171 195 0
171 195 0
174 197 0
172 196 0
172 195 0
172 195 0
174 197 0
172 196 0
173 196 0
173 196 0
169 191 0
174 197 0
172 196 0
175 198 0
172 195 0
172 196 0
172 196 0
172 196 0
172 196 0
170 193 0
172 195 0
171 194 0
171 195 0
172 195 0
173 196 0
171 195 0
174 197 0
172 196 0
169 193 0
173 197 0
171 194 0
171 194 0
170 194 0
171 193 0
174 196 0
168 191 0
172 196 0
170 194 0
169 192 0
172 196 0
170 194 0
172 195 0
172 195 0
173 196 0
170 193 0
169 193 0
173 195 0
173 195 0
170 193 0
172 195 0
172 195 0
169 193 0
171 195 0
172 195 0
169 193 0
172 195 0
168 192 0
169 193 0
170 194 0
172 195 0
172 195 0
170 194 0
172 195 0
170 193 0
170 194 0
173 196 0
170 193 0
168 191 0
173 196 0
165 188 0
167 191 0
169 192 0
172 196 0
171 193 0
171 195 0
166 189 0
167 190 40
136 160 99
88 118 140
62 97 155
61 97 155
62 98 165
63 99 167
63 99 164
62 98 166
62 99 168
62 98 170
62 98 166
62 98 168
62 99 167
63 100 175
62 99 172
62 99 168
63 99 175
62 98 164
61 98 168
62 99 167
62 98 168
62 98 171
63 99 172
62 98 168
62 98 168
63 100 176
62 99 174
62 99 173
62 99 176
62 98 171
63 99 176
62 99 174
62 99 174
62 99 175
62 99 176
62 98 172
63 99 174
62 99 174
62 99 175
62 99 175
62 99 176
62 99 173
62 99 170
62 99 173
62 99 170
62 99 175
62 99 178
63 99 176
63 99 176
63 99 170
62 99 174
63 100 176
62 99 180
62 98 171
62 98 175
62 98 171
62 99 176
62 99 175
62 98 172
62 99 174
62 99 177
62 98 174
62 99 175
63 99 174
62 99 177
62 99 169
62 99 173
62 99 176
62 99 174
62 99 176
62 99 175
62 99 172
63 99 173
62 98 170
62 99 175
63 99 175
62 99 177
62 99 170
63 100 175
62 99 175
62 99 173
62 99 175
62 99 171
61 98 168
63 100 177
62 99 172
61 98 169
62 99 171
62 98 168
62 99 174
62 98 172
62 99 175
62 98 168
62 98 170
62 99 172
63 99 174
62 99 174
62 98 167
62 99 170
63 99 175
61 98 171
62 99 172
62 99 176
61 98 166
62 99 173
63 100 179
62 99 171
62 99 171
63 100 176
61 98 169
62 98 169
62 99 171
61 98 165
62 99 172
62 99 172
63 99 172
62 98 169
63 99 169
62 98 166
62 98 167
62 98 166
62 98 166
62 98 162
62 98 166
61 97 163
62 98 161
63 98 166
62 97 161
61 97 160
62 97 163
62 98 159
62 97 160
61 97 163
61 96 159
61 96 154
61 96 158
60 93 148
54 83 126
47 69 94
38 52 54
34 44 32
38 49 37
41 53 42
40 52 40
40 53 41
42 55 45
43 56 43
44 57 44
44 58 44
46 61 49
44 59 43
49 65 53
49 63 49
50 66 53
50 66 55
50 66 51
52 69 61
51 68 54
52 70 59
58 73 57
74 86 53
95 101 56
119 119 68
135 133 63
147 143 66
154 149 66
169 161 80
174 165 72
181 170 83
178 168 78
175 166 74
177 167 75
178 169 80
181 170 84
184 172 90
184 172 90
183 172 90
184 172 88
185 173 93
184 173 90
186 173 93
186 173 93
186 174 94
185 173 90
186 174 94
182 171 86
186 174 95
189 176 99
181 171 87
188 175 97
188 175 97
186 174 94
184 172 90
181 171 86
182 171 87
182 171 87
185 172 91
183 172 89
181 170 86
181 170 84
180 170 84
187 174 96
182 171 87
177 168 79
179 169 80
176 167 75
175 166 74
178 168 77
169 162 59
169 162 59
169 162 59
168 161 57
171 163 62
166 160 53
165 159 47
161 156 34
159 155 28
161 157 36
160 155 36
158 154 25
157 154 11
155 152 11
157 153 0
156 153 0
155 151 0
157 154 0
157 154 0
156 153 0
155 152 0
154 152 0
155 152 0
154 151 0
156 153 0
155 152 0
154 152 0
155 155 0
156 156 0
157 160 0
161 166 0
163 169 0
167 177 0
165 176 0
167 180 0
165 179 0
169 187 0
171 189 0
173 194 0
174 196 0
171 193 0
173 195 0
172 193 0
171 193 0
173 194 0
173 195 0
171 193 0
174 195 0
172 193 0
171 193 0
172 193 0
173 195 0
173 195 0
174 197 0
172 193 0
174 197 0
173 195 0
172 194 0
175 197 0
173 196 0
174 196 0
174 195 0
173 195 0
173 195 0
173 195 0
173 194 0
172 193 0
174 197 0
172 194 0
173 195 0
172 195 0
174 196 0
172 194 0
172 195 0
172 194 0
173 195 0
174 196 0
173 195 0
171 194 0
173 196 0
173 196 0
172 194 0
174 198 0
172 196 0
170 194 0
173 197 0
172 196 0
174 198 0
171 195 0
171 196 0
173 197 0
170 194 0
172 196 0
172 196 0
173 196 0
171 195 0
173 197 0
171 194 0
173 197 0
172 196 0
173 196 0
174 197 0
173 196 0
175 198 0
172 195 0
171 195 0
173 196 0
172 195 0
173 196 0
174 197 0
171 195 0
172 196 0
171 195 0
173 196 0
169 193 0
173 196 0
173 197 0
171 195 0
170 194 0
171 195 0
170 192 0
171 194 0
173 195 0
173 197 0
172 195 0
170 193 0
174 197 0
173 197 0
170 193 0
173 197 0
172 196 0
172 196 0
172 195 0
172 195 0
171 194 0
170 194 0
171 195 0
172 195 0
172 196 0
171 195 0
173 196 0
172 196 0
172 195 0
169 193 0
172 195 0
171 194 0
171 195 0
173 196 0
170 194 0
171 195 0
169 192 0
174 197 0
175 198 0
170 194 0
168 192 0
174 197 0
171 194 0
170 194 0
167 191 0
172 195 0
173 196 0
172 196 0
169 192 0
172 195 0
173 196 0
170 193 0
170 195 0
170 194 0
169 193 0
169 193 0
170 193 0
170 194 0
174 197 0
173 196 0
169 192 0
172 196 0
171 194 0
170 193 0
168 191 0
171 195 0
170 193 0
171 195 0
172 195 0
167 189 0
169 193 0
170 194 0
169 192 0
167 190 0
170 193 0
171 194 0
168 192 0
159 182 57
126 151 108
72 103 151
62 98 168
62 98 166
61 98 163
61 97 164
61 98 162
62 98 168
61 97 162
62 98 164
62 98 166
62 98 165
61 98 163
62 98 166
62 98 164
62 98 169
62 99 170
63 99 172
62 98 168
62 99 170
62 98 169
62 99 169
62 98 167
63 100 178
62 99 178
63 99 173
62 99 175
62 99 176
62 99 174
62 99 176
62 99 175
63 99 175
63 99 180
62 99 173
61 98 175
61 98 171
62 99 178
61 98 175
62 98 174
62 99 174
62 99 174
62 98 173
62 99 176
62 99 176
61 98 170
62 99 175
62 99 174
62 99 174
62 99 176
62 99 175
62 99 177
62 99 176
62 99 177
62 99 175
63 100 177
62 98 173
62 99 173
62 99 174
62 99 174
62 98 172
63 100 174
62 99 173
61 98 175
62 99 175
62 99 168
63 100 177
63 99 172
62 98 172
63 99 174
61 98 170
61 98 171
61 98 168
62 99 173
62 98 170
62 99 171
62 99 176
63 100 177
62 98 172
62 99 176
62 99 176
62 98 171
62 99 172
63 99 175
62 99 171
62 99 171
62 99 172
62 99 171
62 99 175
61 98 176
62 99 171
62 98 169
62 99 174
62 99 173
62 99 172
62 99 173
62 99 171
63 99 174
61 98 172
62 99 169
62 99 167
62 99 172
63 99 176
63 100 175
61 98 170
62 99 174
62 98 167
62 99 170
63 100 173
62 98 168
62 99 169
62 99 172
62 99 171
62 98 167
62 99 170
62 99 167
62 98 165
62 98 166
62 98 167
62 99 170
62 98 169
61 98 164
62 98 169
63 99 170
62 98 165
63 99 168
61 97 163
62 98 166
61 96 156
63 99 170
62 97 163
62 96 158
62 97 167
61 97 161
62 96 159
61 96 156
61 96 157
61 96 159
58 90 135
50 75 114
38 53 61
38 50 50
39 51 36
37 48 35
41 54 39
42 55 38
43 55 45
46 59 43
46 61 47
45 59 49
44 58 39
48 63 49
47 62 48
49 65 50
50 64 49
46 62 51
50 66 55
50 66 55
51 68 52
51 69 54
63 77 54
64 78 52
101 105 54
103 107 55
129 128 62
142 138 59
150 146 58
162 156 63
168 161 62
169 162 61
169 161 63
170 163 64
174 165 70
175 166 74
169 162 63
176 166 74
175 166 73
177 168 78
177 167 77
177 167 78
181 170 84
177 168 79
182 171 87
180 170 84
185 173 92
181 170 85
180 169 82
183 172 87
186 174 94
182 171 87
184 172 89
181 170 83
182 171 85
179 169 79
181 170 84
182 170 85
181 170 83
180 170 83
177 167 76
182 171 84
178 168 79
172 164 69
172 164 67
170 163 64
172 164 65
175 166 72
168 161 58
172 164 66
169 161 59
169 162 60
168 161 57
168 161 57
165 159 41
163 158 44
163 158 42
158 155 28
157 154 25
160 156 32
156 153 11
157 153 16
156 153 0
155 153 0
154 151 0
156 153 0
156 153 0
155 152 0
154 151 0
155 153 0
155 151 0
154 151 0
154 150 0
155 152 0
153 151 0
154 150 0
154 152 0
152 149 0
155 153 0
158 158 0
158 159 0
160 166 0
162 168 0
164 175 0
164 176 0
168 182 0
170 188 0
166 182 0
170 189 0
172 194 0
172 193 0
172 193 0
172 193 0
171 193 0
172 193 0
174 195 0
172 194 0
172 193 0
172 194 0
172 194 0
172 194 0
173 195 0
171 193 0
170 191 0
172 194 0
173 194 0
173 195 0
173 194 0
174 196 0
172 194 0
171 192 0
173 194 0
174 195 0
172 195 0
171 192 0
172 195 0
174 196 0
173 194 0
172 194 0
173 196 0
174 197 0
173 196 0
172 195 0
172 195 0
172 196 0
172 195 0
173 195 0
173 195 0
173 196 0
173 194 0
174 196 0
173 196 0
174 196 0
172 195 0
173 196 0
173 196 0
172 196 0
171 195 0
173 197 0
172 196 0
174 197 0
175 198 0
171 195 0
173 196 0
173 197 0
172 195 0
171 195 0
174 197 0
176 198 0
170 194 0
172 196 0
172 195 0
171 194 0
172 196 0
174 197 0
173 196 0
171 194 0
173 197 0
173 196 0
172 195 0
171 194 0
173 197 0
170 194 0
172 196 0
172 196 0
172 195 0
172 196 0
171 195 0
171 194 0
172 195 0
170 194 0
173 197 0
172 194 0
172 196 0
170 194 0
174 198 0
173 195 0
172 195 0
173 196 0
173 196 0
173 196 0
171 195 0
172 196 0
172 194 0
170 194 0
173 197 0
173 197 0
174 197 0
171 195 0
170 194 0
170 194 0
170 194 0
175 197 0
172 195 0
170 194 0
173 196 0
170 194 0
171 195 0
172 196 0
170 194 0
172 196 0
171 194 0
172 195 0
172 195 0
170 193 0
173 196 0
171 194 0
167 191 0
167 190 0
169 192 0
166 189 0
172 195 0
173 196 0
169 192 0
170 193 0
172 195 0
172 195 0
174 197 0
173 196 0
170 193 0
172 194 0
171 194 0
171 194 0
169 192 0
167 190 0
169 192 0
172 196 0
168 192 0
167 191 0
172 195 0
169 193 0
170 193 0
169 192 0
170 194 0
167 190 0
168 192 0
170 193 0
169 192 0
170 192 0
168 191 0
172 195 0
172 195 0
154 177 65
114 141 124
61 98 162
61 97 157
62 98 163
62 99 164
62 98 164
62 98 164
62 98 161
62 98 165
62 99 168
62 98 166
62 99 171
62 98 165
61 98 168
62 99 174
63 99 165
63 99 171
62 98 169
62 98 171
62 98 169
62 99 168
62 99 174
61 98 170
63 99 174
62 98 169
62 98 171
62 99 171
62 98 167
62 99 175
62 98 170
63 99 172
61 97 166
62 99 175
61 98 169
62 98 172
62 98 174
62 99 178
62 99 178
62 99 176
62 99 176
62 98 170
62 98 172
63 99 177
63 99 173
63 99 177
62 98 172
62 99 177
62 99 174
62 98 172
62 99 172
62 99 174
62 99 175
62 99 177
61 97 169
62 99 177
63 100 176
63 100 180
62 99 173
62 98 173
62 99 175
62 98 175
62 99 172
62 99 172
62 99 178
63 99 171
62 98 173
62 99 174
61 98 171
62 99 176
62 99 175
62 99 174
62 98 171
62 99 172
62 99 175
63 99 171
62 99 172
62 99 173
62 99 168
62 99 172
62 98 171
62 99 173
62 98 172
61 98 169
62 98 170
62 99 173
62 98 173
62 99 177
63 99 173
63 99 171
62 99 174
62 98 174
62 98 172
62 98 169
62 99 172
63 99 173
62 99 171
62 98 168
61 98 167
63 99 174
62 99 173
63 99 169
62 98 164
63 99 173
63 100 173
63 99 167
63 100 174
62 98 171
62 99 169
62 98 169
62 99 168
61 98 163
62 98 169
62 98 167
62 99 171
62 98 165
61 98 162
63 99 172
61 98 172
61 98 166
62 98 168
63 99 170
61 98 164
62 98 165
62 97 163
62 97 160
61 97 162
62 97 161
61 97 162
63 99 170
62 97 161
61 97 162
62 97 160
61 97 161
61 95 151
60 95 155
61 95 147
60 94 152
60 93 152
54 80 124
41 60 84
33 43 31
39 50 36
38 50 32
39 50 34
43 55 40
43 56 42
44 57 44
44 57 44
45 59 48
44 57 43
48 63 49
49 63 50
46 62 48
46 60 41
51 67 58
49 65 50
48 64 48
50 66 49
51 68 54
66 79 59
75 85 53
90 97 50
106 110 52
124 125 47
144 141 51
150 146 48
156 153 38
162 157 48
165 159 48
167 161 56
167 160 57
167 160 58
168 161 59
169 162 62
168 161 60
176 166 75
173 165 70
172 164 64
174 165 71
172 164 67
175 166 72
175 166 72
176 166 72
175 166 74
180 169 82
176 166 75
173 164 67
178 168 78
172 164 66
176 167 76
175 166 72
174 165 70
171 163 64
168 161 59
171 163 66
172 164 66
175 166 75
174 165 68
168 162 60
167 161 56
169 162 60
169 162 60
168 161 59
165 159 49
169 162 61
165 159 49
158 154 30
165 159 47
162 157 41
160 156 37
160 156 36
157 154 32
157 153 16
156 153 16
157 153 16
156 153 11
155 152 0
154 151 0
156 153 0
155 152 0
155 152 0
154 152 0
153 151 0
155 153 0
155 153 0
156 152 0
155 152 0
155 152 0
154 151 0
156 152 0
152 150 0
155 152 0
156 152 0
154 150 0
157 153 0
156 154 0
158 157 0
159 163 0
160 166 0
160 166 0
162 172 0
165 176 0
168 184 0
168 185 0
170 188 0
170 190 0
172 192 0
170 188 0
173 192 0
172 193 0
173 193 0
172 194 0
172 193 0
172 194 0
173 194 0
171 192 0
175 196 0
172 193 0
173 195 0
173 196 0
173 194 0
173 193 0
172 194 0
171 192 0
173 194 0
173 196 0
172 194 0
172 195 0
172 193 0
171 193 0
173 194 0
171 193 0
174 195 0
172 195 0
173 195 0
173 195 0
173 196 0
173 194 0
173 196 0
171 193 0
172 192 0
173 194 0
172 196 0
175 197 0
173 194 0
173 196 0
174 195 0
176 198 0
174 196 0
173 196 0
170 194 0
176 198 0
172 195 0
171 195 0
170 194 0
173 196 0
172 196 0
172 196 0
174 197 0
174 197 0
172 195 0
172 195 0
171 194 0
174 198 0
174 197 0
174 197 0
172 195 0
173 196 0
173 196 0
172 194 0
175 198 0
174 197 0
170 194 0
170 194 0
173 197 0
174 197 0
171 195 0
172 195 0
170 194 0
173 197 0
174 196 0
171 194 0
173 196 0
173 196 0
172 196 0
173 196 0
174 197 0
173 195 0
171 195 0
172 195 0
171 194 0
171 195 0
171 195 0
172 195 0
169 193 0
173 197 0
172 195 0
173 196 0
173 196 0
171 193 0
171 195 0
172 195 0
169 192 0
174 197 0
171 194 0
171 195 0
170 194 0
169 193 0
173 196 0
169 193 0
172 196 0
173 197 0
170 193 0
171 195 0
171 195 0
174 197 0
171 195 0
168 192 0
171 194 0
172 194 0
167 190 0
171 194 0
171 195 0
170 194 0
170 193 0
170 192 0
170 192 0
169 193 0
171 194 0
170 194 0
172 195 0
173 196 0
169 193 0
170 193 0
170 195 0
170 193 0
172 195 0
172 195 0
171 194 0
171 195 0
169 193 0
170 194 0
170 193 0
167 190 0
168 191 0
171 193 0
172 195 0
165 188 0
171 195 0
165 187 0
171 194 0
171 193 0
171 194 0
167 191 0
168 190 0
170 193 0
173 196 0
171 195 0
162 186 0
151 175 70
99 127 142
61 97 153
61 97 156
62 98 166
62 98 158
61 97 161
62 98 165
63 99 168
62 98 165
62 98 167
62 98 168
62 99 171
62 99 171
62 98 169
62 98 169
62 98 170
61 98 166
63 99 175
62 99 167
62 99 170
62 99 173
62 99 172
62 99 175
62 99 173
62 99 173
62 98 168
63 99 174
62 99 172
62 98 174
62 99 176
61 98 169
62 99 174
63 99 173
62 99 174
62 98 174
62 99 175
62 99 175
62 99 174
63 99 177
62 99 174
62 99 170
62 99 177
62 99 174
63 99 175
62 99 172
62 99 172
62 99 174
62 98 171
62 98 170
62 98 169
62 99 174
61 98 169
62 99 177
62 99 174
62 99 175
62 99 173
63 99 176
62 99 175
62 99 173
62 99 177
62 99 173
62 99 175
62 99 175
63 99 174
62 99 173
61 98 169
62 99 172
63 100 175
63 99 174
62 99 174
62 99 176
63 100 180
62 99 174
62 99 171
62 99 173
62 98 171
62 99 175
62 99 175
62 99 169
62 98 166
62 99 174
62 99 174
62 99 171
62 99 173
62 98 170
61 98 165
62 99 176
61 98 169
62 99 174
62 98 174
62 98 167
62 98 168
62 99 174
62 98 169
63 99 172
62 99 175
62 98 167
62 99 171
62 99 171
62 99 170
62 99 173
62 98 170
62 99 174
62 99 170
61 98 168
62 98 168
62 99 173
62 98 170
62 98 162
63 99 172
63 99 167
62 99 171
62 99 168
63 100 170
62 98 167
62 98 163
61 98 170
62 98 167
62 99 169
61 98 170
62 98 161
62 98 164
62 98 170
61 97 165
62 98 161
62 98 162
62 98 169
62 98 169
62 97 159
63 98 162
61 97 160
61 96 156
62 97 158
61 96 160
62 97 158
61 96 154
61 94 153
60 93 147
56 86 131
47 68 94
39 53 53
38 49 32
39 50 34
39 51 32
41 54 38
45 58 41
43 55 39
43 57 42
45 57 40
46 61 43
47 61 49
46 60 47
48 63 49
49 65 51
49 65 50
49 64 48
51 68 55
50 66 52
51 68 54
63 77 57
87 94 44
98 104 46
114 117 42
119 121 38
131 132 39
146 144 42
151 148 34
158 154 33
162 157 42
161 156 41
163 158 39
163 158 47
160 156 37
164 158 45
163 158 41
164 158 49
165 159 51
171 163 62
168 161 60
166 159 54
163 157 48
169 161 60
170 162 61
168 161 56
171 163 62
172 164 66
168 160 59
174 165 69
169 162 60
168 161 56
172 164 65
170 162 62
166 160 51
171 163 64
170 162 63
176 166 72
171 163 65
166 160 49
168 161 57
163 158 42
164 158 47
163 158 45
162 157 42
162 158 42
166 160 51
161 156 39
160 156 32
160 156 32
159 155 22
158 154 19
159 155 16
158 154 16
157 153 11
155 153 0
157 153 0
155 152 0
156 153 0
153 151 0
154 152 0
156 153 0
156 153 0
155 152 0
155 152 0
155 151 0
154 151 0
155 152 0
155 152 0
155 151 0
155 152 0
155 152 0
155 152 0
155 152 0
154 150 0
154 150 0
155 153 0
156 155 0
158 160 0
163 169 0
161 165 0
164 172 0
163 175 0
169 185 0
171 189 0
169 188 0
171 191 0
172 192 0
171 192 0
170 190 0
170 192 0
170 190 0
171 192 0
171 191 0
172 193 0
168 188 0
172 192 0
170 192 0
172 191 0
174 197 0
171 192 0
171 194 0
174 196 0
173 195 0
172 195 0
171 194 0
172 194 0
172 194 0
171 192 0
173 192 0
173 194 0
172 194 0
173 194 0
173 195 0
173 196 0
172 194 0
173 195 0
173 196 0
174 196 0
174 195 0
173 195 0
172 195 0
172 195 0
171 194 0
172 195 0
173 194 0
171 194 0
171 194 0
172 195 0
172 195 0
173 196 0
173 196 0
173 196 0
172 196 0
172 196 0
176 199 0
172 196 0
171 194 0
173 196 0
173 196 0
172 196 0
173 197 0
172 196 0
171 195 0
175 198 0
173 197 0
171 194 0
173 196 0
172 195 0
174 197 0
173 196 0
175 198 0
171 194 0
173 196 0
173 197 0
172 195 0
169 193 0
175 197 0
171 195 0
174 196 0
173 197 0
174 197 0
175 198 0
172 196 0
173 196 0
171 195 0
173 196 0
175 197 0
173 197 0
173 196 0
170 194 0
171 194 0
173 196 0
171 195 0
170 194 0
172 195 0
170 194 0
171 195 0
172 195 0
174 197 0
169 193 0
171 194 0
171 195 0
172 196 0
170 193 0
174 197 0
172 195 0
173 196 0
171 194 0
169 192 0
170 194 0
170 193 0
173 197 0
174 197 0
168 191 0
171 195 0
170 194 0
171 195 0
169 192 0
171 193 0
169 192 0
173 196 0
171 195 0
171 194 0
172 196 0
170 193 0
170 194 0
167 191 0
170 192 0
171 194 0
169 193 0
169 193 0
174 197 0
168 192 0
173 195 0
169 192 0
170 194 0
168 192 0
171 193 0
174 197 0
167 191 0
168 192 0
172 195 0
171 194 0
171 195 0
171 194 0
171 194 0
169 191 0
170 194 0
169 192 0
166 190 0
170 193 0
168 191 0
167 190 0
165 189 0
170 192 0
169 193 0
170 193 0
171 194 0
171 194 0
164 187 44
142 166 90
93 122 141
61 97 151
63 99 167
61 97 153
61 98 158
62 98 162
62 98 164
63 99 169
62 98 166
62 99 165
62 99 170
63 99 165
62 99 173
62 98 162
63 99 169
62 98 171
62 98 173
61 98 166
62 99 172
62 99 173
63 99 171
62 98 171
61 97 162
62 99 171
62 98 171
61 98 163
62 98 174
62 99 170
62 99 171
63 100 179
61 98 169
62 99 176
62 99 175
62 99 170
62 98 169
62 98 171
62 99 172
62 99 174
62 99 171
61 98 170
62 98 173
61 98 172
62 99 175
63 99 172
62 98 172
63 99 170
62 99 173
62 99 173
62 98 173
62 99 175
62 99 178
63 99 175
62 99 177
62 99 170
62 98 173
62 98 168
62 99 176
63 99 175
62 99 171
63 99 175
62 99 172
62 99 173
62 99 174
62 98 168
62 99 175
62 99 173
63 99 178
62 99 171
63 99 173
62 99 176
62 99 171
62 98 172
62 98 169
62 99 172
62 99 171
62 99 176
63 99 174
61 98 169
62 98 168
62 99 173
63 99 176
62 99 173
62 98 166
62 99 174
62 98 168
61 98 168
63 99 172
62 99 176
63 99 174
63 99 172
63 99 170
62 99 174
62 98 166
63 99 169
62 98 168
63 100 174
62 99 167
62 99 165
62 99 171
62 98 168
62 99 176
62 98 167
62 98 167
62 99 170
62 98 175
62 99 172
62 98 168
62 98 165
63 99 170
62 98 167
61 97 163
62 99 173
61 98 167
62 98 167
63 99 172
62 99 171
62 99 168
62 98 167
61 97 167
61 97 162
62 98 165
62 98 166
61 97 164
61 97 165
61 97 162
62 98 163
61 97 161
61 97 165
62 97 155
61 96 155
62 98 165
61 97 160
62 97 157
61 97 158
61 97 155
61 97 156
61 96 154
61 96 158
56 86 131
46 70 93
40 54 56
35 46 32
36 47 30
38 49 31
38 51 39
42 54 38
41 54 42
45 60 48
45 58 43
45 58 45
45 59 45
47 62 45
48 63 48
49 64 53
50 67 54
50 65 51
50 67 52
53 70 59
53 69 54
66 79 51
90 98 47
91 98 46
105 109 41
125 125 27
128 129 33
144 143 21
147 146 19
155 152 19
156 153 22
155 152 22
159 155 22
158 154 25
159 154 34
157 153 19
159 155 34
163 158 42
159 155 34
163 158 42
164 158 45
162 157 44
162 157 41
162 157 48
165 159 49
161 156 39
158 155 34
164 158 47
163 158 47
163 158 45
166 159 49
166 159 48
165 159 48
164 158 45
163 158 41
162 157 44
161 156 37
160 156 41
163 158 44
159 155 34
163 158 44
157 154 22
160 155 28
157 154 25
159 155 32
158 155 32
158 155 28
157 154 19
156 153 0
155 152 0
157 153 16
156 153 0
154 152 0
154 152 0
156 153 0
155 152 0
154 151 0
154 152 0
155 153 0
154 151 0
153 151 0
155 152 0
155 152 0
154 151 0
156 153 0
156 152 0
155 151 0
154 151 0
156 153 0
153 150 0
153 150 0
154 151 0
151 149 0
153 150 0
155 151 0
157 153 0
155 152 0
158 159 0
157 158 0
158 162 0
163 168 0
165 176 0
165 178 0
164 177 0
169 184 0
167 184 0
171 192 0
173 193 0
171 192 0
173 194 0
172 194 0
173 194 0
172 192 0
173 193 0
173 194 0
172 192 0
170 190 0
171 193 0
173 194 0
173 195 0
172 192 0
170 192 0
171 193 0
172 192 0
173 195 0
172 193 0
171 192 0
173 196 0
172 194 0
172 195 0
172 194 0
172 194 0
173 193 0
173 194 0
171 193 0
172 195 0
171 194 0
175 196 0
172 195 0
171 194 0
172 195 0
174 194 0
172 194 0
173 195 0
175 197 0
172 195 0
172 195 0
173 196 0
174 196 0
175 197 0
175 197 0
173 196 0
173 196 0
172 196 0
173 197 0
171 195 0
176 198 0
173 197 0
174 197 0
171 194 0
171 194 0
172 195 0
171 194 0
172 196 0
174 198 0
172 195 0
172 195 0
174 197 0
171 194 0
174 197 0
174 197 0
174 197 0
172 195 0
172 196 0
173 196 0
174 197 0
172 195 0
173 196 0
172 195 0
172 195 0
169 192 0
172 196 0
171 196 0
173 196 0
172 195 0
171 195 0
172 195 0
172 195 0
170 194 0
170 194 0
170 193 0
173 197 0
170 194 0
175 198 0
171 194 0
171 194 0
173 196 0
173 196 0
170 194 0
171 194 0
172 195 0
170 194 0
173 196 0
170 194 0
173 196 0
172 195 0
173 196 0
173 196 0
174 197 0
170 193 0
173 196 0
173 196 0
172 196 0
172 195 0
172 195 0
171 195 0
169 193 0
169 193 0
171 194 0
173 197 0
171 194 0
173 196 0
171 194 0
169 193 0
170 193 0
168 192 0
171 195 0
171 194 0
173 196 0
172 194 0
170 193 0
171 194 0
171 194 0
172 195 0
168 191 0
171 194 0
170 193 0
173 196 0
172 195 0
171 193 0
173 196 0
173 196 0
172 195 0
171 195 0
168 191 0
170 195 0
170 195 0
169 193 0
168 191 0
171 194 0
171 195 0
170 193 0
170 193 0
169 193 0
169 192 0
169 193 0
167 190 0
169 192 0
169 193 0
169 192 0
160 183 47
119 146 118
66 101 158
61 98 161
62 98 164
62 98 167
62 98 165
61 98 160
61 97 157
62 98 164
62 98 166
62 98 164
61 98 164
63 99 173
62 99 168
62 98 168
63 99 170
61 98 163
62 98 165
61 97 162
63 99 173
61 98 167
62 99 171
61 97 167
62 99 169
62 98 167
62 99 180
62 99 172
62 98 173
62 98 170
62 98 167
62 98 171
63 99 177
61 98 170
63 99 172
62 99 178
62 99 175
62 98 170
61 98 169
63 99 175
62 99 170
61 98 171
62 99 175
62 99 172
62 99 171
62 98 174
62 99 171
61 97 172
61 98 171
62 99 172
62 99 176
62 99 175
62 99 174
62 98 170
62 99 170
62 99 173
62 99 175
62 99 176
62 99 172
62 99 169
62 99 176
62 98 168
62 99 172
62 99 168
62 99 175
63 100 178
62 98 177
62 99 173
62 99 171
62 98 171
62 99 178
62 99 174
63 99 175
62 99 173
62 98 172
62 99 174
62 99 170
63 99 172
62 98 167
63 99 172
63 99 169
62 99 171
62 98 173
63 99 174
62 99 174
62 99 177
62 99 173
62 99 174
62 99 171
62 98 168
61 98 171
63 99 171
63 99 171
62 98 171
62 99 174
62 98 170
61 98 165
61 98 171
62 98 169
63 99 174
62 98 169
62 98 167
62 99 167
62 99 172
62 98 167
61 98 167
62 98 169
62 98 168
62 98 168
62 99 169
62 98 166
62 99 167
62 98 171
62 98 166
62 99 171
62 98 164
62 98 169
62 98 168
62 98 166
62 98 165
63 99 168
62 99 167
62 99 167
62 98 167
61 97 155
62 98 162
62 98 168
61 98 164
62 98 165
61 97 160
62 98 167
62 98 161
62 97 158
62 98 158
61 96 159
61 96 159
62 97 160
61 95 152
60 94 149
60 94 148
56 87 134
49 73 98
41 57 67
35 45 28
35 45 29
43 55 38
40 53 38
41 53 36
42 55 40
46 60 43
43 57 41
46 60 41
46 61 44
45 59 46
48 63 49
47 63 49
50 66 49
49 65 50
49 65 49
54 70 55
61 74 48
70 82 49
83 91 51
92 99 44
110 114 44
129 129 29
126 128 38
138 138 24
154 151 8
154 151 0
152 150 0
152 150 0
152 150 0
155 153 11
154 152 0
155 152 11
157 153 16
155 152 16
157 154 16
156 153 19
159 155 30
156 153 25
155 152 19
157 153 16
156 152 22
158 154 32
156 153 28
158 155 28
159 155 32
159 155 22
159 155 30
160 155 30
162 157 36
157 154 19
157 154 25
158 154 22
158 154 28
158 154 22
159 155 28
158 154 30
157 154 22
154 151 16
157 153 11
156 153 19
156 153 0
156 153 11
156 153 0
155 153 0
155 153 0
155 153 0
155 152 0
155 153 0
155 152 0
156 153 0
154 150 0
156 153 0
155 152 0
153 151 0
156 153 0
157 153 0
154 152 0
157 152 0
154 151 0
153 150 0
154 150 0
154 151 0
152 149 0
155 152 0
156 152 0
155 152 0
156 152 0
155 151 0
156 152 0
153 149 0
156 151 0
153 149 0
156 157 0
158 159 0
160 166 0
158 162 0
162 169 0
162 172 0
164 176 0
169 184 0
169 187 0
170 190 0
171 191 0
171 191 0
175 196 0
172 192 0
172 192 0
172 191 0
171 191 0
170 189 0
172 193 0
173 193 0
173 195 0
172 194 0
173 195 0
171 193 0
171 191 0
171 192 0
173 196 0
173 195 0
171 192 0
174 196 0
173 195 0
172 193 0
172 194 0
173 196 0
174 197 0
175 198 0
173 195 0
174 196 0
172 193 0
174 197 0
171 194 0
173 195 0
174 197 0
173 196 0
172 195 0
173 194 0
173 195 0
173 196 0
171 193 0
172 195 0
169 191 0
170 192 0
173 195 0
172 195 0
173 195 0
174 196 0
174 197 0
168 192 0
173 197 0
174 197 0
172 195 0
174 197 0
174 197 0
173 196 0
174 197 0
173 196 0
171 195 0
174 197 0
173 196 0
170 194 0
174 197 0
173 197 0
172 195 0
174 197 0
173 196 0
173 196 0
174 196 0
171 195 0
172 195 0
172 196 0
173 195 0
172 195 0
174 197 0
172 196 0
171 195 0
171 194 0
172 195 0
172 196 0
173 197 0
172 196 0
172 196 0
173 196 0
173 197 0
172 195 0
170 194 0
171 195 0
173 197 0
171 195 0
171 195 0
175 198 0
170 193 0
171 195 0
172 196 0
171 195 0
171 195 0
173 196 0
169 193 0
174 197 0
172 195 0
172 196 0
172 196 0
173 197 0
169 193 0
172 196 0
170 193 0
172 194 0
173 197 0
170 195 0
173 196 0
170 192 0
174 197 0
169 193 0
172 196 0
171 195 0
170 193 0
168 191 0
169 193 0
172 195 0
172 196 0
169 193 0
171 195 0
168 192 0
168 191 0
172 195 0
171 193 0
171 194 0
171 194 0
173 197 0
170 193 0
171 194 0
170 193 0
171 195 0
168 190 0
173 196 0
172 195 0
168 192 0
172 195 0
169 193 0
169 193 0
168 191 0
171 195 0
171 194 0
172 195 0
166 190 0
166 190 0
169 193 0
173 196 0
168 192 0
169 192 0
168 190 0
169 193 0
169 192 0
170 193 0
171 195 0
156 179 60
111 137 122
60 95 143
61 97 162
62 98 160
62 98 160
62 98 158
62 98 163
61 97 156
62 98 165
61 98 162
62 98 159
62 98 171
63 99 167
62 98 164
62 98 167
62 98 170
62 98 170
62 98 164
61 98 164
62 99 167
62 99 169
62 98 171
61 98 166
62 99 171
62 98 172
62 99 172
62 98 167
62 98 169
62 99 172
62 98 167
62 98 170
63 99 173
62 99 169
63 99 173
61 98 174
62 99 172
61 98 171
62 98 171
62 98 166
62 99 171
62 98 173
62 99 174
62 98 168
63 99 175
62 99 174
62 99 174
62 99 178
62 98 171
62 99 175
62 99 176
62 99 169
61 98 170
62 99 172
62 99 177
62 99 174
61 98 173
62 98 172
62 99 179
62 98 171
62 99 173
62 98 172
62 99 174
62 98 168
62 99 172
62 98 172
63 99 168
62 99 174
62 99 174
63 99 173
63 99 175
63 99 172
61 98 168
62 99 168
62 98 170
62 99 177
61 98 170
62 99 170
62 98 168
63 99 171
62 99 174
62 99 174
63 99 174
62 99 173
63 99 175
62 99 169
62 98 170
63 99 172
63 99 171
62 98 167
62 98 169
62 99 170
63 99 171
61 98 170
63 99 172
63 100 175
62 98 167
63 99 169
62 99 169
61 97 164
63 99 167
62 99 174
62 99 169
62 99 173
63 99 170
63 99 172
62 98 167
62 99 171
63 99 174
62 98 161
62 98 167
62 98 167
62 99 168
62 98 166
62 98 171
61 98 163
62 98 157
63 99 168
62 98 168
62 99 168
62 98 164
62 98 162
62 98 158
62 98 161
62 98 160
62 98 168
61 97 163
63 99 166
63 98 167
61 97 161
62 98 165
62 98 164
62 97 161
61 95 149
60 95 149
62 97 162
61 96 150
61 96 158
61 95 149
60 93 147
61 94 149
53 80 115
44 61 75
39 51 32
34 44 24
39 50 30
41 53 37
39 49 29
44 57 41
41 53 34
44 57 40
43 56 36
44 58 41
46 59 48
47 62 45
47 61 44
50 66 54
49 64 48
48 63 40
50 66 47
66 79 50
80 89 46
92 98 34
104 108 39
113 117 39
123 125 35
136 136 21
147 146 14
148 146 8
153 151 0
151 149 0
152 150 0
153 151 0
153 150 0
152 149 0
154 152 0
156 153 0
155 153 0
155 152 0
153 151 0
154 152 0
155 152 0
155 152 0
155 151 0
154 152 0
155 152 11
155 152 11
157 153 0
157 154 11
154 151 0
155 152 0
154 152 0
155 152 0
154 152 0
157 153 11
156 152 0
154 152 0
154 152 0
156 153 0
155 152 0
155 152 0
156 153 0
157 153 0
155 153 0
155 153 0
155 152 0
153 150 0
153 151 0
154 151 0
155 153 0
156 153 0
156 153 0
155 151 0
154 152 0
155 152 0
155 152 0
156 153 0
156 152 0
155 152 0
155 152 0
154 151 0
155 152 0
154 151 0
156 153 0
156 153 0
155 152 0
153 150 0
153 150 0
156 152 0
156 152 0
155 152 0
154 150 0
154 151 0
155 152 0
154 151 0
156 155 0
158 160 0
160 165 0
161 167 0
161 167 0
165 178 0
163 175 0
165 178 0
169 185 0
169 188 0
171 189 0
171 190 0
173 193 0
174 196 0
172 193 0
171 189 0
173 192 0
173 195 0
171 191 0
171 192 0
173 192 0
173 194 0
171 193 0
171 193 0
172 193 0
171 193 0
171 191 0
171 193 0
173 194 0
172 194 0
175 196 0
174 196 0
173 195 0
175 197 0
171 192 0
172 194 0
173 193 0
172 194 0
173 195 0
171 192 0
174 196 0
171 192 0
170 193 0
173 195 0
172 194 0
174 196 0
172 194 0
171 194 0
174 195 0
171 194 0
172 194 0
173 196 0
174 195 0
172 193 0
172 194 0
174 195 0
174 196 0
173 197 0
173 196 0
171 195 0
170 194 0
173 196 0
174 197 0
173 197 0
174 197 0
171 194 0
172 196 0
172 196 0
172 195 0
173 196 0
171 195 0
173 197 0
173 197 0
173 197 0
172 195 0
171 194 0
174 197 0
171 195 0
172 196 0
173 196 0
172 196 0
171 194 0
172 195 0
173 196 0
173 196 0
171 195 0
173 197 0
173 196 0
171 195 0
171 195 0
172 195 0
171 195 0
171 195 0
173 197 0
173 196 0
171 195 0
172 195 0
172 196 0
169 193 0
173 196 0
171 195 0
172 195 0
169 192 0
173 196 0
173 196 0
171 194 0
172 194 0
172 195 0
172 195 0
173 196 0
170 193 0
173 196 0
169 192 0
172 196 0
173 195 0
171 194 0
170 194 0
169 192 0
172 195 0
174 197 0
172 196 0
174 197 0
170 194 0
169 193 0
169 193 0
172 195 0
172 196 0
170 193 0
169 192 0
170 194 0
168 192 0
170 193 0
173 196 0
169 192 0
169 190 0
170 193 0
169 192 0
171 195 0
173 195 0
169 192 0
169 193 0
172 195 0
168 191 0
170 193 0
170 193 0
168 191 0
166 190 0
169 192 0
170 193 0
171 195 0
169 192 0
169 193 0
169 192 0
170 193 0
172 194 0
172 195 0
171 194 0
170 193 0
169 192 0
169 192 0
167 191 0
172 194 0
171 193 0
162 186 0
172 195 0
148 172 74
92 121 142
61 97 162
61 97 161
61 97 161
62 97 157
62 98 161
63 99 171
61 97 163
62 98 167
61 97 157
62 98 163
62 98 162
62 98 167
62 99 171
62 98 164
62 98 170
62 98 164
62 98 171
62 98 166
63 99 176
61 97 162
62 98 169
62 98 171
62 98 166
62 99 173
62 98 167
62 99 175
62 98 171
62 99 178
61 98 166
62 99 173
62 99 168
62 99 172
62 99 174
62 99 172
62 99 171
61 98 171
63 99 172
63 99 173
62 98 172
62 99 172
63 99 172
62 99 173
61 98 170
61 98 174
61 98 171
62 99 171
63 99 176
62 99 173
62 99 175
63 100 177
62 99 175
62 99 175
62 99 176
62 98 170
62 99 173
62 98 175
62 98 170
62 98 169
63 99 176
62 99 172
62 99 175
63 99 169
62 99 171
62 99 172
62 99 172
61 98 169
62 99 176
62 99 173
62 99 172
63 99 172
62 99 176
62 99 170
62 99 175
62 99 176
62 98 168
62 99 172
62 99 167
62 99 169
63 99 168
62 99 171
62 99 171
62 99 170
62 98 166
63 99 174
62 99 174
62 99 171
61 98 171
63 99 174
62 98 167
61 97 162
62 98 169
62 98 164
62 99 172
62 98 164
62 99 173
62 99 168
63 99 176
62 99 170
61 98 167
63 99 171
62 98 166
62 99 173
62 98 167
62 98 168
62 99 167
63 99 170
62 98 165
61 97 160
62 99 171
62 98 169
62 98 165
62 98 167
63 99 170
62 98 167
63 99 166
61 97 162
61 98 165
62 99 170
61 97 159
63 99 167
63 98 160
62 98 167
62 97 158
63 99 170
62 98 162
62 98 168
61 98 164
62 98 163
62 98 164
62 97 159
62 98 164
61 96 154
61 96 151
60 95 143
62 98 166
61 96 153
61 96 154
60 95 150
58 91 134
56 85 122
44 63 76
39 51 44
39 50 33
39 50 30
41 53 35
39 50 32
40 52 33
44 58 40
45 58 41
43 56 37
45 58 35
48 62 42
47 62 43
48 63 49
48 63 42
50 66 52
50 65 46
55 68 41
68 79 43
84 93 43
102 106 41
109 112 42
119 121 35
134 134 29
139 139 20
144 142 14
151 148 0
149 147 0
153 150 0
150 148 0
151 150 0
154 151 0
154 151 0
154 151 0
154 151 0
152 150 0
154 151 0
154 151 0
156 153 0
153 150 0
154 152 0
150 149 0
154 152 0
154 152 0
154 152 0
154 151 0
154 152 0
155 152 0
156 153 0
153 151 0
155 152 0
155 152 0
154 152 0
155 152 0
155 153 0
155 152 0
156 153 0
153 151 0
154 151 0
156 153 0
154 152 0
155 152 0
153 151 0
156 153 0
155 152 0
155 151 0
154 152 0
154 151 0
155 152 0
153 150 0
156 153 0
153 151 0
155 152 0
153 151 0
152 150 0
156 153 0
154 151 0
154 151 0
155 152 0
156 152 0
156 152 0
153 151 0
156 152 0
153 150 0
153 150 0
153 150 0
154 151 0
155 152 0
154 150 0
155 151 0
152 147 0
155 152 0
154 152 0
156 155 0
156 156 0
158 162 0
161 167 0
162 168 0
163 172 0
161 172 0
167 182 0
169 187 0
170 189 0
171 193 0
170 192 0
170 191 0
170 190 0
171 191 0
171 194 0
172 191 0
172 192 0
170 191 0
173 194 0
172 193 0
170 191 0
170 190 0
172 193 0
170 192 0
172 191 0
171 191 0
172 192 0
174 196 0
172 193 0
172 193 0
174 195 0
172 193 0
172 193 0
171 192 0
173 195 0
172 194 0
172 194 0
174 196 0
173 195 0
170 192 0
173 196 0
173 194 0
173 194 0
173 195 0
174 196 0
174 196 0
174 196 0
174 196 0
173 195 0
174 196 0
175 197 0
173 195 0
170 193 0
172 194 0
172 194 0
174 196 0
173 197 0
171 195 0
173 196 0
173 197 0
172 195 0
170 194 0
173 197 0
172 195 0
175 198 0
173 197 0
174 197 0
172 195 0
171 194 0
173 197 0
174 197 0
173 197 0
174 197 0
173 196 0
172 195 0
170 194 0
171 195 0
174 197 0
175 198 0
172 195 0
171 194 0
173 196 0
173 196 0
172 195 0
170 194 0
174 197 0
172 195 0
171 194 0
171 195 0
172 195 0
170 194 0
175 197 0
170 194 0
173 196 0
170 193 0
171 195 0
172 195 0
173 196 0
173 196 0
171 195 0
172 196 0
171 194 0
171 195 0
171 195 0
170 194 0
174 197 0
168 191 0
170 193 0
170 193 0
171 194 0
170 193 0
170 194 0
172 196 0
169 193 0
170 193 0
168 192 0
169 193 0
168 192 0
170 193 0
171 194 0
169 192 0
171 195 0
170 192 0
172 195 0
169 193 0
172 196 0
168 191 0
169 194 0
171 194 0
169 193 0
170 193 0
168 191 0
170 194 0
170 193 0
169 192 0
169 192 0
170 193 0
173 196 0
172 195 0
170 193 0
164 187 0
170 193 0
168 193 0
171 195 0
171 194 0
173 196 0
169 193 0
170 194 0
168 191 0
173 196 0
171 194 0
170 193 0
167 190 0
169 193 0
166 190 0
172 193 0
167 192 0
167 190 0
168 192 0
167 190 0
168 190 0
170 193 0
167 190 0
166 190 18
143 168 82
98 126 137
62 98 158
61 97 153
61 97 158
62 98 163
62 98 164
62 98 162
62 98 156
62 98 159
62 98 166
62 98 161
61 98 165
62 99 170
62 98 163
62 98 163
61 97 165
62 99 170
62 99 171
62 98 168
62 99 170
63 99 172
62 98 171
62 98 168
62 99 170
62 98 163
62 99 170
62 98 169
63 99 169
63 99 174
62 98 166
62 99 172
62 99 169
62 99 171
62 99 173
61 98 171
62 98 169
62 99 175
63 99 175
62 98 173
62 99 174
62 99 174
62 99 174
62 99 174
62 99 176
62 98 170
62 99 173
62 99 173
62 99 171
62 99 172
62 98 172
61 98 171
62 99 174
62 99 169
62 98 171
62 99 173
62 98 170
62 99 174
62 99 172
63 100 176
62 99 175
62 99 174
62 98 169
62 99 172
61 98 170
61 98 170
62 99 171
61 98 167
63 99 174
62 99 169
62 98 170
61 98 172
62 98 171
62 99 174
62 99 171
62 98 165
62 99 173
62 99 169
61 98 173
63 99 175
62 98 169
62 98 167
62 98 168
62 99 169
62 99 171
62 99 176
62 99 171
63 100 176
61 98 164
62 98 174
62 99 172
63 99 172
62 99 174
62 99 173
63 99 173
62 99 173
61 98 166
62 99 170
62 98 169
61 98 166
62 99 174
62 98 168
62 99 168
62 99 171
62 98 161
63 99 167
63 99 164
63 99 169
62 99 173
62 99 170
62 98 167
62 98 165
63 100 172
62 99 166
63 99 166
63 99 170
63 99 174
61 98 163
62 98 165
62 99 164
62 98 162
63 99 166
61 98 165
61 98 164
62 98 160
60 96 162
62 98 165
62 97 156
62 98 163
62 98 165
62 98 163
61 97 159
61 96 157
62 97 164
61 96 155
62 97 162
62 97 159
61 96 151
63 98 164
62 96 156
61 94 145
55 83 126
47 67 88
40 55 52
37 47 29
37 47 29
36 46 29
38 50 31
40 53 31
43 56 40
43 55 39
43 55 41
45 59 42
45 58 38
49 65 53
49 65 53
48 62 42
48 63 41
51 66 47
62 75 49
73 83 46
87 95 45
100 105 40
108 112 35
124 126 25
122 124 28
136 136 21
143 143 14
150 147 0
151 148 0
149 147 0
154 151 0
150 148 0
151 148 0
152 150 0
151 148 0
153 150 0
154 151 0
156 153 0
154 152 0
154 151 0
153 151 0
154 151 0
154 152 0
154 151 0
153 150 0
153 149 0
156 153 0
156 153 0
154 151 0
152 150 0
156 152 0
156 153 0
154 151 0
155 153 0
154 151 0
152 150 0
153 151 0
153 151 0
154 151 0
154 152 0
156 153 0
155 153 0
155 152 0
155 152 0
156 152 0
155 152 0
155 152 0
155 152 0
155 152 0
154 151 0
155 152 0
156 152 0
155 152 0
156 152 0
154 151 0
152 148 0
153 151 0
153 151 0
156 152 0
155 151 0
155 152 0
153 151 0
152 149 0
157 153 0
153 150 0
153 150 0
154 151 0
155 151 0
154 151 0
155 151 0
155 151 0
153 149 0
155 150 0
155 155 0
156 155 0
158 162 0
157 159 0
162 172 0
163 174 0
165 178 0
165 178 0
168 185 0
169 186 0
170 190 0
170 189 0
171 191 0
171 193 0
172 192 0
172 194 0
173 195 0
171 192 0
172 193 0
172 194 0
173 193 0
173 195 0
172 195 0
172 192 0
171 193 0
174 195 0
173 193 0
172 193 0
172 192 0
170 191 0
173 194 0
171 192 0
172 194 0
172 195 0
172 195 0
172 194 0
173 195 0
172 194 0
174 197 0
174 196 0
174 196 0
171 192 0
171 193 0
173 195 0
172 196 0
172 195 0
172 193 0
172 193 0
174 197 0
173 195 0
174 195 0
173 195 0
173 195 0
173 196 0
173 194 0
172 194 0
172 195 0
173 196 0
170 194 0
170 194 0
171 194 0
170 194 0
173 197 0
173 197 0
174 197 0
173 197 0
172 195 0
174 197 0
170 193 0
173 197 0
175 198 0
174 197 0
172 195 0
173 196 0
169 193 0
176 198 0
172 195 0
173 197 0
170 194 0
173 196 0
172 195 0
172 195 0
172 194 0
172 196 0
174 197 0
172 195 0
173 196 0
170 193 0
170 194 0
172 195 0
170 194 0
174 197 0
172 195 0
172 195 0
171 194 0
169 193 0
173 196 0
172 195 0
171 193 0
171 195 0
172 195 0
173 196 0
173 196 0
172 195 0
170 193 0
171 194 0
173 196 0
170 194 0
170 194 0
173 196 0
174 196 0
174 197 0
170 194 0
173 196 0
172 196 0
168 192 0
174 197 0
170 194 0
171 195 0
172 195 0
169 192 0
172 195 0
171 194 0
171 194 0
174 197 0
172 195 0
171 194 0
174 196 0
169 193 0
170 194 0
173 195 25
170 193 0
169 193 0
172 195 25
172 194 0
168 191 0
171 195 0
170 194 0
172 195 0
169 192 0
167 190 0
165 189 0
167 191 0
170 192 0
171 194 0
171 194 0
172 196 0
168 192 0
173 196 0
167 191 0
166 189 0
167 191 0
167 191 0
167 189 0
165 188 0
170 194 0
170 193 0
167 191 0
171 194 0
168 191 0
170 194 0
171 193 0
170 193 0
170 193 0
167 191 0
166 190 0
138 162 97
85 114 130
62 98 159
61 97 153
62 98 164
60 96 160
62 99 166
62 97 156
61 98 162
63 99 167
61 98 164
62 98 164
62 98 161
63 99 168
61 98 162
62 99 171
61 97 163
61 98 169
63 99 172
62 98 164
62 98 165
61 98 173
62 98 168
62 98 168
62 98 166
62 99 172
62 99 175
62 98 166
63 99 172
62 99 172
61 97 166
62 98 173
62 99 175
62 99 172
62 99 173
61 97 169
62 98 170
62 98 167
62 99 174
62 99 170
61 98 167
62 99 171
63 99 175
62 99 175
62 99 170
62 98 169
62 98 169
62 99 173
62 99 175
62 98 168
62 99 172
62 98 169
62 98 173
62 99 171
61 98 165
62 99 174
62 99 171
61 98 174
63 100 176
62 98 171
63 100 174
62 99 176
63 99 175
62 99 169
63 99 176
62 99 173
63 99 176
62 99 168
62 99 173
63 99 173
62 99 170
62 99 173
62 99 168
62 99 172
62 98 166
62 98 174
63 100 175
63 99 174
62 99 174
62 98 165
63 99 174
62 99 174
62 98 171
63 99 169
62 99 173
62 98 169
62 99 173
62 99 172
63 100 175
62 99 174
63 99 170
62 99 172
62 98 170
62 98 172
63 99 170
62 99 168
61 98 166
62 99 174
62 99 169
62 98 167
62 98 167
62 98 166
62 98 165
62 99 170
63 99 167
63 99 171
62 98 162
63 99 168
62 98 165
61 97 164
62 98 164
62 98 164
62 98 162
62 98 171
61 97 164
62 99 169
62 99 168
62 98 170
62 99 166
62 98 163
62 98 167
61 97 161
62 98 164
62 98 165
62 98 162
62 97 154
62 98 166
62 98 159
61 97 159
61 97 156
62 97 158
63 99 165
61 97 161
62 97 156
61 97 157
62 98 160
61 96 154
61 96 159
62 96 158
60 94 148
60 94 143
55 85 132
47 70 94
37 49 39
38 49 30
37 48 32
38 49 29
40 50 28
40 51 32
43 56 39
44 58 36
45 59 40
45 58 38
47 60 43
46 61 43
46 61 44
48 64 45
50 65 40
66 76 43
70 80 45
76 84 40
89 95 40
113 115 31
113 115 33
128 128 26
128 128 24
135 135 22
149 147 8
145 144 0
151 148 0
148 146 0
145 144 0
148 146 0
146 145 0
152 149 0
150 147 0
154 152 0
152 149 0
153 150 0
154 151 0
151 149 0
154 151 0
150 149 0
151 148 0
155 152 0
154 151 0
153 150 0
152 150 0
155 152 0
152 150 0
153 150 0
151 149 0
155 152 0
154 152 0
155 152 0
153 150 0
154 151 0
155 152 0
152 150 0
154 151 0
155 152 0
153 150 0
155 151 0
153 151 0
153 151 0
152 150 0
154 152 0
154 150 0
154 151 0
155 152 0
155 152 0
155 152 0
155 152 0
156 153 0
154 151 0
155 151 0
156 153 0
153 150 0
154 151 0
154 151 0
154 151 0
153 150 0
151 149 0
154 149 0
153 150 0
154 152 0
154 151 0
153 150 0
151 148 0
153 150 0
151 148 0
154 150 0
152 149 0
154 153 0
154 155 0
158 158 0
160 164 0
158 164 0
160 166 0
164 172 0
164 174 0
166 179 0
167 180 0
169 186 0
172 192 0
172 190 0
170 189 0
169 189 0
172 192 0
170 190 0
172 192 0
171 190 0
168 188 0
172 193 0
171 191 0
169 189 0
172 193 0
171 193 0
172 192 0
171 191 0
173 195 0
171 191 0
171 193 0
171 193 0
172 192 0
173 194 0
172 194 0
171 193 0
172 193 0
173 194 0
172 193 0
172 194 0
173 194 0
174 197 0
171 191 0
170 191 0
174 197 0
173 193 0
173 196 0
173 195 0
173 194 0
173 194 0
171 194 0
173 195 0
172 193 0
171 193 0
175 197 0
172 195 0
172 194 0
171 193 0
173 196 0
173 196 0
176 198 0
175 198 0
176 198 0
173 196 0
173 196 0
173 197 0
173 197 0
172 196 0
172 195 0
174 197 0
175 198 0
173 196 0
171 195 0
171 195 0
172 195 0
173 197 0
175 198 0
173 196 0
173 196 0
171 196 0
173 196 0
175 198 0
175 198 0
173 196 0
173 197 0
172 196 0
171 195 0
173 196 0
171 194 0
172 195 0
170 194 0
173 197 0
172 195 0
170 194 0
172 195 0
173 197 0
171 195 0
172 195 0
168 193 0
173 197 0
170 193 0
174 197 0
171 194 0
170 194 0
170 194 0
173 197 0
170 194 0
170 193 0
170 193 0
170 193 0
171 195 0
174 197 0
169 193 0
172 195 0
170 193 0
173 196 0
169 193 25
171 195 0
171 195 25
173 196 36
167 191 0
173 196 0
172 195 0
171 194 25
169 192 0
168 192 36
171 193 25
171 195 25
173 196 0
173 196 25
171 195 0
173 195 36
168 191 25
171 193 25
172 196 36
171 196 25
168 191 25
172 195 25
168 192 0
170 193 36
167 189 0
172 194 51
163 187 0
165 188 0
166 189 0
170 193 0
170 193 0
171 194 0
166 189 0
172 195 0
165 190 0
167 190 0
171 194 0
167 191 0
169 192 0
164 188 0
168 191 0
170 193 0
167 190 0
166 189 0
170 193 0
164 187 0
170 194 0
169 192 0
168 191 0
168 192 0
168 191 0
169 192 36
140 164 94
65 100 151
61 96 150
62 98 160
62 98 159
62 98 160
61 97 160
62 98 166
62 98 162
61 98 163
62 98 168
62 98 166
62 98 163
62 98 164
62 98 166
62 99 165
63 99 170
61 97 158
62 98 168
62 98 167
61 98 165
61 98 164
62 98 166
62 98 166
62 98 171
62 98 163
61 98 168
61 97 168
63 100 173
62 98 175
62 99 171
63 99 170
63 99 173
62 98 174
62 98 165
61 98 169
63 99 176
62 98 169
62 99 172
61 98 169
62 99 172
62 99 170
62 99 175
62 98 166
62 99 174
62 98 170
62 98 171
62 99 173
63 99 175
62 98 175
62 99 175
61 98 165
61 98 169
63 99 174
61 98 168
62 99 173
62 98 171
62 99 171
63 99 172
62 99 170
62 98 167
63 99 168
63 99 173
63 99 171
63 99 171
61 98 170
62 99 175
62 99 168
63 99 174
62 98 168
61 98 168
62 99 174
62 98 172
63 99 175
61 97 166
62 98 168
62 98 170
63 99 168
63 100 176
62 98 173
63 99 173
62 98 168
62 99 173
62 99 173
61 98 164
62 99 169
62 98 170
62 99 172
62 99 174
62 99 173
62 98 168
62 98 165
62 98 162
62 99 172
62 98 170
62 98 167
62 98 164
62 99 172
62 98 167
62 98 167
61 98 163
62 99 170
63 99 172
63 99 170
62 99 172
61 98 163
61 97 163
62 98 163
61 98 164
61 97 159
62 99 168
62 98 163
63 99 167
62 98 162
62 98 168
62 98 160
62 98 168
62 99 169
62 98 163
62 98 162
63 99 171
61 97 163
63 99 170
62 97 159
62 98 165
62 98 162
63 98 166
61 97 156
61 96 155
62 98 164
63 99 167
61 97 152
61 97 161
61 97 160
61 96 154
61 96 155
60 95 148
62 97 163
61 95 153
61 94 151
61 95 150
56 86 129
45 66 93
41 56 49
39 49 29
38 48 26
37 47 26
42 54 34
42 55 34
44 57 40
44 57 35
42 54 30
44 58 41
47 62 42
45 60 44
52 66 44
51 64 45
57 69 38
58 71 44
73 82 39
88 93 33
100 103 39
95 100 32
122 123 27
120 122 27
127 127 19
134 134 14
146 144 0
142 141 0
146 145 0
146 145 0
145 144 0
148 146 0
150 148 0
149 147 0
150 148 0
149 147 0
151 148 0
152 150 0
154 151 0
151 149 0
150 148 0
153 150 0
154 151 0
152 149 0
149 147 0
155 152 0
153 150 0
152 149 0
153 150 0
152 150 0
153 150 0
152 149 0
152 150 0
154 152 0
151 147 0
156 152 0
152 150 0
155 151 0
151 149 0
154 152 0
152 149 0
155 152 0
155 153 0
152 149 0
154 152 0
156 152 0
151 149 0
151 148 0
153 151 0
154 151 0
154 151 0
153 151 0
156 152 0
154 151 0
154 151 0
155 152 0
152 150 0
155 152 0
153 151 0
156 152 0
153 151 0
156 153 0
155 150 0
154 151 0
154 150 0
156 152 0
152 149 0
153 150 0
154 150 0
153 150 0
154 151 0
155 152 0
156 155 0
157 157 0
159 162 0
161 168 0
162 169 0
163 174 0
166 177 0
166 177 0
170 187 0
169 185 0
171 190 0
168 188 0
169 190 0
172 192 0
170 189 0
171 191 0
172 190 0
172 193 0
170 189 0
171 190 0
172 193 0
171 191 0
172 193 0
172 193 0
172 192 0
173 195 0
172 194 0
171 192 0
172 194 0
171 193 0
171 192 0
172 194 0
176 197 0
173 193 0
171 192 0
172 194 0
170 191 0
173 194 0
173 194 0
173 194 0
174 195 0
171 193 0
173 196 0
174 195 0
173 195 0
173 192 0
171 192 0
173 197 0
173 196 0
171 194 0
173 195 0
171 193 0
173 196 0
172 193 0
174 196 0
175 196 0
174 196 0
173 196 0
173 195 0
172 196 0
170 193 0
173 197 0
173 196 0
172 196 0
172 196 0
172 195 0
173 196 0
171 195 0
173 196 0
173 197 0
174 197 0
174 197 0
174 197 0
175 198 0
171 194 0
173 196 0
172 196 0
171 193 0
171 194 0
174 196 0
172 194 0
174 197 0
172 195 0
172 196 0
172 195 0
172 195 0
174 198 0
172 196 0
171 195 0
171 195 0
173 196 0
172 196 0
170 194 0
173 196 0
171 195 0
167 191 0
173 197 0
172 196 0
171 194 0
173 196 0
172 195 0
174 196 0
170 194 0
171 195 0
173 196 0
169 193 0
170 193 0
171 194 0
171 194 0
172 195 0
171 194 25
173 195 0
169 191 0
169 193 0
173 196 25
171 194 25
168 192 25
171 194 25
172 195 25
168 191 0
168 192 25
171 195 44
171 194 36
172 195 25
171 194 36
173 195 25
170 193 51
169 193 25
174 197 44
170 194 44
168 191 25
172 195 36
172 196 25
173 196 36
171 195 36
173 196 57
174 196 51
171 195 0
172 195 0
173 195 51
169 192 44
171 194 44
169 192 36
170 193 51
167 189 36
170 193 25
172 195 0
170 193 0
165 188 0
170 195 25
168 191 25
172 194 0
173 196 0
169 193 0
166 190 0
170 193 0
167 190 0
169 193 0
170 193 0
169 192 0
167 190 0
165 188 0
166 189 0
166 188 0
169 191 0
165 189 0
161 184 47
125 150 103
68 102 150
61 97 155
62 98 159
62 98 162
61 97 157
61 97 155
62 98 156
62 98 161
62 98 165
61 97 155
61 97 158
62 98 168
62 98 164
61 96 157
62 98 161
62 99 171
62 98 167
62 99 170
61 98 166
62 98 168
62 98 170
62 99 168
62 99 166
61 98 170
62 98 170
62 99 170
63 99 167
62 99 174
61 98 169
62 98 169
62 99 171
61 98 164
63 99 171
62 99 173
62 98 172
61 98 169
62 99 169
62 99 178
62 99 170
62 99 174
61 98 169
62 99 170
62 98 172
62 98 169
62 98 167
63 99 171
62 99 173
62 99 175
63 99 178
62 99 170
62 99 169
62 99 174
62 98 168
62 99 174
62 98 175
62 98 170
62 99 168
63 100 176
62 99 168
62 98 168
63 99 177
62 99 170
62 99 171
62 99 173
62 98 173
61 98 169
63 99 174
62 99 176
62 99 173
62 99 170
62 98 168
62 99 172
63 99 172
62 99 171
62 98 168
62 98 166
61 98 165
62 99 171
62 99 172
62 99 171
61 98 172
63 99 174
63 99 173
62 99 173
62 99 173
62 99 173
62 98 164
62 98 169
63 100 175
62 98 168
63 99 172
62 98 170
62 99 169
62 99 168
62 99 167
63 99 173
62 98 165
61 98 167
62 98 168
62 99 173
62 98 168
62 99 173
62 99 171
62 98 168
62 98 165
62 98 165
61 98 166
62 99 168
62 99 166
62 99 168
62 98 167
62 98 164
62 98 160
62 98 162
62 99 169
62 98 163
62 98 162
61 98 164
63 99 163
62 98 165
61 97 156
62 98 164
61 98 164
62 98 163
61 97 163
62 98 161
62 98 159
61 97 161
62 98 159
62 98 161
61 97 153
62 97 157
61 97 162
62 97 156
61 96 147
62 97 157
61 96 151
61 96 156
59 93 143
60 93 144
58 88 133
52 77 103
47 64 79
36 46 29
35 45 22
37 49 24
39 51 33
41 53 33
42 53 33
41 54 35
46 61 40
44 57 33
44 58 38
46 61 41
48 62 40
58 70 41
68 78 44
64 76 43
74 83 33
89 95 39
104 106 25
106 110 38
116 118 23
115 117 26
135 136 12
138 137 0
148 145 0
140 138 0
143 142 0
150 148 0
146 144 0
144 142 0
151 149 0
148 147 0
152 149 0
152 149 0
151 150 0
153 150 0
149 147 0
149 147 0
152 150 0
152 150 0
150 147 0
151 149 0
153 150 0
153 151 0
150 147 0
150 148 0
151 150 0
152 150 0
151 149 0
151 149 0
152 149 0
154 151 0
155 151 0
152 151 0
152 150 0
154 152 0
156 152 0
155 152 0
154 151 0
155 151 0
154 151 0
153 151 0
153 150 0
154 151 0
155 152 0
154 152 0
151 149 0
154 151 0
153 150 0
154 151 0
154 151 0
151 148 0
151 150 0
154 152 0
153 150 0
153 150 0
152 149 0
153 150 0
155 152 0
152 150 0
153 150 0
155 151 0
153 148 0
154 150 0
152 148 0
152 148 0
152 147 0
152 148 0
154 150 0
155 153 0
156 155 0
153 153 0
159 161 0
159 163 0
163 169 0
163 173 0
166 177 0
167 181 0
168 184 0
167 183 0
167 185 0
169 189 0
172 190 0
170 189 0
168 186 0
171 189 0
170 189 0
171 191 0
171 192 0
171 193 0
170 191 0
170 191 0
172 192 0
173 194 0
172 193 0
171 192 0
173 195 0
172 192 0
172 193 0
171 191 0
171 192 0
171 192 0
173 195 0
171 194 0
171 192 0
173 195 0
171 192 0
171 191 0
172 192 0
173 196 0
173 193 0
175 195 0
173 195 0
174 197 0
173 195 0
173 194 0
174 196 0
171 192 0
171 195 0
174 195 0
175 196 0
173 195 0
173 196 0
173 194 0
173 196 0
172 194 0
173 195 0
171 194 0
172 193 0
175 198 0
171 195 0
174 197 0
173 197 0
172 196 0
173 197 0
175 198 0
172 195 0
173 195 0
173 197 0
174 197 0
173 197 0
174 197 0
172 195 0
175 198 0
173 196 0
174 197 0
173 197 0
170 194 0
171 195 0
171 194 0
173 196 0
174 197 0
171 194 0
171 195 0
172 195 0
170 194 0
171 193 0
170 194 0
170 194 0
171 196 0
173 197 0
172 195 0
173 196 0
172 196 0
172 196 0
172 195 0
168 192 0
170 194 0
171 194 0
172 195 0
173 196 0
171 195 0
175 198 0
172 195 0
175 198 0
170 193 0
173 197 0
170 194 0
173 197 25
169 192 25
168 192 25
173 195 51
174 196 51
171 194 0
173 197 36
175 198 62
170 193 0
165 188 44
173 195 44
173 196 44
172 195 25
170 193 36
173 196 36
175 197 76
174 196 25
173 196 36
171 195 36
171 194 36
172 196 36
170 194 25
174 198 57
170 194 44
173 196 51
171 194 0
172 194 36
172 194 44
174 196 51
171 194 25
172 195 51
174 197 51
169 192 36
171 193 36
168 191 36
169 192 25
167 190 0
169 192 25
173 196 25
169 192 25
169 193 25
168 192 0
172 195 44
170 193 25
166 190 36
165 188 0
166 189 25
169 193 0
169 192 0
172 194 0
165 187 0
172 194 0
169 191 0
169 193 0
168 191 0
172 195 0
167 191 0
168 191 0
150 174 57
123 149 111
64 99 153
61 97 154
61 97 155
62 98 163
61 97 162
62 98 162
62 99 166
61 98 160
62 98 168
61 97 157
62 98 163
62 98 166
62 99 167
61 97 164
62 98 165
61 97 161
62 99 163
62 98 171
62 99 171
62 99 166
61 97 164
62 99 171
61 97 164
61 97 163
62 99 172
61 97 161
61 98 170
61 98 168
62 99 172
61 98 163
62 98 167
61 98 170
62 99 168
63 99 173
60 97 169
63 99 173
62 99 175
61 97 168
62 99 169
63 100 177
62 98 169
62 99 173
62 99 170
62 98 166
61 98 167
62 98 168
62 99 171
61 98 167
62 98 168
61 98 163
63 99 175
62 99 171
61 98 169
61 98 165
62 99 176
61 98 170
62 98 166
62 98 171
62 99 171
62 98 172
62 99 167
62 98 170
62 98 173
63 99 172
62 99 170
62 98 168
62 98 164
62 98 167
63 100 174
62 98 168
62 98 171
62 99 172
62 99 172
62 98 167
61 98 169
62 99 169
62 98 165
62 98 167
61 98 167
61 98 166
62 99 171
62 99 170
62 99 172
62 98 168
62 99 172
62 99 171
61 98 168
63 99 171
62 99 171
61 98 163
63 99 170
62 99 174
62 99 172
63 99 171
63 99 173
62 99 172
63 99 167
62 99 172
61 98 164
62 98 165
62 98 163
62 98 166
62 98 167
62 99 170
62 98 163
62 99 168
62 98 162
62 99 168
62 98 165
62 98 165
63 99 167
62 98 166
62 98 162
62 98 162
63 99 165
62 98 165
62 99 167
62 99 166
62 98 155
62 98 162
62 98 165
62 98 161
61 97 158
61 97 156
61 97 156
63 99 167
61 97 156
62 98 161
61 97 158
61 97 157
62 98 160
63 98 160
62 97 157
61 96 150
60 95 151
61 97 155
60 95 152
61 97 156
60 94 151
61 96 154
58 90 134
55 80 110
47 60 59
43 52 32
46 55 26
39 51 29
40 51 28
41 53 29
45 58 35
42 54 33
45 59 37
44 57 38
46 59 33
48 62 36
54 66 36
59 70 40
80 86 35
70 78 37
85 90 34
98 102 36
102 105 25
108 109 24
115 116 19
126 126 25
132 132 12
137 136 0
140 139 0
145 142 0
140 138 0
144 142 0
143 142 0
147 145 0
147 145 0
146 144 0
147 145 0
150 147 0
144 143 0
152 150 0
147 146 0
149 147 0
148 147 0
150 148 0
150 148 0
153 151 0
151 149 0
152 150 0
154 151 0
150 148 0
154 150 0
149 147 0
151 149 0
154 151 0
151 149 0
152 150 0
151 149 0
154 150 0
151 149 0
154 151 0
152 149 0
152 149 0
151 148 0
151 148 0
153 150 0
153 150 0
151 150 0
154 150 0
152 150 0
153 150 0
154 151 0
153 149 0
152 150 0
154 151 0
153 150 0
152 150 0
151 149 0
152 148 0
151 149 0
153 151 0
150 146 0
152 148 0
155 151 0
151 148 0
152 150 0
154 149 0
151 148 0
152 149 0
153 149 0
156 152 0
154 151 0
152 146 0
154 152 0
154 153 0
157 156 0
159 163 0
161 165 0
159 164 0
162 171 0
163 175 0
164 177 0
165 179 0
166 181 0
172 190 0
170 189 0
170 191 0
172 192 0
173 194 0
171 192 0
173 193 0
170 190 0
172 193 0
169 186 0
171 192 0
170 189 0
170 190 0
172 193 0
172 192 0
173 194 0
171 192 0
170 188 0
171 191 0
171 191 0
172 194 0
174 196 0
171 193 0
174 194 0
170 190 0
171 192 0
172 194 0
174 194 0
174 194 0
173 193 0
171 192 0
172 193 0
172 194 0
173 194 0
171 192 0
170 193 0
171 192 0
174 196 0
173 195 0
171 192 0
172 193 0
173 195 0
172 194 0
174 194 0
172 195 0
174 195 0
172 193 0
174 197 0
173 195 0
174 196 0
172 196 0
173 196 0
174 198 0
173 196 0
174 197 0
173 196 0
174 196 0
172 195 0
173 196 0
173 196 0
171 194 0
173 197 0
172 196 0
171 194 0
172 196 0
174 197 0
173 197 0
172 195 0
173 196 0
173 196 0
173 197 0
172 195 0
173 197 0
171 194 0
171 195 0
171 194 0
170 194 0
174 197 0
172 196 0
170 193 0
173 196 0
170 195 0
174 196 0
172 195 0
172 195 0
169 192 0
172 195 0
169 193 0
172 194 0
173 196 0
171 195 0
171 194 0
173 197 0
173 196 0
172 195 0
172 196 0
172 195 0
173 196 25
174 197 44
171 195 36
174 197 36
173 196 44
174 197 44
172 195 25
174 197 57
172 195 51
170 192 44
173 196 36
172 195 36
172 196 25
173 196 44
173 196 62
175 197 51
173 195 44
172 195 51
171 194 44
175 198 44
174 196 72
174 196 57
172 195 44
172 195 51
173 195 51
172 194 76
173 196 62
171 195 36
168 191 36
170 193 57
172 195 57
173 196 57
170 193 25
174 197 62
170 193 51
172 195 62
168 191 44
170 194 36
173 196 25
171 193 25
167 190 25
168 192 0
166 189 36
168 191 36
168 191 36
168 191 25
173 196 44
167 191 0
165 188 0
172 195 25
167 190 36
166 189 0
169 193 0
170 192 0
169 192 0
168 191 0
163 187 0
168 191 0
166 189 0
169 192 0
153 177 72
120 146 118
61 97 150
62 98 166
62 97 150
61 97 154
61 97 163
62 98 161
60 97 156
62 98 157
61 97 157
61 97 161
61 97 163
63 99 166
62 99 164
62 98 162
61 97 162
62 99 168
61 97 160
62 98 166
61 97 162
62 98 166
62 98 166
61 98 162
61 97 164
62 99 169
62 99 172
62 99 174
62 98 165
62 99 169
62 99 172
62 99 173
62 99 172
62 99 171
62 98 168
62 98 166
62 98 169
62 98 169
62 98 172
63 99 174
63 99 172
62 99 170
62 98 172
61 98 168
62 99 170
61 98 167
62 98 168
62 98 167
61 98 167
62 99 172
62 98 170
62 98 169
62 98 171
62 98 166
62 99 171
62 99 175
63 100 176
62 99 168
62 98 169
62 98 169
63 99 172
62 99 174
62 99 170
62 99 175
63 99 172
61 98 167
62 99 173
62 99 174
62 99 169
63 99 172
61 98 166
62 99 171
62 99 167
62 98 162
62 99 167
62 99 169
63 99 169
63 99 170
62 98 169
63 99 174
61 97 163
61 98 164
62 99 171
62 98 170
61 98 166
62 98 169
61 98 168
61 98 163
61 98 164
62 99 173
62 98 164
61 98 165
62 98 169
62 99 171
62 98 166
62 98 167
62 99 167
62 98 164
62 98 163
62 99 168
62 98 163
62 99 167
62 98 170
62 98 164
63 99 172
62 98 167
62 98 164
62 98 165
63 99 162
62 98 166
62 99 168
62 98 165
61 97 160
62 98 160
62 98 163
62 98 165
63 99 167
62 99 166
61 98 162
63 99 166
62 98 163
62 98 165
61 97 155
63 98 163
62 97 159
62 98 164
62 97 159
62 98 162
61 97 159
61 97 157
62 97 157
61 97 154
61 97 159
61 97 160
62 98 159
61 95 146
61 95 143
62 97 158
61 95 152
61 96 147
61 95 147
62 96 150
57 89 134
55 80 117
47 66 82
60 66 28
49 56 21
42 53 28
45 55 26
47 57 32
46 55 31
45 57 30
54 64 37
46 59 35
61 69 29
58 66 29
62 72 38
64 74 36
80 87 32
82 87 29
90 95 24
98 100 29
105 107 23
116 118 22
121 122 25
125 124 0
137 135 0
139 138 0
140 138 0
142 140 0
142 140 0
137 136 0
146 144 0
145 143 0
143 141 0
147 146 0
145 143 0
143 142 0
147 145 0
149 146 0
146 143 0
148 147 0
151 149 0
149 146 0
148 145 0
148 145 0
151 148 0
148 145 0
148 145 0
147 145 0
149 148 0
149 147 0
151 148 0
153 150 0
152 149 0
151 148 0
152 150 0
151 149 0
151 149 0
156 152 0
154 150 0
151 149 0
153 150 0
153 150 0
151 149 0
150 147 0
151 148 0
152 149 0
154 151 0
154 151 0
151 149 0
153 149 0
152 149 0
152 149 0
154 151 0
154 149 0
152 149 0
154 150 0
153 149 0
154 150 0
155 152 0
154 149 0
151 148 0
152 149 0
155 149 0
154 149 0
154 149 0
149 146 0
155 151 0
152 148 0
154 150 0
154 150 0
153 151 0
158 160 0
158 159 0
159 165 0
161 167 0
163 171 0
163 172 0
167 181 0
168 181 0
168 184 0
170 189 0
169 188 0
169 188 0
171 191 0
167 184 0
170 190 0
173 192 0
170 190 0
173 193 0
172 192 0
173 192 0
170 191 0
172 192 0
171 189 0
171 190 0
173 195 0
171 193 0
171 192 0
170 188 0
172 192 0
171 191 0
171 191 0
171 191 0
173 193 0
171 192 0
170 191 0
173 193 0
174 195 0
172 192 0
172 194 0
173 192 0
171 194 0
173 193 0
171 193 0
171 195 0
172 193 0
172 194 0
173 195 0
172 193 0
172 194 0
171 193 0
173 194 0
172 195 0
173 195 0
173 194 0
174 196 0
172 195 0
172 193 0
172 194 0
172 194 0
173 195 0
171 195 0
172 195 0
171 195 0
174 197 0
172 195 0
171 195 0
173 196 0
174 198 0
174 197 0
174 197 0
172 195 0
174 197 0
172 195 0
172 196 0
172 195 0
173 196 0
172 195 0
172 195 0
172 195 0
170 194 0
174 197 0
173 196 0
171 194 0
171 194 0
171 195 0
171 195 0
175 197 0
173 195 0
172 195 0
170 194 0
171 194 0
174 197 0
171 195 0
172 195 0
169 193 0
171 195 0
169 192 0
171 195 0
171 194 0
171 194 0
174 197 0
174 197 25
169 192 0
171 193 0
173 196 25
169 192 0
172 195 25
175 198 51
175 198 57
174 196 44
173 196 36
171 195 25
172 195 51
175 198 76
173 196 62
172 195 51
172 195 51
174 197 44
173 196 57
174 197 62
174 197 67
173 197 62
172 194 62
174 197 67
174 197 62
170 193 51
175 198 57
175 197 57
171 195 51
173 196 57
174 197 51
173 195 57
177 200 67
173 197 62
172 196 44
171 194 36
170 193 51
171 195 36
172 195 57
173 196 62
175 197 67
174 196 57
172 196 51
175 198 57
176 197 72
175 197 84
172 194 72
170 193 62
171 193 36
175 198 67
171 194 51
165 188 44
172 195 25
174 197 44
174 196 51
170 194 51
169 192 25
165 188 25
167 190 36
168 191 25
172 195 25
166 189 0
169 191 25
170 193 0
169 193 0
167 189 0
167 191 0
155 179 57
99 126 118
63 98 150
60 96 145
61 97 156
61 96 150
61 97 159
61 97 155
62 98 156
61 97 164
61 97 158
62 98 161
61 96 148
62 98 161
61 97 156
61 98 163
61 97 159
61 98 160
62 98 168
63 100 173
61 98 162
62 99 171
60 97 162
62 98 168
62 99 166
61 97 159
62 98 166
62 98 170
62 99 171
62 98 169
62 99 170
62 98 164
62 99 168
62 97 162
61 98 166
62 99 170
61 98 167
62 98 169
62 99 169
63 99 172
61 98 167
62 98 165
63 99 173
62 98 170
61 98 168
62 99 169
61 97 164
63 99 176
62 98 170
63 99 178
62 98 167
63 99 172
61 98 170
63 99 172
62 98 166
62 98 174
62 98 166
61 98 168
61 98 173
62 99 171
62 98 167
62 98 170
62 98 164
62 99 169
62 98 171
63 100 177
62 99 175
63 99 175
62 98 164
62 98 169
62 99 170
62 98 171
62 98 164
62 98 169
62 99 170
63 100 176
63 99 170
61 98 163
62 99 170
62 99 169
62 99 167
62 99 175
62 99 170
61 98 166
62 98 168
62 99 169
62 99 168
61 98 167
63 99 169
61 98 167
62 98 169
62 99 168
62 98 168
62 99 166
62 99 170
62 98 165
62 98 165
63 99 168
63 100 173
62 98 167
62 98 170
62 98 167
62 99 170
62 98 167
62 99 168
62 98 165
61 98 160
62 98 165
61 98 160
62 98 167
62 98 164
61 98 163
62 98 162
63 99 165
62 98 156
62 98 166
62 99 172
62 98 162
61 97 162
61 97 162
62 98 166
62 97 156
62 98 168
62 97 156
61 98 160
62 98 158
62 98 163
62 98 162
63 98 162
62 97 155
62 98 161
62 98 159
62 97 156
61 96 156
61 97 157
62 97 158
60 96 152
61 95 152
61 97 160
61 96 154
60 94 142
60 94 143
60 93 151
58 82 109
54 69 71
59 65 43
55 62 27
54 61 28
52 62 31
50 58 31
54 62 30
49 59 28
51 61 30
62 70 32
51 62 28
67 74 31
71 78 35
77 83 34
78 84 28
75 81 30
93 96 26
106 106 17
112 113 28
110 112 21
122 122 14
127 126 8
130 130 0
134 134 0
136 135 0
143 142 0
133 132 0
138 136 0
137 136 0
137 136 0
140 138 0
142 140 0
147 145 0
148 145 0
148 145 0
143 142 0
149 146 0
144 142 0
149 146 0
147 145 0
150 148 0
146 144 0
150 148 0
150 148 0
146 144 0
152 149 0
152 150 0
147 146 0
152 149 0
149 147 0
150 148 0
147 144 0
151 148 0
150 148 0
153 149 0
149 146 0
154 151 0
151 148 0
152 149 0
155 152 0
153 151 0
151 149 0
153 150 0
150 147 0
153 150 0
150 146 0
153 149 0
153 150 0
154 151 0
149 146 0
148 146 0
156 152 0
151 148 0
154 151 0
151 149 0
156 151 0
153 149 0
153 148 0
153 150 0
153 149 0
152 147 0
152 148 0
153 150 0
154 150 0
151 145 0
150 146 0
151 147 0
154 151 0
157 155 0
158 159 0
159 164 0
160 163 0
161 168 0
165 176 0
163 174 0
165 177 0
166 180 0
165 181 0
172 190 0
171 190 0
172 194 0
169 189 0
171 191 0
170 192 0
169 190 0
171 192 0
171 190 0
173 191 0
170 190 0
171 190 0
173 192 0
172 192 0
172 193 0
172 192 0
170 188 0
171 191 0
170 191 0
171 193 0
167 187 0
172 193 0
173 195 0
172 194 0
172 192 0
174 194 0
173 195 0
171 193 0
172 192 0
171 191 0
171 191 0
173 194 0
173 194 0
174 195 0
173 195 0
173 194 0
172 194 0
173 194 0
172 193 0
171 194 0
171 191 0
173 193 0
173 195 0
174 195 0
171 194 0
173 195 0
172 193 0
173 195 0
174 197 0
173 196 0
173 195 0
172 195 0
171 194 0
172 196 0
168 192 0
173 196 0
171 195 0
174 198 0
173 195 0
173 196 0
174 196 0
171 195 0
174 197 0
174 197 0
172 196 0
173 196 0
172 196 0
171 194 0
171 195 0
171 195 0
174 197 0
171 195 0
174 197 0
171 195 0
171 195 0
171 195 0
171 194 0
172 195 0
172 195 0
173 196 0
169 193 0
171 195 0
175 198 0
173 196 0
168 191 0
172 195 0
172 195 0
171 194 0
174 197 0
172 196 0
172 196 0
173 197 25
170 194 36
173 196 51
176 199 36
171 194 25
173 195 44
172 196 44
172 195 25
174 197 44
170 193 36
171 194 36
172 195 51
174 197 36
170 193 44
172 195 36
173 195 57
172 194 51
174 197 36
169 192 36
175 197 72
173 196 51
171 194 36
177 199 80
173 196 62
174 197 57
172 195 72
177 200 67
175 198 67
174 196 67
174 197 51
174 196 80
171 195 57
178 199 92
172 195 62
170 193 57
175 197 76
170 193 72
178 200 92
175 197 51
172 195 72
171 194 62
170 192 44
170 193 36
174 197 72
173 196 62
173 195 67
173 194 72
172 195 57
174 196 67
174 197 44
173 196 57
165 188 51
171 195 57
172 194 57
168 191 51
168 190 57
171 193 67
168 191 25
167 191 0
169 192 44
171 193 51
170 193 0
169 191 36
171 193 36
167 190 25
166 190 25
161 185 25
144 168 80
109 136 118
63 98 151
61 97 154
61 97 157
60 96 157
62 98 157
62 98 163
61 96 157
61 97 159
60 97 157
61 97 159
62 98 162
61 97 161
61 97 165
62 98 165
62 98 166
61 98 165
62 98 167
61 96 155
62 98 169
62 98 169
62 98 170
62 98 170
62 99 174
61 98 163
62 99 172
62 98 161
62 99 171
62 99 167
62 99 170
62 99 173
62 98 173
62 98 170
62 98 171
62 99 173
62 98 170
61 98 166
61 98 171
61 98 174
62 98 171
61 98 163
62 98 171
62 99 170
62 99 174
62 99 174
61 98 170
61 97 168
61 98 165
62 98 166
62 98 172
62 98 168
63 99 167
62 99 169
62 98 172
61 98 169
62 98 174
62 99 170
62 98 164
61 98 168
63 99 171
61 98 166
62 99 173
62 99 170
62 98 170
62 98 167
62 98 169
62 98 165
62 98 170
62 99 172
62 98 165
62 99 169
63 99 174
61 98 167
63 99 172
63 99 168
62 99 173
62 99 170
61 97 164
62 98 166
62 99 170
63 99 170
62 98 168
62 99 169
63 99 173
62 99 171
63 99 174
61 98 161
62 98 168
63 100 172
62 98 167
61 97 163
62 99 170
62 99 170
62 98 163
61 98 165
62 98 167
61 97 161
62 98 165
62 98 162
62 98 160
62 98 158
62 99 172
63 99 167
63 99 167
62 98 163
62 98 165
62 98 165
62 98 159
62 98 163
62 98 163
62 98 164
63 99 168
62 98 159
62 98 167
62 97 156
62 98 163
62 98 165
61 98 160
62 98 162
62 98 165
62 98 162
62 98 162
62 98 164
61 97 157
61 97 158
61 97 151
62 98 162
62 98 156
61 97 156
61 97 159
62 98 159
61 97 150
62 98 167
62 98 163
62 98 162
61 96 154
62 96 151
61 95 148
62 97 152
59 93 140
60 93 145
59 92 136
55 83 119
60 73 80
56 64 46
60 65 24
54 61 22
66 71 22
62 65 24
61 68 28
61 67 26
65 70 25
58 66 33
66 70 20
59 67 28
58 69 38
77 82 24
83 87 26
75 80 28
98 100 31
101 102 19
117 116 18
120 119 16
124 123 8
131 130 0
129 128 0
132 132 0
140 137 0
130 129 0
136 134 0
141 139 0
146 143 0
141 139 0
141 139 0
141 140 0
144 142 0
144 141 0
145 143 0
147 144 0
147 146 0
144 142 0
145 142 0
149 147 0
146 144 0
146 144 0
150 148 0
149 147 0
151 148 0
151 148 0
151 148 0
151 147 0
150 149 0
147 146 0
153 150 0
149 147 0
151 148 0
151 149 0
151 149 0
151 148 0
151 148 0
151 148 0
150 147 0
152 149 0
150 146 0
152 150 0
151 148 0
152 149 0
151 149 0
153 149 0
151 149 0
154 151 0
153 149 0
151 148 0
153 150 0
153 149 0
155 150 0
150 147 0
152 149 0
150 147 0
151 148 0
153 149 0
153 149 0
153 150 0
153 149 0
152 148 0
154 149 0
152 147 0
154 149 0
153 148 0
155 152 0
155 154 0
157 160 0
158 159 0
159 165 0
163 171 0
161 171 0
162 172 0
164 177 0
168 178 0
168 183 0
168 185 0
171 188 0
171 189 0
170 191 0
168 186 0
170 190 0
171 189 0
169 189 0
171 190 0
167 187 0
170 189 0
172 192 0
170 189 0
171 191 0
170 189 0
170 190 0
172 192 0
170 191 0
171 191 0
171 193 0
171 190 0
171 193 0
171 192 0
171 192 0
170 190 0
174 195 0
169 192 0
171 194 0
174 195 0
171 192 0
170 191 0
173 194 0
171 191 0
173 194 0
172 194 0
173 194 0
173 195 0
172 192 0
170 192 0
173 194 0
174 195 0
172 192 0
171 194 0
174 195 0
173 195 0
171 193 0
173 194 0
171 193 0
171 191 0
171 195 0
172 194 0
173 196 0
173 196 0
172 196 0
174 198 0
171 195 0
172 196 0
173 197 0
172 196 0
175 198 0
174 197 0
174 198 0
172 195 0
172 196 0
171 195 0
171 194 0
173 196 0
175 198 0
174 197 0
174 197 0
174 197 0
172 194 0
172 196 0
173 196 0
174 198 0
174 197 0
170 194 0
171 195 0
172 195 0
170 193 0
171 195 0
171 195 0
173 197 0
169 192 0
171 194 0
170 193 0
170 193 0
170 194 0
174 197 36
173 196 36
171 194 25
172 195 0
176 199 44
173 196 44
174 197 36
172 194 51
173 195 67
171 195 51
176 199 51
171 194 36
174 197 57
174 197 62
172 194 62
177 199 51
174 197 57
171 195 44
173 196 57
178 201 80
174 196 67
176 198 67
173 195 76
174 197 76
172 194 76
174 197 67
178 199 76
173 195 67
181 202 102
177 199 80
172 195 67
175 197 92
177 199 88
177 199 92
174 196 76
179 201 88
176 200 84
176 198 92
176 198 84
174 197 80
171 194 57
174 195 92
173 195 76
175 197 84
178 199 92
174 197 67
172 195 72
176 197 88
174 197 76
175 197 84
175 196 88
172 194 67
174 195 80
173 195 76
174 196 57
174 197 67
172 194 67
169 192 51
176 199 67
168 190 57
169 191 51
172 194 25
170 191 57
168 190 57
167 191 51
171 194 62
167 190 25
171 193 57
169 192 25
171 193 36
164 187 36
146 170 80
90 119 130
68 101 141
61 97 157
64 99 151
63 98 159
62 98 162
61 97 154
61 97 161
62 98 160
61 97 159
61 97 156
61 96 156
60 96 158
61 97 163
61 98 165
61 97 157
61 98 166
62 98 169
62 98 166
62 98 161
61 97 163
62 98 163
61 97 162
62 98 170
61 97 158
61 98 165
62 98 168
61 98 168
61 98 162
61 98 166
62 98 169
63 99 176
62 99 172
62 99 168
62 98 167
62 98 169
62 99 170
61 97 165
62 98 168
62 99 171
61 98 169
62 99 169
62 98 166
62 99 172
63 99 171
62 98 165
62 98 167
62 99 171
62 99 170
61 98 161
61 98 166
62 98 165
61 98 170
61 98 164
61 98 169
61 98 165
62 98 165
63 99 167
63 100 172
62 98 169
63 99 168
62 98 170
62 99 173
62 98 167
62 99 168
63 99 171
62 99 168
62 98 168
63 99 165
63 99 168
62 99 169
63 99 172
62 98 173
62 99 171
62 99 170
61 98 165
62 99 171
61 98 162
62 99 171
61 98 165
61 98 169
62 99 172
62 98 166
62 98 168
63 99 171
63 99 167
62 98 168
62 98 162
62 98 160
62 98 168
63 99 169
62 98 167
62 98 164
62 98 168
62 98 162
62 99 168
62 98 165
62 99 167
62 98 164
62 98 163
62 98 168
62 99 163
62 98 164
62 98 165
62 98 160
62 98 162
62 98 167
61 97 160
63 99 165
62 98 161
63 99 167
61 97 162
62 98 160
62 98 162
62 98 165
62 98 159
62 99 164
62 98 164
62 98 159
61 97 158
62 98 166
62 98 159
62 98 158
62 98 165
62 97 153
61 97 153
62 98 159
60 96 149
61 96 155
61 96 154
60 95 152
61 96 153
61 96 146
61 95 144
61 96 148
62 97 156
62 97 154
61 96 146
61 96 150
61 96 151
60 95 151
60 94 143
61 85 115
70 82 85
76 80 46
66 68 20
63 66 21
67 70 27
59 63 23
66 71 26
64 68 25
69 74 28
64 69 28
69 74 24
74 79 26
71 74 22
87 90 22
90 92 22
97 99 16
103 104 23
100 102 20
101 103 16
121 121 8
121 120 12
128 127 0
135 133 0
134 133 0
128 127 0
133 132 0
142 141 0
136 134 0
131 130 0
137 135 0
144 141 0
137 136 0
142 139 0
142 141 0
143 141 0
147 145 0
141 141 0
150 147 0
145 144 0
148 145 0
148 145 0
145 144 0
147 144 0
150 146 0
148 146 0
146 144 0
153 150 0
149 147 0
150 147 0
149 146 0
153 150 0
149 146 0
151 148 0
149 146 0
153 150 0
151 147 0
149 146 0
153 149 0
148 146 0
151 149 0
153 150 0
153 149 0
149 146 0
150 147 0
152 148 0
152 149 0
151 147 0
153 149 0
152 149 0
152 148 0
150 147 0
154 150 0
153 149 0
151 148 0
151 146 0
152 149 0
151 147 0
151 148 0
152 148 0
151 148 0
151 146 0
151 145 0
153 149 0
152 148 0
154 149 0
154 149 0
153 151 0
154 152 0
157 159 0
158 161 0
159 163 0
162 169 0
164 172 0
164 172 0
164 176 0
168 182 0
165 181 0
171 191 0
170 189 0
171 190 0
168 186 0
173 193 0
172 192 0
168 188 0
169 189 0
171 191 0
171 190 0
170 190 0
171 191 0
170 190 0
171 190 0
170 188 0
171 191 0
171 192 0
171 190 0
171 192 0
171 190 0
172 191 0
171 190 0
173 194 0
172 192 0
171 192 0
173 192 0
171 191 0
173 192 0
171 192 0
172 194 0
171 192 0
174 197 0
171 193 0
171 192 0
173 194 0
173 194 0
171 192 0
171 193 0
175 195 0
171 192 0
173 195 0
172 194 0
172 193 0
172 194 0
171 193 0
170 191 0
173 193 0
174 197 0
171 193 0
173 195 0
173 197 0
171 193 0
173 195 0
173 196 0
171 194 0
174 197 0
173 196 0
174 197 0
174 198 0
172 195 0
171 196 0
173 197 0
173 196 0
171 195 0
174 197 0
171 195 0
172 194 0
173 196 0
173 196 0
173 196 0
174 197 0
172 195 0
169 193 0
172 196 0
174 197 0
172 196 0
170 193 0
171 196 0
173 197 0
174 197 0
171 195 0
170 194 0
172 194 0
173 197 0
167 190 25
172 196 0
170 193 0
171 195 0
171 194 36
171 194 36
174 198 44
171 194 51
173 197 25
175 197 62
174 196 44
173 195 57
175 198 57
173 196 51
175 197 72
174 196 44
174 198 62
178 200 80
176 199 62
175 197 57
171 195 62
176 198 67
174 198 67
176 199 72
174 195 76
176 199 80
178 199 76
173 196 72
178 200 92
180 202 95
176 198 88
179 200 88
178 200 99
179 201 76
175 197 80
180 202 99
179 201 84
179 201 99
176 198 95
181 203 114
179 200 99
181 202 111
179 201 102
179 201 102
179 201 92
181 201 105
178 200 95
181 203 117
183 204 114
174 196 88
178 199 99
176 199 80
174 196 80
178 199 92
173 196 84
174 195 84
178 199 102
172 193 72
167 190 36
173 195 72
173 195 76
174 196 51
171 193 51
171 194 36
174 197 57
170 193 51
175 196 57
166 189 25
169 194 0
169 190 51
167 190 44
169 191 51
168 191 44
165 188 65
162 184 54
149 172 82
98 126 118
75 107 157
67 101 149
66 100 147
62 97 152
64 99 160
63 98 159
62 98 164
61 96 153
61 96 150
62 97 158
62 98 165
61 97 159
61 97 157
61 97 156
60 96 160
63 98 161
61 97 158
62 98 167
61 98 167
62 98 164
62 98 164
62 98 167
61 98 166
62 99 168
61 97 165
61 98 167
62 99 169
61 96 161
61 97 164
61 98 168
62 98 163
61 98 169
62 98 171
61 98 166
62 99 172
61 98 169
62 98 174
61 98 165
62 98 163
63 99 174
62 98 170
62 99 168
62 99 175
62 99 171
62 99 172
61 98 167
61 98 165
62 98 169
62 98 165
62 98 169
62 98 170
62 98 169
62 98 164
61 98 165
61 98 166
62 99 170
61 98 166
63 99 169
61 98 169
62 98 168
61 98 169
62 99 172
62 98 163
63 99 166
63 99 169
61 98 166
62 99 169
62 98 168
62 99 169
62 98 164
62 98 164
62 99 168
62 99 169
62 99 168
61 97 159
62 98 167
62 99 167
62 98 162
62 98 167
62 99 171
63 99 167
61 98 164
62 98 167
62 98 168
62 98 164
61 98 164
61 98 162
62 98 166
61 97 158
63 99 168
62 99 170
62 98 163
62 99 171
62 98 169
62 98 163
62 98 163
63 99 168
63 99 164
62 98 161
63 100 174
62 98 167
62 98 166
62 98 163
62 98 161
63 99 168
62 98 163
61 97 157
63 99 167
62 98 156
61 97 154
62 98 165
62 98 157
62 98 160
60 96 156
62 98 166
62 98 156
61 97 160
62 98 161
63 99 164
62 98 163
62 98 162
62 99 165
60 95 153
62 98 161
62 98 160
61 97 154
61 97 158
62 98 164
61 97 154
62 98 163
62 97 156
62 97 158
62 97 157
60 96 147
60 96 149
61 96 149
61 96 144
60 95 148
61 95 139
60 94 141
60 93 141
64 88 115
70 82 80
68 72 30
70 71 8
81 82 18
68 71 22
81 81 23
65 68 19
83 84 19
61 65 27
74 75 19
91 91 30
86 87 23
92 94 22
95 97 20
94 95 18
104 103 14
105 106 14
105 104 14
111 112 11
117 117 8
126 124 0
118 117 0
126 124 0
135 132 0
130 129 0
132 130 0
139 137 0
130 128 0
142 139 0
139 137 0
142 140 0
135 132 0
143 141 0
142 140 0
144 142 0
140 139 0
144 142 0
139 137 0
145 143 0
148 145 0
145 143 0
149 146 0
145 142 0
146 143 0
149 146 0
149 147 0
141 139 0
147 144 0
147 145 0
149 148 0
150 148 0
154 151 0
154 152 0
152 149 0
146 143 0
150 147 0
151 148 0
151 147 0
148 144 0
151 148 0
150 148 0
151 148 0
151 147 0
151 148 0
150 147 0
153 148 0
150 147 0
152 148 0
153 149 0
150 146 0
151 148 0
151 147 0
151 148 0
155 150 0
153 149 0
152 148 0
153 149 0
153 149 0
153 147 0
154 150 0
149 144 0
153 148 0
152 148 0
154 150 0
151 146 0
152 149 0
158 158 0
156 159 0
158 162 0
160 166 0
161 166 0
161 168 0
161 168 0
164 177 0
165 178 0
166 180 0
168 187 0
166 184 0
169 189 0
170 187 0
171 189 0
173 192 0
170 189 0
170 189 0
171 189 0
169 188 0
171 192 0
171 190 0
173 192 0
171 191 0
170 191 0
172 193 0
172 191 0
171 190 0
171 191 0
169 189 0
170 188 0
169 191 0
170 190 0
170 191 0
171 193 0
172 192 0
172 191 0
171 192 0
171 193 0
173 195 0
171 192 0
172 194 0
171 192 0
172 191 0
172 193 0
171 194 0
169 190 0
171 190 0
171 193 0
170 191 0
172 195 0
171 193 0
173 194 0
172 192 0
171 192 0
173 195 0
172 193 0
172 194 0
172 194 0
172 194 0
174 197 0
174 196 0
171 193 0
168 192 0
174 197 0
170 194 0
171 195 0
173 196 0
172 196 0
173 196 0
168 193 0
173 197 0
173 196 0
172 195 0
172 195 0
174 197 0
173 196 0
172 195 0
173 196 0
172 195 0
171 194 0
169 192 0
170 194 0
173 196 0
173 197 0
170 194 0
172 195 0
172 195 0
171 195 0
174 197 0
172 195 0
167 191 0
168 192 0
173 196 0
172 195 0
174 197 0
173 197 36
173 197 25
174 196 44
175 198 51
172 195 0
173 196 36
172 196 0
173 195 36
175 197 44
174 197 57
173 197 51
174 196 62
173 196 57
178 200 67
170 194 51
175 197 57
178 200 84
177 198 80
176 198 92
176 199 84
176 198 80
178 200 84
177 199 88
179 200 88
181 202 108
179 201 88
181 203 105
180 202 102
182 203 114
182 204 111
183 205 117
181 202 111
180 202 102
182 204 114
180 202 114
182 203 102
179 200 95
183 204 120
181 203 111
177 199 95
177 199 88
181 202 108
183 204 128
180 202 114
179 201 102
181 203 108
184 205 105
177 198 95
177 199 84
180 201 102
180 202 108
182 202 114
180 201 108
179 200 102
176 197 76
178 199 99
174 196 84
175 197 102
172 194 44
174 197 72
173 196 67
174 196 57
172 194 62
176 199 80
172 195 62
169 193 25
169 192 67
174 196 67
168 191 44
167 190 36
167 190 0
167 190 54
156 179 60
159 182 74
148 171 86
107 133 130
76 107 141
66 100 150
69 103 164
65 100 155
73 105 143
65 100 156
65 101 163
62 98 161
61 97 158
62 98 164
62 98 164
62 98 161
62 97 156
62 98 169
61 97 159
61 98 167
61 97 164
62 98 164
62 99 167
61 97 165
61 97 162
61 98 164
62 99 172
62 98 163
62 98 162
61 97 163
62 98 168
62 98 166
62 98 167
62 98 165
62 98 168
61 98 166
62 98 164
61 98 169
61 98 166
62 98 168
63 99 173
62 98 167
62 99 168
62 99 171
62 99 169
62 98 168
62 98 169
61 98 168
61 98 171
62 98 168
62 99 170
63 99 168
62 98 167
62 98 170
62 99 173
62 98 169
62 98 171
62 98 166
61 98 166
61 97 166
62 99 172
61 98 169
62 99 174
62 99 173
62 98 168
62 98 168
61 98 163
62 99 171
62 98 167
62 98 169
62 98 166
61 98 168
61 98 175
62 99 168
62 98 167
63 99 172
62 98 167
62 99 172
63 99 171
62 98 163
61 97 166
62 98 162
62 99 171
61 98 165
62 98 162
61 98 166
61 97 162
62 99 168
62 98 167
62 99 168
62 99 173
62 99 165
62 98 167
61 98 170
62 98 164
63 99 168
63 100 173
62 99 168
63 99 167
63 99 167
63 99 172
62 98 168
62 98 165
62 98 166
61 97 163
62 98 166
62 98 163
62 98 165
63 100 173
62 98 163
62 99 171
62 98 157
62 98 166
62 98 162
62 98 164
62 98 164
61 97 155
62 98 163
62 98 158
61 97 161
61 97 158
62 98 164
62 98 160
61 97 155
61 97 153
62 98 160
62 98 167
62 98 155
61 97 154
62 97 158
61 97 156
62 97 154
62 98 157
62 97 159
62 97 161
63 98 164
61 97 156
61 96 152
62 97 154
61 96 157
61 95 141
61 95 144
60 94 144
60 94 145
61 96 150
66 90 121
80 89 73
77 80 39
88 86 15
85 83 12
59 63 17
71 73 12
76 77 18
77 78 24
78 78 19
87 87 23
86 87 8
77 79 18
91 92 16
92 93 24
86 86 16
102 102 11
109 109 11
103 103 12
100 101 11
124 123 0
116 115 0
125 123 0
129 128 0
131 130 0
128 127 0
132 131 0
137 134 0
131 130 0
139 136 0
139 135 0
138 137 0
134 133 0
145 143 0
140 139 0
140 140 0
143 140 0
144 142 0
143 142 0
142 140 0
141 139 0
141 139 0
146 142 0
149 147 0
148 146 0
150 146 0
148 144 0
147 143 0
145 143 0
147 143 0
148 145 0
145 143 0
149 146 0
146 144 0
149 146 0
146 144 0
147 145 0
151 148 0
153 150 0
148 146 0
150 148 0
152 149 0
148 145 0
151 147 0
148 145 0
153 148 0
150 148 0
153 150 0
150 147 0
152 148 0
151 148 0
146 142 0
153 149 0
148 144 0
151 147 0
151 146 0
148 145 0
151 147 0
152 148 0
155 150 0
153 149 0
152 148 0
150 146 0
154 148 0
152 149 0
155 153 0
153 151 0
156 156 0
156 158 0
164 173 0
160 166 0
164 172 0
164 175 0
163 173 0
168 182 0
168 184 0
169 187 0
170 188 0
170 190 0
169 184 0
170 190 0
170 188 0
170 190 0
169 186 0
169 187 0
172 191 0
171 190 0
169 188 0
171 192 0
169 185 0
171 190 0
167 185 0
172 192 0
172 192 0
172 189 0
168 187 0
172 193 0
170 189 0
171 190 0
170 188 0
171 192 0
172 194 0
171 190 0
171 192 0
172 194 0
172 192 0
172 192 0
173 194 0
172 192 0
170 192 0
172 193 0
173 195 0
173 195 0
173 196 0
170 190 0
171 192 0
173 195 0
173 195 0
172 194 0
168 190 0
173 196 0
173 195 0
171 192 0
172 194 0
174 193 0
170 191 0
172 194 0
169 189 0
172 194 0
172 194 0
174 197 0
172 196 0
173 197 0
173 195 0
174 197 0
172 196 0
175 198 0
174 197 0
172 195 0
172 196 0
174 197 0
171 195 0
172 195 0
173 197 0
173 195 0
174 197 0
171 194 0
171 194 0
170 193 0
171 195 0
173 196 0
173 196 0
172 195 0
172 197 0
171 195 0
174 197 0
173 197 0
171 195 0
171 194 0
169 192 0
169 193 36
171 194 25
174 197 36
170 194 25
174 196 51
172 195 25
173 195 44
172 195 36
176 199 62
173 197 44
169 192 44
173 196 44
175 198 62
176 198 76
173 196 62
175 197 76
174 196 57
173 196 51
177 200 72
177 200 88
177 199 80
180 200 108
179 201 92
177 199 95
177 198 95
177 199 99
174 197 88
183 204 105
182 204 111
180 201 117
182 204 111
183 204 114
186 207 128
183 204 120
178 200 114
185 205 128
186 207 135
183 205 117
187 207 137
187 207 135
183 204 125
182 203 111
184 205 122
186 207 140
182 203 122
184 204 130
186 206 142
186 207 137
180 201 111
183 203 130
186 206 137
178 200 102
183 204 125
181 201 122
179 201 99
179 200 114
183 204 128
180 201 114
178 200 102
178 199 92
175 197 102
182 204 108
180 201 95
178 199 105
176 198 102
175 197 92
173 195 76
176 198 88
172 195 67
173 196 62
175 197 76
170 193 57
171 194 36
168 191 57
155 178 72
164 187 82
157 180 99
142 165 84
92 121 134
76 107 148
82 112 143
76 108 153
77 108 159
65 99 152
61 98 162
64 99 161
63 98 156
61 98 162
62 98 160
61 97 158
61 97 161
61 97 159
61 97 160
62 98 170
62 98 159
61 97 158
61 97 164
61 97 165
62 98 159
62 98 170
62 98 167
62 98 161
61 96 158
61 97 158
62 98 168
62 98 170
61 97 164
60 96 157
62 98 169
61 97 165
61 98 167
61 97 160
62 99 171
61 97 159
61 98 165
61 97 166
61 97 165
62 98 166
62 99 172
62 99 169
62 98 170
62 98 164
61 98 173
63 99 168
62 98 160
62 98 165
62 99 171
61 96 158
61 98 166
62 99 169
62 98 167
61 98 171
62 99 170
62 99 172
61 98 161
63 99 174
62 99 171
62 98 169
61 97 160
63 99 171
62 98 167
61 98 160
62 99 174
61 98 165
62 99 171
62 99 171
63 99 170
61 97 159
62 98 163
61 98 166
62 98 167
62 98 166
61 97 155
62 99 170
63 99 167
61 98 161
62 98 167
62 98 169
62 98 164
62 98 168
62 98 171
62 99 172
63 99 173
62 98 169
62 98 167
62 98 165
62 98 164
62 98 162
62 98 163
63 99 167
62 98 161
63 99 168
63 99 169
62 98 166
62 99 173
62 98 159
63 99 172
62 98 163
61 97 160
63 99 165
62 98 166
62 98 166
63 99 173
63 99 164
62 98 159
62 98 159
62 98 159
62 98 163
62 98 160
61 97 159
62 98 159
62 98 164
62 98 164
62 98 162
60 96 153
62 98 163
62 98 162
62 98 161
61 97 152
61 97 152
61 97 153
62 98 164
62 98 162
62 98 164
62 97 157
62 98 155
62 98 158
61 96 150
61 97 156
62 97 158
61 96 152
60 96 149
62 98 161
61 96 148
60 95 148
60 96 151
61 96 152
61 95 149
60 94 143
59 92 131
74 93 116
80 91 85
79 80 37
89 87 8
88 86 14
82 82 16
87 88 16
82 83 16
85 85 14
84 82 12
88 88 18
94 92 8
100 98 19
89 90 8
96 97 8
100 98 0
103 103 8
113 111 0
101 99 0
116 115 0
122 121 0
119 119 0
113 113 0
119 118 0
125 123 0
127 125 0
128 126 0
131 129 0
138 135 0
138 136 0
137 135 0
141 138 0
141 138 0
135 134 0
138 136 0
145 142 0
139 138 0
146 144 0
144 142 0
144 142 0
148 144 0
145 143 0
143 141 0
141 140 0
141 138 0
145 143 0
150 147 0
152 150 0
148 146 0
148 144 0
147 144 0
148 144 0
148 144 0
146 143 0
152 149 0
153 148 0
152 149 0
148 145 0
149 147 0
150 146 0
149 146 0
148 146 0
150 146 0
152 149 0
147 144 0
151 148 0
151 147 0
150 146 0
150 145 0
150 146 0
150 146 0
149 145 0
150 146 0
150 147 0
153 149 0
150 146 0
152 148 0
151 146 0
153 148 0
148 144 0
150 146 0
152 148 0
152 146 0
151 147 0
153 149 0
156 154 0
155 157 0
159 165 0
159 164 0
159 164 0
161 168 0
160 165 0
163 172 0
165 176 0
164 179 0
170 187 0
168 185 0
172 190 0
172 190 0
168 187 0
170 186 0
170 187 0
170 189 0
168 187 0
170 189 0
172 192 0
170 190 0
171 189 0
171 188 0
171 190 0
172 192 0
172 192 0
170 187 0
171 191 0
173 194 0
169 190 0
172 194 0
172 193 0
171 194 0
172 192 0
171 193 0
171 193 0
170 190 0
171 193 0
172 193 0
170 191 0
170 191 0
173 193 0
174 193 0
170 193 0
171 193 0
170 190 0
171 192 0
170 191 0
172 192 0
174 195 0
170 192 0
172 193 0
171 192 0
173 194 0
173 194 0
171 194 0
173 194 0
173 194 0
170 191 0
173 194 0
171 192 0
173 196 0
174 196 0
171 193 0
172 196 0
171 194 0
172 196 0
171 194 0
172 195 0
172 196 0
174 197 0
175 198 0
173 196 0
174 197 0
172 195 0
170 194 0
171 195 0
173 196 0
174 197 0
171 195 0
172 195 0
171 195 0
173 197 0
173 196 0
172 195 0
170 194 0
172 195 0
169 193 0
172 196 0
171 196 0
171 195 0
173 196 0
171 194 36
169 193 0
170 194 25
173 197 44
175 198 57
171 194 36
175 198 51
174 197 51
175 197 62
172 196 44
174 197 72
172 195 51
177 199 57
176 199 80
175 198 51
173 195 57
179 201 84
175 197 84
173 195 92
179 201 92
180 201 102
177 199 88
178 200 88
182 203 117
184 205 122
178 200 84
178 199 92
182 202 128
182 203 128
184 205 125
187 208 128
181 203 120
180 202 111
182 203 102
186 207 144
185 205 122
186 206 135
185 206 137
185 205 133
183 204 137
182 203 133
189 209 147
187 207 140
184 205 135
180 201 120
187 207 149
188 209 142
185 206 133
187 207 137
184 204 137
185 206 133
184 205 125
189 209 142
187 207 137
186 206 142
184 205 128
184 204 133
185 206 133
184 205 130
183 204 111
178 199 108
184 204 117
188 208 137
177 198 111
178 199 95
174 196 105
179 201 99
177 199 95
174 196 88
173 195 72
174 196 92
176 197 99
175 197 80
173 195 88
171 192 67
167 191 62
155 179 67
154 176 84
155 177 86
140 164 90
92 120 148
77 109 147
80 110 142
87 116 147
69 102 157
69 103 151
65 99 154
66 100 159
66 101 160
61 96 152
65 99 149
61 97 161
63 99 160
61 97 160
61 98 163
60 97 162
60 96 156
62 98 165
61 97 163
62 98 166
61 97 160
61 97 163
62 98 161
61 98 158
61 98 162
61 98 165
61 97 167
62 99 167
62 98 170
61 98 169
61 97 159
61 98 166
61 97 161
61 97 163
62 99 172
62 98 164
62 98 168
62 98 162
62 99 169
61 98 170
61 97 159
62 98 164
62 98 164
61 98 167
62 98 166
61 98 165
62 98 172
62 98 166
62 99 169
62 98 172
62 99 168
62 98 164
62 98 168
62 99 172
63 99 167
61 97 162
62 98 167
62 99 172
62 98 165
61 98 165
62 98 170
62 98 167
62 98 165
62 99 166
61 98 165
62 98 166
62 98 168
62 98 167
62 98 165
61 98 168
62 98 165
62 98 167
62 98 163
63 99 172
62 99 171
61 98 168
61 98 166
63 99 168
62 98 162
62 99 171
62 99 169
62 98 168
62 98 166
62 98 163
62 98 162
63 99 173
62 99 169
63 99 170
63 99 170
62 98 161
60 97 161
62 99 167
61 97 158
62 98 165
62 98 160
62 98 158
62 98 163
62 98 164
62 98 166
63 99 166
62 99 170
61 96 155
62 98 163
61 97 158
62 98 164
63 99 165
62 99 168
62 98 162
61 97 157
62 98 161
62 98 163
63 99 163
62 98 157
62 98 163
61 97 160
61 97 161
62 98 160
63 99 168
62 98 160
62 98 157
62 98 159
61 97 154
61 97 154
62 97 155
62 98 163
61 97 155
62 98 155
62 98 160
62 98 159
61 97 154
61 97 156
61 95 150
62 98 160
62 97 153
60 95 154
62 97 154
61 95 148
61 96 152
60 95 142
60 94 141
61 95 142
60 94 143
76 96 111
76 88 94
83 86 51
92 90 11
92 88 0
81 80 12
79 79 12
86 85 11
86 81 16
94 94 14
90 88 14
89 86 12
103 100 3
93 91 14
104 102 8
94 91 0
109 105 11
111 110 0
112 110 0
117 115 0
121 119 0
122 121 0
130 128 0
120 118 0
123 120 0
127 124 0
130 128 0
130 128 0
128 127 0
136 133 0
132 131 0
138 135 0
134 132 0
141 138 0
143 140 0
142 139 0
136 133 0
142 140 0
139 137 0
142 140 0
144 141 0
142 139 0
142 139 0
148 145 0
147 144 0
149 146 0
143 140 0
148 146 0
149 145 0
146 143 0
144 141 0
144 141 0
148 146 0
149 147 0
147 143 0
150 146 0
148 146 0
150 147 0
149 145 0
150 146 0
149 146 0
152 148 0
149 146 0
148 146 0
146 143 0
148 145 0
149 145 0
150 146 0
150 147 0
148 144 0
152 147 0
152 145 0
149 144 0
149 144 0
154 149 0
149 144 0
149 146 0
153 148 0
151 145 0
150 145 0
150 145 0
149 144 0
150 147 0
152 150 0
152 148 0
153 150 0
156 156 0
155 157 0
159 163 0
159 164 0
160 166 0
162 173 0
165 176 0
164 177 0
167 180 0
167 182 0
169 186 0
171 188 0
171 190 0
172 190 0
173 191 0
170 190 0
171 189 0
170 188 0
169 185 0
168 186 0
168 184 0
172 193 0
170 188 0
171 190 0
173 192 0
169 188 0
172 193 0
171 189 0
172 190 0
169 188 0
171 192 0
169 190 0
172 193 0
173 195 0
170 189 0
171 191 0
171 190 0
173 193 0
170 191 0
173 195 0
168 189 0
171 192 0
173 193 0
172 195 0
172 194 0
172 194 0
170 190 0
173 194 0
170 191 0
173 193 0
171 194 0
172 192 0
171 193 0
171 193 0
173 193 0
171 194 0
174 195 0
172 194 0
173 195 0
172 193 0
172 193 0
171 192 0
174 197 0
173 195 0
174 197 0
170 194 0
172 195 0
173 196 0
173 197 0
171 194 0
173 196 0
171 194 0
168 191 0
171 195 0
171 195 0
171 193 0
170 193 0
172 195 0
173 196 0
172 196 0
170 194 0
172 195 0
172 194 0
169 192 0
167 191 0
171 195 0
174 198 0
172 195 0
172 196 0
174 197 36
173 197 0
171 194 25
173 196 25
174 197 36
173 196 44
170 194 25
174 197 36
175 198 44
173 197 57
175 198 72
176 199 76
176 199 57
172 195 57
174 196 62
178 201 76
178 200 76
175 198 67
177 199 84
178 200 99
179 201 95
179 201 108
183 203 117
183 205 122
177 199 99
181 203 108
179 201 92
177 199 117
185 206 125
182 202 114
187 207 137
185 206 135
186 206 147
186 206 128
184 205 120
185 206 128
187 207 125
189 209 149
187 207 140
188 208 147
188 208 157
195 215 171
189 210 159
192 212 163
187 207 135
188 209 149
190 210 149
186 207 144
187 207 137
185 205 133
192 212 163
184 204 130
186 206 147
189 209 155
191 210 149
181 202 130
187 207 149
188 207 149
186 206 147
189 209 142
187 207 147
185 206 140
183 204 122
185 205 137
185 206 125
183 203 133
185 206 125
183 203 135
182 203 122
181 203 102
177 197 114
179 201 114
179 200 92
176 197 99
182 203 111
174 197 80
176 198 88
172 194 76
167 190 92
159 182 88
157 181 95
143 167 107
143 168 95
100 127 133
92 119 155
77 108 143
81 111 152
73 106 148
74 106 145
64 99 154
66 100 142
63 98 152
63 99 162
61 97 159
68 102 157
61 97 158
63 99 157
62 98 161
64 99 155
61 97 161
62 98 165
61 97 155
62 99 170
60 96 157
61 97 161
62 98 165
62 98 166
61 96 156
60 96 165
61 98 163
61 97 155
62 99 168
62 99 170
62 98 169
62 98 167
61 98 167
61 97 165
62 98 165
62 98 168
61 98 161
61 97 162
62 99 170
61 97 161
62 99 173
62 98 165
61 98 163
61 98 166
62 99 167
61 97 164
62 98 165
61 98 162
62 98 172
61 98 165
62 99 166
61 97 163
61 97 163
63 99 169
62 99 173
63 99 172
61 97 162
62 98 170
62 98 168
61 98 168
62 99 168
62 99 171
62 98 164
62 98 164
61 98 168
62 99 171
62 99 171
61 97 160
62 98 170
62 99 172
62 98 164
62 98 167
61 97 166
62 98 166
62 98 167
60 97 161
61 97 159
62 98 170
62 99 171
61 97 159
62 99 166
62 98 163
62 98 164
62 99 167
63 99 167
62 98 167
62 98 169
61 97 158
63 99 164
62 98 166
62 98 162
62 98 157
62 99 165
62 99 166
62 98 164
61 98 164
62 99 165
63 99 166
62 98 157
62 98 164
63 99 169
62 99 171
62 99 167
62 98 164
62 98 166
61 96 151
62 98 164
62 98 164
62 98 165
62 98 158
62 97 153
61 98 161
62 98 161
62 98 161
62 98 165
61 96 152
62 98 155
62 98 165
61 97 155
61 97 154
62 98 161
62 97 155
61 97 161
61 97 156
61 97 162
61 97 155
62 98 158
62 98 162
61 96 148
62 97 154
61 97 152
61 96 151
61 97 150
61 96 147
61 96 150
61 96 147
61 96 150
60 95 149
59 94 139
59 93 136
61 95 149
59 92 135
64 92 129
83 92 84
101 99 45
100 97 0
97 93 8
102 98 0
91 89 8
92 90 8
102 99 8
95 90 0
98 93 11
92 90 0
100 98 0
95 92 0
104 101 0
112 108 0
118 115 0
104 102 0
115 111 0
117 115 0
118 115 0
126 124 0
123 121 0
130 127 0
125 123 0
127 124 0
131 129 0
127 126 0
131 128 0
134 131 0
142 138 0
134 133 0
140 138 0
136 133 0
137 135 0
139 137 0
140 137 0
141 137 0
143 139 0
143 139 0
142 139 0
142 140 0
143 139 0
147 144 0
144 142 0
144 142 0
145 143 0
146 143 0
148 145 0
145 143 0
146 144 0
146 143 0
151 148 0
148 144 0
143 140 0
148 144 0
152 147 0
150 146 0
150 146 0
149 145 0
150 146 0
149 147 0
147 143 0
150 146 0
150 146 0
145 141 0
150 146 0
147 143 0
151 147 0
151 147 0
152 148 0
151 147 0
152 148 0
150 146 0
149 145 0
150 146 0
149 145 0
153 147 0
151 146 0
149 145 0
149 144 0
150 147 0
153 150 0
153 148 0
152 148 0
159 161 0
156 159 0
161 167 0
158 164 0
162 171 0
164 173 0
168 180 0
164 176 0
167 180 0
165 182 0
169 187 0
169 186 0
168 188 0
170 190 0
171 189 0
170 188 0
169 187 0
171 189 0
174 195 0
168 186 0
169 187 0
171 191 0
169 186 0
168 186 0
168 186 0
172 193 0
171 191 0
172 191 0
171 191 0
171 190 0
169 189 0
168 188 0
170 190 0
171 192 0
171 191 0
172 192 0
171 191 0
171 191 0
171 192 0
171 190 0
173 194 0
169 189 0
171 193 0
171 191 0
172 193 0
172 193 0
170 193 0
171 192 0
172 193 0
170 192 0
172 194 0
174 195 0
172 193 0
170 192 0
172 194 0
169 191 0
171 193 0
173 194 0
173 195 0
169 190 0
171 192 0
175 195 0
172 195 0
172 195 0
175 197 0
172 196 0
172 195 0
169 193 0
175 198 0
173 196 0
170 193 0
170 194 0
171 195 0
170 194 0
170 193 0
173 196 0
171 195 0
170 195 0
171 195 0
173 196 0
171 195 0
173 196 0
172 195 0
172 196 0
172 196 0
173 196 0
170 194 0
171 195 0
170 194 25
172 196 0
173 195 25
173 197 36
170 194 0
174 196 36
171 194 36
169 193 25
172 195 36
174 197 51
174 197 62
175 197 57
171 195 44
178 201 67
174 196 57
176 198 67
175 198 62
177 199 67
181 202 99
177 200 84
184 205 128
176 199 88
177 199 80
182 202 111
183 204 108
183 204 120
183 205 108
190 210 144
185 206 135
186 207 133
187 207 137
185 206 128
190 209 149
189 209 151
182 203 122
192 211 155
188 208 149
190 210 151
193 213 165
190 209 147
191 211 159
190 210 157
189 209 151
192 213 165
193 213 169
195 214 181
194 214 169
196 215 181
192 212 167
193 213 169
193 213 171
194 213 171
189 210 165
191 211 163
192 212 171
191 211 163
191 211 155
192 212 161
190 210 157
191 211 159
190 211 147
194 214 165
196 214 177
190 210 157
187 207 151
187 207 153
188 208 151
188 208 153
187 207 144
188 208 147
178 199 117
186 205 144
179 200 114
183 203 125
176 197 108
181 203 120
180 201 102
180 201 108
177 198 111
172 195 90
164 185 110
153 175 107
157 180 117
141 165 113
129 153 118
105 132 135
77 109 153
79 110 154
82 113 160
71 104 154
65 99 157
68 103 160
67 101 155
64 99 155
67 102 159
64 99 159
66 101 165
63 99 159
63 98 154
62 97 150
64 99 163
61 96 155
60 96 151
60 96 160
61 97 162
61 97 156
61 98 164
61 97 157
62 98 161
61 97 161
62 98 164
61 98 168
62 98 168
60 96 156
61 97 166
61 97 160
62 98 160
62 98 165
60 96 162
62 98 165
61 97 162
62 98 165
62 99 169
61 97 167
61 98 168
62 98 168
62 98 168
61 97 166
62 98 168
61 98 170
61 98 166
62 98 163
63 100 174
62 99 170
62 98 169
61 97 167
61 97 163
61 98 165
61 98 165
61 97 162
62 98 166
61 97 160
62 98 165
61 97 161
62 99 168
62 98 165
62 99 167
61 97 166
61 98 165
61 98 162
61 98 163
62 98 162
62 98 162
62 98 165
62 98 166
62 98 167
63 99 172
61 98 161
64 100 165
62 98 164
62 98 162
61 98 165
62 99 169
62 98 162
63 99 167
63 99 164
62 99 168
63 99 164
61 98 160
63 99 165
62 98 165
63 99 169
61 97 158
62 99 169
62 98 162
62 98 160
62 98 157
62 98 162
61 97 158
62 99 165
62 98 163
62 98 161
62 98 161
63 99 166
62 99 165
62 99 166
61 97 157
61 97 160
61 97 157
63 99 166
62 98 162
62 97 154
63 99 162
63 99 164
62 98 164
62 98 166
62 99 165
62 97 156
62 98 166
62 98 161
62 98 163
62 98 158
62 98 158
62 98 160
62 98 158
61 97 157
62 98 152
62 98 162
61 97 158
60 96 154
61 96 149
62 98 162
61 97 153
61 97 153
61 97 154
61 96 149
62 98 160
61 96 152
61 97 151
61 97 155
61 96 153
61 96 151
61 96 147
61 95 147
61 95 139
61 96 156
62 96 149
68 89 114
88 92 73
94 91 33
107 103 0
102 97 0
95 93 0
105 101 8
100 97 0
94 90 0
101 99 8
100 96 0
92 90 0
111 107 0
98 95 0
104 102 0
99 95 0
111 108 0
112 109 0
111 110 0
113 111 0
109 108 0
126 123 0
128 124 0
126 123 0
132 129 0
123 120 0
124 122 0
134 129 0
138 135 0
133 130 0
137 134 0
132 129 0
137 135 0
139 136 0
133 131 0
143 140 0
138 135 0
143 140 0
148 144 0
139 137 0
141 138 0
142 138 0
142 139 0
144 140 0
148 144 0
142 139 0
149 146 0
146 142 0
144 141 0
150 147 0
148 145 0
149 146 0
146 143 0
149 146 0
146 143 0
145 141 0
149 145 0
148 145 0
150 146 0
149 146 0
148 144 0
146 141 0
147 143 0
144 140 0
148 144 0
153 149 0
150 147 0
147 142 0
147 143 0
153 149 0
148 142 0
149 145 0
148 142 0
147 141 0
152 148 0
150 145 0
153 146 0
149 143 0
152 146 0
149 144 0
150 147 0
153 148 0
153 151 0
155 154 0
156 158 0
157 160 0
158 160 0
161 168 0
163 170 0
162 169 0
166 177 0
166 177 0
164 178 0
165 179 0
170 186 0
172 188 0
170 188 0
168 186 0
170 188 0
168 183 0
168 184 0
172 190 0
170 188 0
170 188 0
167 184 0
168 184 0
172 192 0
171 191 0
169 188 0
168 188 0
173 191 0
171 189 0
173 192 0
170 189 0
172 190 0
170 191 0
169 190 0
171 193 0
169 190 0
170 190 0
172 192 0
173 192 0
171 191 0
172 193 0
172 192 0
172 193 0
172 193 0
170 192 0
173 194 0
174 196 0
171 193 0
171 191 0
171 192 0
171 191 0
172 192 0
172 193 0
172 193 0
170 190 0
173 195 0
173 195 0
171 193 0
174 195 0
173 194 0
175 196 0
171 193 0
172 193 0
171 193 0
172 194 0
172 194 0
173 196 0
172 196 0
172 196 0
172 195 0
171 195 0
172 195 0
172 196 0
172 195 0
172 196 0
174 197 0
172 195 0
169 194 0
174 195 0
173 196 0
173 196 0
174 198 0
172 196 0
173 196 0
174 197 0
171 195 0
173 196 0
173 195 25
174 197 0
172 197 25
170 194 0
171 195 0
174 197 25
170 193 0
171 194 36
171 194 0
176 199 67
170 195 36
174 196 57
175 198 62
174 197 57
175 198 67
177 199 72
174 196 76
179 201 99
179 201 80
175 197 84
180 202 102
180 203 92
175 198 76
176 198 88
183 204 120
184 205 120
189 208 155
184 204 144
187 208 142
180 202 102
182 202 133
191 210 153
185 205 144
186 207 133
193 212 167
193 212 161
187 207 147
186 207 142
186 206 153
191 212 165
194 213 173
194 213 173
195 214 167
198 216 177
196 215 184
196 215 181
196 216 177
194 214 169
190 210 163
197 216 181
195 215 177
197 216 181
197 216 177
191 211 157
199 217 193
194 213 175
197 215 184
194 213 173
189 210 163
194 214 171
193 213 177
193 213 165
194 214 182
195 214 177
187 207 159
197 216 181
191 211 159
192 211 163
192 211 163
189 209 151
188 208 149
189 209 153
190 209 157
190 210 151
180 202 122
180 201 111
186 206 142
179 200 111
184 203 135
184 204 120
177 198 99
182 202 125
176 197 90
160 181 129
152 173 148
143 165 125
147 169 122
132 156 110
112 138 140
86 115 146
91 119 151
79 110 150
66 100 152
84 113 157
77 108 149
78 109 158
77 109 155
67 101 155
67 102 156
64 99 160
61 97 154
62 98 158
62 97 160
63 99 159
61 97 157
60 96 160
60 96 159
61 97 163
61 98 166
61 97 163
63 99 166
60 96 155
61 98 164
60 96 159
61 97 160
60 96 161
62 99 169
61 96 159
61 98 165
61 96 163
62 98 167
61 97 159
61 98 165
62 99 169
62 98 170
61 98 170
61 97 161
61 97 165
61 98 168
61 97 162
62 98 167
61 98 164
62 98 161
62 99 171
61 98 168
62 98 163
62 98 169
61 98 167
62 98 168
62 99 170
62 97 162
62 98 165
61 98 161
62 99 167
62 98 165
62 98 168
62 98 163
61 97 161
62 98 166
62 98 166
61 98 165
61 97 160
61 97 158
62 98 166
62 98 164
62 98 163
62 99 172
63 99 167
62 99 171
62 98 164
62 98 167
61 98 165
61 97 154
63 99 167
62 98 166
62 98 162
62 98 166
62 98 161
62 98 162
61 98 161
63 100 172
63 99 171
62 98 164
62 98 160
63 99 169
61 97 160
62 98 165
62 98 165
62 98 166
63 99 166
62 98 169
61 97 166
62 98 164
62 98 166
63 99 165
61 97 159
61 98 164
62 98 165
61 97 156
61 98 162
62 99 167
63 99 169
62 98 162
62 98 167
62 99 167
62 98 159
62 98 164
62 98 164
62 98 161
61 97 155
62 97 156
63 100 167
61 97 152
62 98 161
63 99 161
62 98 162
63 98 165
61 97 153
62 98 157
62 97 154
62 98 159
62 98 159
62 97 154
62 98 158
60 96 148
62 98 157
62 97 156
61 96 146
61 97 153
61 96 147
62 98 156
62 97 159
61 96 153
60 94 142
60 93 137
60 95 145
59 94 141
61 96 147
61 95 147
59 91 127
69 93 131
79 86 72
105 103 42
110 104 0
101 96 0
98 94 0
101 96 0
96 93 0
95 93 3
100 98 0
93 90 0
100 96 0
107 103 0
98 95 0
101 98 0
113 110 0
110 107 0
111 108 0
117 115 0
97 96 0
120 117 0
122 119 0
115 113 0
125 122 0
122 119 0
124 121 0
122 120 0
125 122 0
135 132 0
132 130 0
135 132 0
136 132 0
137 134 0
137 134 0
138 136 0
138 135 0
138 134 0
137 134 0
142 138 0
137 133 0
144 140 0
142 138 0
141 138 0
142 138 0
147 145 0
149 145 0
146 143 0
147 143 0
142 139 0
145 142 0
148 144 0
148 145 0
144 140 0
145 142 0
149 145 0
149 145 0
147 143 0
148 144 0
148 143 0
147 144 0
148 145 0
148 142 0
148 145 0
150 146 0
148 144 0
146 142 0
150 146 0
152 146 0
149 145 0
149 146 0
145 140 0
151 145 0
149 142 0
145 140 0
150 145 0
149 144 0
150 145 0
150 144 0
152 146 0
152 147 0
149 144 0
150 147 0
154 152 0
159 162 0
158 158 0
156 158 0
156 161 0
160 168 0
161 170 0
165 173 0
164 175 0
164 177 0
165 177 0
170 186 0
167 183 0
168 184 0
167 182 0
167 185 0
169 188 0
167 183 0
167 183 0
167 185 0
169 186 0
168 186 0
170 188 0
169 187 0
168 187 0
168 185 0
170 187 0
173 191 0
168 185 0
171 190 0
170 189 0
170 189 0
170 189 0
172 193 0
171 189 0
172 192 0
171 191 0
171 190 0
170 188 0
171 189 0
171 192 0
172 192 0
171 192 0
173 194 0
171 192 0
173 193 0
172 194 0
171 192 0
172 194 0
172 194 0
174 194 0
171 191 0
173 195 0
173 193 0
172 194 0
171 193 0
172 193 0
171 191 0
170 190 0
172 194 0
173 195 0
175 195 0
171 192 0
172 194 0
172 192 0
174 195 0
171 194 0
173 194 0
172 196 0
172 195 0
171 195 0
171 195 0
172 196 0
173 196 0
174 197 0
172 195 0
171 195 0
172 196 0
172 196 0
173 196 0
172 195 0
170 194 0
173 197 0
169 192 0
173 197 0
173 196 0
171 194 0
172 195 0
171 194 0
172 195 0
173 196 0
172 196 25
173 196 36
172 195 44
174 196 57
175 198 51
175 198 67
177 199 67
174 197 36
176 199 72
176 199 62
174 197 72
179 201 80
178 200 88
179 201 92
179 201 99
181 202 102
185 206 128
184 205 120
185 205 140
185 205 137
185 206 117
183 204 117
188 208 142
189 209 151
189 209 137
183 204 128
187 207 149
185 206 135
189 209 151
190 210 149
193 213 171
195 214 179
194 214 169
197 216 181
189 209 151
196 215 184
197 216 189
189 209 161
192 212 171
195 215 182
197 216 184
193 213 171
200 218 189
199 218 189
197 216 186
196 215 184
200 219 194
199 218 196
198 217 196
191 211 165
196 215 181
198 218 191
197 216 188
197 216 177
200 218 199
195 214 175
196 215 182
199 217 198
198 217 189
199 217 194
194 213 177
198 217 193
195 214 173
196 215 182
195 214 182
196 215 179
194 214 167
196 215 184
195 214 177
190 209 153
197 216 179
189 210 159
185 205 147
186 206 149
186 207 140
185 206 140
181 202 130
187 207 140
178 198 122
179 199 133
165 186 134
151 173 157
143 166 144
142 166 133
128 152 131
109 135 144
102 129 156
93 121 153
82 112 159
87 116 166
72 105 153
82 113 157
74 106 153
72 105 154
67 101 160
68 102 161
65 101 162
60 96 156
63 98 154
65 99 148
61 97 152
66 101 166
62 98 160
60 96 154
60 96 153
61 97 163
61 96 155
62 98 169
61 98 165
60 96 153
61 97 162
61 97 168
62 98 164
62 97 162
62 98 159
62 99 171
61 97 160
61 98 167
61 97 161
60 96 164
62 99 170
62 98 163
61 97 162
62 98 168
61 97 162
61 97 160
60 96 156
62 98 167
63 99 167
62 99 169
62 98 166
61 97 162
61 97 158
62 98 166
61 97 165
62 98 169
60 96 162
61 98 163
61 98 165
62 98 171
62 98 169
62 98 163
61 98 161
61 97 163
62 98 167
61 97 158
61 98 162
62 98 163
62 98 163
61 97 164
62 98 161
61 98 162
62 98 164
61 97 160
62 98 164
61 97 161
61 97 156
61 97 161
61 97 162
62 99 169
62 98 163
62 99 165
62 98 161
62 98 164
62 98 157
61 97 156
62 99 169
62 99 171
62 98 168
62 99 165
63 99 168
61 97 165
62 98 164
61 97 163
62 98 166
62 98 167
62 98 163
62 98 164
62 98 157
62 98 168
63 99 172
62 98 160
63 99 164
63 99 166
61 97 163
61 98 159
61 97 159
62 98 166
63 99 167
63 99 168
62 99 165
62 98 166
61 97 158
61 97 154
61 97 153
63 99 161
61 97 156
61 97 156
62 98 161
62 98 163
61 97 160
63 99 161
62 97 156
61 97 157
62 97 155
62 98 158
61 96 150
61 96 152
62 98 160
61 97 151
62 98 157
61 96 147
61 97 158
63 98 159
61 97 153
61 97 151
62 97 155
61 96 150
61 96 144
61 96 148
62 97 153
60 94 138
61 95 142
61 96 151
61 95 146
60 94 144
60 93 136
74 94 111
83 91 82
95 93 36
98 94 0
103 99 0
99 94 0
105 102 0
105 99 0
100 98 0
91 87 0
109 105 0
95 94 0
103 100 0
113 109 0
110 106 0
101 99 0
103 101 0
112 109 0
115 112 0
117 113 0
123 119 0
115 111 0
118 115 0
124 122 0
125 122 0
129 126 0
126 123 0
125 122 0
138 135 0
133 129 0
130 127 0
135 132 0
136 133 0
123 120 0
135 132 0
139 136 0
138 135 0
139 135 0
140 138 0
140 136 0
136 134 0
136 133 0
146 142 0
142 139 0
143 140 0
146 142 0
146 142 0
145 140 0
140 136 0
147 143 0
143 139 0
142 139 0
148 144 0
144 140 0
146 143 0
146 142 0
148 145 0
146 141 0
146 141 0
147 144 0
149 145 0
146 142 0
148 143 0
149 145 0
148 143 0
151 146 0
148 142 0
149 143 0
148 143 0
148 144 0
147 143 0
147 141 0
151 146 0
151 145 0
150 144 0
150 145 0
148 140 0
151 145 0
148 141 0
151 146 0
153 151 0
154 151 0
152 151 0
159 162 0
157 157 0
159 163 0
160 166 0
161 169 0
161 168 0
162 172 0
167 179 0
163 174 0
168 182 0
166 183 0
169 186 0
168 184 0
169 185 0
168 187 0
170 187 0
170 188 0
168 183 0
168 184 0
168 185 0
168 184 0
171 190 0
171 189 0
171 189 0
172 193 0
168 185 0
169 186 0
169 188 0
170 189 0
171 189 0
171 189 0
168 187 0
171 190 0
170 188 0
172 192 0
171 191 0
171 190 0
169 188 0
173 195 0
171 191 0
168 186 0
171 192 0
173 192 0
172 192 0
170 189 0
172 193 0
170 192 0
170 191 0
171 192 0
172 195 0
171 190 0
171 190 0
174 195 0
171 194 0
172 194 0
173 194 0
173 193 0
174 195 0
172 194 0
173 194 0
171 191 0
172 195 0
173 196 0
171 193 0
173 193 0
172 193 0
173 195 0
174 197 0
168 192 0
173 197 0
173 196 0
171 195 0
173 196 0
171 194 0
171 195 0
173 196 0
174 197 0
173 196 0
172 195 0
171 195 0
173 197 0
172 196 0
173 197 0
174 197 0
173 196 0
170 194 0
169 192 0
173 197 0
174 197 36
171 194 25
174 198 51
174 197 51
173 195 57
172 195 51
173 197 51
173 196 51
176 199 62
175 198 62
177 199 72
177 199 67
184 205 105
177 199 95
181 203 95
180 201 99
176 198 105
180 202 111
184 205 122
184 205 128
185 205 135
187 207 133
187 207 130
187 208 142
190 210 144
187 207 151
188 209 147
190 210 155
191 211 153
193 212 167
188 208 161
190 210 161
196 215 179
194 214 177
195 215 182
193 212 163
195 215 186
198 217 184
194 213 181
196 215 188
198 217 191
191 211 167
198 217 193
199 219 198
198 216 196
197 216 189
206 223 217
202 221 207
202 221 209
197 216 186
198 218 196
202 221 212
202 221 206
195 215 184
201 220 196
195 214 177
200 219 196
200 219 199
196 216 184
195 214 181
203 222 209
198 217 191
202 220 203
197 216 182
200 219 196
192 211 165
193 214 169
193 213 171
199 217 189
193 213 161
199 217 182
193 213 167
194 213 175
195 214 173
191 211 157
189 209 153
187 207 147
194 213 171
184 205 133
186 205 153
183 204 134
173 193 149
166 187 143
149 171 152
140 163 147
132 154 150
121 146 145
103 130 144
92 120 155
91 120 158
92 120 154
76 108 149
73 105 151
77 108 157
73 105 152
69 103 153
70 103 154
70 104 162
73 106 153
64 99 153
62 97 155
61 97 162
61 97 161
62 98 161
60 96 161
64 99 161
63 99 163
61 97 160
60 96 150
61 97 156
63 99 168
61 97 164
60 96 154
60 96 155
61 96 156
60 96 163
61 97 163
61 97 166
61 96 159
61 98 162
61 97 161
61 97 165
61 97 161
62 98 165
63 99 169
62 98 166
61 97 163
62 98 162
61 97 163
62 98 162
61 98 166
61 97 159
62 98 164
62 98 167
62 98 158
61 97 160
62 98 165
63 99 171
61 98 164
61 97 159
62 98 171
62 98 164
62 98 164
62 98 167
62 98 164
61 97 161
62 98 166
63 99 163
61 97 160
62 98 164
62 98 158
62 98 162
62 98 165
62 98 165
61 97 166
61 97 158
61 98 159
62 98 165
61 98 162
61 97 163
62 98 161
61 97 162
63 99 174
63 99 168
62 98 166
62 99 170
62 98 161
61 97 160
62 99 165
61 97 161
62 98 166
62 98 161
61 97 165
61 97 160
62 98 161
61 97 158
61 98 158
62 98 164
62 98 164
62 98 161
61 98 163
62 98 162
62 99 169
61 97 156
61 97 160
61 98 164
62 98 165
62 98 162
62 98 160
62 98 160
62 98 158
62 98 161
62 98 162
61 97 162
62 98 161
63 99 164
61 96 149
61 97 158
62 98 163
62 98 156
62 98 162
61 97 155
61 97 155
62 98 162
62 98 164
61 96 152
62 98 153
62 98 163
63 98 166
62 97 152
60 96 151
61 96 152
61 96 154
62 98 160
62 98 157
61 97 154
62 98 160
61 97 150
61 97 156
61 97 149
60 96 147
62 97 152
61 95 144
62 97 157
61 96 147
60 95 144
59 92 135
59 93 136
58 90 128
71 90 113
93 99 71
112 109 41
109 102 0
107 101 0
103 97 0
105 101 0
108 103 0
105 101 0
95 91 0
99 96 0
117 113 0
101 97 0
109 107 0
112 108 0
117 114 0
113 109 0
115 110 0
113 110 0
113 109 0
126 123 0
124 120 0
122 119 0
125 124 0
120 116 0
129 125 0
129 127 0
125 123 0
128 125 0
136 130 0
135 131 0
134 130 0
136 132 0
143 137 0
134 132 0
141 139 0
135 132 0
133 131 0
141 136 0
141 136 0
139 135 0
143 139 0
141 137 0
137 134 0
140 138 0
140 135 0
144 140 0
142 139 0
141 137 0
143 140 0
148 144 0
145 141 0
147 143 0
144 140 0
147 144 0
144 140 0
150 144 0
147 142 0
147 142 0
144 140 0
149 146 0
148 142 0
152 146 0
147 143 0
144 139 0
146 141 0
145 141 0
152 147 0
147 139 0
152 147 0
148 143 0
150 143 0
152 146 0
150 146 0
151 144 0
151 144 0
148 141 0
152 148 0
146 141 0
155 154 0
154 152 0
152 148 0
157 159 0
156 157 0
159 165 0
157 163 0
163 172 0
162 173 0
163 172 0
167 181 0
169 186 0
161 171 0
167 183 0
163 177 0
167 181 0
170 186 0
168 182 0
169 186 0
168 186 0
170 189 0
170 187 0
165 182 0
171 189 0
168 184 0
169 186 0
168 187 0
172 190 0
169 189 0
173 191 0
171 191 0
170 191 0
170 189 0
171 190 0
170 189 0
170 189 0
171 192 0
173 193 0
171 190 0
168 188 0
171 192 0
169 189 0
170 189 0
172 194 0
172 190 0
170 191 0
171 191 0
171 192 0
170 190 0
169 188 0
170 190 0
173 192 0
172 192 0
173 194 0
171 194 0
170 191 0
173 194 0
170 193 0
172 194 0
172 192 0
171 192 0
173 194 0
172 194 0
171 193 0
172 195 0
173 195 0
170 191 0
171 191 0
174 196 0
172 194 0
172 194 0
171 194 0
171 194 0
169 194 0
171 195 0
169 193 0
172 196 0
171 194 0
173 197 0
173 196 0
172 195 0
173 196 0
173 196 0
175 197 0
173 196 0
171 194 0
166 190 0
169 193 0
175 198 0
173 196 44
175 198 36
173 196 36
174 197 25
172 196 25
173 197 51
171 194 25
174 198 36
173 196 57
176 198 72
170 193 44
176 198 76
175 197 72
179 201 88
178 200 95
179 201 84
183 204 111
183 204 114
182 204 111
182 204 108
179 200 102
186 207 135
187 208 142
188 209 149
190 210 151
186 207 137
193 213 159
195 214 169
192 212 167
194 213 167
195 215 175
194 213 169
192 211 169
198 217 184
193 213 173
196 215 182
195 215 186
199 217 191
195 215 181
198 217 196
195 215 184
198 218 189
198 218 193
198 218 189
197 217 188
198 218 196
200 219 198
198 218 196
201 220 203
206 224 217
202 220 203
199 218 201
204 222 214
204 223 215
201 220 204
200 219 199
196 216 184
203 221 207
205 223 217
203 222 209
200 219 199
204 223 214
198 217 194
199 218 203
200 219 199
200 219 198
203 222 207
200 219 199
198 217 186
198 217 189
200 219 198
194 214 173
199 218 198
197 216 193
191 210 167
194 213 169
197 216 191
194 213 171
190 210 167
193 212 167
191 211 157
189 208 155
185 205 142
189 209 167
175 195 160
159 179 175
145 167 165
145 166 173
144 166 160
121 146 146
107 133 155
83 113 152
95 123 158
91 120 162
77 108 142
75 106 142
80 111 158
80 110 150
76 107 149
68 102 162
76 108 155
64 99 153
65 100 154
60 95 152
64 99 157
60 96 149
62 97 154
66 100 160
63 97 151
61 97 162
60 96 153
62 98 163
62 98 163
61 98 168
61 97 163
61 97 160
61 97 160
62 98 167
61 97 161
61 97 162
61 97 165
61 98 169
62 98 165
60 96 156
61 98 165
61 98 165
61 97 160
62 99 167
62 99 169
61 97 156
62 98 168
60 96 163
61 98 161
62 98 167
62 98 166
61 98 167
61 97 164
62 98 168
62 98 162
62 98 163
62 98 166
62 98 162
63 99 167
62 98 166
62 98 164
60 96 150
61 97 161
63 99 171
61 97 166
62 98 168
62 99 167
62 98 165
62 98 163
62 98 161
62 98 166
62 98 166
63 99 169
61 98 161
62 98 166
62 98 166
62 98 163
62 98 164
62 98 164
62 99 169
60 97 160
62 98 163
61 98 164
62 98 165
62 98 163
61 97 161
61 98 162
62 98 163
62 98 165
62 98 162
62 98 166
62 98 166
61 97 156
62 98 162
62 98 166
62 98 162
61 98 160
62 98 159
62 98 159
62 99 166
62 98 165
61 97 159
62 98 163
62 98 164
62 98 164
61 97 153
62 98 158
62 97 159
62 98 164
62 98 162
62 98 158
61 97 158
62 98 156
61 97 151
62 98 162
61 97 155
61 97 160
63 99 161
62 98 158
61 97 160
62 98 159
61 97 156
62 98 158
61 97 154
62 98 158
62 98 162
62 97 150
61 96 143
62 97 157
61 97 150
62 98 160
62 98 156
61 96 153
63 98 160
60 95 146
61 96 150
62 98 156
61 96 147
61 96 151
61 96 151
60 94 144
60 94 139
61 96 150
61 95 139
60 95 144
60 93 133
60 94 139
60 92 131
71 91 107
98 102 75
116 110 25
113 107 0
113 107 0
107 100 0
107 101 0
109 103 0
103 100 0
98 93 0
109 103 0
104 100 0
113 110 0
110 104 0
101 98 0
105 102 0
110 105 0
110 107 0
116 111 0
117 112 0
123 119 0
119 117 0
122 118 0
124 121 0
123 118 0
125 121 0
123 120 0
125 122 0
121 117 0
132 129 0
130 126 0
136 133 0
130 126 0
133 130 0
135 132 0
138 134 0
136 132 0
137 134 0
130 127 0
145 139 0
139 135 0
141 137 0
135 132 0
144 140 0
141 138 0
142 137 0
143 140 0
140 136 0
141 138 0
142 139 0
138 133 0
145 139 0
144 139 0
145 139 0
142 138 0
146 139 0
147 143 0
144 138 0
145 141 0
145 141 0
149 144 0
149 145 0
145 140 0
145 140 0
151 147 0
152 146 0
149 143 0
145 140 0
152 145 0
147 141 0
149 144 0
146 141 0
148 141 0
153 146 0
147 140 0
148 140 0
149 143 0
153 149 0
151 148 0
153 148 0
151 147 0
154 155 0
155 156 0
156 159 0
159 163 0
158 165 0
161 169 0
161 170 0
164 178 0
165 178 0
167 182 0
169 186 0
163 176 0
166 181 0
170 186 0
168 184 0
166 182 0
170 188 0
172 191 0
165 180 0
170 186 0
170 188 0
168 186 0
168 184 0
169 190 0
171 189 0
169 185 0
168 186 0
169 188 0
170 190 0
170 189 0
172 191 0
168 188 0
173 192 0
172 191 0
171 190 0
172 193 0
169 189 0
169 187 0
172 192 0
174 194 0
170 191 0
172 194 0
171 192 0
171 191 0
170 192 0
172 190 0
171 192 0
170 191 0
172 192 0
171 192 0
168 189 0
171 192 0
171 192 0
171 192 0
170 190 0
171 191 0
172 194 0
170 192 0
170 192 0
173 195 0
174 197 0
169 189 0
170 193 0
170 191 0
173 195 0
170 192 0
174 195 0
174 195 0
172 195 0
170 194 0
172 196 0
169 193 0
174 197 0
169 192 0
172 196 0
171 195 0
175 197 0
173 197 0
171 195 0
171 195 0
170 193 0
174 197 0
171 194 0
169 192 0
173 196 0
175 197 25
171 195 25
173 197 25
174 198 36
172 195 25
172 195 36
169 193 0
170 192 44
175 198 36
172 196 51
177 199 76
174 196 36
179 201 88
175 198 51
174 197 72
178 200 92
183 204 108
178 200 99
185 205 120
179 200 108
184 205 125
184 204 128
181 203 125
188 208 149
186 208 144
190 209 153
190 210 157
187 206 151
186 207 140
192 212 173
193 212 163
192 211 171
194 213 173
198 217 182
198 216 186
195 214 181
194 214 175
200 219 196
196 214 188
198 218 198
202 220 201
197 216 186
200 219 201
203 222 209
202 221 209
200 219 204
202 221 209
203 221 212
202 221 212
201 220 204
204 223 214
205 223 214
200 219 201
203 221 207
204 222 215
203 222 218
203 222 215
205 223 217
204 223 217
200 219 203
201 220 206
204 222 214
199 219 204
206 224 220
207 225 224
204 223 214
205 223 218
200 218 196
202 221 214
198 217 194
201 220 206
201 219 199
201 220 199
199 218 203
200 218 199
196 215 179
199 218 191
196 215 191
197 216 189
197 216 191
194 213 169
194 213 171
190 210 151
190 210 161
194 212 175
186 205 170
168 189 173
150 172 177
146 167 164
142 164 180
126 149 175
120 144 164
124 147 162
95 122 169
90 118 154
81 112 158
93 121 159
72 105 159
84 114 154
74 106 158
77 109 163
68 102 152
78 109 156
66 100 158
65 99 158
63 98 151
63 98 158
68 102 159
65 100 154
70 104 149
61 97 160
61 97 156
60 96 153
61 97 164
62 98 163
62 98 162
61 98 162
61 97 162
61 97 162
61 96 158
60 97 168
62 97 158
62 98 168
62 98 164
62 99 167
61 97 164
61 97 163
61 98 167
61 97 157
62 98 166
61 97 160
62 98 167
61 97 162
62 98 168
61 97 164
62 98 162
62 98 167
62 98 161
62 98 161
61 98 165
61 97 160
61 98 166
62 99 168
62 98 162
62 98 166
62 98 163
61 97 161
62 99 170
61 97 162
62 98 158
62 98 163
62 99 167
62 98 164
62 98 163
62 98 163
62 98 166
62 98 162
62 98 167
62 98 168
61 97 158
62 98 162
61 97 161
61 98 163
62 98 164
61 97 159
61 98 164
62 98 162
62 98 166
62 98 163
63 99 166
63 99 164
62 99 167
62 98 162
62 98 163
62 98 167
61 97 155
61 97 157
62 98 162
62 98 160
62 97 154
62 98 158
62 98 161
62 98 162
63 99 163
62 98 166
61 97 155
62 99 167
63 99 166
62 98 164
62 99 165
63 99 171
62 98 160
62 98 164
62 98 161
62 98 160
62 98 162
62 98 162
62 98 167
61 96 151
63 99 168
62 98 157
61 97 155
61 98 161
63 99 164
62 98 156
61 97 150
62 98 158
62 98 158
61 97 153
62 97 156
61 97 155
63 98 156
61 97 153
62 98 161
62 98 162
62 97 159
62 98 159
62 97 150
60 95 149
61 96 150
60 95 145
61 96 148
62 97 159
60 95 147
62 97 149
61 96 150
61 96 152
61 96 148
62 96 152
61 96 146
60 94 143
61 96 148
60 94 137
62 94 137
74 90 104
98 101 66
100 97 18
109 104 0
111 104 0
115 109 0
104 97 0
110 103 0
112 105 0
113 107 0
108 104 0
107 103 0
109 104 0
101 97 0
120 113 0
119 116 0
117 114 0
119 112 0
120 116 0
120 116 0
116 111 0
122 118 0
123 120 0
124 121 0
126 120 0
125 120 0
126 121 0
124 121 0
124 120 0
132 128 0
131 127 0
134 130 0
134 129 0
137 133 0
135 130 0
137 132 0
139 134 0
137 132 0
141 137 0
140 135 0
138 135 0
143 138 0
138 133 0
140 134 0
139 134 0
143 138 0
142 137 0
141 137 0
139 135 0
142 137 0
142 138 0
140 135 0
145 139 0
147 144 0
143 140 0
144 139 0
148 142 0
145 139 0
140 136 0
144 138 0
141 136 0
145 140 0
139 134 0
147 141 0
146 140 0
147 142 0
146 140 0
152 146 0
150 142 0
146 139 0
146 138 0
150 143 0
148 141 0
148 140 0
149 144 0
148 141 0
148 143 0
151 147 0
155 153 0
154 152 0
158 158 0
155 159 0
157 162 0
159 164 0
158 166 0
165 174 0
161 171 0
162 172 0
167 179 0
166 180 0
168 182 0
166 182 0
168 184 0
164 182 0
165 184 0
168 183 0
167 184 0
168 184 0
171 191 0
166 181 0
168 182 0
170 187 0
167 182 0
168 186 0
170 189 0
167 184 0
169 187 0
171 189 0
170 189 0
171 191 0
173 193 0
167 185 0
169 186 0
171 190 0
170 189 0
170 189 0
172 191 0
170 190 0
173 193 0
170 189 0
172 193 0
172 193 0
170 190 0
171 191 0
172 193 0
171 192 0
170 190 0
170 191 0
171 192 0
171 191 0
172 191 0
171 191 0
170 190 0
171 193 0
172 192 0
170 191 0
170 192 0
172 194 0
170 189 0
171 192 0
172 194 0
173 195 0
169 189 0
170 191 0
172 193 0
172 193 0
173 195 0
172 193 0
171 194 0
172 196 0
173 197 0
171 194 0
173 196 0
171 195 0
170 194 0
172 196 0
173 196 0
172 195 0
173 197 0
171 195 0
172 195 0
172 196 0
170 194 0
172 196 0
173 196 25
172 195 25
171 194 36
174 197 51
170 193 0
171 194 36
174 197 44
171 195 44
172 196 36
167 189 36
176 199 36
174 198 51
173 196 51
177 200 88
176 198 76
180 201 105
181 203 95
184 205 122
182 203 125
182 203 108
183 204 114
188 208 135
188 207 149
188 208 144
186 207 133
190 210 149
190 209 151
190 210 147
192 212 161
196 215 179
194 213 179
195 214 169
193 213 175
200 218 199
196 216 181
193 213 175
196 215 184
202 221 206
201 220 203
201 220 203
201 220 201
203 222 211
200 219 204
200 219 201
203 222 212
204 222 212
203 222 212
205 223 218
203 221 206
204 222 212
204 222 217
203 222 211
203 221 207
204 223 217
203 222 215
205 224 221
205 223 218
201 221 212
206 224 221
203 222 214
208 226 231
201 220 207
203 222 220
204 223 215
207 224 224
205 223 214
203 222 211
204 222 214
202 221 209
204 223 214
200 219 198
202 221 207
208 226 227
204 222 215
201 220 201
199 218 198
203 221 214
201 219 204
201 219 201
202 220 211
200 219 194
204 222 207
198 216 191
199 217 191
194 213 171
198 216 186
191 210 183
180 199 178
171 190 193
165 186 187
150 170 194
139 161 185
124 148 169
141 163 179
133 156 164
108 133 163
110 134 172
78 109 154
90 119 163
85 114 159
84 114 152
68 102 150
78 109 163
66 100 157
71 103 149
79 109 163
65 100 156
65 99 158
67 101 156
63 98 157
63 97 157
65 100 151
61 97 152
63 98 154
63 98 155
62 97 158
63 98 155
59 94 150
61 98 163
61 97 163
61 97 163
61 98 165
61 97 160
61 97 159
60 97 159
61 97 163
61 97 162
60 97 161
62 98 170
60 96 153
61 97 164
60 96 154
61 97 169
62 98 164
62 98 168
62 98 163
61 97 166
61 97 164
61 97 153
61 98 165
61 97 167
62 98 161
62 99 169
60 96 153
62 98 161
62 98 169
62 98 160
62 99 167
62 98 165
61 98 163
62 99 172
62 99 169
62 98 167
63 99 166
62 98 166
62 98 162
62 98 165
62 98 163
62 99 169
62 98 161
61 98 162
62 98 168
62 98 164
61 97 158
62 98 167
61 97 157
62 98 164
62 98 165
62 98 161
62 98 158
62 98 162
61 97 157
61 97 163
61 97 158
61 98 165
62 99 170
62 98 163
62 98 163
62 99 165
62 97 156
62 98 160
62 98 162
62 98 164
61 97 158
62 98 162
62 99 170
63 99 166
61 97 158
61 97 158
62 98 157
62 97 157
61 97 158
62 98 158
61 96 154
61 96 151
62 98 161
62 98 162
62 97 156
61 97 153
62 98 163
61 97 157
61 97 153
62 98 163
61 97 157
62 98 158
62 98 153
62 98 160
62 98 158
62 98 158
62 97 157
62 98 162
61 97 153
62 98 157
62 98 157
61 96 148
62 97 155
62 97 159
61 97 152
62 98 160
61 96 155
61 96 152
61 96 149
62 98 156
60 96 147
61 96 146
61 96 144
61 97 150
62 96 147
61 96 150
60 95 137
60 94 136
62 96 150
61 95 144
61 95 147
61 94 139
65 95 128
86 102 117
98 100 64
115 110 8
113 109 0
109 104 0
107 101 0
114 109 0
116 110 0
107 101 0
112 107 0
102 99 0
100 96 0
106 100 0
113 107 0
110 106 0
111 106 0
119 113 0
114 108 0
122 117 0
113 108 0
114 111 0
123 117 0
119 116 0
118 115 0
119 115 0
126 123 0
131 127 0
126 124 0
132 126 0
132 128 0
135 130 0
130 127 0
132 128 0
135 129 0
134 130 0
137 133 0
131 127 0
141 135 0
138 133 0
140 136 0
136 134 0
135 131 0
139 134 0
142 137 0
139 135 0
139 135 0
142 138 0
143 138 0
143 138 0
147 141 0
149 145 0
140 135 0
140 138 0
143 138 0
142 136 0
144 136 0
140 135 0
147 142 0
140 134 0
147 141 0
145 138 0
146 141 0
145 139 0
145 139 0
145 139 0
144 138 0
145 138 0
143 135 0
149 142 0
147 140 0
147 140 0
149 141 0
148 142 0
149 143 0
147 142 0
151 146 0
150 147 0
151 146 0
154 150 0
154 153 0
158 163 0
158 163 0
160 165 0
160 164 0
160 166 0
163 171 0
164 174 0
160 172 0
164 177 0
166 181 0
165 179 0
170 188 0
165 181 0
170 187 0
171 185 0
169 185 0
167 184 0
171 188 0
167 182 0
171 189 0
170 187 0
169 185 0
171 191 0
170 187 0
168 186 0
171 188 0
167 185 0
170 189 0
167 185 0
170 188 0
170 189 0
169 189 0
169 188 0
169 187 0
168 185 0
168 186 0
171 191 0
170 188 0
171 190 0
171 191 0
173 194 0
171 189 0
171 192 0
171 190 0
171 193 0
171 191 0
172 192 0
169 189 0
171 191 0
173 194 0
170 191 0
172 191 0
172 192 0
173 194 0
170 191 0
172 193 0
172 191 0
172 193 0
172 193 0
175 195 0
172 193 0
171 192 0
172 193 0
173 196 0
172 194 0
172 194 0
171 193 0
172 194 0
171 192 0
173 195 0
171 194 0
172 195 0
170 194 0
170 194 0
172 196 0
172 195 0
171 195 0
174 197 0
172 196 0
173 197 0
174 196 0
173 196 0
172 195 0
173 197 25
174 197 36
171 194 36
173 197 25
176 199 67
175 198 51
169 193 0
173 196 44
167 191 57
173 196 44
174 197 44
173 196 44
177 198 72
177 199 72
176 198 76
182 203 99
179 201 88
180 202 117
185 205 120
181 203 111
187 207 137
183 204 122
189 210 144
187 208 144
188 209 149
193 213 159
197 216 181
190 210 149
193 213 163
194 213 171
195 215 182
197 216 177
197 216 184
199 218 193
198 217 196
199 218 199
198 218 198
201 219 198
204 222 209
200 219 194
203 222 214
203 221 212
204 222 212
201 220 207
201 220 206
203 222 212
205 224 220
204 222 212
203 221 214
206 224 223
207 224 221
208 226 234
204 222 207
207 225 224
207 225 231
207 225 226
206 225 223
203 222 217
207 226 231
205 223 217
208 226 230
202 221 207
207 225 227
204 223 218
207 225 224
206 224 221
205 223 221
204 223 218
207 225 224
208 226 230
207 225 224
207 225 227
205 223 215
207 225 224
205 224 223
204 222 217
208 226 227
202 221 203
203 222 211
202 221 207
200 218 203
202 221 203
203 221 207
200 219 201
205 223 212
197 215 184
197 215 198
192 211 188
191 209 196
170 189 203
154 174 188
157 177 195
148 169 194
138 160 184
134 156 180
121 146 175
118 142 174
98 126 163
101 127 170
83 113 156
101 128 155
83 114 161
85 115 157
77 109 153
78 109 167
80 111 155
76 107 151
64 99 157
67 101 161
63 99 161
64 98 150
61 97 161
64 99 154
63 98 162
60 96 159
60 96 158
61 97 163
61 96 159
62 98 166
61 97 155
60 96 159
62 98 164
62 97 158
61 97 159
61 98 163
61 97 166
61 98 162
61 97 159
62 98 165
61 97 160
62 98 163
60 96 151
62 98 163
61 97 158
61 97 162
62 98 163
62 98 167
60 96 160
62 98 165
61 97 161
60 96 158
61 97 162
61 97 158
61 97 163
61 97 153
61 97 164
62 99 171
62 98 167
61 97 161
61 98 165
61 98 166
62 99 167
61 97 163
62 98 163
61 97 158
62 98 168
61 97 157
63 99 169
62 98 160
62 98 163
62 98 162
61 97 158
61 97 161
60 96 151
62 98 159
62 98 162
62 99 163
62 98 155
62 98 161
61 97 152
62 98 161
62 98 164
62 98 164
62 98 165
63 99 169
62 98 163
62 98 162
61 97 155
61 97 159
62 98 165
62 98 158
62 98 164
62 98 162
62 99 168
61 97 155
62 98 164
62 98 160
61 97 155
62 98 161
61 97 160
63 99 167
61 97 157
62 98 161
62 98 165
62 98 158
62 98 160
62 99 164
62 98 160
61 97 161
61 96 155
62 98 161
61 97 158
62 98 157
63 99 163
62 98 161
61 97 158
62 98 157
62 98 159
62 97 149
62 98 159
62 98 160
62 97 151
61 96 150
62 98 157
62 98 157
60 95 151
62 98 155
62 97 157
62 98 155
62 97 155
62 98 160
61 97 150
61 96 144
62 97 147
62 98 156
61 96 153
61 97 146
62 97 147
60 95 134
60 95 145
62 97 149
61 96 145
61 95 144
60 95 141
59 93 136
60 93 133
69 96 141
90 99 86
108 111 49
120 117 18
114 107 0
119 114 0
114 109 0
110 107 0
112 106 0
114 108 0
103 96 0
111 106 0
110 105 0
99 96 0
114 108 0
109 103 0
114 110 0
109 104 0
113 108 0
122 117 0
115 111 0
116 112 0
124 118 0
122 118 0
127 121 0
118 114 0
131 125 0
120 118 0
128 124 0
128 123 0
129 125 0
134 130 0
135 130 0
124 119 0
131 127 0
136 132 0
135 131 0
130 127 0
131 128 0
138 133 0
138 133 0
142 136 0
141 137 0
140 133 0
133 128 0
143 136 0
136 131 0
138 133 0
144 139 0
143 138 0
146 140 0
144 138 0
142 137 0
149 143 0
143 138 0
144 138 0
141 134 0
143 139 0
145 140 0
148 142 0
145 139 0
142 136 0
146 137 0
145 139 0
145 137 0
146 140 0
146 140 0
146 139 0
146 139 0
144 136 0
146 140 0
150 144 0
151 145 0
148 141 0
145 140 0
151 146 0
151 150 0
156 156 0
149 144 0
157 158 0
152 154 0
156 157 0
158 160 0
162 171 0
163 172 0
160 168 0
163 173 0
163 174 0
164 174 0
165 181 0
165 177 0
170 186 0
165 181 0
168 184 0
166 181 0
167 183 0
167 179 0
167 182 0
170 185 0
167 182 0
169 187 0
167 182 0
165 181 0
170 187 0
169 186 0
169 186 0
168 185 0
170 189 0
168 187 0
170 184 0
171 190 0
171 191 0
171 191 0
171 191 0
169 188 0
170 189 0
169 188 0
172 190 0
170 189 0
171 190 0
170 190 0
170 192 0
173 193 0
169 188 0
170 190 0
172 192 0
169 187 0
169 190 0
172 191 0
170 192 0
170 191 0
172 191 0
169 191 0
173 194 0
173 194 0
171 191 0
170 192 0
172 193 0
173 194 0
170 192 0
171 192 0
172 193 0
172 192 0
172 196 0
171 191 0
171 192 0
173 195 0
172 192 0
171 193 0
174 195 0
171 193 0
176 198 0
171 195 0
170 195 0
175 197 0
170 194 0
173 197 0
173 197 0
173 197 0
173 196 0
170 194 0
173 196 0
173 197 0
168 192 0
174 197 25
174 197 51
174 197 51
172 196 44
171 195 51
173 197 51
171 194 44
172 195 51
173 196 51
171 195 25
175 198 67
179 201 84
178 200 80
175 198 67
178 200 88
182 204 102
178 199 92
183 204 128
189 210 142
190 210 137
185 207 122
188 209 147
194 213 157
197 215 175
194 213 163
193 213 167
192 212 175
196 215 177
197 216 181
200 219 193
199 218 188
196 215 186
196 216 181
202 220 206
199 218 194
198 218 193
206 224 221
203 221 204
201 220 203
202 220 206
205 223 218
206 224 227
206 224 221
201 221 209
205 223 215
203 221 209
206 225 227
205 223 221
208 225 231
205 224 218
205 224 224
207 225 226
204 223 217
203 221 214
210 227 231
205 223 215
208 226 230
207 225 228
208 225 230
207 225 230
206 224 227
208 226 228
206 224 220
209 227 230
210 228 234
208 226 233
208 225 224
210 227 236
208 226 228
208 225 228
204 222 212
211 228 237
207 225 227
207 225 226
205 223 218
206 224 223
204 222 217
206 224 220
205 222 215
203 222 209
203 222 217
204 222 206
205 223 220
204 222 214
201 219 204
203 221 203
198 216 211
192 210 208
192 211 208
161 181 203
168 187 211
162 181 211
136 158 188
139 161 186
125 148 188
111 135 172
106 132 178
99 126 171
105 131 171
96 123 161
81 112 158
84 114 154
77 108 159
74 107 156
66 101 158
78 109 156
69 103 160
69 102 156
76 108 157
68 102 156
61 96 157
68 102 152
63 98 161
68 102 153
64 99 156
63 98 153
62 97 154
63 99 164
62 97 144
61 97 160
60 95 151
61 97 157
61 97 160
61 97 155
60 96 155
60 96 157
61 97 159
60 96 156
61 96 156
61 97 158
60 96 157
61 97 163
61 97 161
60 96 159
61 98 163
60 96 153
62 98 168
62 97 159
61 97 165
62 98 167
61 98 166
62 98 168
62 98 165
61 97 158
61 97 157
61 97 164
61 97 159
62 98 161
61 98 162
63 99 171
62 98 165
62 98 169
61 96 160
62 98 163
62 98 169
62 98 163
62 99 173
62 98 165
61 97 164
62 98 162
61 98 162
60 96 155
61 97 163
62 98 161
62 98 159
61 98 160
62 98 159
62 98 161
62 98 162
61 97 157
61 97 156
61 97 156
61 98 161
60 97 158
62 98 163
62 98 161
61 97 153
62 98 166
61 97 152
62 98 164
62 98 165
62 98 161
62 98 156
61 97 160
62 98 166
62 98 163
62 99 171
62 98 164
62 98 154
62 98 165
62 98 162
61 97 157
61 97 157
62 98 161
61 97 157
61 97 160
62 98 163
61 97 154
62 98 156
62 97 156
62 99 165
61 97 152
61 97 154
62 98 165
61 97 149
62 98 160
62 97 151
60 95 153
61 97 156
62 97 157
62 97 155
62 97 154
61 97 156
61 97 156
62 98 159
61 97 151
62 98 159
61 97 150
62 97 156
61 97 153
62 98 159
62 97 153
61 97 152
62 97 153
62 98 157
61 97 150
60 96 146
61 96 150
61 96 151
61 96 147
61 96 141
60 94 140
60 95 146
60 94 140
60 94 145
59 92 128
65 93 119
91 105 95
108 112 57
122 117 0
107 103 0
102 99 0
117 112 0
111 105 0
105 98 0
103 97 0
109 103 0
108 101 0
109 104 0
114 109 0
113 106 0
113 108 0
117 110 0
107 103 0
121 114 0
122 115 0
121 116 0
114 109 0
116 111 0
117 111 0
123 118 0
119 114 0
122 117 0
118 114 0
128 121 0
125 120 0
129 125 0
135 129 0
126 123 0
127 123 0
131 126 0
134 127 0
134 130 0
134 129 0
133 129 0
139 132 0
136 130 0
135 130 0
133 126 0
137 133 0
142 137 0
131 127 0
140 133 0
140 135 0
135 128 0
142 136 0
146 140 0
141 136 0
144 136 0
143 136 0
148 143 0
144 136 0
144 139 0
148 142 0
144 135 0
145 139 0
142 136 0
144 137 0
144 137 0
146 140 0
146 139 0
146 138 0
150 143 0
146 138 0
141 133 0
147 141 0
145 137 0
149 143 0
147 142 0
151 145 0
150 145 0
148 142 0
153 149 0
152 149 0
151 150 0
154 153 0
162 169 0
155 156 0
158 164 0
161 168 0
162 173 0
159 165 0
164 175 0
162 175 0
164 176 0
166 180 0
167 182 0
166 179 0
168 184 0
164 181 0
169 182 0
168 182 0
167 183 0
170 188 0
169 186 0
167 180 0
168 184 0
170 189 0
168 184 0
168 184 0
171 189 0
170 190 0
170 188 0
170 186 0
171 188 0
170 188 0
171 190 0
168 188 0
168 187 0
170 189 0
169 187 0
171 187 0
173 192 0
170 190 0
171 192 0
171 192 0
173 193 0
170 189 0
169 189 0
172 192 0
171 191 0
172 193 0
169 189 0
172 191 0
171 191 0
170 189 0
170 190 0
172 193 0
170 190 0
171 191 0
173 193 0
173 194 0
174 195 0
173 194 0
171 190 0
171 192 0
173 195 0
172 194 0
171 192 0
172 195 0
171 192 0
171 192 0
171 191 0
170 192 0
172 193 0
172 193 0
171 193 0
172 195 0
172 195 0
173 196 0
172 196 0
170 194 0
172 196 0
173 196 0
172 196 0
173 197 0
171 194 0
174 197 0
171 193 25
171 194 25
171 194 51
178 200 57
174 196 51
172 195 36
173 196 36
173 196 25
173 196 57
177 200 62
178 201 76
175 198 72
178 200 84
176 199 62
181 202 88
181 202 105
186 207 128
181 203 117
185 206 128
188 208 149
188 208 149
186 207 140
190 209 159
190 209 161
192 212 159
192 212 161
193 213 163
193 213 167
196 215 175
193 213 173
195 215 179
198 217 189
197 217 193
202 220 201
202 220 201
207 225 224
200 220 201
203 221 203
203 221 204
201 220 204
207 225 224
209 226 231
207 225 223
208 225 226
207 224 224
204 223 224
204 222 217
206 224 224
207 225 231
209 227 240
206 225 224
206 224 221
210 227 236
205 223 226
208 225 228
210 227 236
209 227 231
205 224 223
208 225 230
208 226 231
211 229 240
209 227 237
210 227 238
207 225 231
207 225 234
209 227 233
210 226 234
208 226 228
207 225 226
209 227 230
210 227 236
211 228 240
208 226 230
211 229 237
210 227 234
210 228 236
212 229 238
209 226 231
207 225 221
207 225 224
204 223 221
205 223 218
207 225 224
204 222 214
207 225 227
208 226 227
206 223 214
205 223 212
198 216 204
194 213 212
182 201 206
179 198 221
168 187 211
165 184 212
137 159 201
152 172 207
118 142 188
127 150 179
121 144 185
115 140 178
102 128 180
103 129 180
85 115 167
91 120 164
89 118 172
79 111 161
70 104 168
77 109 160
72 105 157
79 109 159
74 106 164
70 103 157
71 105 164
60 97 159
69 102 156
70 103 155
65 99 150
60 96 150
61 97 160
62 98 156
65 99 154
63 98 161
60 96 152
60 96 153
61 97 165
60 97 163
60 96 160
61 97 162
61 96 153
60 96 158
59 95 147
60 96 155
61 98 162
61 98 163
61 97 161
61 97 160
62 97 162
61 97 159
62 98 166
62 98 164
62 98 166
62 99 171
62 98 167
61 98 163
61 97 164
62 98 160
62 98 169
61 97 163
62 98 165
61 97 152
61 98 165
61 97 158
62 99 167
62 98 162
61 97 158
60 96 158
62 98 162
62 99 166
62 98 161
62 98 161
60 97 163
62 98 164
61 98 163
62 98 165
62 98 165
62 98 163
61 97 155
62 98 163
62 99 163
62 98 160
62 98 163
62 98 160
61 97 152
61 97 156
62 99 169
62 98 166
62 97 155
62 98 159
62 98 163
61 97 156
62 98 163
62 98 162
61 97 157
61 97 155
61 97 159
62 98 168
63 99 161
62 98 162
62 98 157
63 99 168
62 98 162
63 98 157
63 99 162
61 97 155
62 97 154
62 98 162
62 98 162
63 99 164
61 97 155
62 98 161
62 98 165
61 97 155
63 98 159
62 98 158
62 97 154
61 96 154
61 96 148
63 98 160
61 97 148
62 98 156
62 98 161
62 98 159
62 97 153
62 97 154
62 97 154
61 97 149
60 96 153
62 97 156
62 97 156
61 96 156
62 97 154
62 97 151
62 97 152
61 97 149
61 96 151
61 96 151
61 96 150
61 95 146
60 95 142
60 94 140
61 95 139
60 95 142
62 97 151
61 96 149
61 95 147
60 95 140
57 90 126
60 94 136
75 98 119
99 109 91
112 113 51
123 118 0
108 105 0
119 116 0
112 106 0
106 99 0
114 111 0
106 101 0
107 102 0
110 106 0
111 104 0
109 103 0
98 93 0
114 107 0
110 104 0
113 108 0
113 107 0
107 101 0
119 113 0
115 109 0
124 118 0
122 116 0
122 119 0
130 122 0
119 113 0
122 115 0
118 113 0
118 114 0
117 110 0
130 125 0
122 117 0
127 123 0
135 130 0
133 129 0
134 128 0
130 125 0
132 124 0
133 127 0
131 125 0
139 132 0
132 127 0
139 133 0
135 129 0
139 133 0
138 132 0
140 135 0
132 127 0
137 129 0
142 136 0
135 127 0
144 138 0
143 137 0
142 136 0
142 136 0
138 131 0
144 137 0
146 140 0
143 135 0
141 132 0
140 133 0
146 137 0
148 140 0
144 138 0
143 138 0
141 134 0
145 138 0
144 139 0
149 144 0
147 140 0
146 139 0
149 142 0
154 152 0
154 152 0
152 152 0
152 150 0
156 155 0
152 155 0
158 161 0
154 154 0
160 168 0
163 168 0
159 167 0
161 169 0
166 176 0
164 177 0
166 180 0
165 177 0
166 177 0
168 180 0
166 179 0
167 181 0
167 183 0
168 182 0
165 183 0
166 181 0
169 186 0
170 186 0
170 185 0
167 183 0
166 183 0
167 182 0
170 186 0
169 185 0
170 186 0
168 186 0
169 185 0
172 191 0
169 187 0
170 188 0
170 190 0
171 189 0
170 190 0
169 189 0
169 187 0
171 190 0
169 188 0
167 186 0
169 186 0
172 191 0
172 191 0
169 190 0
171 189 0
171 190 0
171 192 0
170 191 0
171 190 0
169 189 0
170 191 0
172 195 0
170 190 0
171 193 0
170 191 0
170 193 0
171 193 0
171 191 0
172 195 0
173 192 0
171 194 0
172 193 0
173 194 0
170 190 0
171 191 0
170 189 0
171 193 0
171 193 0
172 194 0
171 192 0
171 193 0
171 192 0
172 195 0
171 195 0
172 196 0
170 194 0
172 196 0
169 193 0
173 196 0
170 194 0
172 195 0
171 195 36
171 195 25
172 196 25
172 195 44
171 194 25
174 196 57
170 194 25
172 196 25
174 197 44
174 197 67
171 194 51
172 196 57
179 201 84
178 200 88
183 205 114
185 206 122
179 201 99
181 203 102
185 205 135
190 209 147
182 203 111
187 206 153
185 205 122
190 210 155
195 215 173
192 212 167
190 211 151
194 214 173
193 213 167
198 217 189
197 216 188
197 216 189
197 216 193
200 219 196
201 221 206
198 217 191
203 222 214
203 222 212
201 220 207
205 222 220
208 225 226
203 221 215
205 223 220
200 219 206
201 220 209
207 225 231
206 225 226
206 225 226
207 224 227
209 226 230
207 225 230
209 226 230
211 228 237
212 229 237
209 227 237
206 224 227
209 227 236
210 227 242
208 226 234
210 227 233
209 227 236
210 227 236
209 227 233
208 225 230
210 227 230
207 225 227
208 226 231
206 223 218
210 227 238
208 226 227
211 228 241
208 226 230
209 226 234
211 228 236
208 226 227
210 227 234
210 228 236
210 228 241
206 223 220
208 226 228
210 228 234
208 226 226
212 229 237
208 225 226
205 223 218
206 224 220
205 223 218
206 224 224
207 225 224
202 220 207
195 213 213
190 208 228
182 201 219
170 189 218
175 194 227
164 183 219
147 168 204
144 165 205
137 159 199
133 155 198
115 139 186
124 147 193
113 138 181
102 129 180
92 120 166
84 114 156
92 120 170
75 107 161
76 108 157
81 113 163
74 107 158
74 107 158
73 105 158
70 103 162
68 102 157
66 101 156
61 97 155
63 98 153
63 98 158
63 99 157
62 98 162
60 96 155
59 94 150
62 97 154
61 97 161
60 96 158
60 96 151
61 97 153
60 96 151
58 94 151
60 96 155
60 96 157
61 97 161
61 97 160
61 96 157
61 96 157
59 95 160
61 97 169
60 96 157
61 97 159
63 99 166
61 97 163
62 98 163
62 98 160
62 99 169
62 99 167
60 96 152
61 97 161
61 97 160
62 98 162
62 97 162
62 98 162
61 97 162
62 98 161
62 98 158
60 95 155
62 98 162
62 98 160
62 98 163
61 97 154
62 98 161
62 98 165
61 97 164
61 97 158
61 98 161
61 97 158
63 99 166
60 96 149
62 98 165
62 98 160
60 96 148
62 98 157
61 97 153
63 99 167
61 97 158
62 98 163
62 97 152
61 98 163
62 98 162
62 98 159
61 97 159
62 98 158
63 99 165
62 98 166
62 98 163
61 97 156
62 98 154
62 98 163
62 98 163
61 97 159
62 98 158
61 96 150
63 98 158
61 97 153
62 98 156
62 99 166
62 97 152
62 98 156
62 98 154
62 98 158
62 98 162
61 96 159
62 97 157
62 98 157
61 97 154
62 98 158
62 97 154
62 98 156
62 98 161
61 97 151
62 98 161
62 98 156
62 98 159
61 97 153
62 97 154
62 97 151
61 97 152
62 97 152
63 98 164
61 96 145
61 97 153
62 98 158
61 97 153
61 97 151
61 97 147
62 97 153
61 96 152
62 97 155
60 95 140
60 95 141
62 97 149
60 94 138
61 97 152
61 95 146
62 97 155
61 95 142
62 96 145
58 92 129
59 93 132
60 94 130
78 98 117
92 98 78
102 102 47
114 113 0
116 116 0
117 115 0
115 106 0
111 107 0
111 105 0
115 109 0
100 95 0
113 107 0
110 106 0
105 100 0
111 102 0
111 105 0
114 108 0
107 101 0
111 105 0
116 109 0
114 109 0
117 110 0
118 112 0
110 106 0
124 119 0
119 113 0
134 127 0
124 119 0
133 126 0
119 113 0
133 128 0
133 126 0
129 123 0
126 119 0
131 124 0
135 130 0
131 125 0
128 122 0
135 129 0
131 124 0
139 132 0
131 126 0
133 127 0
138 132 0
135 130 0
142 135 0
132 126 0
140 134 0
140 135 0
141 135 0
142 136 0
139 131 0
143 137 0
141 131 0
143 137 0
139 131 0
146 139 0
143 135 0
141 132 0
142 134 0
146 138 0
148 141 0
147 140 0
147 139 0
143 135 0
140 131 0
147 141 0
143 136 0
147 140 0
148 142 0
148 143 0
152 148 0
150 142 0
150 147 0
155 151 0
155 157 0
152 151 0
154 155 0
156 157 0
158 160 0
160 167 0
157 161 0
161 168 0
163 172 0
162 174 0
164 175 0
167 180 0
165 177 0
168 182 0
164 177 0
167 180 0
165 179 0
168 184 0
168 181 0
168 183 0
164 178 0
164 179 0
170 185 0
169 183 0
167 184 0
167 183 0
166 182 0
169 185 0
168 184 0
172 190 0
168 186 0
166 182 0
170 186 0
173 193 0
166 182 0
166 183 0
169 186 0
169 185 0
170 187 0
171 190 0
170 189 0
168 186 0
170 189 0
169 187 0
168 189 0
168 185 0
173 193 0
170 189 0
172 191 0
170 189 0
172 191 0
171 191 0
171 192 0
171 191 0
170 190 0
170 190 0
170 189 0
173 192 0
170 191 0
170 191 0
171 190 0
168 189 0
173 194 0
171 190 0
173 194 0
171 193 0
170 191 0
171 192 0
171 191 0
173 195 0
169 191 0
174 195 0
173 195 0
172 193 0
172 193 0
173 195 0
174 197 0
170 194 0
172 196 0
171 194 0
171 194 0
172 196 0
172 194 0
172 196 0
172 195 25
174 197 25
175 198 25
170 193 25
173 196 36
169 192 44
173 196 36
173 196 44
176 199 57
173 197 51
174 197 67
176 199 62
176 198 84
175 197 72
181 203 99
176 199 76
186 207 120
180 202 117
187 207 128
185 205 130
188 208 135
190 211 149
189 209 149
193 212 163
196 215 181
195 215 181
189 210 151
194 213 177
199 218 188
198 217 186
198 216 184
199 218 191
202 221 203
200 219 198
199 218 201
203 221 207
203 221 206
200 219 201
208 226 228
209 227 234
208 226 231
204 223 218
207 225 223
207 225 226
205 223 218
206 225 227
205 223 221
208 226 234
207 225 226
207 226 230
209 226 230
210 227 237
212 229 240
208 226 228
209 226 231
208 226 230
209 227 231
210 227 230
209 226 233
212 229 237
209 226 236
208 226 230
207 224 223
209 227 231
205 223 220
209 227 228
209 226 233
206 224 223
207 225 227
207 225 227
207 225 226
207 224 221
207 225 224
209 226 234
208 226 227
208 225 223
210 227 237
206 224 218
206 224 223
210 227 237
208 226 230
208 225 227
208 225 226
208 225 224
210 228 236
205 223 218
208 226 227
211 228 233
202 221 218
208 225 230
207 224 229
202 219 226
189 207 226
186 204 226
173 192 217
156 176 210
154 175 208
151 171 205
147 167 203
152 172 209
134 156 202
130 152 192
128 151 197
114 139 190
100 127 185
97 124 172
93 121 177
97 124 164
79 111 170
71 104 164
68 102 164
79 111 164
75 108 164
74 106 158
73 106 159
69 102 158
73 106 165
68 102 153
66 100 160
65 99 157
63 99 161
61 96 162
61 96 155
66 100 153
63 99 163
60 96 163
67 102 156
63 99 161
65 100 164
60 96 161
61 97 158
62 98 160
60 96 157
61 97 162
60 97 155
61 97 161
61 97 163
61 97 158
61 98 169
62 98 170
61 97 157
62 97 156
61 97 160
61 97 161
61 98 162
61 97 164
61 97 159
60 95 153
61 98 160
61 97 161
62 98 164
61 97 159
61 97 162
61 97 158
61 98 161
61 96 151
61 97 162
61 97 158
61 97 159
61 97 160
62 97 156
61 97 152
62 98 162
62 98 162
60 96 156
62 98 164
62 98 167
62 98 162
62 99 164
62 98 160
63 99 166
62 98 164
62 99 169
62 99 168
61 97 158
62 98 159
62 97 162
62 98 161
61 97 159
62 98 156
60 96 154
62 98 160
61 97 156
61 97 157
61 97 163
62 98 158
63 99 160
61 97 156
61 97 159
61 97 155
62 98 161
61 97 159
62 98 161
63 98 157
61 97 158
62 98 157
62 98 158
61 97 156
62 98 162
61 97 153
61 97 163
61 97 155
61 97 161
61 97 153
62 98 154
61 97 158
60 96 152
60 96 157
62 97 154
61 97 154
61 97 151
62 98 160
62 98 155
61 96 150
62 98 155
62 97 151
61 97 157
61 96 150
62 98 158
59 95 143
61 96 141
63 98 155
63 98 160
62 97 155
61 97 155
62 97 150
61 97 156
62 97 150
61 97 157
62 98 160
61 96 150
61 96 145
60 95 142
61 96 145
60 95 136
61 96 142
61 95 144
61 96 147
60 94 136
60 95 141
63 95 125
75 94 108
109 114 68
107 109 25
121 120 0
118 114 0
118 115 0
118 117 0
111 106 0
119 113 0
104 96 0
109 103 0
115 109 0
107 102 0
117 110 0
116 109 0
112 103 0
123 116 0
114 107 0
113 104 0
119 114 0
114 107 0
115 109 0
117 110 0
108 101 0
115 109 0
118 111 0
124 117 0
124 118 0
123 117 0
127 120 0
121 116 0
129 122 0
133 125 0
131 124 0
129 123 0
133 127 0
136 127 0
137 131 0
131 125 0
133 128 0
130 123 0
130 124 0
139 131 0
135 128 0
133 126 0
136 130 0
139 133 0
139 132 0
141 134 0
141 134 0
137 129 0
141 133 0
137 130 0
142 135 0
140 132 0
142 135 0
141 133 0
144 137 0
139 132 0
141 132 0
143 134 0
143 135 0
144 135 0
145 137 0
143 135 0
145 135 0
145 136 0
145 138 0
150 144 0
152 145 0
149 145 0
147 142 0
151 147 0
153 152 0
156 157 0
153 152 0
153 154 0
159 162 0
158 161 0
160 164 0
162 172 0
163 173 0
162 171 0
157 166 0
163 177 0
162 171 0
163 175 0
163 173 0
167 182 0
168 182 0
167 178 0
165 179 0
168 185 0
168 182 0
168 183 0
165 178 0
169 183 0
172 190 0
170 187 0
169 186 0
168 183 0
167 182 0
167 185 0
168 184 0
169 187 0
166 182 0
168 184 0
170 188 0
169 185 0
170 187 0
169 186 0
171 189 0
168 187 0
166 184 0
168 186 0
170 188 0
168 188 0
171 191 0
170 187 0
170 188 0
168 186 0
170 187 0
170 190 0
170 190 0
172 190 0
170 191 0
168 189 0
172 194 0
172 192 0
171 192 0
168 187 0
172 193 0
171 190 0
172 190 0
167 184 0
173 195 0
171 191 0
170 190 0
173 193 0
172 193 0
173 192 0
170 191 0
171 193 0
170 192 0
171 193 0
172 195 0
172 193 0
173 194 0
174 196 0
173 194 0
169 192 0
172 195 0
173 196 0
171 195 0
169 193 0
173 197 0
173 197 0
167 191 25
173 197 25
173 197 36
173 196 36
174 197 44
173 196 36
172 195 36
175 197 67
175 198 25
173 196 51
174 197 62
178 200 88
174 196 67
177 200 80
180 202 88
181 202 99
179 201 99
182 203 111
185 206 135
186 207 137
187 207 140
189 210 142
187 207 137
188 209 153
191 211 157
190 211 165
193 213 171
196 216 182
200 218 196
196 216 191
199 219 196
193 213 167
201 220 203
202 221 206
203 221 214
197 217 191
203 221 211
200 219 201
203 222 209
203 222 214
207 224 217
205 223 218
204 222 221
208 226 227
207 225 227
208 226 228
208 226 226
209 226 227
208 226 228
214 230 242
208 226 227
209 227 231
205 223 218
208 226 230
210 226 228
204 222 226
206 224 221
207 225 224
207 225 226
208 226 230
202 221 218
207 225 223
203 222 217
201 220 209
203 221 218
208 226 228
201 220 209
203 222 212
205 223 217
202 220 209
203 221 211
204 223 218
201 219 209
200 219 204
201 219 206
203 221 212
204 222 218
203 221 212
205 224 224
205 223 220
208 226 230
207 225 227
207 224 230
210 227 230
208 226 227
209 227 233
206 223 221
205 223 218
207 225 223
207 224 221
205 222 212
209 226 226
203 220 217
201 219 225
190 208 223
180 198 226
174 193 223
166 186 213
149 170 208
152 172 208
156 176 213
138 160 199
141 162 204
124 148 192
119 143 192
108 133 185
108 134 187
82 112 170
102 129 178
93 122 181
79 110 163
75 107 166
81 112 169
75 107 160
82 113 174
71 105 153
67 102 166
74 106 160
66 101 163
68 101 151
64 99 163
70 103 160
64 99 159
61 96 151
60 95 150
61 97 155
61 96 155
62 97 151
60 96 158
60 96 152
62 98 167
62 97 158
64 99 162
60 96 161
61 97 156
61 97 162
60 96 156
61 97 163
61 97 160
60 96 157
60 96 161
61 97 158
62 98 162
61 97 164
61 97 166
61 96 156
60 96 148
61 97 161
62 98 162
60 95 148
61 98 166
62 98 166
62 98 159
62 98 158
62 98 164
62 98 157
61 98 165
60 96 155
61 97 153
61 97 152
61 97 158
62 98 163
62 98 165
62 99 169
62 98 166
61 97 153
62 98 163
62 98 158
60 96 155
61 98 165
62 98 160
62 98 163
63 99 162
62 98 162
61 97 157
62 98 161
62 98 163
62 99 169
62 98 159
61 97 154
62 98 160
61 97 152
62 97 157
63 99 164
62 97 156
62 98 161
61 97 155
62 98 159
62 98 161
62 98 159
61 97 155
63 99 163
61 96 147
61 97 152
62 98 165
62 97 154
61 97 152
62 97 155
61 96 151
62 98 159
61 97 153
62 98 160
62 98 157
61 97 157
61 97 151
62 98 161
61 97 153
62 97 154
61 97 145
60 96 152
61 97 152
62 98 161
61 96 149
62 98 159
62 98 156
61 96 149
62 97 155
61 96 148
61 97 154
61 97 154
61 96 153
60 96 149
61 96 150
62 98 159
60 96 144
60 95 143
60 96 148
60 94 143
60 95 143
62 97 156
61 96 150
60 95 136
61 96 144
61 96 147
60 95 140
61 95 146
61 97 153
60 95 142
60 95 134
59 94 134
59 93 135
60 93 134
67 96 124
81 101 96
97 106 82
120 121 18
120 119 0
117 114 0
116 112 0
121 120 0
109 104 0
115 113 0
120 116 0
108 102 0
115 108 0
115 108 0
114 106 0
108 102 0
105 99 0
116 112 0
108 103 0
118 110 0
111 103 0
115 107 0
124 116 0
115 107 0
115 108 0
122 117 0
126 117 0
116 111 0
120 114 0
129 122 0
126 120 0
120 115 0
127 121 0
134 124 0
131 123 0
134 124 0
131 123 0
132 123 0
132 124 0
127 119 0
130 124 0
135 128 0
137 133 0
132 123 0
129 122 0
142 135 0
137 132 0
139 130 0
132 124 0
138 132 0
133 126 0
137 131 0
143 137 0
137 130 0
140 132 0
143 133 0
139 132 0
142 135 0
143 132 0
146 136 0
142 132 0
144 136 0
143 135 0
143 134 0
145 138 0
147 137 0
142 134 0
147 141 0
147 139 0
145 140 0
148 144 0
152 148 0
151 149 0
150 148 0
149 146 0
152 150 0
152 153 0
156 158 0
155 158 0
156 159 0
156 158 0
164 173 0
163 172 0
159 167 0
163 172 0
165 178 0
164 176 0
165 177 0
167 179 0
164 177 0
161 173 0
162 175 0
165 177 0
161 174 0
167 184 0
167 181 0
169 181 0
168 184 0
168 186 0
166 182 0
163 175 0
164 178 0
167 184 0
170 189 0
168 185 0
168 183 0
168 184 0
168 185 0
166 184 0
170 189 0
168 185 0
170 188 0
169 185 0
168 185 0
172 191 0
169 188 0
168 186 0
172 190 0
170 190 0
172 191 0
169 187 0
169 188 0
169 190 0
169 186 0
174 195 0
171 191 0
171 190 0
171 190 0
170 189 0
172 191 0
169 187 0
170 190 0
171 191 0
171 193 0
172 193 0
172 191 0
172 191 0
172 193 0
170 191 0
171 193 0
172 193 0
171 191 0
173 194 0
172 195 0
173 194 0
169 191 0
170 191 0
172 194 0
173 195 0
172 193 0
170 189 0
173 196 0
171 194 0
172 196 0
173 196 0
173 195 0
174 197 0
171 195 36
174 198 25
173 197 25
175 197 36
175 199 36
173 197 25
176 198 57
175 198 51
177 199 57
173 196 25
175 197 36
175 197 57
177 199 88
179 201 84
181 202 105
182 203 111
181 202 114
184 205 125
182 204 105
182 204 122
185 206 137
193 212 163
189 209 135
190 210 147
195 214 171
196 215 179
193 213 167
195 215 177
199 218 186
196 215 182
197 217 194
202 220 206
197 216 191
202 221 211
203 222 211
199 218 198
201 219 203
204 222 212
205 223 215
207 225 224
207 225 223
208 226 231
206 224 221
209 227 234
208 226 227
207 225 224
207 225 224
208 226 227
206 224 223
210 227 234
209 226 227
209 226 227
204 222 220
207 224 224
207 224 226
205 223 217
204 222 214
208 226 227
203 222 209
206 224 218
203 221 207
204 222 215
201 220 198
204 223 220
202 221 211
199 218 198
202 220 203
200 219 201
201 219 203
204 223 215
200 218 196
205 223 220
202 220 214
201 219 201
204 222 212
200 219 199
200 219 209
196 215 194
197 216 193
203 222 212
201 220 203
204 223 214
204 222 212
203 221 206
205 223 220
203 221 217
206 224 218
209 227 237
210 227 231
211 228 233
211 227 234
207 224 223
205 222 220
202 220 224
199 217 228
185 203 217
192 210 229
164 184 209
166 186 215
155 175 208
147 168 203
154 174 211
153 174 212
144 165 204
139 161 203
127 150 196
119 144 194
123 147 197
102 128 181
91 120 181
85 115 179
94 122 184
85 116 173
72 106 164
71 103 160
75 107 161
73 106 154
83 113 153
76 108 166
71 104 160
66 100 158
62 97 159
65 100 165
72 104 159
61 97 163
61 97 157
61 96 149
64 99 161
61 96 155
60 96 151
61 97 159
60 96 155
60 95 160
61 97 160
60 96 160
61 97 158
61 97 162
61 97 160
62 97 160
60 96 155
61 97 164
60 95 151
61 97 160
61 97 163
60 96 159
60 96 153
62 98 167
61 97 156
62 97 160
62 98 167
61 97 161
61 97 161
61 97 156
60 95 149
61 97 158
62 98 168
61 96 158
60 95 149
60 96 156
62 98 159
62 98 164
62 98 161
61 97 160
62 98 165
62 99 167
62 98 163
62 98 157
61 97 160
61 97 158
61 97 162
61 97 155
61 98 169
62 97 158
62 98 166
60 96 156
62 98 160
62 98 154
61 97 153
61 96 156
62 98 163
62 98 162
62 98 158
62 97 156
61 97 157
62 97 156
62 98 164
62 98 156
62 98 160
62 98 157
63 99 160
62 97 152
62 98 164
61 97 152
61 97 153
61 97 155
62 98 159
63 99 167
62 97 156
61 97 158
62 98 156
63 99 164
63 99 168
62 97 153
61 97 156
62 97 153
61 97 154
61 97 151
61 96 150
61 97 151
61 97 157
61 97 158
62 98 155
62 98 153
61 97 152
62 98 160
61 97 153
62 98 158
62 97 151
63 98 158
62 98 158
61 97 153
61 97 150
62 98 158
60 95 147
61 96 143
61 96 143
62 97 157
60 95 142
60 95 136
61 96 143
62 98 154
61 96 150
61 97 149
61 96 148
61 96 146
60 95 143
60 94 133
60 94 133
61 96 143
60 95 137
60 94 144
60 94 134
59 93 126
70 96 131
86 103 93
105 109 73
117 119 31
127 130 0
116 114 0
118 119 0
111 109 0
113 108 0
117 113 0
112 108 0
116 111 0
116 110 0
111 107 0
114 108 0
105 99 0
119 111 0
106 97 0
111 104 0
110 102 0
114 105 0
113 105 0
118 109 0
108 100 0
119 110 0
122 115 0
120 109 0
128 122 0
123 115 0
124 115 0
122 115 0
129 119 0
126 117 0
126 117 0
131 125 0
129 121 0
132 123 0
135 127 0
134 127 0
133 123 0
126 117 0
134 126 0
131 122 0
130 123 0
129 120 0
132 127 0
140 131 0
137 131 0
134 125 0
133 126 0
136 128 0
136 125 0
133 125 0
140 131 0
136 128 0
138 131 0
137 129 0
138 132 0
139 132 0
135 124 0
138 130 0
141 131 0
138 129 0
139 130 0
144 136 0
143 138 0
148 141 0
145 137 0
147 142 0
146 140 0
145 141 0
154 152 0
156 158 0
153 148 0
154 151 0
154 153 0
157 161 0
151 152 0
150 152 0
156 160 0
160 166 0
159 167 0
159 168 0
168 180 0
164 175 0
166 178 0
167 181 0
161 171 0
165 178 0
161 174 0
164 176 0
166 178 0
166 180 0
167 183 0
167 180 0
167 181 0
165 180 0
167 184 0
169 187 0
166 182 0
167 184 0
169 186 0
167 183 0
170 188 0
166 182 0
165 183 0
170 189 0
168 187 0
170 188 0
166 182 0
170 187 0
169 188 0
171 191 0
168 187 0
167 185 0
170 190 0
172 191 0
168 186 0
170 191 0
168 185 0
171 189 0
171 190 0
168 187 0
172 191 0
173 192 0
173 193 0
174 195 0
172 193 0
172 192 0
171 190 0
171 191 0
171 191 0
171 189 0
171 191 0
172 192 0
173 192 0
172 193 0
171 191 0
170 191 0
170 190 0
171 190 0
171 193 0
171 193 0
171 191 0
170 191 0
170 191 0
173 194 0
171 192 0
174 194 0
168 189 0
172 194 0
172 192 0
171 194 0
173 197 0
171 195 0
171 195 0
172 196 0
175 198 25
171 195 25
174 197 44
174 197 44
172 195 36
174 197 44
173 197 36
175 198 57
174 197 44
176 199 51
173 196 51
177 198 80
180 202 92
177 199 67
177 199 80
185 206 122
183 204 117
188 208 135
193 212 155
188 209 149
193 213 157
189 209 151
196 215 173
195 214 169
193 213 163
195 215 177
195 214 177
198 217 189
196 215 188
201 220 203
198 217 194
195 214 184
201 220 204
201 220 199
204 222 214
205 223 217
205 223 220
203 222 212
206 224 221
211 228 234
207 225 223
211 228 237
207 225 223
208 226 228
207 225 223
206 224 223
205 223 220
207 225 231
207 225 224
208 226 233
207 225 227
205 223 218
199 218 199
201 220 207
206 224 220
201 220 206
202 221 207
203 221 204
200 220 204
202 221 211
201 220 199
201 220 207
194 214 179
196 216 194
200 219 198
196 216 193
193 213 169
192 212 175
196 216 188
195 215 181
196 215 188
198 217 194
197 216 188
194 214 179
195 215 188
199 218 189
199 219 199
197 216 189
192 212 169
195 215 189
197 217 188
201 220 199
201 220 199
197 216 191
199 219 194
201 220 204
201 220 199
202 219 203
205 223 215
207 224 220
210 226 224
205 223 221
202 219 217
198 215 225
189 208 218
186 204 222
174 193 220
166 185 214
155 175 207
166 185 218
163 183 218
153 173 207
136 159 204
131 154 203
135 157 195
122 146 199
115 140 190
112 137 190
97 125 178
102 129 184
102 128 177
89 118 181
84 114 171
68 103 175
80 111 165
69 102 162
79 110 163
77 108 164
75 107 166
67 101 163
70 103 161
66 101 160
62 97 161
63 97 157
67 101 157
63 98 154
65 100 156
62 97 154
62 97 155
61 96 159
61 96 158
60 95 153
62 98 157
64 99 163
60 96 153
61 96 159
60 96 158
61 96 152
60 96 164
61 96 157
60 95 154
60 96 153
60 95 147
60 96 156
61 97 156
62 97 157
61 97 162
62 98 160
61 97 158
62 98 158
60 96 150
61 97 158
61 97 156
60 96 159
62 98 163
61 97 157
62 98 165
62 98 156
61 96 151
61 98 166
62 98 161
62 98 164
62 98 161
62 98 162
62 98 164
61 97 152
61 97 157
61 97 158
61 97 158
61 96 151
61 97 155
60 96 152
62 98 159
62 98 165
61 96 157
61 97 157
62 98 160
61 98 158
61 97 151
61 97 155
62 98 160
62 98 164
61 97 151
62 98 159
61 97 160
61 97 154
60 95 144
61 97 152
60 96 153
62 98 162
61 97 158
62 98 161
60 96 153
60 96 151
61 97 152
61 97 153
62 97 152
61 97 154
62 98 163
61 96 159
63 99 165
61 96 153
62 97 154
61 97 158
61 97 153
62 98 162
63 99 160
61 97 157
62 97 151
61 97 154
61 97 155
61 97 151
62 98 158
61 97 150
61 96 150
61 97 155
61 97 152
61 97 157
61 96 147
61 96 152
62 97 148
61 97 152
60 95 143
61 97 149
62 97 153
61 96 150
61 96 145
60 95 140
62 97 154
61 96 142
61 96 141
61 97 152
61 96 142
60 95 139
61 96 143
61 96 141
61 95 141
61 95 139
61 95 145
58 91 128
61 96 148
59 93 137
60 94 137
73 99 104
102 114 87
119 121 49
122 123 0
120 123 0
125 126 0
110 109 0
120 117 0
120 118 0
120 115 0
122 118 0
112 106 0
111 106 0
116 108 0
116 109 0
119 111 0
114 105 0
121 114 0
111 104 0
114 106 0
115 106 0
119 111 0
109 101 0
119 109 0
116 106 0
121 112 0
117 108 0
119 111 0
130 121 0
120 110 0
117 107 0
122 114 0
126 118 0
130 122 0
119 110 0
128 121 0
129 119 0
127 120 0
134 123 0
131 122 0
132 122 0
128 119 0
132 122 0
136 128 0
130 121 0
135 127 0
136 129 0
134 129 0
135 126 0
137 127 0
140 131 0
143 134 0
138 130 0
134 121 0
137 128 0
141 131 0
136 127 0
137 125 0
141 133 0
139 130 0
140 134 0
140 132 0
146 138 0
142 134 0
148 141 0
146 140 0
146 142 0
144 139 0
150 146 0
148 145 0
150 148 0
148 146 0
145 143 0
150 149 0
152 152 0
152 150 0
159 162 0
161 169 0
158 162 0
155 161 0
162 169 0
165 175 0
162 173 0
165 177 0
167 179 0
165 179 0
164 178 0
158 168 0
166 180 0
165 178 0
164 179 0
166 180 0
167 180 0
168 181 0
165 177 0
166 179 0
165 178 0
168 183 0
167 181 0
168 184 0
170 186 0
167 181 0
167 183 0
168 184 0
169 186 0
170 190 0
170 185 0
172 190 0
168 186 0
170 188 0
170 189 0
167 186 0
167 185 0
166 184 0
168 186 0
171 189 0
169 188 0
171 191 0
168 184 0
169 186 0
170 188 0
172 193 0
167 185 0
169 190 0
171 191 0
171 190 0
171 190 0
171 192 0
170 189 0
172 192 0
170 190 0
172 193 0
170 191 0
170 190 0
171 191 0
171 193 0
171 193 0
169 189 0
171 191 0
172 194 0
169 190 0
172 193 0
173 193 0
172 193 0
171 193 0
170 191 0
172 194 0
171 190 0
170 191 0
170 191 0
173 194 0
173 194 0
169 193 0
172 196 0
174 196 0
167 191 0
172 195 0
173 196 25
174 197 36
175 198 51
172 195 44
173 196 25
175 199 51
175 198 51
175 197 67
176 198 95
177 199 84
179 201 95
175 197 76
182 204 102
180 202 99
180 201 105
190 209 135
181 203 108
186 206 135
187 207 149
192 212 153
193 212 175
188 209 147
193 213 169
194 213 171
197 216 186
195 215 175
197 217 191
204 222 209
200 219 201
199 218 198
201 220 199
201 220 204
205 223 218
200 219 203
204 223 214
204 222 217
202 221 214
206 224 227
204 222 215
207 224 220
203 221 211
208 225 227
209 226 226
212 229 241
207 225 224
211 228 233
208 225 223
205 223 221
207 225 224
204 222 207
199 219 196
201 220 209
201 220 201
199 218 203
198 217 198
198 217 198
203 222 214
199 218 194
195 214 175
197 217 186
200 219 201
193 213 171
191 212 167
196 216 184
196 216 188
192 212 173
195 215 177
191 212 155
188 209 155
195 215 177
188 208 151
191 211 165
190 211 171
192 212 171
194 214 182
190 210 161
192 212 167
197 217 189
198 217 194
197 216 186
191 210 159
194 214 181
197 216 193
190 210 161
196 215 188
193 213 182
195 214 181
200 219 206
193 213 182
199 218 198
201 220 196
196 215 195
193 212 199
197 215 216
193 210 223
168 187 213
176 195 211
159 179 207
151 172 204
150 170 207
150 171 200
154 175 208
152 172 211
139 161 202
138 161 199
125 149 200
122 146 193
128 152 200
119 143 190
119 143 194
96 124 188
98 126 185
99 126 183
88 117 177
78 109 162
89 118 178
76 108 170
78 110 169
88 117 168
69 103 164
71 104 161
79 110 159
68 102 162
61 97 158
66 100 154
69 102 159
61 96 150
65 99 158
62 98 154
60 96 157
61 97 154
63 98 156
62 97 149
60 95 152
61 98 163
63 98 154
60 96 155
61 96 156
61 97 159
61 97 157
62 97 155
61 97 159
61 96 153
60 96 151
60 96 156
60 95 145
61 97 159
62 98 162
61 97 157
60 95 151
60 96 155
61 97 155
62 98 165
61 97 160
61 97 159
62 98 163
62 98 160
61 97 157
62 98 166
62 97 157
62 98 161
62 98 156
62 98 156
61 97 157
60 96 153
61 97 151
61 97 157
61 97 159
62 98 163
61 97 160
61 97 156
61 97 159
62 98 160
63 99 165
61 97 154
62 98 167
61 97 156
61 97 155
61 97 150
61 97 159
62 98 161
61 97 154
63 98 159
60 95 151
62 98 155
60 96 151
61 97 153
60 96 154
60 96 147
61 96 150
62 98 158
63 99 162
62 98 165
62 97 159
62 98 159
61 96 156
61 97 151
61 97 155
61 97 157
61 97 157
61 97 154
62 97 158
61 97 157
61 97 153
60 95 144
62 98 155
61 97 157
61 96 153
62 97 157
60 96 143
62 98 161
60 96 151
60 96 152
61 96 145
61 97 149
62 98 155
62 97 154
61 97 156
61 97 152
61 97 154
62 97 154
61 97 149
61 96 147
62 98 158
60 95 139
61 96 147
61 96 143
61 96 149
61 97 152
61 96 137
61 96 144
61 96 144
60 96 141
61 96 147
62 97 150
60 95 141
62 97 152
60 94 135
60 94 135
60 94 141
60 93 134
61 94 142
60 94 140
69 94 117
105 113 75
123 130 32
125 129 0
113 115 0
120 119 0
125 127 0
106 104 0
117 116 0
113 111 0
122 120 0
122 116 0
107 106 0
118 112 0
103 99 0
111 105 0
114 105 0
111 105 0
106 99 0
110 105 0
109 102 0
114 106 0
114 106 0
119 112 0
126 119 0
108 100 0
116 110 0
123 114 0
111 103 0
124 115 0
119 108 0
116 108 0
127 119 0
127 118 0
126 118 0
126 115 0
129 121 0
124 115 0
127 117 0
127 116 0
131 120 0
136 129 0
128 119 0
133 123 0
136 126 0
131 123 0
133 123 0
139 128 0
131 121 0
131 122 0
139 131 0
136 125 0
136 125 0
136 128 0
141 132 0
139 132 0
138 130 0
143 131 0
137 130 0
140 133 0
138 129 0
144 137 0
140 131 0
143 137 0
148 142 0
145 139 0
147 144 0
146 143 0
146 140 0
146 142 0
149 145 0
156 155 0
155 157 0
151 153 0
154 158 0
153 153 0
159 163 0
160 166 0
159 167 0
163 173 0
158 165 0
164 175 0
160 170 0
167 180 0
163 173 0
163 174 0
163 174 0
161 174 0
164 175 0
163 175 0
164 173 0
165 177 0
165 178 0
165 180 0
166 180 0
167 181 0
167 182 0
171 186 0
166 182 0
169 184 0
166 180 0
165 180 0
168 184 0
169 187 0
170 186 0
166 180 0
171 187 0
167 184 0
168 183 0
170 186 0
170 188 0
168 187 0
166 181 0
167 186 0
169 187 0
170 189 0
170 188 0
171 191 0
170 188 0
170 187 0
170 189 0
166 184 0
171 190 0
169 189 0
171 190 0
169 187 0
167 185 0
171 190 0
170 188 0
174 194 0
173 193 0
173 193 0
171 190 0
170 191 0
173 193 0
172 192 0
171 193 0
172 192 0
173 192 0
170 190 0
171 191 0
171 192 0
171 193 0
172 192 0
172 194 0
171 190 0
171 193 0
172 193 0
173 194 0
173 195 0
169 188 0
173 193 0
174 196 0
170 194 0
169 194 0
170 193 36
173 197 25
174 197 51
174 198 44
171 195 36
172 195 51
175 197 57
177 199 72
174 197 51
172 195 51
175 199 36
181 203 95
182 204 108
178 201 88
177 199 92
182 203 111
185 206 125
179 200 114
189 209 149
189 210 153
192 211 159
185 205 135
191 210 155
192 212 167
192 212 163
198 217 188
202 221 204
201 219 199
198 217 188
204 222 211
200 219 198
204 222 209
205 223 215
204 223 218
203 221 214
205 224 220
207 225 223
204 223 223
208 226 227
205 223 224
207 224 223
207 225 224
207 225 227
208 225 224
206 224 224
206 223 218
203 221 207
207 225 221
206 224 224
202 220 214
200 219 198
204 222 215
202 221 211
200 219 199
200 219 203
195 214 184
195 214 184
200 219 194
194 214 173
193 212 177
192 211 175
191 211 175
192 212 167
191 213 173
190 211 167
189 210 167
194 214 175
189 209 153
189 210 159
187 208 137
186 208 151
187 208 147
185 206 142
187 208 153
189 209 165
186 207 135
191 211 167
190 211 163
188 208 153
186 208 147
184 206 125
187 207 147
189 210 153
190 212 169
193 213 173
189 210 157
191 212 167
192 212 165
196 215 184
191 211 165
191 211 163
197 216 189
197 217 192
193 212 199
186 205 189
189 207 204
188 207 220
169 188 207
161 181 207
152 172 204
150 171 200
132 154 188
148 169 203
141 162 203
122 146 186
122 146 200
129 152 198
115 140 188
112 137 188
114 139 189
111 136 194
120 145 198
100 127 185
110 136 189
89 118 180
92 121 178
79 111 178
74 107 179
73 106 171
82 113 170
67 100 160
71 105 167
75 107 165
72 105 160
73 105 157
60 96 156
64 98 158
62 98 162
60 96 157
63 98 154
64 99 155
63 98 151
63 99 160
61 97 160
60 96 153
59 95 153
59 95 154
66 100 159
59 94 155
60 96 161
64 99 159
61 97 161
60 96 154
61 97 154
60 95 157
61 97 160
61 97 158
61 96 152
60 96 155
60 96 159
61 97 158
60 95 145
61 97 158
60 96 155
61 97 157
61 96 148
61 97 152
62 98 162
61 96 156
61 96 161
61 97 158
61 97 158
60 96 156
62 98 157
61 97 157
61 97 156
61 96 158
62 98 157
61 97 153
61 96 155
61 97 159
60 96 149
61 97 149
62 98 164
61 97 154
61 96 160
61 97 162
61 97 157
61 97 160
61 97 161
62 98 160
60 95 151
61 97 159
62 98 159
62 98 157
61 97 153
61 97 157
63 99 169
61 97 157
62 98 155
62 98 157
62 98 160
60 96 152
62 98 158
61 97 152
62 98 164
61 97 156
61 97 148
61 97 155
62 98 155
62 98 162
62 97 157
61 97 150
61 97 154
61 96 147
62 98 162
61 97 153
61 97 151
61 97 156
61 97 153
61 96 151
62 97 151
61 97 152
62 98 159
62 98 159
62 97 150
62 98 152
61 96 154
60 96 149
61 97 145
61 97 149
61 96 147
62 97 158
62 97 147
61 97 147
61 96 143
60 95 139
61 96 144
60 94 137
62 97 149
61 96 146
61 97 153
62 97 153
61 97 151
62 97 151
62 97 148
62 97 149
59 93 130
62 97 150
60 95 139
60 94 133
59 93 130
60 95 140
59 93 130
66 96 122
83 102 95
100 106 51
112 116 33
135 143 0
121 122 0
109 112 0
120 120 0
121 122 0
113 111 0
118 117 0
102 96 0
99 98 0
109 102 0
104 101 0
109 105 0
109 103 0
117 112 0
116 112 0
113 109 0
103 97 0
117 110 0
112 105 0
116 106 0
116 107 0
120 111 0
109 100 0
109 98 0
118 109 0
119 111 0
122 114 0
121 112 0
122 113 0
128 120 0
121 111 0
122 110 0
126 117 0
123 114 0
127 116 0
132 124 0
136 126 0
129 121 0
133 122 0
130 120 0
133 124 0
135 123 0
128 119 0
129 120 0
135 126 0
139 129 0
136 124 0
134 125 0
138 127 0
139 131 0
140 130 0
129 120 0
141 130 0
138 127 0
147 139 0
131 124 0
140 133 0
140 132 0
142 136 0
145 138 0
149 148 0
139 136 0
143 135 0
151 150 0
140 132 0
150 146 0
154 155 0
155 159 0
154 154 0
144 144 0
155 160 0
150 150 0
161 168 0
159 163 0
158 164 0
155 161 0
162 171 0
161 170 0
159 166 0
160 167 0
163 173 0
164 175 0
164 174 0
161 171 0
161 171 0
164 178 0
168 180 0
165 178 0
162 175 0
165 181 0
164 176 0
166 181 0
169 183 0
167 182 0
168 185 0
168 182 0
165 181 0
165 180 0
169 184 0
168 186 0
171 188 0
169 187 0
167 184 0
166 181 0
169 187 0
169 186 0
174 192 0
167 183 0
169 188 0
169 185 0
171 191 0
168 187 0
170 189 0
169 187 0
167 186 0
170 189 0
169 188 0
169 187 0
169 187 0
170 189 0
171 190 0
170 191 0
171 190 0
167 185 0
172 193 0
171 194 0
170 189 0
171 190 0
171 192 0
170 189 0
172 192 0
170 189 0
171 192 0
172 192 0
170 192 0
170 190 0
171 191 0
173 195 0
170 192 0
170 190 0
172 193 0
170 190 0
172 194 0
172 192 0
168 189 0
174 193 0
173 194 0
173 193 0
169 190 0
170 192 0
169 193 0
172 195 25
174 196 0
171 195 25
176 198 44
173 195 57
173 196 25
173 196 57
175 198 62
177 199 67
181 203 108
180 201 88
179 201 99
182 203 108
179 201 88
179 201 102
187 208 128
178 199 84
184 205 120
191 211 155
186 207 137
188 208 147
194 214 169
192 212 159
194 213 171
195 214 175
196 215 179
200 218 201
199 218 193
200 219 199
199 218 194
200 218 189
202 221 209
203 222 211
207 224 226
209 226 230
204 223 215
206 224 223
203 221 209
208 226 230
210 227 230
209 227 230
208 225 223
205 223 215
207 225 220
202 220 206
204 223 220
204 222 214
203 221 212
204 222 214
199 217 203
201 220 199
196 216 191
198 217 191
194 214 179
199 217 193
190 211 171
195 215 184
195 214 179
194 214 181
193 214 175
189 210 165
187 209 161
190 211 157
188 208 153
185 207 142
185 206 137
184 205 135
185 206 140
184 206 130
187 207 140
187 208 149
177 199 95
181 202 120
187 208 149
179 201 114
183 205 125
182 204 125
186 208 137
185 208 151
183 205 128
182 204 114
185 207 142
180 202 111
181 203 114
184 206 128
178 200 133
187 208 149
185 206 149
188 209 155
187 208 155
187 208 161
187 208 149
193 213 173
185 205 158
190 209 187
181 200 188
169 189 197
152 172 187
173 193 209
142 164 189
155 176 200
150 171 195
142 164 196
140 162 199
141 163 196
126 149 185
136 158 204
119 143 188
135 157 197
115 140 190
118 143 190
129 153 201
112 137 191
110 135 190
98 125 181
114 139 189
79 111 180
89 118 180
84 115 178
65 100 170
76 108 168
79 110 173
75 106 161
68 102 162
60 96 159
70 104 165
73 105 160
66 101 164
67 101 162
73 105 165
62 98 157
63 97 149
62 97 156
60 96 159
62 97 152
63 98 151
59 93 151
60 96 150
60 96 149
60 95 154
61 96 156
62 97 151
60 96 154
62 98 156
60 95 150
60 95 158
60 96 151
61 97 158
61 97 161
60 95 155
61 97 152
61 97 156
61 97 160
60 96 154
62 98 165
61 96 156
62 98 157
60 95 151
61 97 162
61 96 156
62 97 155
61 97 158
61 96 156
62 97 156
61 97 159
62 98 162
61 97 152
62 98 161
60 96 157
62 98 158
62 98 162
62 98 156
61 96 153
62 98 155
62 99 167
61 97 152
61 96 152
62 99 164
61 97 155
62 98 161
61 97 156
61 97 154
62 98 160
61 97 154
63 99 164
62 98 164
62 98 155
61 96 151
60 96 152
61 96 149
61 97 151
62 98 157
62 98 160
62 97 155
62 97 157
61 96 151
61 97 155
61 97 152
61 97 154
62 97 154
62 98 160
61 97 151
61 96 151
61 97 158
61 97 151
62 98 157
61 97 145
62 97 153
61 97 152
61 97 152
61 96 144
62 97 149
61 96 139
62 98 155
62 98 159
62 97 153
62 98 158
61 97 153
59 95 142
61 96 148
61 96 144
61 96 140
61 96 149
61 96 147
61 96 150
60 94 135
60 95 139
61 95 142
61 97 147
61 96 139
61 96 149
61 96 144
60 95 136
61 96 143
61 96 153
60 96 147
61 96 150
61 96 145
62 96 147
60 93 130
60 95 147
62 97 155
60 93 137
61 95 139
60 94 135
60 92 124
89 100 80
101 108 62
121 126 18
124 127 0
123 127 0
120 125 0
122 122 0
117 118 0
119 119 0
110 109 0
122 120 0
119 115 0
109 109 0
106 104 0
105 100 0
111 108 0
120 114 0
116 110 0
111 108 0
111 101 0
116 109 0
106 99 0
106 100 0
125 120 0
110 104 0
123 112 0
119 111 0
123 115 0
117 108 0
114 105 0
124 117 0
107 97 0
121 111 0
114 106 0
128 119 0
120 112 0
133 123 0
123 115 0
131 122 0
126 117 0
123 116 0
128 117 0
127 118 0
128 116 0
130 120 0
131 121 0
133 122 0
131 122 0
129 121 0
138 127 0
142 133 0
133 121 0
133 129 0
136 125 0
136 129 0
134 124 0
138 131 0
136 128 0
141 135 0
144 137 0
144 140 0
142 135 0
139 131 0
140 136 0
146 142 0
145 141 0
154 153 0
149 148 0
150 151 0
151 152 0
152 154 0
151 151 0
153 156 0
155 159 0
155 160 0
151 157 0
157 163 0
154 161 0
159 166 0
162 169 0
163 174 0
163 173 0
165 175 0
166 177 0
163 177 0
162 172 0
154 162 0
165 178 0
163 174 0
162 174 0
166 179 0
161 173 0
165 179 0
163 172 0
166 180 0
167 182 0
168 181 0
164 179 0
168 184 0
166 179 0
165 178 0
167 183 0
166 182 0
166 182 0
168 186 0
167 183 0
167 184 0
171 189 0
169 184 0
168 186 0
170 188 0
165 181 0
168 185 0
168 186 0
170 187 0
170 188 0
174 194 0
167 184 0
169 189 0
170 188 0
169 188 0
170 188 0
169 186 0
172 190 0
172 192 0
171 191 0
170 189 0
170 190 0
170 190 0
168 189 0
172 191 0
171 190 0
170 191 0
169 190 0
172 192 0
170 191 0
172 192 0
168 189 0
173 194 0
170 188 0
170 190 0
173 194 0
170 191 0
171 192 0
171 193 0
171 193 0
173 193 0
171 193 0
168 186 0
169 191 0
173 194 0
173 196 0
172 195 0
170 194 0
171 194 0
173 196 25
175 198 51
176 198 57
172 196 44
175 198 57
175 198 44
172 195 67
177 199 76
178 201 72
178 200 72
179 201 92
179 201 99
185 205 122
183 204 120
189 210 142
186 207 133
193 212 155
188 208 147
186 206 149
191 211 157
198 217 182
193 213 167
200 218 191
198 217 181
197 216 188
197 216 189
202 220 206
200 219 201
203 221 206
203 222 207
209 226 228
208 226 227
209 226 230
207 225 223
207 225 224
203 222 207
211 228 236
206 223 220
205 223 218
207 225 226
206 224 218
208 225 220
205 223 218
201 219 207
201 219 204
204 222 214
199 217 191
198 216 184
198 217 194
195 216 184
198 217 193
196 216 184
193 213 177
194 214 169
186 207 140
184 206 135
186 206 151
187 207 153
186 208 151
186 208 149
179 202 105
182 204 130
185 206 140
181 204 135
179 202 111
181 203 111
179 202 111
181 203 114
181 204 125
182 205 117
181 203 111
178 200 102
183 205 128
182 204 120
178 201 105
179 202 117
181 203 105
177 200 88
181 204 117
181 203 114
185 207 130
186 207 130
178 200 105
175 198 117
182 204 125
182 204 117
184 206 147
178 200 120
184 204 128
180 202 133
186 207 133
183 205 147
187 207 166
177 200 150
177 196 188
168 188 194
146 168 199
160 180 204
150 171 205
147 168 185
143 165 191
141 163 191
131 155 188
116 141 183
126 150 193
124 147 187
120 144 186
128 151 193
112 138 185
106 132 187
99 127 184
110 136 185
99 127 185
104 130 187
97 125 180
92 120 181
84 114 176
84 115 183
81 112 173
75 107 165
82 112 163
73 106 168
76 107 164
68 102 169
66 100 158
76 108 166
67 101 154
64 98 157
72 105 162
72 105 157
64 99 155
64 98 160
60 96 158
61 97 164
60 95 149
60 96 154
59 95 148
63 98 156
59 95 148
60 96 158
62 96 151
60 95 153
61 96 156
59 94 150
61 97 153
61 97 156
60 95 147
61 97 155
61 97 159
60 96 159
61 97 159
61 97 158
61 97 157
60 96 157
60 96 155
61 97 160
60 96 158
61 97 159
61 97 150
62 98 158
62 97 157
60 96 151
60 96 148
62 98 161
61 97 159
62 98 159
61 97 157
60 95 145
61 97 158
61 96 147
62 98 161
62 98 159
62 97 160
62 97 158
61 97 156
62 98 159
61 97 152
61 96 154
61 96 154
61 97 159
62 98 159
62 98 155
61 97 157
62 97 155
62 97 152
62 98 165
61 97 159
62 97 154
61 97 158
62 98 160
61 96 155
62 97 150
62 98 156
61 97 152
61 97 159
62 98 159
62 98 157
62 97 149
62 98 154
62 98 155
60 96 149
61 95 142
61 97 151
60 96 144
61 97 158
61 97 159
62 98 154
61 96 152
61 96 144
62 97 151
61 97 152
62 98 154
60 96 144
61 96 144
62 98 154
63 99 160
61 97 156
63 99 159
63 98 157
61 96 145
61 96 140
61 96 145
60 96 143
62 97 150
62 97 147
61 96 149
61 97 150
61 96 145
61 96 148
62 97 151
61 96 145
61 96 149
60 95 139
59 94 137
60 94 141
61 96 145
60 95 140
61 95 139
61 96 147
60 95 141
61 95 145
60 95 140
58 91 122
60 94 133
85 105 91
90 105 91
126 135 51
131 134 18
122 127 0
117 117 0
126 127 0
116 116 0
125 129 0
110 107 0
124 126 0
115 115 0
122 120 0
110 110 0
101 99 0
111 107 0
117 115 0
115 110 0
116 115 0
114 108 0
121 116 0
114 109 0
110 101 0
106 101 0
112 106 0
111 103 0
112 102 0
112 105 0
117 110 0
117 109 0
117 110 0
116 106 0
118 112 0
119 108 0
120 111 0
122 114 0
124 115 0
121 111 0
122 112 0
125 115 0
130 121 0
128 118 0
131 122 0
126 117 0
132 123 0
129 120 0
130 119 0
134 126 0
127 119 0
131 120 0
133 122 0
135 126 0
138 128 0
139 129 0
138 129 0
136 127 0
143 135 0
142 132 0
138 130 0
141 135 0
149 142 0
143 136 0
140 135 0
148 145 0
145 141 0
145 141 0
144 141 0
149 149 0
145 144 0
151 150 0
154 157 0
149 150 0
154 158 0
159 166 0
155 160 0
154 159 0
153 158 0
161 171 0
159 168 0
162 172 0
162 171 0
162 171 0
158 165 0
163 171 0
161 171 0
159 171 0
161 172 0
166 177 0
162 171 0
168 181 0
161 169 0
161 170 0
162 174 0
164 177 0
166 182 0
163 176 0
163 176 0
166 180 0
164 177 0
166 181 0
165 180 0
167 183 0
166 180 0
168 183 0
168 186 0
167 184 0
167 184 0
167 183 0
168 184 0
170 187 0
171 189 0
167 184 0
167 185 0
170 188 0
172 190 0
164 182 0
168 185 0
171 191 0
172 191 0
168 186 0
170 187 0
169 188 0
170 191 0
169 188 0
169 188 0
165 184 0
172 192 0
168 188 0
172 191 0
171 188 0
168 188 0
172 193 0
171 192 0
172 190 0
171 191 0
170 190 0
172 193 0
167 188 0
172 192 0
173 194 0
171 192 0
171 192 0
171 191 0
171 190 0
167 188 0
168 187 0
172 194 0
174 194 0
173 194 0
173 192 0
170 192 0
171 193 0
171 192 0
175 197 44
172 195 25
174 198 36
175 198 36
173 196 57
176 199 62
175 198 62
173 196 36
176 199 62
178 200 80
178 200 80
180 203 99
180 201 92
181 203 108
184 205 122
185 206 128
187 208 142
185 206 135
187 207 137
191 211 161
189 209 151
190 210 165
194 214 169
194 213 169
196 215 181
199 218 194
200 218 189
197 216 179
203 221 206
202 220 203
202 221 212
207 224 220
203 221 211
205 224 218
207 224 220
207 225 223
209 226 224
203 221 211
203 221 211
209 227 234
207 225 223
204 222 214
208 226 227
201 220 204
200 219 204
199 217 198
202 221 204
199 219 198
194 214 175
194 214 184
193 214 177
194 214 171
197 217 189
194 214 181
191 212 167
187 208 140
186 208 151
183 204 120
180 202 114
181 203 125
183 206 128
179 201 108
180 202 102
182 204 128
183 205 133
178 201 111
182 205 125
180 202 92
180 203 99
181 204 111
179 201 105
178 201 92
176 199 84
177 200 105
180 202 99
176 200 88
177 200 95
173 197 102
175 199 92
175 199 80
174 198 92
175 198 76
177 200 102
176 198 67
176 199 80
180 203 99
179 200 92
180 202 117
182 205 122
178 201 105
177 199 95
180 202 120
180 202 105
181 202 128
183 204 133
177 199 144
175 196 154
175 196 171
150 172 177
144 166 182
139 162 185
139 161 192
145 166 189
146 168 197
137 159 191
133 156 186
126 150 191
139 161 194
108 134 186
127 151 191
122 147 188
121 146 184
107 133 181
108 133 181
97 125 182
97 125 181
95 123 179
112 138 191
93 122 183
98 125 185
94 122 179
73 106 170
96 124 184
74 106 170
68 102 169
60 96 160
81 111 171
65 99 166
70 103 164
75 107 158
63 98 160
66 101 158
66 101 159
64 98 154
64 98 154
65 99 154
64 99 153
63 99 158
63 98 162
59 95 147
64 99 156
60 95 147
60 96 154
63 98 155
61 97 154
64 99 157
60 97 156
61 97 164
62 98 160
59 95 155
60 96 152
61 97 161
61 96 153
61 96 149
61 97 162
61 97 156
60 96 153
61 97 158
60 96 158
61 98 159
61 97 152
61 97 158
60 95 149
61 97 157
60 96 157
61 97 157
62 98 162
62 97 153
62 98 156
60 95 144
62 97 157
61 96 155
62 98 162
61 97 163
60 96 150
61 97 153
61 96 154
61 97 156
61 97 156
61 97 151
61 97 156
62 97 155
61 96 152
61 97 159
62 97 156
62 97 156
62 98 158
61 97 152
62 98 158
62 98 158
62 98 161
63 98 160
61 97 152
62 98 156
60 95 142
61 97 155
62 98 160
62 98 161
61 97 152
61 96 149
61 97 157
60 95 140
61 96 145
62 98 158
63 99 163
61 97 153
63 99 159
61 96 149
61 97 153
60 95 143
61 97 147
62 97 153
62 98 156
62 97 158
62 97 156
62 98 159
61 97 149
61 97 154
60 96 142
61 97 148
61 97 148
61 96 153
61 97 150
61 96 139
61 96 143
61 97 152
62 98 157
61 96 158
61 97 150
62 97 147
60 96 144
61 96 142
61 97 149
61 96 141
60 95 142
61 97 151
61 96 140
60 95 139
60 94 140
60 95 135
61 95 137
59 93 130
59 94 135
59 93 128
60 94 133
60 93 134
61 93 121
84 106 102
105 116 78
114 123 33
129 133 0
121 127 0
127 132 0
112 116 0
114 118 0
127 129 0
128 132 0
119 119 0
127 130 0
119 118 0
113 113 0
106 101 0
105 103 0
114 111 0
114 110 0
111 106 0
114 109 0
111 105 0
117 112 0
113 107 0
114 107 0
120 112 0
117 108 0
119 115 0
111 103 0
113 104 0
121 113 0
117 111 0
121 111 0
126 118 0
111 102 0
116 106 0
125 116 0
113 102 0
120 110 0
130 123 0
121 112 0
140 134 0
127 118 0
132 119 0
131 122 0
132 126 0
131 122 0
131 124 0
131 123 0
132 123 0
129 116 0
137 125 0
141 133 0
137 127 0
139 131 0
136 128 0
135 126 0
132 124 0
140 136 0
139 132 0
143 140 0
139 135 0
145 140 0
147 145 0
144 141 0
153 154 0
145 143 0
148 147 0
150 146 0
144 140 0
151 155 0
154 158 0
153 155 0
159 164 0
156 158 0
155 159 0
156 162 0
156 165 0
156 164 0
164 174 0
162 172 0
160 171 0
162 173 0
161 173 0
165 177 0
164 175 0
166 179 0
163 174 0
164 175 0
163 173 0
164 178 0
164 179 0
161 175 0
163 175 0
164 175 0
166 180 0
165 178 0
165 178 0
167 179 0
165 182 0
167 183 0
165 180 0
169 185 0
169 184 0
171 188 0
170 187 0
169 187 0
167 183 0
168 185 0
168 186 0
167 183 0
168 186 0
167 184 0
169 188 0
170 188 0
168 185 0
168 187 0
168 186 0
167 185 0
168 186 0
173 190 0
171 190 0
169 188 0
169 189 0
170 190 0
170 190 0
171 191 0
171 191 0
170 189 0
171 192 0
170 190 0
171 194 0
170 190 0
171 190 0
172 192 0
172 191 0
169 190 0
171 193 0
169 186 0
173 193 0
173 194 0
172 195 0
171 192 0
172 192 0
170 190 0
171 192 0
171 191 0
169 188 0
169 189 0
170 191 0
171 192 0
172 194 0
172 192 0
170 191 0
172 196 0
172 196 25
169 192 36
172 195 25
175 198 51
178 200 67
172 195 44
172 196 57
175 198 76
182 203 88
179 201 99
178 200 88
184 205 122
188 208 122
185 206 130
187 207 135
191 211 151
189 209 147
193 212 157
193 212 155
190 210 155
198 217 191
195 214 179
194 213 173
192 212 167
200 219 198
199 218 193
203 221 206
199 218 191
204 222 211
200 219 201
207 224 220
210 227 227
206 224 218
205 223 214
207 225 224
210 227 231
210 227 226
205 223 215
205 223 218
201 220 209
205 223 217
199 218 198
196 215 194
197 216 193
197 216 191
197 216 193
197 216 188
193 213 169
194 214 175
190 211 165
185 206 147
186 208 144
186 208 149
186 207 144
186 207 135
185 206 140
184 205 122
182 204 125
181 204 122
177 200 105
179 202 105
182 203 117
174 197 80
179 201 105
177 200 88
175 198 84
179 202 105
176 199 92
175 198 88
176 198 88
175 197 80
176 200 102
173 196 62
176 199 92
174 197 84
173 197 99
174 198 67
175 199 80
175 199 88
174 197 72
173 197 72
171 194 51
177 200 76
175 198 88
176 199 92
174 197 92
175 198 80
174 197 88
178 200 88
177 200 99
178 200 92
175 198 88
178 201 99
179 201 118
170 191 131
161 184 115
159 182 150
154 175 171
124 147 161
130 153 177
133 156 178
119 143 179
131 154 181
125 149 174
130 153 183
122 146 176
104 130 168
112 137 185
107 134 181
113 139 185
107 134 186
119 143 188
118 142 190
108 134 188
93 121 176
89 118 174
100 128 183
92 121 181
90 120 182
87 116 181
88 118 179
79 110 167
73 106 165
79 110 170
70 103 167
68 102 168
75 107 161
68 102 164
69 102 158
74 105 157
66 100 159
64 98 156
62 97 156
64 99 160
60 96 158
61 97 163
62 97 156
60 95 153
63 97 149
60 96 154
64 99 157
60 96 150
60 95 147
63 97 154
58 93 144
59 95 150
60 96 152
61 96 150
62 98 159
60 95 149
61 96 148
62 98 166
60 96 153
61 97 164
60 95 153
61 96 153
61 97 157
62 98 159
61 97 157
61 97 153
61 97 162
61 97 160
62 97 154
61 97 156
61 97 153
60 96 154
62 98 160
61 97 153
62 97 157
61 97 159
60 95 143
62 98 158
60 96 155
61 96 151
61 97 159
62 98 154
61 96 150
62 98 157
62 98 161
61 97 156
61 97 154
62 98 161
62 98 154
62 97 152
62 98 157
61 96 155
61 96 151
62 97 151
61 97 154
62 98 160
61 97 149
61 97 155
61 97 154
60 96 143
61 96 150
60 96 150
61 96 145
61 97 153
62 98 162
62 98 160
61 97 145
61 97 156
61 97 153
61 97 155
62 97 152
62 98 156
61 97 152
62 97 149
63 99 159
61 97 152
61 96 150
61 96 144
61 97 152
61 97 152
62 98 156
61 97 144
62 98 154
62 97 149
61 96 148
60 95 137
61 96 143
62 97 144
61 97 151
61 97 151
61 97 152
62 98 157
61 96 143
60 95 142
61 96 149
61 96 143
59 93 134
60 95 150
62 97 150
61 96 142
61 96 147
60 95 139
61 96 147
59 93 132
61 96 140
60 94 137
59 93 128
61 95 142
60 95 139
59 92 127
58 91 124
66 97 129
95 111 85
104 117 72
127 134 0
128 133 0
108 111 0
112 119 0
119 124 0
121 124 0
124 126 0
115 114 0
109 110 0
111 111 0
120 119 0
115 117 0
108 106 0
117 117 0
113 112 0
115 112 0
117 116 0
112 111 0
106 105 0
119 118 0
114 110 0
107 104 0
124 120 0
110 104 0
107 99 0
112 103 0
117 110 0
117 111 0
127 118 0
119 114 0
127 117 0
114 105 0
122 113 0
123 113 0
120 113 0
119 109 0
125 114 0
121 109 0
126 120 0
134 128 0
128 116 0
125 115 0
130 117 0
126 120 0
138 130 0
133 127 0
131 122 0
135 127 0
135 128 0
133 126 0
145 139 0
141 134 0
137 131 0
136 130 0
140 135 0
137 132 0
144 143 0
138 133 0
147 145 0
144 143 0
141 139 0
141 138 0
148 150 0
151 150 0
148 149 0
152 154 0
152 155 0
150 151 0
155 159 0
160 166 0
152 157 0
155 159 0
154 157 0
154 162 0
159 170 0
158 166 0
161 167 0
158 165 0
164 176 0
161 171 0
164 175 0
160 170 0
161 172 0
165 176 0
161 170 0
162 175 0
162 173 0
163 174 0
164 177 0
168 182 0
167 177 0
167 182 0
164 176 0
164 175 0
166 180 0
163 178 0
165 180 0
164 179 0
166 182 0
165 180 0
169 187 0
165 181 0
168 186 0
170 188 0
166 184 0
165 180 0
169 186 0
170 190 0
165 181 0
169 185 0
169 185 0
169 186 0
169 185 0
165 182 0
171 190 0
170 189 0
171 190 0
168 185 0
172 189 0
170 188 0
167 188 0
168 188 0
171 190 0
171 191 0
172 191 0
173 191 0
172 191 0
170 191 0
170 189 0
171 191 0
173 193 0
172 193 0
173 193 0
171 193 0
170 188 0
174 196 0
171 190 0
172 191 0
171 191 0
170 191 0
171 193 0
172 193 0
172 195 0
172 193 0
171 194 0
171 193 0
171 193 0
171 192 0
170 190 0
171 193 0
172 193 0
175 198 36
174 197 25
175 197 51
173 196 51
176 199 67
172 196 51
178 200 76
174 197 67
175 198 67
181 202 84
182 203 99
179 201 88
180 201 102
180 201 108
184 205 128
186 207 125
190 210 149
182 203 125
188 209 147
191 211 157
195 214 169
193 212 163
199 218 191
199 218 194
197 216 188
201 219 194
201 220 203
202 220 199
204 222 214
206 224 218
207 224 217
207 225 224
204 222 214
206 224 223
206 223 211
207 224 218
206 223 215
206 224 221
205 223 220
203 221 207
200 219 201
200 218 211
198 218 196
196 215 186
194 214 179
193 213 173
197 217 188
189 209 153
187 208 153
194 214 179
184 205 135
185 206 137
190 211 161
185 207 142
182 203 122
179 201 117
183 205 135
181 203 120
183 205 120
178 201 99
178 201 84
171 194 72
174 197 57
174 197 84
177 200 95
177 200 92
174 197 72
175 198 88
173 197 72
172 195 80
171 194 72
176 199 57
175 199 92
169 193 51
172 196 84
176 199 88
172 197 72
177 200 88
171 195 72
172 195 62
176 199 62
171 194 72
171 194 62
174 196 62
173 196 72
174 197 76
175 198 95
173 197 67
173 196 76
175 198 88
177 199 95
174 197 76
175 198 80
173 196 76
173 195 84
172 196 84
154 177 113
150 173 129
130 154 159
117 142 165
120 144 173
118 142 158
128 152 177
131 155 175
102 129 164
111 137 169
120 145 183
116 141 169
118 143 172
121 145 184
120 145 188
102 128 176
115 140 185
111 137 187
106 132 183
106 133 187
120 145 186
90 119 179
85 115 180
79 111 175
90 119 178
73 106 173
73 106 175
80 112 175
69 103 161
83 113 177
72 105 168
71 105 167
70 104 170
68 102 164
75 107 162
65 101 160
70 103 158
65 100 153
62 97 154
64 99 163
68 101 150
60 95 147
61 96 151
68 101 147
59 94 154
59 94 141
63 98 147
60 96 159
61 96 162
61 96 158
60 96 151
60 96 151
61 97 156
60 95 151
61 96 148
61 96 149
61 97 157
61 97 157
59 95 151
61 96 151
61 97 158
60 95 148
60 96 158
60 96 158
61 98 158
60 95 145
62 97 162
62 98 161
60 96 158
61 97 154
62 98 160
61 96 151
61 97 152
61 97 157
61 97 157
61 97 155
60 95 150
61 97 159
62 98 159
59 95 145
61 97 161
61 96 151
61 97 153
61 97 156
60 96 147
62 98 158
61 96 147
61 97 150
62 99 162
60 96 151
61 97 155
61 97 154
62 98 156
61 96 148
61 97 153
61 97 155
61 96 145
61 97 159
61 97 152
62 98 157
62 98 155
61 96 145
61 97 152
61 97 158
61 96 148
60 95 140
62 98 160
61 97 155
60 96 142
61 97 149
61 97 153
62 97 153
61 97 149
63 99 164
62 97 154
61 97 154
61 96 149
60 95 137
60 95 139
61 96 150
60 95 142
61 96 145
60 96 147
61 96 144
61 97 152
62 97 155
60 95 139
61 96 148
61 96 144
61 96 151
60 94 135
59 94 140
61 97 145
60 95 137
60 95 132
60 95 134
61 95 135
60 95 138
61 96 140
61 96 138
61 96 151
61 96 140
61 95 141
60 94 140
59 94 132
59 93 134
61 95 138
59 93 131
59 91 124
59 92 121
71 95 101
88 108 86
107 114 51
130 138 0
132 136 0
128 134 0
123 127 0
117 120 0
115 117 0
129 132 0
123 127 0
122 124 0
121 121 0
126 129 0
118 118 0
121 120 0
114 115 0
117 116 0
114 113 0
121 122 0
120 119 0
108 102 0
108 104 0
118 115 0
114 111 0
119 114 0
121 115 0
116 110 0
119 115 0
128 123 0
123 120 0
118 109 0
120 114 0
127 122 0
120 112 0
123 115 0
117 108 0
122 117 0
121 110 0
115 106 0
120 109 0
120 112 0
134 128 0
123 115 0
128 119 0
130 125 0
126 118 0
133 129 0
130 122 0
134 125 0
134 128 0
130 122 0
134 128 0
129 124 0
137 131 0
134 125 0
144 138 0
136 131 0
141 136 0
135 127 0
142 134 0
137 135 0
146 147 0
146 144 0
149 149 0
149 148 0
150 148 0
149 151 0
149 150 0
155 158 0
151 153 0
149 151 0
158 166 0
154 160 0
158 164 0
155 160 0
156 163 0
161 169 0
159 168 0
162 173 0
157 164 0
161 168 0
157 165 0
166 179 0
165 176 0
164 173 0
159 168 0
162 172 0
162 176 0
164 176 0
161 172 0
163 176 0
161 173 0
167 182 0
164 177 0
168 183 0
165 179 0
168 183 0
162 176 0
169 183 0
165 179 0
164 178 0
167 183 0
168 183 0
168 184 0
164 177 0
166 180 0
167 184 0
170 187 0
166 183 0
170 189 0
166 184 0
169 187 0
172 189 0
170 187 0
168 187 0
166 183 0
168 185 0
167 185 0
174 193 0
170 188 0
167 184 0
170 188 0
173 193 0
170 188 0
170 189 0
166 185 0
170 190 0
172 190 0
170 188 0
170 189 0
170 191 0
167 184 0
171 191 0
171 192 0
169 187 0
170 191 0
168 187 0
171 192 0
171 191 0
173 194 0
173 194 0
173 194 0
171 190 0
168 189 0
171 192 0
170 191 0
171 192 0
172 194 0
173 195 0
170 192 0
170 191 0
173 195 0
173 195 0
174 198 51
174 196 0
174 197 36
175 198 62
174 198 51
174 197 51
175 198 67
178 200 76
179 200 95
178 201 72
178 201 84
183 204 117
188 208 133
186 207 130
189 210 140
187 207 135
189 209 147
191 211 155
191 211 155
193 212 161
196 215 179
196 215 175
201 220 199
199 218 196
199 218 194
201 220 199
205 223 214
202 220 199
206 224 224
207 224 223
205 222 214
208 226 224
204 222 214
208 226 227
207 224 220
205 223 211
206 224 223
201 219 206
203 221 207
197 217 201
196 215 191
197 217 194
199 219 196
190 210 169
191 211 165
193 214 171
189 210 159
188 209 151
185 206 135
186 208 137
182 205 137
187 208 133
178 200 120
179 201 111
179 202 105
179 201 92
176 199 92
178 200 108
171 194 76
174 198 88
177 200 80
176 199 67
177 200 84
175 198 72
175 198 84
173 197 88
173 197 62
174 198 92
171 195 76
174 197 76
173 197 67
173 197 57
174 198 67
176 199 92
171 195 62
173 197 76
173 197 80
174 198 84
171 194 44
171 195 51
173 196 62
171 195 72
172 196 72
172 195 67
175 199 72
175 198 80
173 197 76
171 195 76
169 193 36
176 199 76
169 193 57
174 197 72
173 196 62
174 198 76
174 198 86
167 189 86
161 185 78
148 172 133
116 143 145
108 135 153
102 129 159
120 145 162
109 134 160
112 138 156
127 151 182
120 145 173
101 127 162
109 134 168
111 137 172
104 131 173
111 137 170
97 125 171
89 118 167
97 125 166
84 115 180
88 118 174
79 110 171
103 129 180
84 114 172
91 120 176
100 128 191
93 121 183
88 118 180
81 112 175
84 114 174
77 109 177
61 97 162
76 108 167
71 104 169
71 104 166
66 100 153
68 102 169
74 107 168
69 102 155
60 96 161
68 102 158
61 96 154
67 101 155
60 95 151
63 97 144
60 95 151
60 95 150
60 95 153
60 95 147
62 96 149
60 96 159
60 96 149
59 94 153
59 94 147
60 95 153
61 96 154
61 96 151
60 95 153
60 96 149
60 96 158
61 96 149
61 97 157
61 97 152
60 96 151
60 95 147
60 96 149
62 98 159
61 97 155
61 96 153
61 97 154
60 96 149
61 97 158
62 97 160
61 96 149
61 97 151
61 97 154
61 97 153
61 97 156
62 97 155
61 96 153
61 97 155
62 98 161
63 98 162
61 97 153
61 97 156
61 97 160
61 96 151
60 96 144
61 97 150
61 97 155
61 97 155
62 98 156
61 97 148
61 96 152
61 97 157
60 96 148
62 98 158
62 98 160
62 98 155
61 97 155
61 96 143
61 97 151
61 97 151
62 98 155
61 97 147
61 97 151
62 97 150
61 97 154
62 97 153
61 97 152
62 97 151
61 96 148
61 97 149
60 96 150
61 97 149
61 97 144
61 97 152
61 96 155
60 96 152
61 96 145
60 95 143
61 97 148
61 96 145
62 97 154
61 96 147
61 96 142
61 96 143
62 97 152
61 97 153
61 96 149
61 96 144
61 96 145
61 96 145
61 96 143
61 96 143
61 96 144
61 96 150
60 95 140
59 94 135
60 94 138
61 96 141
60 95 131
61 96 139
60 94 139
61 95 135
62 96 147
60 95 136
61 95 141
60 94 133
59 93 131
62 93 121
74 96 108
106 121 78
112 117 37
131 136 0
120 127 0
130 133 0
126 133 0
121 126 0
128 133 0
121 126 0
114 116 0
108 113 0
122 126 0
123 123 0
117 116 0
121 123 0
118 120 0
117 112 0
121 121 0
113 114 0
117 116 0
115 116 0
113 111 0
111 108 0
109 103 0
110 106 0
112 106 0
125 120 0
115 111 0
110 104 0
103 98 0
123 118 0
127 122 0
124 117 0
113 110 0
124 121 0
116 109 0
124 117 0
120 111 0
128 125 0
126 120 0
131 127 0
126 120 0
127 120 0
131 124 0
128 122 0
129 121 0
136 128 0
131 128 0
132 124 0
137 131 0
133 131 0
125 115 0
137 134 0
141 138 0
141 134 0
147 144 0
144 144 0
142 140 0
142 139 0
148 148 0
146 145 0
145 143 0
146 148 0
142 143 0
148 150 0
152 157 0
156 160 0
151 153 0
149 151 0
156 160 0
161 165 0
155 161 0
153 157 0
155 162 0
155 162 0
159 166 0
160 167 0
159 166 0
157 165 0
160 170 0
156 167 0
158 167 0
165 178 0
162 171 0
163 173 0
160 172 0
165 175 0
165 178 0
165 177 0
161 172 0
164 176 0
164 176 0
165 177 0
165 179 0
167 182 0
162 174 0
163 176 0
164 181 0
166 181 0
163 177 0
169 186 0
168 183 0
166 180 0
168 185 0
167 180 0
169 186 0
169 184 0
168 184 0
168 187 0
169 189 0
169 185 0
168 184 0
170 187 0
169 187 0
168 184 0
168 186 0
172 190 0
168 189 0
171 189 0
168 187 0
168 188 0
168 187 0
169 189 0
169 188 0
169 189 0
171 191 0
169 188 0
171 191 0
171 190 0
169 189 0
169 187 0
168 188 0
172 192 0
169 190 0
167 187 0
170 189 0
170 190 0
170 190 0
171 191 0
171 193 0
172 190 0
171 191 0
171 193 0
170 191 0
169 189 0
171 191 0
171 191 0
173 194 0
170 190 0
170 190 0
172 194 0
172 194 0
170 191 0
176 198 62
171 196 36
171 195 44
175 197 57
177 199 67
176 198 67
176 198 67
175 197 57
177 200 67
177 200 95
180 203 95
185 206 122
190 209 144
184 205 120
187 208 137
184 204 137
196 215 173
188 208 147
192 211 175
196 216 181
201 219 196
196 215 179
198 217 184
199 218 189
200 219 203
203 221 204
207 225 221
207 225 220
207 224 220
201 219 198
208 225 221
206 224 214
205 223 214
202 220 203
205 223 214
202 220 207
198 217 194
198 217 191
199 217 199
200 219 198
196 216 186
192 212 175
191 211 163
189 210 159
186 207 144
188 209 151
186 207 140
183 205 133
187 208 140
186 207 137
186 207 137
181 203 120
179 202 95
175 198 92
179 201 105
177 200 84
176 199 102
173 197 84
174 197 76
176 199 84
175 198 67
175 197 57
170 193 57
174 198 72
175 198 72
176 199 80
175 199 72
173 196 62
172 195 92
171 195 57
174 199 88
174 198 84
173 196 67
175 199 72
173 196 72
173 197 62
173 197 72
170 195 72
174 198 80
172 196 80
172 197 88
175 198 57
172 196 72
174 198 72
175 199 62
176 200 84
173 196 84
173 196 62
170 194 51
171 194 67
175 198 76
172 195 84
171 195 72
174 198 84
172 195 78
165 189 90
161 185 102
136 161 110
127 152 136
112 138 149
101 130 155
97 125 149
111 136 143
96 124 158
108 133 150
119 144 162
106 133 158
108 135 169
109 135 171
99 127 166
98 126 164
106 133 172
87 117 171
98 126 180
82 112 172
87 117 169
97 125 174
87 116 174
92 120 173
94 122 174
85 115 180
79 111 177
84 113 170
85 115 178
89 118 172
82 112 178
71 105 174
73 106 166
73 106 167
68 102 169
76 107 167
68 102 166
63 99 159
70 102 153
72 105 157
65 100 164
61 97 157
63 98 157
62 97 153
61 95 147
60 95 151
66 100 153
61 96 154
60 96 153
63 99 158
61 97 158
60 96 156
59 94 143
58 93 145
60 96 153
59 94 144
60 95 144
60 96 146
59 94 154
60 96 161
61 96 153
60 95 150
60 95 150
61 97 156
62 98 163
60 96 150
60 95 140
61 96 157
61 97 153
60 95 146
60 96 148
61 96 149
62 97 148
61 97 154
61 96 152
60 96 150
60 96 155
61 97 155
61 96 149
61 97 156
61 96 147
60 96 147
62 98 163
60 95 149
62 98 159
61 96 149
62 97 153
61 97 154
62 98 159
60 95 139
61 96 153
61 97 153
61 97 156
61 97 159
60 95 141
60 96 143
61 96 149
63 98 158
61 96 145
61 96 149
62 97 151
62 97 151
61 96 157
61 96 148
61 96 151
61 96 151
62 97 161
62 99 162
62 98 155
62 97 159
61 96 147
62 98 153
62 97 154
62 97 154
62 98 157
62 98 155
62 97 152
60 95 141
61 97 149
62 98 153
61 97 155
60 96 148
61 96 147
61 97 150
62 98 158
61 96 144
61 96 143
61 96 148
61 96 144
61 96 148
61 96 148
63 98 156
60 95 142
60 95 139
61 96 145
60 95 145
60 95 141
62 97 155
60 95 144
61 96 142
61 96 148
61 95 148
61 96 143
60 95 133
60 94 137
61 96 143
58 92 130
60 94 135
58 92 128
58 91 123
63 93 106
97 113 90
110 119 48
119 126 31
132 138 0
114 123 0
118 126 0
114 117 0
125 129 0
121 128 0
123 128 0
116 120 0
116 117 0
119 124 0
119 122 0
127 128 0
119 123 0
118 121 0
114 115 0
104 102 0
116 117 0
127 126 0
110 110 0
114 110 0
109 107 0
115 113 0
110 106 0
122 120 0
115 117 0
117 116 0
125 121 0
118 113 0
117 113 0
118 115 0
121 118 0
125 118 0
125 120 0
117 113 0
127 124 0
125 122 0
120 114 0
136 130 0
123 116 0
123 118 0
134 131 0
124 119 0
125 119 0
129 125 0
136 132 0
136 130 0
132 128 0
141 140 0
132 124 0
142 139 0
130 123 0
139 136 0
136 134 0
144 139 0
140 136 0
146 145 0
139 136 0
146 144 0
148 148 0
143 143 0
144 144 0
151 154 0
153 157 0
148 153 0
152 155 0
145 146 0
152 157 0
155 160 0
153 158 0
153 158 0
157 161 0
158 165 0
159 166 0
158 165 0
153 159 0
158 170 0
157 166 0
158 166 0
165 174 0
160 171 0
160 171 0
161 170 0
163 173 0
162 175 0
159 170 0
161 174 0
164 177 0
163 177 0
166 179 0
163 179 0
162 176 0
167 182 0
169 186 0
164 181 0
166 180 0
168 184 0
167 182 0
166 182 0
168 180 0
168 183 0
166 180 0
167 184 0
166 183 0
166 182 0
164 180 0
169 187 0
169 186 0
167 184 0
169 185 0
168 184 0
168 186 0
168 186 0
166 184 0
167 184 0
168 185 0
170 190 0
168 186 0
169 187 0
168 187 0
170 188 0
169 188 0
169 188 0
169 188 0
168 186 0
171 189 0
169 189 0
173 194 0
170 189 0
171 191 0
167 186 0
171 189 0
168 186 0
169 189 0
169 188 0
171 192 0
171 190 0
172 192 0
173 191 0
170 190 0
171 193 0
172 190 0
171 190 0
173 192 0
172 194 0
172 193 0
171 193 0
168 189 0
172 193 0
171 193 0
170 192 0
174 196 0
171 194 0
173 196 25
175 198 62
175 198 44
175 198 51
175 198 57
175 198 51
180 202 80
179 201 88
179 202 99
183 204 108
183 205 120
181 203 120
187 207 135
190 211 153
187 207 142
193 213 167
196 216 177
199 218 186
197 217 186
199 218 198
199 218 189
200 219 198
202 220 211
205 223 212
203 221 203
208 225 221
204 222 206
208 225 221
205 222 211
205 223 217
204 222 214
202 221 203
204 222 211
203 221 211
200 219 199
203 221 206
196 215 193
198 217 193
196 216 184
191 211 165
190 210 159
189 210 163
190 210 157
186 207 147
186 208 155
178 201 108
184 206 133
184 206 130
176 198 92
179 201 114
178 202 102
176 199 108
173 196 44
176 200 102
176 198 88
176 198 62
175 199 67
175 199 95
175 198 62
175 199 84
173 196 67
176 200 102
173 198 102
173 198 62
172 195 72
170 194 72
173 197 67
176 200 84
173 196 84
173 197 67
174 197 67
173 196 76
174 197 67
175 198 88
172 196 67
173 195 36
171 196 76
175 199 72
176 199 76
172 196 88
172 195 80
173 196 36
174 198 80
170 194 62
172 195 88
172 195 51
176 199 80
171 196 88
172 195 76
169 193 72
174 198 80
173 197 76
172 195 62
176 199 78
165 190 76
155 178 80
147 171 108
129 155 135
86 116 145
102 129 157
99 128 162
94 123 160
101 128 155
101 128 167
110 135 157
104 131 167
99 126 155
93 122 158
101 129 169
104 131 174
91 120 168
86 116 166
101 129 169
95 124 167
98 127 176
98 126 178
90 119 173
88 119 167
96 125 179
85 115 175
83 114 169
78 110 179
73 106 169
67 102 165
78 110 170
62 98 163
75 107 168
73 106 172
67 102 168
73 105 164
83 113 167
74 106 160
72 104 160
74 106 162
62 98 163
71 104 156
61 97 162
60 95 158
61 96 149
59 94 153
62 97 151
63 98 156
61 96 151
60 96 156
61 96 148
61 96 155
60 96 141
61 96 149
60 95 142
61 97 158
60 95 145
61 97 154
61 96 156
59 94 143
61 97 162
61 96 147
59 94 145
61 97 152
60 96 153
60 96 155
60 96 151
61 97 153
60 96 156
61 97 149
61 97 157
60 96 149
61 96 159
60 96 154
60 95 144
61 96 151
61 97 153
61 97 155
61 97 150
60 96 151
61 97 155
60 96 152
61 97 156
61 97 151
61 97 151
60 95 153
61 97 150
61 97 157
62 97 157
62 98 159
61 97 158
62 97 150
60 95 143
60 96 142
61 97 155
61 97 153
62 98 151
61 96 149
60 95 144
61 97 156
61 96 148
62 98 158
61 96 148
61 96 152
60 96 147
62 98 153
62 98 156
62 97 152
61 96 143
62 98 156
62 97 143
61 97 153
62 97 153
62 98 154
61 97 152
62 98 156
61 96 147
60 96 143
60 95 147
62 97 147
60 95 140
61 96 143
60 96 149
62 97 151
61 96 147
61 96 142
61 96 142
62 98 152
61 96 143
59 94 135
62 98 152
61 96 144
61 96 140
60 96 144
61 96 141
61 97 147
61 96 150
61 96 139
60 95 136
60 94 134
59 93 135
60 95 145
60 95 135
61 96 142
59 93 138
59 93 128
60 95 142
59 93 133
59 93 135
59 93 128
68 95 115
110 125 78
110 118 51
128 134 18
126 133 0
120 124 0
123 133 0
134 138 0
122 128 0
116 122 0
116 120 0
124 131 0
123 127 0
115 119 0
114 118 0
119 122 0
111 116 0
125 128 0
116 120 0
111 114 0
123 126 0
116 117 0
113 111 0
107 106 0
126 127 0
121 120 0
126 126 0
121 120 0
122 122 0
118 115 0
113 110 0
121 118 0
118 114 0
122 118 0
124 120 0
121 118 0
126 121 0
131 128 0
127 124 0
127 124 0
128 122 0
125 118 0
135 132 0
128 124 0
129 122 0
129 122 0
123 118 0
133 128 0
127 123 0
131 125 0
139 134 0
141 139 0
136 134 0
141 136 0
135 131 0
136 135 0
143 145 0
143 143 0
142 143 0
139 135 0
145 145 0
144 145 0
142 143 0
144 144 0
148 149 0
144 149 0
151 152 0
153 159 0
155 159 0
154 159 0
147 149 0
148 151 0
152 157 0
154 160 0
160 168 0
157 165 0
154 162 0
158 166 0
156 162 0
159 168 0
159 167 0
161 169 0
159 169 0
159 170 0
159 167 0
164 174 0
165 177 0
161 171 0
162 174 0
158 167 0
163 175 0
163 175 0
164 176 0
163 173 0
165 178 0
162 173 0
168 180 0
166 181 0
168 181 0
162 174 0
165 180 0
165 179 0
168 184 0
166 182 0
165 179 0
167 183 0
169 185 0
165 181 0
164 179 0
168 184 0
167 183 0
168 185 0
169 188 0
167 184 0
168 185 0
166 183 0
168 186 0
166 185 0
169 186 0
169 186 0
171 190 0
171 190 0
169 187 0
170 189 0
172 192 0
169 188 0
168 187 0
172 191 0
169 190 0
167 186 0
170 189 0
170 191 0
172 191 0
170 188 0
171 191 0
169 189 0
170 191 0
171 192 0
167 188 0
169 189 0
172 193 0
170 190 0
173 194 0
171 193 0
173 193 0
172 193 0
172 192 0
172 194 0
171 193 0
170 191 0
170 191 0
171 192 0
172 193 0
170 191 0
172 194 0
176 199 67
172 195 36
177 199 67
175 198 57
175 198 51
181 203 84
180 201 84
175 198 88
184 205 117
177 199 95
183 205 117
186 207 120
187 208 133
190 210 151
191 210 147
194 214 171
195 215 177
195 215 182
195 214 181
197 216 184
195 214 181
203 222 206
199 217 194
205 223 212
204 222 209
206 223 217
205 223 209
205 223 214
206 223 209
204 221 209
206 224 218
201 219 203
203 221 209
199 218 196
201 219 198
199 218 199
195 214 173
191 211 169
191 211 169
193 212 167
187 207 144
193 213 179
181 203 130
181 203 120
182 204 133
180 201 125
174 196 95
179 202 99
175 198 84
176 199 88
175 198 92
178 201 95
174 197 72
172 196 72
175 198 80
174 197 62
175 198 84
172 196 102
175 198 67
172 195 57
176 199 80
173 197 67
172 196 67
172 196 72
174 198 44
172 195 84
171 194 62
173 196 62
174 197 67
173 197 62
171 195 76
175 199 76
172 195 76
171 195 62
172 196 76
171 195 67
171 195 80
172 195 62
171 194 62
170 195 76
174 198 92
174 197 57
173 196 88
176 198 57
174 198 57
172 197 80
172 195 72
173 196 72
174 197 76
171 195 76
171 194 67
177 199 80
171 194 51
172 195 76
171 193 51
168 192 80
160 184 86
146 171 121
131 156 125
106 133 145
95 123 147
90 119 153
98 127 163
100 128 158
96 125 154
94 123 144
100 128 143
112 138 155
92 121 160
109 135 170
104 130 162
93 122 162
94 123 166
90 119 162
87 116 167
89 119 173
90 118 165
92 121 165
101 128 164
92 121 174
80 111 163
82 113 171
88 118 174
75 108 171
68 103 169
74 107 174
79 110 171
73 106 172
68 102 162
70 103 164
73 105 163
64 99 165
73 105 167
60 96 155
69 103 165
64 98 152
67 100 146
67 101 154
70 103 158
64 99 159
66 98 148
62 96 153
60 95 146
62 97 151
61 95 137
59 94 149
62 97 155
61 97 154
58 93 149
60 95 153
60 96 150
60 96 151
61 97 157
61 96 152
61 96 153
61 96 143
60 96 150
61 96 151
61 96 149
60 95 147
59 94 145
60 96 147
61 96 147
60 95 143
61 96 150
61 96 150
61 97 150
62 98 161
60 95 147
61 96 153
60 96 152
61 97 159
61 96 157
61 97 150
60 96 144
61 96 154
60 96 154
62 98 157
61 97 157
61 96 148
60 95 144
60 96 150
61 96 153
62 97 155
61 97 153
62 97 153
62 97 154
61 97 151
61 96 151
61 96 147
61 98 158
61 96 152
61 97 152
60 96 144
60 95 147
62 97 155
61 97 151
61 96 153
61 97 152
62 97 147
61 97 155
61 96 145
62 97 150
59 94 136
62 98 161
60 95 147
61 96 148
62 97 155
62 97 154
62 97 153
62 97 150
61 96 137
61 96 151
61 96 145
61 97 150
61 96 144
61 96 144
61 96 141
62 97 153
60 95 142
61 97 145
62 97 149
62 97 151
60 95 139
60 95 135
61 96 141
61 95 141
60 95 137
61 97 145
62 97 145
61 95 144
60 95 141
61 95 134
60 95 144
63 98 151
61 96 140
61 96 142
59 93 125
60 94 137
60 94 133
60 94 135
60 94 129
59 93 128
59 92 127
62 92 110
84 103 94
100 113 72
121 131 36
118 123 0
124 134 0
122 128 0
122 129 0
118 126 0
128 137 0
116 119 0
119 126 0
122 125 0
122 128 0
118 122 0
130 134 0
115 118 0
135 139 0
118 120 0
124 129 0
122 122 0
118 118 0
107 107 0
121 123 0
113 112 0
122 124 0
115 117 0
110 110 0
118 117 0
115 118 0
115 111 0
128 126 0
115 113 0
126 125 0
127 127 0
118 113 0
132 130 0
124 119 0
120 115 0
122 120 0
131 130 0
121 122 0
127 126 0
128 125 0
128 125 0
127 120 0
129 124 0
131 128 0
139 138 0
134 132 0
135 132 0
133 132 0
135 134 0
145 147 0
140 138 0
139 138 0
131 127 0
144 142 0
148 149 0
138 135 0
136 132 0
145 145 0
149 150 0
145 145 0
143 142 0
154 157 0
147 151 0
149 153 0
157 161 0
157 163 0
155 162 0
152 159 0
156 163 0
162 170 0
156 163 0
156 164 0
155 163 0
153 159 0
158 166 0
162 171 0
162 169 0
159 165 0
160 170 0
164 174 0
161 171 0
157 166 0
162 172 0
162 177 0
164 175 0
165 178 0
163 176 0
164 178 0
161 174 0
169 182 0
163 173 0
164 177 0
166 178 0
166 178 0
161 171 0
165 179 0
166 181 0
166 179 0
165 180 0
169 185 0
167 182 0
166 182 0
169 187 0
168 183 0
166 184 0
168 185 0
164 182 0
167 184 0
169 186 0
170 185 0
166 185 0
166 180 0
167 185 0
169 186 0
171 189 0
170 190 0
168 186 0
171 189 0
170 188 0
170 189 0
168 187 0
169 187 0
169 188 0
169 189 0
170 188 0
167 186 0
171 191 0
170 188 0
169 188 0
168 187 0
171 191 0
170 191 0
170 190 0
169 187 0
172 193 0
170 190 0
167 187 0
170 191 0
169 190 0
173 193 0
171 191 0
171 190 0
172 193 0
172 191 0
171 192 0
171 193 0
169 190 0
172 193 0
171 191 0
169 187 0
171 193 0
169 190 0
174 197 57
173 195 62
173 196 57
173 196 62
181 202 84
179 201 88
174 196 76
183 204 120
185 205 114
184 205 122
184 205 122
190 210 149
186 207 133
193 212 159
194 213 177
194 213 169
200 219 196
199 217 188
197 216 181
198 216 184
201 220 199
207 224 218
205 222 206
206 224 220
205 223 206
207 225 220
205 222 209
204 222 218
205 222 207
203 222 207
202 220 201
201 219 203
203 221 207
194 214 179
195 215 184
198 217 193
194 214 182
190 210 161
194 215 182
185 206 137
181 203 144
180 202 125
185 207 135
183 205 125
178 200 95
177 200 95
180 202 92
173 196 76
178 202 105
173 196 88
173 197 80
174 197 76
176 199 80
173 196 44
171 194 72
173 197 76
174 198 84
173 197 76
174 197 76
174 198 57
175 199 92
173 197 62
170 194 67
175 199 92
174 197 72
174 197 57
175 199 80
173 196 51
171 195 84
173 196 80
172 195 76
170 194 88
171 195 67
171 194 62
172 196 80
171 195 51
170 194 67
173 197 57
169 193 62
173 197 80
173 198 88
169 193 80
174 197 84
174 199 99
170 193 67
173 196 72
169 193 57
173 196 95
170 193 62
170 193 95
173 195 76
174 197 76
171 195 80
170 194 67
171 194 84
171 195 94
160 183 74
155 179 102
143 167 117
110 137 145
97 125 153
97 126 151
101 128 156
92 121 155
100 128 155
90 119 158
107 134 166
88 117 144
83 112 147
94 122 165
98 126 160
101 129 159
104 131 168
99 127 161
82 112 154
93 123 168
100 127 174
88 118 162
83 113 162
90 119 169
75 107 164
93 122 168
90 119 172
72 105 173
82 113 173
78 109 170
79 110 169
69 103 170
77 109 169
70 103 162
80 111 168
68 102 164
64 98 161
73 105 163
71 104 161
67 101 158
63 98 153
71 103 150
60 95 150
60 96 150
60 96 156
63 97 155
60 95 138
59 94 153
60 95 153
59 94 151
61 96 152
61 96 151
60 96 149
63 98 157
59 95 143
59 93 143
60 95 149
61 96 153
59 94 145
61 96 143
61 96 149
61 97 154
61 97 149
62 97 156
61 97 147
60 96 148
60 95 140
61 96 150
61 97 154
61 97 152
61 97 153
61 96 145
60 96 145
61 97 157
60 95 145
60 96 154
62 97 158
61 97 157
60 96 149
61 97 150
61 97 154
60 95 151
62 97 159
62 98 160
61 97 156
61 96 150
60 95 139
61 96 148
60 96 150
61 96 143
62 97 153
61 96 153
61 97 155
61 97 151
62 97 152
61 96 144
62 97 147
61 96 145
60 95 142
62 97 149
61 96 155
62 98 155
61 96 145
62 97 149
61 97 143
61 97 150
61 97 151
60 95 142
61 96 144
60 96 141
61 96 143
61 96 153
60 95 142
60 96 153
61 96 143
61 96 147
61 96 144
61 96 144
61 96 137
60 94 130
61 96 144
61 96 153
60 95 139
60 95 141
61 95 143
62 98 153
60 95 141
61 97 147
60 95 133
61 96 140
61 96 144
57 91 125
61 96 144
61 96 143
60 95 133
60 95 136
58 92 121
60 95 137
61 96 143
61 96 142
61 95 142
60 95 135
60 95 134
61 95 136
60 95 134
59 94 129
60 94 132
59 93 127
65 94 110
90 106 83
93 104 44
117 125 31
120 128 0
119 125 0
129 135 0
126 135 0
128 133 0
120 125 0
128 132 0
130 137 0
118 122 0
137 144 0
118 123 0
113 117 0
123 126 0
122 129 0
119 120 0
121 121 0
114 117 0
122 126 0
115 117 0
120 120 0
123 123 0
120 120 0
117 116 0
116 118 0
130 132 0
129 128 0
116 115 0
117 118 0
112 110 0
125 126 0
134 133 0
124 122 0
124 120 0
129 126 0
121 120 0
125 123 0
123 121 0
131 130 0
131 130 0
132 133 0
130 125 0
136 135 0
125 123 0
129 127 0
130 130 0
137 139 0
141 140 0
140 139 0
138 136 0
136 137 0
138 139 0
139 141 0
142 142 0
149 152 0
142 141 0
142 143 0
146 151 0
146 147 0
147 149 0
139 139 0
151 157 0
150 154 0
148 153 0
152 156 0
152 155 0
156 162 0
153 158 0
155 162 0
152 158 0
160 171 0
161 167 0
158 166 0
163 174 0
159 166 0
156 165 0
155 161 0
161 167 0
158 168 0
158 168 0
164 174 0
163 176 0
161 171 0
165 179 0
164 175 0
161 172 0
163 175 0
161 172 0
161 176 0
161 172 0
162 175 0
167 183 0
163 176 0
165 181 0
163 178 0
163 175 0
162 176 0
168 182 0
166 179 0
166 180 0
165 179 0
168 184 0
168 184 0
167 185 0
170 187 0
167 184 0
169 186 0
166 183 0
165 183 0
171 189 0
167 184 0
167 185 0
170 189 0
168 185 0
169 188 0
169 189 0
168 185 0
168 186 0
171 189 0
170 190 0
172 191 0
166 182 0
169 189 0
170 191 0
170 190 0
171 192 0
171 189 0
169 189 0
169 186 0
170 189 0
170 189 0
170 192 0
169 190 0
166 186 0
169 188 0
171 191 0
172 192 0
169 191 0
172 193 0
172 194 0
169 191 0
169 188 0
170 192 0
173 194 0
170 190 0
169 189 0
169 190 0
171 192 0
171 190 0
172 193 0
173 194 0
170 191 0
170 191 0
173 196 44
174 197 57
173 196 62
179 201 80
181 203 102
178 201 76
180 202 95
189 209 147
186 207 128
185 206 128
189 209 142
188 208 147
193 212 163
193 212 159
197 216 181
194 214 173
198 217 184
198 217 184
200 218 191
203 221 199
206 223 217
206 223 217
205 223 209
205 222 214
201 220 201
206 224 218
206 224 217
206 224 221
203 221 206
205 222 211
200 219 194
200 218 198
203 221 206
194 214 181
195 215 182
190 211 157
193 213 175
190 210 165
189 210 153
188 209 149
182 203 130
181 203 111
181 203 122
182 204 117
177 200 105
171 194 84
173 197 76
177 200 84
175 199 76
173 197 72
170 194 92
174 198 72
173 196 62
176 199 67
173 197 88
174 198 67
177 200 88
171 195 80
171 195 76
174 197 62
172 195 72
168 193 88
175 199 72
172 196 76
171 195 67
170 194 67
175 199 72
172 196 92
171 194 62
174 197 62
172 195 80
170 193 51
169 192 72
172 195 72
169 193 67
173 197 72
172 196 72
173 197 72
170 194 62
170 194 67
174 198 80
172 195 67
169 192 57
172 197 95
171 195 76
172 196 62
171 194 62
172 196 84
174 197 95
173 197 88
173 196 67
171 195 72
170 195 76
172 194 67
170 193 92
170 194 76
165 187 100
155 177 94
140 165 105
125 150 134
103 130 135
92 120 154
106 134 160
84 114 148
107 134 153
85 114 144
94 122 159
94 122 151
91 120 153
94 123 152
96 125 151
95 124 151
95 124 153
92 121 165
95 123 166
93 121 162
100 128 159
91 121 170
99 126 165
84 114 167
89 118 164
81 113 165
76 108 166
84 114 162
82 114 179
79 111 175
79 110 172
70 104 174
80 111 169
71 104 167
71 104 167
72 105 168
78 109 168
65 100 164
66 101 156
65 99 156
73 105 162
64 98 158
63 97 145
60 96 155
66 100 156
64 97 151
65 98 137
62 96 141
62 97 151
65 99 150
60 95 149
62 96 143
61 96 145
62 96 148
59 94 145
60 95 144
60 95 144
60 95 143
59 94 137
61 97 161
62 97 153
61 96 150
61 97 153
60 95 149
61 97 153
60 95 153
61 96 147
61 96 147
61 97 150
61 97 148
61 96 150
61 96 150
61 97 151
61 96 148
60 96 141
60 95 144
60 96 151
61 96 142
60 96 142
62 98 153
60 96 151
62 97 151
61 97 152
61 97 148
61 97 150
61 97 157
60 95 145
61 97 152
61 97 151
61 97 152
62 98 156
61 96 149
60 96 148
61 96 150
62 97 151
61 96 149
62 97 151
61 96 142
62 98 156
61 96 150
61 97 147
60 96 148
59 94 135
62 97 152
60 96 148
61 97 144
61 97 151
61 96 150
61 96 147
60 95 143
62 97 149
61 97 150
61 96 144
61 96 148
61 96 149
62 97 150
61 96 145
61 96 144
60 95 136
61 96 148
61 96 144
60 95 147
60 95 141
61 96 147
61 95 142
60 95 136
61 96 147
61 96 152
60 94 128
60 95 141
62 97 148
61 96 148
60 95 137
61 97 147
60 94 129
60 95 136
61 96 145
60 95 141
60 94 135
62 97 148
60 94 137
59 93 131
59 94 130
59 93 131
58 91 113
58 91 126
58 92 124
59 91 123
72 95 108
105 119 65
122 132 26
120 126 0
127 137 0
115 123 0
113 121 0
117 124 0
122 130 0
122 130 0
110 116 0
130 138 0
112 118 0
119 123 0
124 132 0
129 134 0
116 120 0
126 131 0
114 117 0
120 119 0
115 119 0
122 122 0
119 121 0
125 128 0
121 123 0
113 114 0
129 132 0
129 129 0
121 120 0
123 126 0
123 122 0
130 135 0
118 119 0
128 126 0
120 119 0
126 127 0
128 130 0
120 119 0
135 135 0
123 122 0
123 121 0
127 127 0
130 129 0
133 134 0
128 129 0
134 131 0
132 132 0
135 135 0
131 127 0
146 149 0
135 134 0
147 150 0
140 142 0
142 146 0
145 147 0
142 143 0
143 147 0
142 141 0
139 142 0
147 153 0
147 150 0
144 149 0
148 153 0
149 152 0
142 144 0
148 150 0
146 148 0
151 156 0
153 157 0
153 158 0
150 153 0
155 160 0
159 168 0
158 166 0
161 169 0
157 161 0
160 169 0
157 164 0
163 174 0
159 171 0
158 168 0
162 173 0
157 165 0
161 172 0
162 173 0
160 171 0
167 180 0
163 175 0
159 170 0
162 175 0
164 178 0
165 179 0
160 172 0
167 184 0
165 181 0
165 178 0
170 185 0
164 178 0
168 185 0
167 185 0
166 180 0
163 179 0
167 182 0
168 185 0
169 188 0
166 182 0
168 184 0
166 184 0
165 180 0
166 183 0
167 182 0
166 183 0
165 183 0
168 184 0
167 185 0
167 184 0
167 184 0
166 184 0
170 189 0
167 183 0
165 183 0
170 191 0
170 189 0
167 184 0
169 188 0
166 184 0
167 185 0
167 185 0
169 189 0
169 190 0
169 189 0
170 190 0
172 190 0
170 189 0
173 194 0
172 192 0
169 189 0
170 192 0
168 188 0
170 189 0
171 193 0
171 190 0
167 187 0
171 193 0
171 190 0
171 194 0
172 193 0
171 192 0
171 193 0
171 194 0
170 190 0
170 192 0
172 193 0
169 190 0
170 192 0
170 190 0
173 197 36
175 199 44
177 198 67
178 201 72
179 201 95
179 201 102
181 202 117
183 204 111
181 202 108
188 209 147
186 207 140
190 211 155
191 211 159
196 215 173
196 215 171
203 221 201
198 217 188
200 219 189
204 222 206
204 222 207
204 222 211
205 222 215
202 220 199
202 221 204
198 217 188
203 222 214
201 220 199
200 219 198
196 215 189
200 219 193
198 217 188
197 216 184
195 215 181
189 210 161
191 212 165
191 212 167
187 208 142
186 207 135
183 205 117
184 205 130
183 205 130
181 203 105
179 202 102
177 200 102
174 198 88
173 197 76
172 195 62
171 195 67
174 198 72
172 196 72
175 199 84
173 197 44
173 196 80
171 195 76
176 200 88
171 195 80
175 198 72
171 195 76
175 197 76
173 196 76
169 193 67
173 197 57
172 196 72
173 196 72
171 195 36
170 194 72
174 199 76
170 193 57
171 195 62
173 197 72
171 195 80
168 192 92
170 194 88
175 198 67
175 199 84
174 198 67
170 193 57
170 195 67
173 197 67
167 191 76
169 193 57
168 192 62
172 196 80
169 192 62
170 193 80
173 197 76
167 190 80
170 194 76
166 189 51
167 190 84
167 190 84
168 192 62
169 192 62
170 193 67
170 194 84
170 193 62
166 188 80
164 186 90
149 174 97
122 148 140
109 136 140
97 125 137
94 122 147
96 125 152
98 126 148
91 121 151
97 125 147
100 127 151
94 122 152
92 121 144
93 122 154
102 129 154
87 116 148
95 123 156
102 129 158
100 127 158
90 119 153
98 126 162
96 124 162
96 124 159
98 126 161
87 118 168
82 113 165
89 118 161
86 116 164
85 115 173
90 119 169
78 109 168
78 110 174
71 104 170
70 103 165
74 107 172
71 104 162
75 107 162
77 108 166
69 102 159
67 100 157
68 101 152
67 101 158
60 96 151
62 98 159
60 96 153
61 96 155
62 97 145
63 98 159
62 97 155
60 95 149
61 96 150
60 94 143
62 97 148
59 95 152
61 96 145
59 94 140
61 96 150
59 94 134
59 94 155
60 95 142
61 96 144
59 95 147
60 95 146
60 96 149
60 95 147
61 96 149
60 95 153
60 95 151
61 97 157
60 96 155
61 96 158
62 97 154
60 96 152
61 96 150
60 96 147
61 96 152
60 95 148
61 97 157
61 96 154
60 95 143
61 96 150
61 97 149
60 96 147
60 95 148
61 97 147
60 96 148
61 97 155
60 95 145
61 97 151
61 97 150
60 96 149
60 96 145
60 95 135
60 95 139
61 96 147
60 96 144
60 95 143
61 96 150
62 97 155
61 97 149
61 96 144
60 94 144
61 96 149
60 96 147
60 96 144
61 97 147
61 96 144
61 96 149
60 96 144
61 96 149
61 96 143
61 96 148
61 96 144
60 95 131
61 97 149
61 97 145
62 97 149
61 96 151
61 96 140
61 96 150
61 96 149
60 96 139
61 96 143
61 96 150
61 96 143
60 95 141
60 95 140
60 95 139
61 95 141
60 94 134
60 94 135
60 94 130
60 95 139
60 95 139
59 93 123
59 93 126
59 93 128
60 94 134
60 94 134
60 95 131
60 94 131
60 94 137
59 93 134
59 92 127
60 94 137
59 92 118
64 95 121
103 122 84
109 122 51
112 122 25
132 142 0
127 139 0
114 121 0
118 125 0
125 134 0
129 140 0
129 131 0
128 134 0
125 134 0
116 120 0
123 127 0
127 133 0
117 125 0
124 130 0
130 138 0
124 126 0
125 130 0
124 127 0
128 131 0
127 132 0
123 124 0
125 128 0
120 122 0
128 132 0
125 129 0
120 123 0
129 129 0
129 132 0
118 120 0
128 130 0
119 120 0
128 131 0
129 127 0
130 129 0
134 134 0
126 127 0
127 129 0
130 133 0
128 129 0
130 132 0
128 128 0
132 135 0
138 138 0
139 139 0
131 134 0
137 139 0
133 131 0
134 136 0
141 141 0
133 135 0
146 150 0
143 145 0
143 144 0
142 143 0
146 149 0
146 146 0
144 146 0
150 156 0
149 154 0
154 160 0
144 148 0
151 156 0
150 157 0
155 158 0
155 161 0
156 163 0
154 159 0
158 169 0
153 159 0
156 164 0
153 157 0
155 161 0
157 164 0
157 167 0
154 159 0
155 164 0
156 167 0
159 169 0
158 168 0
157 164 0
161 171 0
164 174 0
159 168 0
162 173 0
162 172 0
161 173 0
161 174 0
162 174 0
163 176 0
163 176 0
162 175 0
163 177 0
161 173 0
165 178 0
164 179 0
164 176 0
161 174 0
167 181 0
168 184 0
162 178 0
168 184 0
171 188 0
164 181 0
171 188 0
163 176 0
168 184 0
167 184 0
167 181 0
167 185 0
170 185 0
166 183 0
165 181 0
171 189 0
169 187 0
165 181 0
169 188 0
166 185 0
167 186 0
167 184 0
171 191 0
168 188 0
168 187 0
167 185 0
169 187 0
167 187 0
167 188 0
169 189 0
169 190 0
170 189 0
169 188 0
172 193 0
170 189 0
171 192 0
171 190 0
168 188 0
170 190 0
170 190 0
170 191 0
172 191 0
170 190 0
170 189 0
172 193 0
173 195 0
170 192 0
172 193 0
172 195 0
172 193 0
172 194 0
173 195 0
170 191 0
171 193 0
171 191 0
171 190 0
176 199 44
171 194 51
181 203 92
177 199 92
179 201 99
184 205 120
181 203 105
185 207 122
188 208 133
185 206 135
186 207 137
193 213 165
196 215 167
196 215 173
198 217 188
198 216 182
202 220 199
199 218 199
202 220 206
200 219 198
204 222 209
204 222 209
202 220 191
205 223 215
204 222 209
201 219 193
200 218 201
202 221 203
201 219 198
195 215 182
196 216 181
198 217 188
189 210 163
188 209 157
186 207 157
185 207 147
187 208 142
179 202 117
183 205 128
175 198 102
180 203 114
178 201 108
176 199 84
173 197 84
175 199 105
172 196 44
175 198 76
175 198 44
178 201 92
168 192 67
175 199 72
173 197 76
173 198 95
175 198 67
175 199 84
173 197 67
175 199 84
173 197 57
170 194 57
172 195 57
173 196 67
174 198 67
176 199 67
173 197 80
171 195 92
172 196 95
173 197 62
168 192 67
171 195 57
170 193 80
170 194 67
170 193 67
168 191 80
169 192 51
171 195 57
172 196 76
171 194 72
170 193 72
172 196 80
171 195 92
166 190 51
170 194 62
171 194 76
172 196 44
171 194 51
168 192 84
172 195 57
170 193 51
171 195 72
169 193 57
171 194 72
174 197 80
164 188 76
167 190 72
166 189 44
173 197 67
172 196 95
164 187 108
163 186 99
141 164 122
113 139 125
96 123 133
91 120 150
84 113 133
81 112 135
85 115 150
89 118 145
103 129 153
90 118 150
102 129 150
103 131 158
99 126 158
87 116 150
93 121 161
88 117 154
92 120 156
91 120 150
102 129 162
101 128 152
87 116 162
86 116 159
95 124 163
84 114 171
88 118 169
84 114 169
75 108 164
74 107 165
79 111 170
73 106 167
76 108 168
84 115 177
74 106 164
68 102 164
70 103 165
67 101 159
63 97 157
78 108 167
70 103 167
66 100 156
60 95 160
66 99 149
64 99 164
63 97 150
60 95 150
60 95 150
60 96 145
59 94 147
59 95 148
61 96 143
59 94 145
59 94 145
60 95 147
60 95 144
60 95 147
60 95 141
60 95 143
60 96 150
61 96 149
60 95 149
61 96 157
60 95 147
60 96 144
60 95 143
61 96 150
59 95 141
60 95 141
61 96 154
61 96 141
59 94 149
61 96 156
60 96 147
60 95 137
61 97 153
61 97 150
61 97 148
60 96 151
62 97 155
61 97 151
59 95 152
60 96 144
60 95 145
60 96 149
61 96 150
62 97 153
60 95 143
61 97 147
61 96 144
61 96 144
61 97 149
61 96 147
60 95 150
61 96 152
61 96 153
61 97 152
60 94 137
60 95 136
61 96 148
62 98 152
61 97 151
61 96 144
60 95 137
61 97 158
61 96 148
61 96 143
61 96 143
62 97 153
61 96 148
61 96 142
60 95 144
61 96 144
59 94 137
61 96 143
61 96 145
61 96 149
60 95 140
61 96 150
60 95 143
60 95 148
62 98 151
60 95 137
60 95 137
63 98 152
61 95 139
61 96 142
60 94 131
61 96 149
60 95 134
61 96 148
60 95 129
59 94 129
59 93 128
61 95 135
60 95 137
61 95 133
59 93 130
61 95 135
60 94 138
59 94 128
60 94 140
61 95 135
58 92 132
58 91 125
60 92 117
75 96 91
101 113 60
115 124 44
123 132 0
126 133 0
121 131 0
127 136 0
125 133 0
126 134 0
126 133 0
123 132 0
134 142 0
124 131 0
123 130 0
123 131 0
127 136 0
127 138 0
116 121 0
136 144 0
127 132 0
116 123 0
132 136 0
126 131 0
109 115 0
129 134 0
123 127 0
122 126 0
129 133 0
123 124 0
130 133 0
125 128 0
136 140 0
140 143 0
123 126 0
126 130 0
136 138 0
129 130 0
129 131 0
122 122 0
129 133 0
129 131 0
130 132 0
135 135 0
129 128 0
139 144 0
139 141 0
139 141 0
139 141 0
139 139 0
134 137 0
132 129 0
133 135 0
139 143 0
141 144 0
142 145 0
137 137 0
145 147 0
146 148 0
148 153 0
143 145 0
143 146 0
146 149 0
152 157 0
155 163 0
145 148 0
153 158 0
151 156 0
155 161 0
152 157 0
156 166 0
149 155 0
155 161 0
157 165 0
153 160 0
161 169 0
160 169 0
158 169 0
163 172 0
156 163 0
159 170 0
164 173 0
154 161 0
162 174 0
158 167 0
160 167 0
163 174 0
163 175 0
163 174 0
161 172 0
162 173 0
158 170 0
157 168 0
163 177 0
168 179 0
161 173 0
168 183 0
164 175 0
163 177 0
165 180 0
163 176 0
167 184 0
166 181 0
162 175 0
165 180 0
161 174 0
166 184 0
169 187 0
168 185 0
168 183 0
168 184 0
166 183 0
170 186 0
166 184 0
166 183 0
168 184 0
169 188 0
168 186 0
166 183 0
165 183 0
167 187 0
165 182 0
172 192 0
170 189 0
169 188 0
169 189 0
170 189 0
170 188 0
168 188 0
170 189 0
168 189 0
170 191 0
169 189 0
169 188 0
170 190 0
170 188 0
168 186 0
171 192 0
171 190 0
171 191 0
169 191 0
170 189 0
167 185 0
171 190 0
171 192 0
172 194 0
173 194 0
171 191 0
173 192 0
171 192 0
171 192 0
170 192 0
171 192 0
173 194 0
172 192 0
171 192 0
171 192 0
170 192 0
172 196 51
175 198 67
178 200 76
184 205 111
180 202 108
180 202 114
188 209 142
188 208 140
190 210 151
188 208 140
195 214 175
194 213 167
190 210 155
197 215 175
199 218 186
204 222 206
206 223 212
206 223 214
200 218 194
205 223 212
204 222 207
197 216 189
199 217 196
204 222 211
199 218 188
201 219 198
197 216 182
199 217 198
194 214 173
196 215 186
196 215 177
195 214 181
189 210 153
187 208 144
188 209 149
183 204 125
180 202 95
179 202 105
176 199 84
176 199 95
175 198 84
174 197 67
177 200 95
174 197 76
175 198 72
174 197 67
174 198 80
174 198 67
172 197 95
175 199 76
174 198 92
174 197 67
174 198 88
172 196 84
171 194 44
173 197 76
172 196 84
171 195 62
174 197 57
174 197 84
171 194 84
172 197 51
168 192 80
174 198 67
168 192 76
174 198 84
170 194 84
171 195 76
173 197 67
172 196 51
170 193 67
167 191 51
170 193 67
168 193 62
173 196 62
171 194 44
170 193 72
169 192 76
170 194 80
169 193 88
169 193 76
173 197 80
167 191 80
170 193 67
171 194 57
171 195 0
168 192 80
170 194 84
165 189 88
167 191 76
173 197 80
170 193 84
171 194 72
169 191 80
163 186 72
170 193 51
169 192 84
165 188 72
157 180 88
143 167 97
123 148 102
106 133 133
99 126 150
85 116 153
86 115 141
97 124 151
104 131 156
91 120 134
106 132 152
97 123 140
103 130 156
98 125 164
82 113 152
90 119 149
94 122 155
89 117 155
100 127 157
94 122 164
93 121 157
79 111 167
96 124 164
82 113 161
94 123 167
89 119 165
85 115 162
79 111 163
76 108 176
83 113 170
80 110 163
75 107 170
74 108 173
72 106 169
83 113 172
66 101 159
70 104 160
68 102 167
71 102 155
63 98 159
69 102 156
66 100 153
60 95 154
63 97 149
61 96 151
61 95 150
60 95 144
59 94 147
61 97 151
62 96 143
60 95 153
59 94 143
62 97 136
58 93 133
59 94 137
60 94 144
60 95 147
60 95 148
60 95 143
60 96 148
60 95 145
61 96 147
59 95 138
59 94 139
60 95 144
60 95 147
60 96 148
60 95 147
61 96 150
62 97 148
60 95 143
61 96 154
60 95 149
60 95 143
61 97 150
59 94 136
61 96 147
60 95 141
60 96 147
60 95 147
62 97 158
60 95 143
61 96 150
62 97 150
60 95 141
61 96 149
60 96 152
61 96 148
61 97 153
60 96 144
60 96 147
61 97 149
61 96 145
61 96 144
60 95 142
61 97 151
61 95 148
62 98 151
60 94 135
62 97 152
62 97 151
61 96 149
61 97 152
60 96 141
61 96 144
61 97 151
61 96 145
59 94 140
61 96 149
61 96 148
61 96 143
62 97 154
61 96 147
61 96 153
62 97 145
61 96 145
61 96 143
60 95 141
60 95 140
60 95 136
62 97 151
59 93 134
60 95 140
61 96 141
60 95 136
60 95 140
60 96 148
61 96 150
60 94 137
59 93 137
59 94 136
60 95 133
61 95 140
61 96 147
60 94 131
60 94 124
59 92 114
59 94 129
59 93 122
59 93 125
60 94 136
59 93 124
59 93 128
59 92 124
57 89 112
87 103 86
106 120 68
124 134 25
125 135 0
120 130 0
121 131 0
121 128 0
119 125 0
125 131 0
130 140 0
132 139 0
112 119 0
124 131 0
127 134 0
132 138 0
121 128 0
122 127 0
124 129 0
122 129 0
119 126 0
129 135 0
130 135 0
123 127 0
120 122 0
128 133 0
129 133 0
125 132 0
124 129 0
133 139 0
129 134 0
130 134 0
132 137 0
124 126 0
124 128 0
128 131 0
129 132 0
130 131 0
124 128 0
129 131 0
135 138 0
129 131 0
133 132 0
131 132 0
128 130 0
135 133 0
140 143 0
141 147 0
139 140 0
145 151 0
142 144 0
141 145 0
133 133 0
149 151 0
144 149 0
140 141 0
145 148 0
137 141 0
147 150 0
142 144 0
137 140 0
148 151 0
148 153 0
148 154 0
151 157 0
152 157 0
151 155 0
149 154 0
150 154 0
153 158 0
157 165 0
154 161 0
153 162 0
151 157 0
153 161 0
155 164 0
159 168 0
155 163 0
151 161 0
155 162 0
153 163 0
163 171 0
158 168 0
160 169 0
162 172 0
160 170 0
158 166 0
163 176 0
165 177 0
161 176 0
167 180 0
163 176 0
166 180 0
164 177 0
164 177 0
163 177 0
165 177 0
163 179 0
165 180 0
163 176 0
165 178 0
166 182 0
165 180 0
164 179 0
165 181 0
162 177 0
167 185 0
166 181 0
167 183 0
165 180 0
169 183 0
168 185 0
167 186 0
168 184 0
168 187 0
166 183 0
168 185 0
170 188 0
169 186 0
168 185 0
168 187 0
169 187 0
170 188 0
166 184 0
166 184 0
172 193 0
170 188 0
169 189 0
168 186 0
168 187 0
167 186 0
172 191 0
171 191 0
171 190 0
168 189 0
167 186 0
171 190 0
169 188 0
170 191 0
170 191 0
169 190 0
171 192 0
172 193 0
171 191 0
171 193 0
169 191 0
170 192 0
173 194 0
170 191 0
171 193 0
170 189 0
170 190 0
173 194 0
170 191 0
172 194 0
173 193 0
169 189 0
171 191 0
173 196 57
176 198 80
177 199 88
183 204 99
179 202 95
187 207 128
190 209 144
189 209 140
185 206 133
190 209 151
191 211 155
195 214 169
199 217 188
197 216 181
192 211 171
199 218 189
200 218 198
203 221 201
203 221 204
201 220 199
203 221 203
206 224 217
198 216 191
201 219 194
199 218 194
199 217 194
196 216 182
198 217 188
193 213 175
200 218 194
188 208 149
186 208 144
184 205 130
183 205 128
182 203 111
181 203 108
183 205 122
176 199 99
173 197 84
176 199 88
173 197 80
177 199 80
174 197 76
174 198 67
173 196 72
174 197 62
175 198 76
175 198 92
171 195 76
170 194 67
175 198 92
172 196 51
172 197 84
171 195 57
172 197 80
169 194 62
173 197 67
173 196 57
170 194 51
173 198 84
170 193 67
172 195 44
170 193 44
169 192 44
172 196 88
174 197 72
170 194 76
170 195 67
171 193 25
170 193 80
170 193 76
172 196 44
170 194 67
172 196 76
170 194 76
168 191 84
170 193 76
174 197 51
170 194 80
172 196 76
171 195 72
170 195 80
169 193 80
168 192 72
174 198 76
168 192 76
170 194 88
171 196 80
166 190 51
168 193 84
171 195 67
170 192 72
169 193 67
170 192 80
169 192 67
167 191 67
169 193 72
171 194 95
158 181 84
150 175 102
143 167 111
128 152 144
96 124 147
88 117 134
97 125 141
96 124 147
90 119 143
92 121 156
108 135 153
95 123 151
95 123 163
92 120 150
104 131 157
92 121 162
93 121 143
92 121 148
83 113 155
82 112 161
87 116 148
86 114 150
90 119 169
100 128 157
88 117 161
101 129 172
84 114 158
79 110 162
93 121 169
76 108 168
82 113 169
76 108 160
76 108 168
74 107 174
74 106 166
87 116 172
68 101 157
71 104 165
66 100 161
69 102 154
63 98 155
65 98 146
68 100 152
65 99 150
67 100 150
63 98 155
62 97 153
60 96 149
60 95 149
60 95 148
59 94 144
61 96 153
61 96 147
61 95 138
61 97 158
59 93 140
61 97 158
60 96 148
60 96 146
61 96 155
61 97 157
62 97 149
62 98 157
61 96 148
60 95 146
59 95 145
60 94 145
60 96 143
60 95 139
60 96 149
61 97 156
60 95 137
61 96 143
59 94 141
59 94 140
62 97 151
60 95 147
61 97 151
60 95 141
60 95 136
60 95 142
61 96 150
61 96 145
60 96 150
61 96 143
61 96 145
60 95 145
61 96 147
61 96 142
60 95 145
61 96 150
61 96 140
60 95 139
61 97 148
61 97 151
61 95 142
60 95 135
60 95 147
61 96 150
60 95 143
59 94 131
61 97 147
61 96 144
60 95 140
60 95 129
61 96 149
60 95 134
59 94 136
60 95 145
61 96 141
60 95 139
62 97 150
60 95 143
61 96 141
60 95 137
61 96 142
61 97 147
62 97 150
60 96 147
61 96 145
59 93 130
59 94 139
60 95 149
60 95 140
60 95 134
60 95 135
60 94 141
62 97 150
60 95 140
61 95 136
60 94 135
60 95 131
60 95 133
61 95 136
58 92 131
60 94 124
60 94 129
60 94 130
61 95 131
58 93 121
58 92 130
58 92 124
58 91 117
58 92 121
71 97 108
99 115 72
119 132 47
124 134 0
123 132 0
113 120 0
127 136 0
119 130 0
114 123 0
110 119 0
129 139 0
127 137 0
124 131 0
121 129 0
125 131 0
119 125 0
128 138 0
128 134 0
130 137 0
124 130 0
124 131 0
114 119 0
125 131 0
125 132 0
126 134 0
129 134 0
126 131 0
123 127 0
133 140 0
126 132 0
130 135 0
125 127 0
128 133 0
124 130 0
126 130 0
132 135 0
122 126 0
142 146 0
135 139 0
130 134 0
134 136 0
131 131 0
134 139 0
134 138 0
134 137 0
130 135 0
139 143 0
139 142 0
135 136 0
137 140 0
142 143 0
131 134 0
142 149 0
146 152 0
150 156 0
146 151 0
140 143 0
145 150 0
141 143 0
149 153 0
150 158 0
144 149 0
147 152 0
148 154 0
151 157 0
155 160 0
151 158 0
153 157 0
153 162 0
157 164 0
158 166 0
154 161 0
149 157 0
148 155 0
154 163 0
156 165 0
161 171 0
161 170 0
162 173 0
160 168 0
155 162 0
160 171 0
160 168 0
158 168 0
160 172 0
159 170 0
158 170 0
159 170 0
161 172 0
160 170 0
160 172 0
160 172 0
162 176 0
164 177 0
162 177 0
166 180 0
162 175 0
163 179 0
163 177 0
167 181 0
168 186 0
162 175 0
166 181 0
165 181 0
166 183 0
167 184 0
165 180 0
167 185 0
168 185 0
167 186 0
165 180 0
169 186 0
164 182 0
168 184 0
168 186 0
168 185 0
168 185 0
165 181 0
171 189 0
167 185 0
167 185 0
167 186 0
167 185 0
166 185 0
166 185 0
169 188 0
166 185 0
171 190 0
170 190 0
169 189 0
169 188 0
170 192 0
168 187 0
171 189 0
170 189 0
169 188 0
170 189 0
170 189 0
171 191 0
169 190 0
170 188 0
171 191 0
170 189 0
170 193 0
170 190 0
171 193 0
174 195 0
169 190 0
172 192 0
171 193 0
171 191 0
171 191 0
168 189 0
170 191 0
170 191 0
171 192 0
172 194 0
170 190 0
178 201 80
183 203 111
175 197 80
182 204 114
189 209 135
185 206 120
181 203 105
192 211 155
192 212 161
188 209 144
192 211 163
197 217 181
194 214 167
200 219 191
199 218 189
199 217 184
201 219 194
203 221 203
204 221 206
202 220 204
201 219 198
202 220 199
204 222 206
195 215 181
199 218 191
196 215 182
195 215 186
195 214 173
192 212 169
187 208 147
189 209 153
185 207 140
184 205 117
183 205 120
180 202 120
176 199 99
174 197 57
176 199 88
172 196 57
176 199 76
174 197 80
169 193 57
171 195 62
173 196 67
168 191 44
173 197 80
173 196 76
172 196 62
175 199 62
173 197 92
171 195 57
169 193 62
172 195 72
174 199 80
173 197 76
173 196 72
170 194 51
169 193 67
172 197 72
171 196 72
174 199 80
175 198 92
171 196 92
171 195 67
172 195 80
168 193 72
168 193 67
172 196 95
174 198 80
171 195 80
170 194 67
168 193 80
168 192 72
167 191 72
174 197 92
168 193 76
171 194 76
170 194 84
167 191 88
169 193 76
169 194 80
173 196 84
170 194 51
169 194 80
169 192 62
169 193 72
170 194 76
168 192 67
169 193 76
170 194 72
171 193 62
167 190 76
170 193 84
164 187 51
166 190 76
165 188 62
166 188 62
169 192 72
167 190 78
157 181 97
140 163 95
123 148 110
113 139 141
96 123 139
90 119 144
96 124 159
96 124 153
100 128 157
96 124 153
97 124 147
96 124 151
102 129 153
95 123 150
96 123 155
104 131 152
84 113 151
95 123 152
101 128 152
103 130 155
97 125 160
89 117 156
86 115 158
97 124 163
85 115 154
98 125 163
82 112 165
82 112 164
89 118 168
84 114 167
80 110 158
71 104 153
72 104 160
69 102 157
67 101 160
69 103 166
73 105 164
64 98 157
63 98 161
66 99 156
62 98 160
65 99 156
62 97 155
64 98 154
64 99 157
62 96 145
59 94 147
59 94 148
60 96 153
59 94 148
64 98 150
58 93 135
59 94 136
61 95 137
62 96 143
60 94 141
59 95 147
61 96 145
59 94 139
60 96 147
61 96 155
58 92 141
61 96 147
60 96 149
60 95 137
60 96 147
59 94 134
60 96 143
61 96 146
59 94 146
59 94 146
61 96 144
60 94 137
60 96 146
61 97 152
58 93 139
61 96 148
60 96 145
60 96 147
59 94 146
60 96 148
60 96 144
61 96 148
60 95 144
61 96 144
59 94 140
60 95 141
61 96 144
60 95 144
60 95 139
62 97 150
62 97 150
62 97 152
62 98 154
61 96 142
61 97 150
61 96 151
60 95 136
60 95 145
61 95 142
60 95 141
60 95 144
61 96 140
61 96 147
61 96 145
60 95 137
60 95 145
60 94 137
60 95 144
61 96 143
61 96 140
60 95 137
60 95 144
61 96 145
61 97 148
60 95 134
60 95 139
61 96 139
61 96 145
60 96 144
60 95 142
60 95 140
60 95 131
59 94 134
59 93 134
61 96 141
60 95 134
59 94 135
59 94 133
61 96 143
59 94 134
59 94 130
59 93 135
59 92 122
60 94 136
60 93 133
59 93 129
59 93 126
59 93 124
59 93 126
60 94 135
60 94 130
72 97 105
81 101 94
101 114 60
125 137 31
110 118 0
124 137 0
128 138 0
123 132 0
124 136 0
128 138 0
124 132 0
119 127 0
123 129 0
126 135 0
129 137 0
126 136 0
135 146 0
122 130 0
128 137 0
119 128 0
122 132 0
124 130 0
122 131 0
124 130 0
121 129 0
127 135 0
121 126 0
134 136 0
131 137 0
132 137 0
118 122 0
124 129 0
121 125 0
125 128 0
125 131 0
139 149 0
136 142 0
131 135 0
140 144 0
136 140 0
134 139 0
131 131 0
137 141 0
135 138 0
142 146 0
141 147 0
137 141 0
138 141 0
132 134 0
133 140 0
134 137 0
144 149 0
136 140 0
141 144 0
148 152 0
139 141 0
141 144 0
145 148 0
147 152 0
150 156 0
148 153 0
149 154 0
150 160 0
150 157 0
150 159 0
153 161 0
151 160 0
150 155 0
155 164 0
149 158 0
151 158 0
153 164 0
152 160 0
153 161 0
157 164 0
159 168 0
155 166 0
156 164 0
159 169 0
156 165 0
160 168 0
155 164 0
156 165 0
154 164 0
160 172 0
164 176 0
161 175 0
166 179 0
158 171 0
162 176 0
162 175 0
163 175 0
164 179 0
163 176 0
163 176 0
164 177 0
166 180 0
163 176 0
164 178 0
171 189 0
161 174 0
164 178 0
163 179 0
165 181 0
167 182 0
168 186 0
164 177 0
170 186 0
165 181 0
163 181 0
166 181 0
170 191 0
168 183 0
168 186 0
168 185 0
166 183 0
163 181 0
169 188 0
167 182 0
167 187 0
168 186 0
169 187 0
166 184 0
169 189 0
166 184 0
165 184 0
173 192 0
170 190 0
168 187 0
166 187 0
168 185 0
164 182 0
172 191 0
168 189 0
168 186 0
169 189 0
171 190 0
169 190 0
171 191 0
170 189 0
169 188 0
170 187 0
173 194 0
171 191 0
167 188 0
169 187 0
172 193 0
169 189 0
170 189 0
171 193 0
173 191 0
171 192 0
170 193 0
170 190 0
169 190 0
169 189 0
171 193 0
167 188 0
170 191 0
177 200 95
182 203 99
180 202 92
190 210 137
183 204 120
191 210 153
187 208 128
190 210 147
191 211 157
195 215 173
194 213 169
192 213 161
198 216 186
197 216 182
204 222 204
199 218 193
199 218 188
201 219 193
200 218 194
203 221 199
203 221 204
202 221 204
198 217 186
198 216 191
197 215 186
194 214 169
196 215 181
191 211 171
186 208 140
187 208 149
186 207 137
184 205 128
186 207 151
178 200 114
178 200 99
180 202 102
177 200 84
174 197 67
175 198 57
175 199 72
172 196 57
174 198 72
171 194 44
173 197 99
174 198 57
167 191 67
173 197 62
174 197 72
170 195 72
173 196 62
170 194 88
174 197 72
169 194 76
169 193 44
173 196 72
171 195 62
174 197 51
173 197 84
171 195 95
169 193 57
172 196 67
171 195 67
169 194 84
170 194 92
170 194 84
170 194 67
172 195 80
177 200 80
171 196 99
170 194 88
174 197 44
168 192 76
171 194 84
173 196 67
170 193 92
165 189 76
174 198 88
168 192 76
171 194 76
170 193 72
167 190 76
167 190 102
167 190 84
169 193 80
170 194 67
170 193 62
163 186 57
168 191 72
167 191 72
165 188 57
168 192 76
167 191 92
165 189 76
169 192 84
161 184 57
169 191 76
169 192 76
167 190 62
164 187 88
158 181 76
151 174 82
142 166 107
108 134 133
103 130 144
86 115 152
91 120 143
87 116 148
94 121 143
89 119 149
97 125 154
100 127 148
94 121 151
101 128 140
84 113 133
96 123 159
93 121 151
96 123 158
90 118 144
91 119 153
106 133 158
97 125 153
100 127 165
86 116 154
96 124 167
94 122 157
80 111 157
92 121 162
86 116 170
86 116 162
83 113 166
87 116 166
88 117 171
79 110 161
68 102 164
71 105 168
77 109 172
69 102 154
66 100 161
72 105 161
75 106 157
60 96 155
70 103 157
59 94 148
63 97 156
61 95 148
59 94 141
63 98 154
59 94 140
60 95 148
59 94 139
60 95 139
60 95 146
60 95 153
60 95 143
59 95 147
60 96 145
60 95 147
59 94 147
59 94 137
60 95 140
59 94 148
61 96 148
60 95 151
59 95 137
61 96 145
59 94 138
60 95 141
59 93 146
60 95 145
62 97 155
59 94 134
60 95 142
60 95 144
60 96 145
61 96 144
61 96 149
60 95 148
61 96 149
60 95 140
60 95 139
61 96 148
61 96 151
60 95 144
60 95 144
60 95 137
61 96 145
60 95 139
60 96 141
61 96 145
61 96 144
60 95 141
61 96 147
63 99 162
60 96 142
62 97 151
60 95 139
61 96 143
61 96 144
59 94 142
60 96 140
61 95 144
62 97 150
61 96 141
61 96 147
61 96 144
61 96 143
62 97 154
62 96 152
61 96 142
61 96 148
61 96 137
60 94 137
61 97 145
61 96 145
60 95 131
61 96 147
61 96 148
61 96 145
60 95 136
60 95 135
60 95 136
58 93 128
59 94 137
59 93 126
61 96 140
60 95 129
59 93 122
60 95 135
60 95 135
60 94 141
60 94 130
59 93 130
60 94 133
60 94 135
58 92 122
59 93 128
59 94 126
60 94 124
62 96 143
58 91 122
61 92 117
80 100 94
108 124 80
117 129 44
128 135 0
123 135 0
134 146 0
117 127 0
118 129 0
130 141 0
126 134 0
125 136 0
129 137 0
124 132 0
124 135 0
129 141 0
125 135 0
114 121 0
122 129 0
126 135 0
120 129 0
125 131 0
130 142 0
129 137 0
135 144 0
132 141 0
129 136 0
134 141 0
136 143 0
124 130 0
134 141 0
128 134 0
129 134 0
136 143 0
133 138 0
127 130 0
135 140 0
127 131 0
128 134 0
134 142 0
131 137 0
141 145 0
138 144 0
138 144 0
145 152 0
135 141 0
139 144 0
142 149 0
138 144 0
143 148 0
138 141 0
141 145 0
142 147 0
139 144 0
149 154 0
144 147 0
151 155 0
149 155 0
151 158 0
149 155 0
146 151 0
152 161 0
154 160 0
152 158 0
153 161 0
148 154 0
147 154 0
151 159 0
149 155 0
158 165 0
148 155 0
154 161 0
158 165 0
155 164 0
160 170 0
152 161 0
158 168 0
157 168 0
159 168 0
157 167 0
162 173 0
158 167 0
156 162 0
161 172 0
157 167 0
157 167 0
157 169 0
163 176 0
160 171 0
163 176 0
161 171 0
165 179 0
158 172 0
161 176 0
161 174 0
160 173 0
164 177 0
161 174 0
165 180 0
166 181 0
165 177 0
163 177 0
168 185 0
167 181 0
166 182 0
168 183 0
165 181 0
167 184 0
167 184 0
166 181 0
164 181 0
169 186 0
163 179 0
169 186 0
167 184 0
164 181 0
169 184 0
165 183 0
167 183 0
169 186 0
167 185 0
169 184 0
169 187 0
167 184 0
165 181 0
168 187 0
168 187 0
171 191 0
170 189 0
170 189 0
170 189 0
170 188 0
170 191 0
169 189 0
170 190 0
168 187 0
168 187 0
172 192 0
171 188 0
169 190 0
170 191 0
167 188 0
166 185 0
170 191 0
171 191 0
170 190 0
170 190 0
171 190 0
169 190 0
171 191 0
169 190 0
170 191 0
168 189 0
172 192 0
172 193 0
173 194 0
172 193 0
172 193 0
171 192 0
170 191 0
180 202 99
181 203 111
182 203 105
180 202 95
182 203 111
186 206 137
188 208 144
191 211 147
193 212 163
199 217 184
192 212 161
198 217 186
197 216 181
200 219 193
201 219 193
201 219 193
204 222 209
201 220 198
198 217 182
199 218 194
203 221 199
201 219 191
198 217 189
197 217 189
198 217 189
194 215 182
196 216 179
190 211 163
189 210 151
187 208 159
181 203 108
180 202 108
179 201 102
180 202 120
177 200 92
172 196 57
173 196 72
171 195 51
172 195 76
174 197 72
173 197 84
173 196 51
176 199 67
172 196 72
173 197 51
171 194 57
171 194 62
171 195 62
172 195 72
174 199 84
169 193 62
172 196 67
172 196 76
173 197 67
167 191 99
175 198 62
170 194 62
175 198 76
171 195 72
171 195 72
172 196 102
172 196 72
170 195 72
165 188 76
169 193 72
173 197 95
170 193 67
174 198 84
168 192 51
172 196 76
172 195 80
169 194 84
167 192 72
171 195 80
172 196 95
172 196 88
169 193 62
170 194 95
168 191 57
167 191 76
169 193 62
165 189 62
169 192 88
169 192 51
171 194 57
160 184 76
168 191 51
169 191 72
170 193 99
168 191 72
165 189 67
170 193 67
168 192 95
170 193 62
168 192 76
170 192 67
165 189 67
170 194 76
164 187 57
163 187 84
157 179 88
146 169 105
122 148 113
97 125 143
94 122 137
91 119 133
102 129 140
102 129 154
88 116 146
87 116 144
103 130 144
89 118 145
96 123 139
99 127 157
97 125 145
97 123 142
103 129 146
107 133 158
95 123 149
94 121 144
92 120 149
94 122 155
97 124 160
90 118 140
92 121 161
95 123 155
106 132 163
82 113 166
76 108 168
87 116 165
86 115 168
91 120 174
93 120 154
69 101 158
74 106 172
68 102 162
64 99 158
75 106 158
66 99 155
71 104 152
67 100 165
69 102 154
72 103 151
64 97 147
64 97 157
61 96 143
66 99 141
59 94 139
59 93 133
61 97 150
58 93 140
61 96 149
60 95 147
60 96 145
58 93 131
59 94 139
61 96 143
59 93 138
60 95 145
59 94 148
57 92 134
60 95 148
61 96 149
60 94 142
60 96 143
60 96 149
60 95 145
62 97 149
61 97 156
61 97 144
59 94 144
61 97 150
61 96 150
61 96 146
60 95 139
60 94 139
61 97 149
60 95 137
60 95 139
59 94 137
60 95 137
60 95 141
61 97 152
60 95 145
60 96 148
61 96 150
60 95 144
61 96 144
60 95 141
60 94 136
60 95 141
61 96 143
60 95 142
60 95 142
62 97 149
59 94 142
59 94 140
61 96 141
60 96 136
61 96 147
62 97 150
61 96 141
62 97 148
62 97 149
59 94 136
59 94 136
60 95 140
60 95 139
61 96 144
61 96 142
60 95 139
60 95 139
59 94 135
60 94 147
62 97 145
61 96 148
61 96 145
60 95 134
58 93 131
60 95 141
60 95 139
60 95 140
60 94 130
61 95 142
62 97 147
60 95 136
60 94 131
60 95 134
59 94 134
60 95 139
59 94 126
59 93 126
60 94 126
59 93 129
61 95 140
59 93 129
58 91 114
58 92 117
57 90 116
58 92 126
67 95 115
88 107 90
112 125 60
116 126 0
124 134 0
121 132 0
114 124 0
124 134 0
124 136 0
124 133 0
127 137 0
127 138 0
128 136 0
118 127 0
126 136 0
123 132 0
133 142 0
126 135 0
127 135 0
124 132 0
113 119 0
122 128 0
129 139 0
123 131 0
134 143 0
128 137 0
126 131 0
130 138 0
136 146 0
140 146 0
136 144 0
132 137 0
135 144 0
132 139 0
135 143 0
131 137 0
139 147 0
134 140 0
140 146 0
127 137 0
146 154 0
134 142 0
140 148 0
139 146 0
135 140 0
137 143 0
141 151 0
138 143 0
142 146 0
136 141 0
144 150 0
145 152 0
143 149 0
147 153 0
145 151 0
146 153 0
151 157 0
147 152 0
149 154 0
142 148 0
147 154 0
149 156 0
149 156 0
138 143 0
147 153 0
148 154 0
153 158 0
149 157 0
148 156 0
151 157 0
149 157 0
147 158 0
149 156 0
155 165 0
158 167 0
154 161 0
158 170 0
160 171 0
157 169 0
159 167 0
158 169 0
157 166 0
159 169 0
159 166 0
161 172 0
163 175 0
163 175 0
159 171 0
162 177 0
163 176 0
156 168 0
159 171 0
164 177 0
166 181 0
162 177 0
162 176 0
158 173 0
162 175 0
162 178 0
166 180 0
163 179 0
163 179 0
162 176 0
163 177 0
165 180 0
162 177 0
165 181 0
167 185 0
165 181 0
167 185 0
166 185 0
167 182 0
167 184 0
165 180 0
164 180 0
167 184 0
169 188 0
165 182 0
167 187 0
167 184 0
165 182 0
167 184 0
166 183 0
168 187 0
166 183 0
168 186 0
169 188 0
170 190 0
169 188 0
168 187 0
167 186 0
166 187 0
170 189 0
170 188 0
169 189 0
168 188 0
170 189 0
169 190 0
167 186 0
167 187 0
169 190 0
171 193 0
169 189 0
170 189 0
170 190 0
168 190 0
171 192 0
173 194 0
171 192 0
172 194 0
172 192 0
171 193 0
167 189 0
173 194 0
170 192 0
171 191 0
170 190 0
172 194 0
170 191 0
170 190 0
182 203 108
179 201 88
186 206 117
184 205 130
186 206 140
189 210 149
191 211 149
193 213 165
194 213 167
194 214 167
192 212 167
198 216 184
199 218 182
196 215 177
200 218 191
204 221 206
201 220 203
200 219 194
201 220 203
199 217 194
198 217 189
199 218 193
200 218 193
191 211 163
188 209 147
189 210 155
180 202 114
188 208 153
188 208 147
180 202 114
180 202 120
180 203 111
177 199 99
177 200 88
173 196 84
173 196 88
174 197 76
171 195 67
172 197 80
175 198 62
174 198 67
172 196 84
173 197 67
169 192 51
172 196 67
174 198 72
172 195 62
173 197 62
171 195 62
172 196 80
170 194 72
172 195 57
171 196 92
175 198 80
173 196 62
171 195 76
170 194 57
169 192 51
176 200 80
171 196 76
173 197 95
171 195 72
171 195 57
170 194 62
171 196 76
173 198 92
171 195 80
170 193 67
168 192 92
172 196 88
169 192 80
171 196 80
170 194 80
165 189 57
168 192 76
169 193 80
169 193 84
171 196 80
169 193 76
168 191 67
171 195 92
169 193 44
170 193 80
166 190 76
172 195 72
166 189 72
169 193 67
165 190 84
169 193 84
167 191 72
169 192 72
165 189 72
171 194 62
171 195 76
163 187 88
166 190 72
162 186 72
167 191 72
165 189 76
164 186 51
165 189 84
150 172 96
132 156 110
114 140 128
84 114 154
88 117 137
91 119 139
90 119 139
94 123 148
82 112 147
91 119 145
94 121 138
81 110 134
99 126 156
97 124 142
100 127 154
84 113 142
95 122 145
103 129 149
91 119 150
96 124 160
86 115 157
99 126 145
92 120 154
88 117 152
90 119 158
90 118 158
103 129 168
101 128 174
83 114 160
83 112 154
76 109 166
73 106 164
77 108 163
64 99 157
75 106 157
68 102 168
67 101 166
72 105 165
66 100 154
64 97 144
62 96 146
75 106 151
63 97 145
62 96 143
59 94 143
63 96 138
61 96 141
62 96 141
64 98 139
61 96 145
67 100 137
59 95 145
62 96 143
60 95 145
59 93 137
59 93 141
60 95 144
59 94 134
60 95 144
59 94 140
61 96 147
60 95 146
61 97 152
61 96 147
59 94 141
58 92 131
61 96 141
60 95 143
60 95 143
61 96 142
60 95 146
60 95 139
60 95 137
59 94 135
61 96 140
61 97 153
61 96 144
61 96 145
60 95 144
61 97 148
61 96 144
61 96 143
61 97 151
59 94 133
60 95 143
60 95 142
60 96 148
60 95 134
60 95 141
61 97 145
61 96 144
59 94 139
61 97 150
59 93 137
62 98 150
60 95 133
60 95 139
60 95 143
61 96 140
61 96 140
61 96 147
61 97 148
61 96 144
61 96 142
61 96 145
59 94 134
61 96 142
61 96 143
61 96 147
60 95 141
59 94 143
60 95 135
61 96 142
60 95 144
61 95 135
60 95 140
58 93 121
60 95 134
61 96 140
61 96 135
60 94 133
59 93 126
59 93 126
59 93 134
61 95 142
60 94 136
59 93 126
59 94 131
61 95 137
60 95 131
61 95 143
60 95 139
59 93 126
59 93 126
58 92 126
57 90 111
59 93 131
59 92 121
64 95 106
81 103 105
105 122 65
111 124 25
120 133 0
116 124 0
123 134 0
124 136 0
128 138 0
129 141 0
130 141 0
128 136 0
119 133 0
120 132 0
126 139 0
117 129 0
127 138 0
130 141 0
139 147 0
122 130 0
130 138 0
129 134 0
129 139 0
119 127 0
135 144 0
132 142 0
132 141 0
133 142 0
127 132 0
133 142 0
130 137 0
130 138 0
136 145 0
134 141 0
132 141 0
146 156 0
138 144 0
140 145 0
131 140 0
139 145 0
138 146 0
139 148 0
131 136 0
137 142 0
142 149 0
133 140 0
141 148 0
147 154 0
144 147 0
145 153 0
146 154 0
139 147 0
146 150 0
143 149 0
142 146 0
147 153 0
138 147 0
147 151 0
148 156 0
147 155 0
153 160 0
147 153 0
146 151 0
145 150 0
146 154 0
150 158 0
159 168 0
154 162 0
154 161 0
159 170 0
152 159 0
150 158 0
151 159 0
157 166 0
157 168 0
161 173 0
157 168 0
159 169 0
162 171 0
159 167 0
162 174 0
159 172 0
156 168 0
158 168 0
162 174 0
156 170 0
161 173 0
161 171 0
163 175 0
161 174 0
160 173 0
161 177 0
160 174 0
163 174 0
163 175 0
165 179 0
164 175 0
164 178 0
166 181 0
165 181 0
160 172 0
158 173 0
164 177 0
165 180 0
166 182 0
168 185 0
167 185 0
166 182 0
166 180 0
169 188 0
165 179 0
160 179 0
167 184 0
164 182 0
162 178 0
169 187 0
168 186 0
163 180 0
165 183 0
165 182 0
165 184 0
165 183 0
167 184 0
168 187 0
168 186 0
168 185 0
168 186 0
167 185 0
170 189 0
168 187 0
168 186 0
169 186 0
171 190 0
170 189 0
167 187 0
169 189 0
173 193 0
170 190 0
172 193 0
169 188 0
168 189 0
167 187 0
170 191 0
168 188 0
169 187 0
171 191 0
170 190 0
171 191 0
171 192 0
170 192 0
169 188 0
171 191 0
170 192 0
171 191 0
166 186 0
168 189 0
171 191 0
170 191 0
173 195 0
172 191 0
170 191 0
181 203 92
188 208 135
184 204 114
190 210 159
187 207 137
191 211 153
191 211 151
193 212 163
194 213 159
200 219 191
200 218 186
202 220 196
198 217 186
203 221 199
202 221 201
201 219 199
199 218 191
200 218 193
196 215 184
195 215 177
199 218 194
197 216 177
195 214 175
193 214 169
191 211 167
188 209 149
184 206 125
187 208 142
184 206 128
180 202 111
177 200 88
176 199 84
175 199 76
175 199 62
174 197 80
171 194 80
173 197 67
173 196 67
171 195 72
171 195 57
175 198 72
172 195 72
173 196 92
175 198 57
172 196 44
174 197 44
171 195 62
174 197 72
173 197 72
169 193 62
169 194 72
176 199 62
175 198 62
171 196 84
171 194 76
175 200 84
172 196 84
173 198 92
171 195 72
171 195 67
167 192 51
172 196 84
173 196 76
169 193 67
172 196 76
166 191 72
170 194 57
169 194 67
167 191 84
167 191 80
166 190 80
170 195 72
166 190 84
167 191 72
169 194 88
164 189 72
166 191 72
165 189 51
168 191 72
165 189 72
170 195 76
168 192 80
166 191 80
166 189 57
168 192 84
168 192 80
162 185 57
170 194 80
168 192 76
165 188 62
164 186 76
166 190 76
163 187 76
167 190 67
166 190 72
163 187 67
166 190 99
171 194 88
165 188 76
158 180 62
164 187 51
158 182 90
147 171 97
117 141 118
95 122 135
85 115 144
100 128 149
101 128 143
87 116 147
88 116 135
100 127 145
100 127 133
100 127 148
85 114 144
96 123 157
94 121 144
89 118 141
99 125 160
100 127 155
95 122 149
96 122 153
86 115 148
92 120 149
93 121 152
84 114 160
96 122 166
79 109 139
97 124 166
76 107 159
92 120 166
85 115 158
70 104 162
77 108 160
66 100 157
79 110 162
70 103 164
82 113 164
70 103 161
62 97 156
67 101 149
70 102 156
64 97 141
60 95 146
68 101 141
62 96 148
63 97 141
59 93 134
65 99 149
62 95 142
58 93 131
59 94 145
66 98 137
60 94 130
60 95 136
60 95 141
59 94 140
60 95 150
60 95 139
60 95 146
60 95 143
58 92 130
61 96 156
59 95 145
60 95 144
60 95 144
60 95 143
59 94 146
60 95 136
60 95 138
61 96 144
60 95 137
60 96 144
59 94 136
61 96 147
61 96 148
60 95 136
60 95 137
60 95 137
59 94 128
60 95 134
60 95 137
60 95 139
60 95 139
61 96 145
61 97 141
60 94 141
61 96 142
61 96 144
60 95 140
60 96 147
60 95 131
61 96 145
61 97 148
61 96 142
61 96 140
61 96 147
62 97 144
60 95 141
61 96 145
61 95 137
60 95 137
61 96 143
61 96 141
60 94 137
61 96 136
59 93 130
60 95 141
60 94 129
62 97 148
60 94 140
60 96 137
60 95 136
59 94 136
60 94 134
61 96 140
60 94 137
59 94 134
60 95 135
60 95 134
61 97 144
61 96 143
60 95 134
61 96 144
60 95 131
59 93 120
59 93 130
60 94 130
60 94 139
59 92 118
60 95 134
58 92 121
60 94 134
58 90 116
59 93 129
58 93 124
59 93 134
59 92 120
60 94 135
57 91 121
79 102 97
89 108 78
108 121 31
129 140 18
121 134 0
123 132 0
136 147 0
114 124 0
135 146 0
122 134 0
130 143 0
123 134 0
126 135 0
137 151 0
133 144 0
132 143 0
132 142 0
127 137 0
123 134 0
119 130 0
126 138 0
132 141 0
131 143 0
125 134 0
127 136 0
125 135 0
126 134 0
131 140 0
137 144 0
129 137 0
133 141 0
125 130 0
124 129 0
145 154 0
134 138 0
137 145 0
137 144 0
141 153 0
140 147 0
141 146 0
144 149 0
140 148 0
140 147 0
137 142 0
146 150 0
139 146 0
136 144 0
142 151 0
149 159 0
147 156 0
139 144 0
142 149 0
139 145 0
146 153 0
147 153 0
135 143 0
145 153 0
145 154 0
146 150 0
148 156 0
154 164 0
149 157 0
150 158 0
146 154 0
156 165 0
154 165 0
148 156 0
155 162 0
158 167 0
149 155 0
162 170 0
158 167 0
153 162 0
156 165 0
154 161 0
151 158 0
158 167 0
159 172 0
162 173 0
158 170 0
159 173 0
160 171 0
158 168 0
156 167 0
160 173 0
158 170 0
160 172 0
165 178 0
163 176 0
159 169 0
162 174 0
162 175 0
161 173 0
164 178 0
164 178 0
165 180 0
157 171 0
165 179 0
163 176 0
165 180 0
162 178 0
162 177 0
165 180 0
165 180 0
164 180 0
166 180 0
166 181 0
163 177 0
172 189 0
164 181 0
164 181 0
167 183 0
165 184 0
164 180 0
166 185 0
170 187 0
170 190 0
169 185 0
168 188 0
167 185 0
166 184 0
168 188 0
166 182 0
165 181 0
170 191 0
168 186 0
168 187 0
169 190 0
169 188 0
168 188 0
168 188 0
169 190 0
170 188 0
169 189 0
170 189 0
170 191 0
171 188 0
166 186 0
172 192 0
170 188 0
170 190 0
171 191 0
171 191 0
170 191 0
171 191 0
171 193 0
169 188 0
171 190 0
171 193 0
170 190 0
170 192 0
171 192 0
170 192 0
166 188 0
171 193 0
170 193 0
171 192 0
172 194 0
170 193 0
171 193 0
172 193 0
182 203 102
188 207 133
185 206 125
189 209 137
191 211 149
192 212 159
197 216 175
195 214 173
196 215 177
196 215 181
197 216 181
202 220 196
196 216 177
203 221 204
197 215 173
198 217 182
198 216 184
200 218 189
200 218 194
197 216 182
193 213 181
197 216 182
192 211 171
195 214 173
186 207 140
187 208 135
182 204 120
183 205 117
182 204 114
178 201 95
175 199 95
177 201 92
173 197 72
174 198 88
172 195 72
173 197 76
173 197 76
173 198 84
175 199 76
173 197 80
174 197 80
176 199 80
172 195 57
172 196 51
173 198 95
174 198 84
169 193 57
170 194 62
170 194 67
174 198 88
169 193 99
171 195 72
170 194 51
172 195 57
172 197 62
172 196 84
172 195 67
169 193 62
169 192 57
173 197 99
169 192 76
168 192 51
170 194 76
172 197 76
167 190 62
169 194 80
170 195 67
167 190 67
170 193 67
168 192 84
173 197 88
168 192 72
170 195 80
168 191 72
170 195 102
170 194 72
166 191 84
171 195 88
167 191 36
165 188 80
166 190 76
172 195 67
168 191 72
168 192 76
171 195 76
172 195 72
171 196 105
166 190 36
166 189 67
169 193 88
168 191 57
167 192 84
164 188 72
169 191 67
165 188 72
169 191 67
170 193 67
169 193 84
166 189 76
163 187 92
166 190 67
163 186 86
150 175 97
129 153 120
109 134 120
102 129 134
96 124 156
97 125 143
100 128 156
99 126 140
85 114 146
82 111 138
94 121 145
98 124 150
99 125 138
95 122 142
89 117 141
92 119 134
102 129 150
91 119 147
96 123 145
98 125 143
93 120 145
89 118 144
87 115 134
95 121 154
82 113 149
97 124 159
94 122 159
77 107 149
90 119 168
93 120 162
81 111 160
84 114 155
82 111 159
79 109 164
74 105 155
73 105 166
69 102 158
64 99 151
61 97 153
67 100 146
64 98 154
73 104 156
66 99 152
68 99 140
65 98 149
59 94 140
64 99 144
59 94 143
60 95 141
60 94 146
59 94 143
58 93 141
61 96 146
59 94 145
59 94 140
59 94 139
61 97 150
59 94 135
61 96 141
60 95 142
59 93 141
60 95 135
59 94 141
60 95 142
59 94 135
61 96 141
61 97 145
59 94 149
60 95 141
60 94 139
59 94 130
60 94 138
60 95 147
60 95 143
60 95 134
60 95 140
61 96 144
61 96 147
61 97 144
60 96 141
61 97 144
61 96 145
59 93 134
60 95 141
60 95 142
60 95 137
59 94 131
60 95 141
60 94 139
62 97 150
61 97 147
61 96 147
61 96 153
61 96 141
60 95 134
61 96 143
60 95 144
59 94 134
61 96 145
61 96 143
62 97 143
61 96 139
60 94 135
61 96 137
60 95 134
60 95 131
60 95 135
60 94 134
60 94 134
60 95 137
61 95 139
60 94 125
61 96 145
60 95 140
61 96 136
60 94 130
59 93 129
61 96 142
60 94 136
60 95 136
60 95 139
60 94 124
60 95 135
59 93 131
60 94 133
59 93 140
60 94 128
59 93 134
58 92 124
58 92 124
60 94 130
58 92 126
58 91 122
58 92 120
59 92 118
57 91 117
61 91 109
101 119 85
116 129 47
101 109 18
119 130 0
121 133 0
124 138 0
121 133 0
122 134 0
126 137 0
130 143 0
126 137 0
128 138 0
131 141 0
130 143 0
131 144 0
127 138 0
126 136 0
130 138 0
129 140 0
129 139 0
120 131 0
133 146 0
129 140 0
127 135 0
126 133 0
126 138 0
126 135 0
130 137 0
138 147 0
126 134 0
131 140 0
143 154 0
133 142 0
132 136 0
138 149 0
137 146 0
140 147 0
136 145 0
127 132 0
141 150 0
138 147 0
135 142 0
140 147 0
145 156 0
132 140 0
140 145 0
138 147 0
133 141 0
126 133 0
138 146 0
146 154 0
144 150 0
142 151 0
145 154 0
149 159 0
145 154 0
152 163 0
143 154 0
152 159 0
147 156 0
144 151 0
141 148 0
151 158 0
149 155 0
151 158 0
152 160 0
155 164 0
151 160 0
153 164 0
154 165 0
151 159 0
157 167 0
148 158 0
157 166 0
154 166 0
151 163 0
159 172 0
158 170 0
154 164 0
156 169 0
158 168 0
153 164 0
156 166 0
155 167 0
159 171 0
160 172 0
162 175 0
165 180 0
164 178 0
157 167 0
163 177 0
160 175 0
162 177 0
164 179 0
166 180 0
166 180 0
162 175 0
163 180 0
165 182 0
161 178 0
165 181 0
163 178 0
163 180 0
161 174 0
164 180 0
163 179 0
167 185 0
166 183 0
164 181 0
168 182 0
166 184 0
168 187 0
163 181 0
165 182 0
167 184 0
168 187 0
169 187 0
165 182 0
170 189 0
171 186 0
168 185 0
168 185 0
166 184 0
164 182 0
166 187 0
166 185 0
173 192 0
169 189 0
170 191 0
168 186 0
169 187 0
167 187 0
167 186 0
164 184 0
170 190 0
168 186 0
171 192 0
167 186 0
169 191 0
172 191 0
170 190 0
169 190 0
170 191 0
168 188 0
173 194 0
169 190 0
169 190 0
168 188 0
172 193 0
171 191 0
170 191 0
171 191 0
171 192 0
170 192 0
169 191 0
171 192 0
172 194 0
169 191 0
172 192 0
171 192 0
174 195 0
183 204 111
183 204 111
187 208 135
189 210 149
189 209 142
195 214 171
194 213 163
195 214 175
199 217 179
197 215 177
197 216 184
199 217 182
199 218 186
201 219 194
198 217 182
194 214 171
199 218 189
196 215 181
198 217 191
199 217 188
197 216 177
197 216 177
191 210 163
190 210 151
184 205 128
185 206 125
178 201 102
178 201 92
178 201 108
176 199 88
178 201 80
175 197 67
173 197 72
174 198 80
170 194 76
174 197 51
172 196 80
173 196 84
172 196 92
172 196 76
173 198 84
168 192 88
171 195 67
174 199 105
170 193 62
170 193 57
173 197 80
174 198 76
172 195 57
171 195 72
169 192 57
172 197 67
171 196 67
170 194 95
171 195 62
174 197 92
173 196 80
171 195 62
165 189 80
167 192 62
171 195 62
173 197 57
169 193 57
170 194 80
165 190 80
172 195 80
170 193 57
171 195 76
167 191 76
166 191 80
170 193 62
168 191 88
168 192 80
166 189 51
169 194 76
172 196 72
167 191 76
170 193 84
164 188 76
167 191 76
170 194 62
171 195 62
167 191 76
168 192 62
169 192 80
162 186 88
164 189 92
164 188 62
169 193 102
169 193 88
161 184 25
164 188 80
165 188 36
160 183 44
162 186 67
170 193 99
171 195 92
163 186 67
168 192 90
160 183 62
166 188 76
166 189 76
163 187 92
148 170 105
124 149 121
91 118 118
97 124 154
90 118 148
90 118 129
88 117 150
84 112 140
96 123 143
95 122 157
84 113 141
92 120 150
99 127 163
82 111 132
95 122 156
105 131 149
96 124 150
107 132 170
86 115 151
116 142 155
99 126 140
91 120 151
97 125 157
88 117 156
92 120 154
84 113 151
85 115 156
83 112 160
92 120 165
73 105 144
77 108 153
75 107 157
81 111 161
77 108 161
77 107 154
77 107 162
79 109 164
67 101 152
69 101 145
60 95 144
65 99 146
64 97 147
63 98 151
63 97 149
66 98 121
60 95 145
68 100 143
60 95 140
62 96 136
60 94 141
58 93 131
61 96 147
59 94 145
62 97 150
61 96 144
58 93 141
59 94 133
59 95 141
59 93 139
60 95 147
60 94 129
60 95 151
60 94 141
58 92 129
60 95 139
61 95 144
60 95 143
60 95 140
59 94 134
60 95 136
59 94 135
61 96 145
60 95 145
60 95 141
61 97 147
59 94 129
60 95 139
60 95 136
59 94 131
60 95 137
60 95 137
61 96 144
60 94 140
59 94 136
60 95 131
61 96 149
60 94 136
61 96 141
60 94 136
60 95 136
60 96 141
60 95 136
61 96 139
60 95 143
60 95 143
60 95 140
61 96 136
60 94 140
61 96 144
59 94 125
61 96 145
61 95 141
61 97 144
59 93 124
60 95 137
60 94 135
60 94 136
60 95 139
60 94 135
61 96 147
60 95 139
60 94 137
59 93 124
60 94 131
59 94 133
60 95 139
60 95 131
60 95 130
59 94 130
58 92 120
61 95 139
61 95 137
59 93 126
60 94 124
59 93 129
59 94 128
60 94 126
60 94 135
58 92 124
58 92 122
58 91 110
60 94 130
59 93 118
57 90 108
61 91 120
95 115 90
104 124 74
113 127 36
124 138 0
119 130 0
125 137 0
128 141 0
127 139 0
125 137 0
126 136 0
117 126 0
123 134 0
119 129 0
129 145 0
121 133 0
137 147 0
121 133 0
129 139 0
126 136 0
127 140 0
127 136 0
130 142 0
129 138 0
130 139 0
128 141 0
131 142 0
135 145 0
135 144 0
137 146 0
131 139 0
135 143 0
137 145 0
131 138 0
136 147 0
136 144 0
137 146 0
137 145 0
131 141 0
141 149 0
131 141 0
139 148 0
134 144 0
142 151 0
137 145 0
145 153 0
130 135 0
143 149 0
140 146 0
144 155 0
141 151 0
144 153 0
141 152 0
145 154 0
146 155 0
148 156 0
151 159 0
146 153 0
148 158 0
156 165 0
150 160 0
144 152 0
140 146 0
150 159 0
152 161 0
147 158 0
150 160 0
148 157 0
151 161 0
156 168 0
149 158 0
155 164 0
154 166 0
158 170 0
152 164 0
156 171 0
153 163 0
153 164 0
159 174 0
158 170 0
159 172 0
160 175 0
165 178 0
161 173 0
161 175 0
160 172 0
164 175 0
158 170 0
165 177 0
158 171 0
160 173 0
163 178 0
160 172 0
159 172 0
163 180 0
163 178 0
166 184 0
159 172 0
167 184 0
164 177 0
162 174 0
163 178 0
165 181 0
167 185 0
165 180 0
166 183 0
166 182 0
167 184 0
164 180 0
166 184 0
164 181 0
163 179 0
167 185 0
165 181 0
168 185 0
163 180 0
162 176 0
166 184 0
169 189 0
167 185 0
170 190 0
163 180 0
169 185 0
167 187 0
168 186 0
166 183 0
168 187 0
168 187 0
168 186 0
170 187 0
171 191 0
166 187 0
165 185 0
169 188 0
165 185 0
170 188 0
169 189 0
168 188 0
169 187 0
167 187 0
168 188 0
170 191 0
171 193 0
171 191 0
169 190 0
170 189 0
169 189 0
169 190 0
172 193 0
170 189 0
166 185 0
168 189 0
169 192 0
171 191 0
171 192 0
169 190 0
171 191 0
170 193 0
172 194 0
173 194 0
170 193 0
169 190 0
169 190 0
183 204 105
188 207 151
187 207 130
194 213 161
188 209 140
194 214 165
197 216 179
197 215 186
194 213 165
196 215 182
200 218 186
199 218 186
200 218 189
198 217 181
196 216 175
200 219 194
194 213 171
198 217 179
197 216 181
194 214 171
192 212 161
188 208 155
189 209 149
181 202 122
181 203 120
181 203 120
176 199 105
178 201 105
177 200 92
179 202 105
174 198 92
172 196 72
172 195 88
174 197 80
173 196 80
172 196 57
172 195 57
173 196 72
172 196 67
172 196 88
172 195 76
170 194 67
172 197 76
173 196 76
171 195 84
173 197 76
171 195 76
171 196 88
175 199 76
175 199 84
168 191 80
173 198 92
173 196 57
168 192 80
171 195 84
172 196 76
171 195 67
171 195 80
167 189 62
169 193 51
168 192 67
173 198 80
164 188 72
173 197 95
173 197 92
172 196 51
170 195 88
169 193 92
171 195 76
166 190 84
169 193 57
167 191 95
172 196 72
165 189 84
163 187 62
169 194 72
168 190 57
161 186 62
167 192 72
169 193 88
164 188 76
163 188 72
157 182 72
166 190 67
166 189 57
163 187 76
156 180 72
165 189 80
168 192 92
166 190 80
165 188 72
158 182 72
167 190 62
164 188 67
168 192 62
169 192 72
165 189 51
160 183 88
162 185 102
168 190 62
159 181 72
163 186 76
168 190 67
153 176 95
149 173 92
105 131 113
87 115 136
93 120 137
103 129 139
92 119 139
87 115 139
82 111 141
93 121 151
86 114 144
85 113 143
83 112 145
82 112 143
96 123 136
90 119 142
103 130 147
89 117 144
89 116 141
105 131 144
93 121 147
108 133 142
103 129 150
96 124 159
90 117 149
88 117 150
99 125 160
72 104 152
80 110 139
71 103 147
81 110 152
78 108 160
78 108 153
71 104 159
63 98 160
68 101 160
72 104 163
66 100 156
69 102 151
64 98 154
73 104 154
74 104 142
72 104 150
69 100 141
66 99 143
65 98 148
61 95 136
63 97 134
66 100 140
60 94 141
64 96 134
62 96 139
62 96 133
60 94 140
60 95 139
59 94 137
60 94 127
59 93 139
60 94 145
59 94 135
59 93 137
59 94 137
60 96 145
59 94 137
60 95 144
60 95 138
59 94 129
60 95 142
60 95 140
58 93 136
62 97 150
61 96 143
60 95 136
59 94 130
60 95 144
59 94 137
60 95 137
60 96 143
60 95 139
59 93 125
60 95 142
61 96 143
61 96 141
59 93 131
60 94 137
60 95 135
60 95 129
61 96 142
59 94 137
60 95 144
60 95 131
58 93 138
59 94 135
60 95 139
60 95 137
60 94 133
60 95 134
60 95 136
60 94 131
59 93 129
60 95 136
60 95 136
60 95 136
58 92 121
59 93 134
60 95 137
60 94 134
60 95 140
59 93 124
59 94 133
59 93 120
61 96 139
61 96 141
60 94 135
61 96 134
59 93 130
59 94 136
59 94 133
60 95 139
61 95 135
60 94 133
58 92 126
60 94 128
59 94 128
59 93 125
59 92 122
60 93 124
59 93 130
59 93 124
56 88 102
58 92 117
57 90 117
57 89 113
57 90 114
82 107 114
80 101 86
118 132 40
121 133 25
120 134 0
127 139 0
128 140 0
126 140 0
134 149 0
126 136 0
116 129 0
123 134 0
128 141 0
130 142 0
130 144 0
127 139 0
136 147 0
128 140 0
132 143 0
135 146 0
133 146 0
135 148 0
129 142 0
131 142 0
134 144 0
134 146 0
133 144 0
126 135 0
129 136 0
138 150 0
130 140 0
138 146 0
145 154 0
142 155 0
134 144 0
134 144 0
130 143 0
144 151 0
131 138 0
136 145 0
135 146 0
147 156 0
139 147 0
143 152 0
146 157 0
147 160 0
135 147 0
139 144 0
149 161 0
143 153 0
151 160 0
136 145 0
138 150 0
144 153 0
142 150 0
147 155 0
154 166 0
147 155 0
148 159 0
152 162 0
145 153 0
156 169 0
142 149 0
155 167 0
145 153 0
156 165 0
150 155 0
146 152 0
157 169 0
152 159 0
152 163 0
156 164 0
158 168 0
154 164 0
156 166 0
158 169 0
159 170 0
156 168 0
154 165 0
156 170 0
156 170 0
158 169 0
158 168 0
161 173 0
161 171 0
157 168 0
160 173 0
163 176 0
161 178 0
161 170 0
157 171 0
161 177 0
159 172 0
161 177 0
165 180 0
164 181 0
162 176 0
164 176 0
164 180 0
162 177 0
162 177 0
164 179 0
170 187 0
163 180 0
163 179 0
160 176 0
170 188 0
163 178 0
163 180 0
159 176 0
166 185 0
165 179 0
168 186 0
168 185 0
165 183 0
166 184 0
169 187 0
164 181 0
165 183 0
171 190 0
167 185 0
169 186 0
167 187 0
168 186 0
170 190 0
170 190 0
169 186 0
168 189 0
167 185 0
168 187 0
168 189 0
170 189 0
170 188 0
168 187 0
166 184 0
171 190 0
171 191 0
170 190 0
169 190 0
170 190 0
170 190 0
170 191 0
172 193 0
168 188 0
169 191 0
169 188 0
168 189 0
169 190 0
170 190 0
173 193 0
173 193 0
171 192 0
170 190 0
169 190 0
170 191 0
171 191 0
171 194 0
168 188 0
171 192 0
171 192 0
169 192 0
173 193 0
170 192 0
187 208 125
188 208 137
187 207 140
191 211 151
192 212 157
197 217 182
198 217 179
196 215 177
197 216 179
204 222 203
196 215 173
200 219 186
196 215 173
195 214 173
202 219 199
199 217 179
201 219 193
194 213 169
197 216 184
191 211 169
189 210 157
188 209 151
187 208 153
184 205 133
188 209 149
177 200 105
176 199 92
179 202 95
174 197 80
175 199 88
176 199 80
175 198 80
175 199 84
177 201 88
171 195 84
174 197 84
175 199 80
173 196 57
173 196 51
168 192 57
173 197 67
171 195 44
170 194 80
168 191 57
173 197 84
171 194 67
172 195 76
171 194 51
172 196 72
172 195 51
171 195 67
171 193 76
174 197 80
173 197 57
169 193 76
168 192 67
166 189 57
165 189 36
173 197 88
168 192 44
170 194 57
173 197 88
171 195 76
170 194 95
166 190 72
171 195 57
164 187 57
168 192 72
168 192 80
171 194 57
168 192 62
170 193 72
163 187 80
166 190 72
166 191 80
167 191 80
168 191 76
167 191 62
169 194 80
169 194 88
168 192 80
167 190 67
167 192 76
166 190 67
167 192 62
170 193 67
165 188 62
166 190 62
167 191 67
162 185 62
164 188 80
161 185 76
164 187 76
164 186 76
165 190 76
170 194 88
163 187 76
161 185 51
159 183 72
165 188 72
156 180 62
161 183 62
159 182 76
162 185 84
145 169 95
124 148 99
110 135 133
86 115 134
78 108 139
85 114 134
94 122 151
97 123 131
88 116 139
100 126 142
90 118 139
88 116 143
94 122 140
95 122 132
91 119 143
93 119 146
103 129 147
94 122 136
89 116 136
99 125 148
101 128 143
98 124 147
88 117 159
105 131 149
85 114 151
83 113 150
94 122 162
90 118 154
92 119 159
82 112 153
93 120 161
79 109 159
74 106 151
80 109 159
70 103 154
72 104 161
73 105 164
69 102 159
69 101 148
69 102 153
66 98 147
69 102 148
69 102 143
61 94 134
66 97 136
58 93 128
63 97 138
64 98 135
60 95 143
62 96 134
58 92 133
59 93 135
62 96 137
58 93 133
62 96 141
59 93 139
61 96 144
58 93 135
61 96 147
59 94 137
60 95 144
59 94 138
61 96 144
59 94 141
59 94 129
60 95 136
60 96 144
60 95 144
60 95 137
61 95 144
59 94 147
60 94 137
60 95 134
60 95 141
59 94 129
59 94 147
59 94 143
60 95 137
60 95 139
61 96 145
60 95 139
61 96 141
61 96 143
61 95 140
59 94 136
59 94 131
60 94 130
58 92 120
57 91 126
60 94 136
61 96 141
61 96 143
59 94 131
61 96 141
60 95 140
61 96 141
60 95 136
60 95 134
60 95 139
58 93 120
59 94 129
60 95 136
59 94 130
60 94 134
60 95 134
59 93 128
61 96 147
59 93 129
60 94 135
60 94 135
61 96 143
61 96 141
60 95 139
60 94 137
57 91 124
57 91 126
59 94 129
59 93 125
59 93 130
58 92 115
60 94 131
60 94 125
59 92 121
60 94 130
59 93 125
59 94 128
57 90 120
57 89 117
59 93 120
58 92 118
57 91 113
57 90 115
69 97 105
89 110 76
103 119 63
113 128 47
123 135 18
132 146 0
127 138 0
129 143 0
137 150 0
126 138 0
124 137 0
129 141 0
126 136 0
130 145 0
122 136 0
129 139 0
131 145 0
135 148 0
126 139 0
120 131 0
136 146 0
141 153 0
131 144 0
139 152 0
128 140 0
137 147 0
131 143 0
126 140 0
136 145 0
130 141 0
129 139 0
137 145 0
141 153 0
135 147 0
132 141 0
133 146 0
132 142 0
131 139 0
142 154 0
146 158 0
138 146 0
145 156 0
141 152 0
136 148 0
144 156 0
138 147 0
143 156 0
133 143 0
143 151 0
144 156 0
140 149 0
138 147 0
148 159 0
142 150 0
146 155 0
152 161 0
149 157 0
151 160 0
149 159 0
154 165 0
149 158 0
152 164 0
147 158 0
150 158 0
146 156 0
161 175 0
149 160 0
152 162 0
147 156 0
153 163 0
152 164 0
153 163 0
153 164 0
161 174 0
158 169 0
153 163 0
156 167 0
151 163 0
165 179 0
153 166 0
160 172 0
158 171 0
162 174 0
159 172 0
160 172 0
157 169 0
158 171 0
162 176 0
162 173 0
158 173 0
162 176 0
157 172 0
160 171 0
160 173 0
163 177 0
165 181 0
160 173 0
160 175 0
163 177 0
160 176 0
167 183 0
164 178 0
165 180 0
163 179 0
167 184 0
163 179 0
164 180 0
164 178 0
164 183 0
168 185 0
168 186 0
166 182 0
163 180 0
168 185 0
166 185 0
164 182 0
163 180 0
167 185 0
169 188 0
168 186 0
166 180 0
167 184 0
163 179 0
170 189 0
166 185 0
167 186 0
167 185 0
171 190 0
170 189 0
170 189 0
168 187 0
168 188 0
168 187 0
170 190 0
165 186 0
169 189 0
167 187 0
170 190 0
169 189 0
167 188 0
169 189 0
172 192 0
172 192 0
171 192 0
171 192 0
169 189 0
165 183 0
170 188 0
167 187 0
171 191 0
171 193 0
170 191 0
170 192 0
171 191 0
171 191 0
168 189 0
169 189 0
171 190 0
172 191 0
169 191 0
171 190 0
171 192 0
172 193 0
172 193 0
182 204 117
191 211 155
190 210 155
191 211 159
196 215 175
195 215 173
193 212 159
199 218 189
195 214 171
195 214 181
196 215 175
199 217 191
193 213 173
189 208 161
197 217 182
197 216 181
195 213 165
194 214 181
193 212 157
189 210 159
190 210 155
188 208 147
181 202 122
182 204 114
180 203 114
177 200 99
178 202 88
174 196 88
174 198 72
172 196 72
176 199 80
172 196 62
172 195 62
175 198 67
175 198 76
176 199 84
171 195 80
174 197 88
171 195 88
173 197 95
170 194 57
174 197 92
169 191 57
173 196 57
172 196 72
170 195 84
172 196 76
172 196 51
172 196 72
169 192 67
166 190 36
171 196 84
171 195 72
168 192 62
170 194 72
170 195 67
171 195 72
172 196 99
164 189 76
169 194 72
172 196 57
170 194 76
166 190 67
170 194 84
168 192 72
168 192 57
170 194 51
163 188 80
167 191 72
172 196 84
169 192 80
166 188 76
171 195 76
167 191 51
164 190 72
167 191 67
168 191 76
166 190 76
166 190 76
170 194 88
170 194 72
168 192 84
168 193 67
168 193 62
161 186 92
164 187 62
169 193 80
161 184 76
165 188 76
166 189 72
166 190 57
160 184 62
166 189 51
165 189 72
157 179 67
160 183 72
169 192 84
166 189 88
166 191 76
156 179 62
163 186 88
164 187 78
166 188 67
163 185 72
156 178 78
141 163 86
123 148 110
96 123 125
98 124 134
84 112 137
96 124 139
97 125 153
96 124 155
90 118 141
79 109 136
93 120 149
100 127 155
90 117 140
85 113 128
89 117 141
105 131 144
92 119 140
103 130 151
89 116 135
88 115 133
91 119 140
93 120 143
87 116 156
85 113 145
106 131 152
94 121 159
95 122 156
83 112 159
93 119 145
82 111 155
73 105 148
76 107 157
84 113 157
77 108 157
77 107 151
67 100 153
74 105 151
78 109 162
69 101 147
61 97 153
60 96 149
71 103 154
65 99 144
65 97 138
64 96 142
63 97 139
63 96 128
63 96 129
62 96 137
64 97 137
64 97 143
59 93 133
60 94 129
60 93 137
60 94 115
59 93 137
57 91 119
59 94 130
60 94 139
59 93 134
58 92 134
59 93 136
58 93 126
59 94 137
60 94 136
60 95 140
59 93 131
59 94 134
60 95 144
61 96 149
61 96 143
61 96 143
60 95 139
60 95 141
61 96 142
59 94 128
61 96 139
58 92 121
59 94 131
59 93 131
59 94 129
59 93 125
61 96 144
61 97 144
61 96 145
59 94 135
59 94 137
60 95 137
60 94 133
62 96 145
61 96 141
59 93 131
60 94 135
61 96 147
60 95 141
60 95 149
61 96 141
58 93 128
59 93 118
60 94 137
60 94 136
58 92 122
61 95 140
61 96 137
59 93 130
60 94 134
59 94 126
59 93 128
60 95 134
60 94 135
58 92 121
61 96 135
59 94 129
61 95 135
59 92 128
58 92 130
61 95 137
61 96 137
59 93 126
58 92 118
57 91 110
59 93 128
60 95 130
58 91 113
60 94 120
57 90 107
58 92 121
59 93 129
59 93 121
57 90 107
67 97 118
75 98 78
98 114 65
113 126 31
124 137 0
120 131 0
118 132 0
123 136 0
125 139 0
133 148 0
123 135 0
133 148 0
130 144 0
133 145 0
126 139 0
111 125 0
136 146 0
125 138 0
126 137 0
135 149 0
131 143 0
136 151 0
129 140 0
132 143 0
133 145 0
134 146 0
137 149 0
133 144 0
122 133 0
137 148 0
129 143 0
133 145 0
138 152 0
127 140 0
134 144 0
142 153 0
140 150 0
130 142 0
135 144 0
139 149 0
144 154 0
140 149 0
143 156 0
138 149 0
136 148 0
143 157 0
147 158 0
137 144 0
150 162 0
143 154 0
148 158 0
145 156 0
139 151 0
145 154 0
148 159 0
147 155 0
145 157 0
147 160 0
146 156 0
149 157 0
151 163 0
151 162 0
148 157 0
151 160 0
154 164 0
149 158 0
153 166 0
150 159 0
157 168 0
152 163 0
153 165 0
148 157 0
158 171 0
153 169 0
156 169 0
157 169 0
153 165 0
158 169 0
154 168 0
158 169 0
160 173 0
153 164 0
160 171 0
157 169 0
163 173 0
159 173 0
162 175 0
158 174 0
162 175 0
157 169 0
161 173 0
161 176 0
161 178 0
160 173 0
163 179 0
160 173 0
163 178 0
162 177 0
163 178 0
162 178 0
164 180 0
164 181 0
164 182 0
162 179 0
160 176 0
164 180 0
165 181 0
164 180 0
168 186 0
163 179 0
163 176 0
165 181 0
164 180 0
164 180 0
165 184 0
168 187 0
166 184 0
167 185 0
166 183 0
166 184 0
165 184 0
169 188 0
170 190 0
167 185 0
164 183 0
170 189 0
167 185 0
169 188 0
170 190 0
168 187 0
168 188 0
169 190 0
166 188 0
168 187 0
169 190 0
167 186 0
169 189 0
170 190 0
169 189 0
168 190 0
172 192 0
171 192 0
171 192 0
169 190 0
169 189 0
170 190 0
170 189 0
170 188 0
170 189 0
169 191 0
170 190 0
170 190 0
167 188 0
169 188 0
169 190 0
172 193 0
168 189 0
170 192 0
170 192 0
173 195 0
169 190 0
171 192 0
172 192 0
170 191 0
169 190 0
186 206 125
188 208 142
191 211 157
194 213 163
194 213 169
193 213 165
199 217 184
203 220 198
198 217 177
196 215 177
199 217 188
202 220 194
199 217 181
197 216 181
196 215 179
195 215 177
192 212 161
195 214 173
193 213 171
188 208 155
191 211 151
189 209 153
181 203 122
178 201 88
180 203 117
174 197 84
177 200 84
176 199 92
174 199 84
174 198 84
176 199 99
172 196 80
175 198 62
171 194 44
172 196 72
174 198 72
173 196 62
173 198 57
173 198 76
169 193 57
172 196 62
171 195 80
169 194 80
170 194 51
174 198 72
170 194 102
177 200 80
169 194 72
167 191 51
171 194 72
168 191 62
170 194 67
170 194 57
169 193 51
169 193 72
170 194 76
168 192 67
167 190 72
171 195 76
170 195 80
170 193 80
167 191 62
166 190 62
170 193 84
167 190 36
170 193 51
168 192 67
167 191 62
169 193 57
168 191 62
170 194 88
165 189 72
170 194 72
166 190 67
170 194 62
166 190 57
166 190 72
168 191 80
164 188 84
168 192 72
161 183 57
161 185 62
167 191 72
165 190 95
165 190 76
163 187 25
162 186 62
167 191 84
158 182 72
165 190 88
164 187 80
159 182 67
166 189 72
165 189 72
162 184 44
158 182 62
159 183 88
161 185 72
163 187 76
158 181 67
161 184 84
162 185 62
162 185 72
150 173 72
164 186 70
159 180 80
134 158 100
105 131 99
85 113 131
92 120 144
88 116 135
88 116 114
90 117 127
80 109 140
93 120 139
94 122 143
94 121 141
97 123 134
91 118 128
99 125 137
91 119 154
104 130 149
98 124 138
99 124 141
105 129 147
94 119 138
92 119 143
88 117 149
90 118 143
90 117 148
97 125 150
88 117 154
91 119 150
83 112 148
82 113 151
83 113 155
76 107 152
70 102 155
75 105 147
76 106 154
76 108 164
67 100 149
68 100 150
68 101 154
69 102 159
78 107 155
66 98 146
69 100 147
62 96 144
65 97 137
67 99 138
61 94 136
67 99 133
59 94 141
58 92 132
65 98 138
62 96 137
59 94 144
61 96 144
61 95 124
60 95 141
59 93 135
59 93 141
59 94 135
59 94 136
61 96 150
60 95 139
59 93 136
61 95 143
59 94 141
59 94 140
60 94 140
61 96 149
59 93 134
60 95 144
60 95 133
60 94 133
59 94 128
60 95 131
60 95 139
59 94 126
61 96 140
60 94 128
60 94 137
61 96 147
61 96 147
61 96 147
60 95 133
60 94 128
59 93 126
59 94 141
60 95 135
61 96 145
61 95 136
60 95 139
60 95 129
60 94 137
59 93 128
59 94 135
61 96 133
61 96 142
61 96 139
60 95 133
59 93 129
61 96 141
61 96 139
60 95 133
58 92 127
59 94 126
59 94 135
60 94 134
61 96 145
60 94 135
58 92 125
60 95 137
60 95 135
61 96 139
60 94 128
60 95 136
61 96 141
60 95 136
59 93 122
60 94 131
59 94 124
59 93 131
59 92 124
59 93 129
58 92 125
58 91 117
57 91 122
59 92 129
57 90 107
57 90 111
56 89 108
57 91 118
71 95 90
83 102 60
115 130 45
123 135 0
118 130 0
118 130 0
125 139 0
122 136 0
126 138 0
127 138 0
130 143 0
133 147 0
122 135 0
125 140 0
128 141 0
127 138 0
121 135 0
132 147 0
138 150 0
132 145 0
131 145 0
136 147 0
137 149 0
132 143 0
132 145 0
131 144 0
129 139 0
136 149 0
137 149 0
125 138 0
135 147 0
133 145 0
131 143 0
133 141 0
142 152 0
140 152 0
130 142 0
141 152 0
135 146 0
144 155 0
142 155 0
147 157 0
144 156 0
137 151 0
138 152 0
137 149 0
144 152 0
145 157 0
150 163 0
146 159 0
150 163 0
145 155 0
142 152 0
147 155 0
148 161 0
142 153 0
143 150 0
147 156 0
149 160 0
153 164 0
148 156 0
149 161 0
152 163 0
151 162 0
148 159 0
154 166 0
151 163 0
152 163 0
156 167 0
152 162 0
155 165 0
156 170 0
158 170 0
157 168 0
156 170 0
152 163 0
153 164 0
158 171 0
152 164 0
158 170 0
157 171 0
162 174 0
157 166 0
156 169 0
158 174 0
161 175 0
161 174 0
160 176 0
166 179 0
156 168 0
159 171 0
154 168 0
162 176 0
165 180 0
160 176 0
156 170 0
163 178 0
164 180 0
165 180 0
161 177 0
164 180 0
166 183 0
161 177 0
164 180 0
164 180 0
168 185 0
158 176 0
162 179 0
162 176 0
171 190 0
165 180 0
169 188 0
166 184 0
166 182 0
166 182 0
166 184 0
167 183 0
166 183 0
162 180 0
168 187 0
167 184 0
167 186 0
165 183 0
169 188 0
168 186 0
168 187 0
166 187 0
168 187 0
167 185 0
169 188 0
167 187 0
168 188 0
164 182 0
168 187 0
167 187 0
172 191 0
168 187 0
169 189 0
167 188 0
168 188 0
165 186 0
170 191 0
167 187 0
172 193 0
170 191 0
170 188 0
165 184 0
172 192 0
170 191 0
171 192 0
168 188 0
171 192 0
170 190 0
167 190 0
165 186 0
169 190 0
168 189 0
169 190 0
171 193 0
167 188 0
171 191 0
171 190 0
170 190 0
171 191 0
175 196 0
187 208 135
190 210 149
188 208 135
196 215 171
199 217 182
201 219 188
196 216 181
193 213 165
200 218 186
198 217 186
195 214 173
195 214 181
199 217 182
194 213 171
198 217 177
192 212 157
197 216 181
190 210 161
195 214 169
189 209 147
184 206 128
183 205 122
178 200 102
181 203 105
173 196 67
175 198 76
174 197 88
174 197 72
176 199 67
174 197 67
173 196 57
174 198 80
166 189 62
172 197 92
173 197 62
174 197 88
171 195 76
174 198 80
174 198 67
170 193 57
172 196 76
171 196 76
171 195 72
174 198 76
172 196 62
171 194 88
174 199 92
170 195 88
172 196 67
169 193 44
171 195 92
173 197 80
170 194 57
172 195 99
173 197 57
172 196 72
167 192 62
166 189 72
169 194 76
170 194 62
171 194 72
169 193 80
172 196 62
169 193 67
173 198 102
169 193 76
167 193 76
171 195 72
167 192 95
165 189 72
162 186 67
165 190 84
169 193 84
164 188 72
167 191 72
169 194 99
169 192 44
161 184 62
170 194 62
168 192 84
166 190 72
168 192 80
158 181 62
168 192 62
160 184 51
166 189 67
159 183 57
161 184 76
165 188 76
163 186 62
166 189 76
166 190 72
169 193 99
160 183 72
159 182 67
159 181 51
164 187 57
159 183 72
168 193 99
156 181 102
157 180 80
158 181 72
166 189 99
151 174 62
156 179 57
156 179 65
153 176 74
131 155 95
96 122 133
86 115 134
92 120 134
85 113 141
97 124 143
83 112 130
76 105 136
86 113 135
83 110 130
91 117 130
86 114 145
86 112 137
87 113 136
90 117 143
95 122 148
84 112 143
99 125 139
95 122 126
94 122 140
96 123 147
94 121 152
103 130 148
103 129 156
79 109 153
103 127 153
77 108 145
85 114 146
80 110 149
86 112 148
77 108 153
74 106 162
74 106 161
71 103 151
69 101 146
75 106 154
70 102 152
73 103 153
69 100 138
64 96 130
63 98 145
67 99 137
70 102 149
63 95 138
65 98 143
67 100 139
61 94 134
59 94 134
64 98 141
62 96 140
59 93 137
58 93 137
60 95 136
58 93 129
59 93 134
58 93 132
60 95 136
59 94 131
59 94 135
60 96 150
60 94 137
58 92 129
59 94 130
59 93 137
59 94 131
59 93 134
60 95 136
60 95 141
60 95 138
58 93 125
61 96 136
59 93 126
60 95 133
60 94 136
59 93 130
59 93 133
58 92 128
59 93 131
59 93 139
60 95 134
61 96 143
59 94 135
60 94 133
58 92 126
61 96 140
59 93 125
59 94 130
60 94 142
59 93 126
60 94 137
59 93 121
58 92 122
60 95 134
59 93 129
59 94 135
59 93 130
60 94 139
60 94 136
59 94 129
60 95 143
59 93 134
61 96 140
60 94 131
60 95 134
57 91 130
59 94 126
59 94 133
60 95 131
60 94 122
59 93 129
58 92 120
58 93 129
58 93 118
58 92 122
61 95 136
59 92 125
60 95 137
57 91 107
57 90 118
58 92 113
58 92 120
59 93 118
58 92 120
57 91 124
58 91 121
59 93 122
60 93 126
70 96 92
92 109 78
105 122 47
123 136 18
116 129 0
122 134 0
127 141 0
132 145 0
114 126 0
127 141 0
131 146 0
128 140 0
130 140 0
126 137 0
130 141 0
119 135 0
135 149 0
128 140 0
128 140 0
139 154 0
128 139 0
127 140 0
133 146 0
128 140 0
132 145 0
130 142 0
132 142 0
131 143 0
138 149 0
138 151 0
127 138 0
142 154 0
130 144 0
143 155 0
136 148 0
136 146 0
131 143 0
135 147 0
141 153 0
139 148 0
128 141 0
143 154 0
137 148 0
142 149 0
150 161 0
144 156 0
137 148 0
141 152 0
140 151 0
140 150 0
153 167 0
138 146 0
148 159 0
146 156 0
145 158 0
151 163 0
146 157 0
147 158 0
150 162 0
153 165 0
152 168 0
151 161 0
156 168 0
144 154 0
153 169 0
150 163 0
149 159 0
156 166 0
150 161 0
156 166 0
150 162 0
150 163 0
153 166 0
148 160 0
154 165 0
155 167 0
155 168 0
159 173 0
151 163 0
152 161 0
161 175 0
159 174 0
160 172 0
156 170 0
159 171 0
162 177 0
157 172 0
162 179 0
157 170 0
158 173 0
159 174 0
162 176 0
163 176 0
158 172 0
155 169 0
159 175 0
167 183 0
162 178 0
163 181 0
161 174 0
163 180 0
164 181 0
165 179 0
165 183 0
164 181 0
166 184 0
164 180 0
166 184 0
163 181 0
163 182 0
159 176 0
162 180 0
164 183 0
166 182 0
170 188 0
167 185 0
165 182 0
169 187 0
161 177 0
166 184 0
168 187 0
166 185 0
167 186 0
171 191 0
169 188 0
168 186 0
160 178 0
168 186 0
167 186 0
166 185 0
169 188 0
169 189 0
167 186 0
166 184 0
165 183 0
167 185 0
170 188 0
169 191 0
169 188 0
169 189 0
171 191 0
167 187 0
169 190 0
173 195 0
167 188 0
170 192 0
171 192 0
169 188 0
168 189 0
168 189 0
169 189 0
166 186 0
170 191 0
172 193 0
171 192 0
172 192 0
169 190 0
167 188 0
173 196 0
172 193 0
169 189 0
169 191 0
170 192 0
170 190 0
172 193 0
172 194 0
189 208 142
187 208 130
193 212 159
195 215 173
196 214 175
191 211 159
194 213 163
194 213 173
196 215 181
201 219 189
196 215 175
195 214 177
200 218 189
196 215 181
195 214 171
194 213 169
192 212 157
189 208 161
188 209 153
186 207 137
183 205 133
181 203 108
178 201 99
177 199 88
175 198 84
175 198 84
171 195 57
173 197 62
174 197 92
175 198 88
172 195 62
170 194 62
176 200 80
172 196 76
174 197 57
170 195 95
176 199 57
173 197 62
172 196 72
173 197 84
171 194 67
173 197 88
171 196 88
173 197 76
171 195 80
173 197 88
173 196 76
168 192 67
169 193 88
169 192 36
172 196 105
168 191 76
173 197 80
171 195 84
167 190 51
168 193 57
170 194 57
170 194 51
172 197 92
170 193 57
169 194 80
171 195 67
171 195 62
171 195 67
165 189 72
173 196 62
163 188 72
165 189 72
169 193 57
165 189 76
170 194 62
168 192 76
168 191 36
168 193 84
169 194 72
167 191 67
165 189 84
164 187 51
169 192 76
167 190 76
166 190 88
163 187 57
166 190 76
157 180 76
163 186 84
161 185 92
162 186 84
165 189 76
164 188 99
167 190 67
156 179 57
163 186 44
160 184 80
163 187 57
163 185 62
162 186 72
162 184 76
158 181 86
155 177 72
160 183 51
165 188 88
153 176 67
162 185 44
163 185 76
157 180 80
158 180 57
151 174 88
135 159 114
118 141 113
95 122 129
92 118 123
85 113 126
98 124 134
95 122 127
91 117 128
91 118 143
97 123 133
87 116 143
93 120 140
87 115 153
99 125 145
98 125 137
100 127 145
91 117 133
87 115 136
99 125 135
92 118 119
97 124 148
94 121 147
100 127 141
93 121 147
90 118 151
87 114 139
95 122 145
89 117 156
88 116 146
80 111 154
79 109 150
78 107 139
78 108 162
81 110 163
70 101 152
71 102 149
71 103 158
69 101 147
61 96 145
63 98 151
69 101 149
66 98 134
62 94 125
66 99 143
68 99 137
62 95 136
61 95 133
68 100 133
59 93 129
61 95 134
58 93 128
61 96 142
58 93 124
59 93 137
59 93 133
60 95 137
59 94 129
58 92 129
59 94 124
59 93 135
59 93 133
59 93 122
59 93 126
60 95 136
60 94 130
61 96 140
61 96 140
61 96 144
61 96 139
59 93 131
60 95 134
61 96 144
59 94 129
58 92 118
58 93 131
59 93 131
60 95 136
59 93 128
61 96 145
60 95 140
60 94 135
58 93 118
60 94 133
59 94 130
60 95 134
60 95 136
60 94 135
60 94 140
58 92 117
60 95 135
62 97 144
58 92 121
60 94 129
60 94 140
59 93 131
59 94 130
60 94 137
60 95 131
60 94 134
59 93 129
58 93 134
59 93 128
60 95 131
59 93 124
60 94 130
59 93 122
58 92 121
59 93 134
61 95 133
59 94 126
58 92 122
58 92 122
58 92 125
60 94 130
60 94 136
58 91 121
58 92 117
59 93 115
59 93 133
59 93 121
60 94 125
57 90 115
58 92 117
56 88 108
57 90 108
57 90 117
68 94 94
90 112 78
106 122 44
123 138 18
116 128 0
127 142 0
118 132 0
129 144 0
119 132 0
120 135 0
132 142 0
126 140 0
120 134 0
130 145 0
131 145 0
128 141 0
133 145 0
135 152 0
126 139 0
131 143 0
137 151 0
132 143 0
138 153 0
142 158 0
135 149 0
127 141 0
131 142 0
140 153 0
134 147 0
134 144 0
135 148 0
134 147 0
142 155 0
135 149 0
141 155 0
142 154 0
142 156 0
138 150 0
148 160 0
145 156 0
140 150 0
136 146 0
147 159 0
140 155 0
146 159 0
146 158 0
143 156 0
146 159 0
142 154 0
148 160 0
141 151 0
138 149 0
152 163 0
143 155 0
146 159 0
146 157 0
149 159 0
152 168 0
150 161 0
149 165 0
150 161 0
145 156 0
147 158 0
151 163 0
152 161 0
157 173 0
153 165 0
149 161 0
151 162 0
148 159 0
158 172 0
152 164 0
158 170 0
148 162 0
148 159 0
152 166 0
152 162 0
152 164 0
146 159 0
161 175 0
157 171 0
159 172 0
158 169 0
159 173 0
159 174 0
159 172 0
156 169 0
159 173 0
158 173 0
159 174 0
158 172 0
157 171 0
162 178 0
157 171 0
159 175 0
162 177 0
162 176 0
163 178 0
162 179 0
161 177 0
162 177 0
168 185 0
164 181 0
163 178 0
165 181 0
163 177 0
163 180 0
166 183 0
166 183 0
161 177 0
162 179 0
162 178 0
164 182 0
166 183 0
164 180 0
168 187 0
163 181 0
165 181 0
167 186 0
168 187 0
168 189 0
168 188 0
167 184 0
169 186 0
165 184 0
169 187 0
170 191 0
168 188 0
168 187 0
169 189 0
172 192 0
168 187 0
168 187 0
166 186 0
168 186 0
170 190 0
170 188 0
170 190 0
167 188 0
171 191 0
170 190 0
169 188 0
173 192 0
170 191 0
170 191 0
168 188 0
169 190 0
168 189 0
171 192 0
169 188 0
170 190 0
171 192 0
170 190 0
170 191 0
171 192 0
170 191 0
169 190 0
170 190 0
172 194 0
169 190 0
167 188 0
169 190 0
171 192 0
172 193 0
173 193 0
172 193 0
170 192 0
190 210 142
193 211 163
192 211 159
196 215 169
197 215 173
198 217 182
198 216 179
203 221 201
201 219 189
193 212 169
201 219 189
198 217 184
193 213 159
192 212 167
192 212 159
193 213 163
190 210 153
187 208 137
190 210 157
184 206 122
178 200 111
179 201 117
177 200 99
178 200 95
174 197 76
175 199 76
174 197 80
173 197 62
173 196 67
173 197 76
171 195 62
167 191 67
171 195 62
173 196 76
173 197 72
174 197 80
170 195 84
175 198 62
174 198 57
170 193 84
171 195 76
171 195 67
171 195 67
174 198 80
175 198 67
172 197 92
169 193 80
167 191 76
170 194 80
172 196 80
169 193 72
171 196 92
170 194 62
170 194 51
171 196 84
172 196 80
171 195 67
167 192 62
168 193 67
171 195 72
168 194 105
168 193 57
168 192 84
168 192 72
168 192 67
165 189 62
169 193 84
171 195 84
168 193 72
162 186 76
160 183 67
169 193 76
168 192 76
163 187 62
165 189 88
171 194 51
168 191 44
162 186 57
162 185 62
164 188 67
165 190 76
172 196 88
160 184 76
162 185 57
164 187 76
162 186 84
161 185 57
167 192 92
165 189 72
162 185 44
165 189 88
163 187 72
163 187 72
161 184 76
164 188 76
161 184 76
160 183 72
163 186 67
159 182 84
164 188 76
158 181 80
157 180 44
153 177 72
159 182 76
148 171 67
145 167 62
157 181 67
148 171 92
130 153 88
105 130 108
85 112 124
90 118 130
100 128 143
86 114 129
85 113 124
86 114 134
91 118 138
84 112 131
90 117 131
95 122 155
82 110 139
97 123 143
95 122 134
85 113 140
99 125 145
99 124 142
93 119 146
104 129 154
98 125 135
89 116 144
91 117 138
87 114 129
101 126 156
85 113 148
90 117 155
87 115 146
79 109 151
91 118 149
78 107 147
76 107 152
78 107 152
70 102 149
69 100 142
74 105 153
72 102 143
74 104 152
64 96 141
67 97 140
65 98 135
65 97 136
64 96 132
71 98 122
66 96 130
61 95 133
64 96 127
60 93 125
59 94 136
58 92 126
57 91 122
59 94 129
60 95 136
58 92 123
59 93 128
59 94 136
58 92 117
59 92 130
59 93 124
59 93 131
60 95 137
59 93 129
59 93 126
60 95 137
59 94 130
60 95 139
58 93 126
59 94 139
60 94 128
59 93 127
59 92 134
60 95 143
60 94 133
59 94 137
60 94 136
59 94 128
60 94 135
60 94 129
60 94 140
60 94 129
58 92 124
59 93 133
60 95 137
61 96 139
61 95 139
60 95 129
60 94 131
59 93 128
59 94 130
61 96 139
59 93 120
60 95 139
61 96 134
60 95 136
59 94 122
61 96 145
58 92 124
59 94 134
60 95 131
60 94 136
58 92 120
58 93 126
60 94 128
58 92 126
60 94 126
58 91 125
60 95 126
58 92 117
61 95 134
59 93 122
60 94 129
59 93 126
58 91 122
59 93 129
57 91 117
58 92 122
57 91 111
58 92 121
57 91 117
58 91 124
56 89 105
58 91 117
56 89 107
55 88 105
59 91 115
73 97 83
102 120 62
122 135 19
112 126 0
121 136 0
114 127 0
123 136 0
119 133 0
131 145 0
125 138 0
127 141 0
126 142 0
131 147 0
135 149 0
131 145 0
131 146 0
132 146 0
126 138 0
135 152 0
135 149 0
127 141 0
130 141 0
136 151 0
134 148 0
134 148 0
132 146 0
138 152 0
139 150 0
138 150 0
124 138 0
140 154 0
121 133 0
136 150 0
138 152 0
138 152 0
141 154 0
140 151 0
135 148 0
147 160 0
137 150 0
148 165 0
139 151 0
151 168 0
140 154 0
143 156 0
144 159 0
142 155 0
147 158 0
145 159 0
150 162 0
151 168 0
144 156 0
145 157 0
144 156 0
151 163 0
151 164 0
149 163 0
148 161 0
143 156 0
150 163 0
160 175 0
153 163 0
155 168 0
153 165 0
150 163 0
145 156 0
153 164 0
155 171 0
154 169 0
157 170 0
153 168 0
147 160 0
155 170 0
155 168 0
151 163 0
160 173 0
155 170 0
158 169 0
155 170 0
159 175 0
152 165 0
158 171 0
154 167 0
162 176 0
157 169 0
156 168 0
160 174 0
158 171 0
160 177 0
161 177 0
163 177 0
161 175 0
162 177 0
164 179 0
167 182 0
160 174 0
159 176 0
162 177 0
159 173 0
164 181 0
161 176 0
162 178 0
163 178 0
164 183 0
165 180 0
164 180 0
160 175 0
165 182 0
164 183 0
162 181 0
161 178 0
166 184 0
166 184 0
168 189 0
171 189 0
164 181 0
167 184 0
164 180 0
166 185 0
169 188 0
171 190 0
167 184 0
168 188 0
167 186 0
169 188 0
168 187 0
165 182 0
168 186 0
166 184 0
167 185 0
167 187 0
169 188 0
168 187 0
164 183 0
169 190 0
168 186 0
168 187 0
167 187 0
167 187 0
168 187 0
168 189 0
169 190 0
169 189 0
171 192 0
170 191 0
171 190 0
170 189 0
170 190 0
170 189 0
171 190 0
172 193 0
173 195 0
170 189 0
169 190 0
171 192 0
169 190 0
171 194 0
172 194 0
171 193 0
171 190 0
168 188 0
167 187 0
171 191 0
170 191 0
171 192 0
168 189 0
171 192 0
190 210 149
193 213 157
193 212 161
197 215 167
197 216 182
196 215 171
197 215 173
198 216 177
195 214 173
197 216 184
195 214 171
198 217 179
196 215 179
197 216 177
193 212 169
192 212 165
186 207 144
188 208 144
183 204 122
184 206 125
182 204 114
176 198 88
175 198 72
175 198 51
173 195 72
172 195 67
170 194 76
172 195 62
172 196 36
175 198 62
177 200 76
173 195 51
169 194 62
171 194 76
172 195 80
169 193 80
166 190 62
172 195 72
170 193 72
173 196 57
172 195 67
171 194 72
166 191 57
172 196 84
173 196 62
172 196 84
171 195 67
170 193 57
164 188 62
171 194 51
172 196 67
170 194 72
173 197 76
174 198 95
168 192 72
166 190 80
167 192 102
168 191 72
171 195 80
169 192 80
168 192 62
169 194 67
170 193 76
166 191 51
169 194 72
167 190 51
168 193 67
165 190 92
169 193 57
171 195 76
165 189 76
165 190 67
164 188 72
170 194 57
164 189 76
167 191 67
164 188 88
163 186 51
168 192 76
157 181 62
161 186 88
162 186 76
165 189 76
165 189 57
163 188 88
155 179 76
165 189 84
159 183 72
168 191 76
158 182 62
164 189 108
159 183 72
160 184 67
160 183 62
165 188 62
167 189 80
162 186 92
158 182 76
154 176 65
159 182 67
165 188 86
161 183 76
158 181 57
150 172 57
156 179 57
150 174 72
148 170 57
152 174 57
145 167 84
132 155 107
110 135 119
81 109 123
89 116 121
89 116 137
102 128 137
89 116 123
92 118 140
96 122 133
97 122 138
99 125 141
76 105 136
92 118 136
86 113 136
93 119 135
96 123 138
108 132 147
104 129 146
94 121 144
94 120 135
86 113 129
90 117 139
97 122 134
97 123 157
88 116 154
83 110 144
96 122 136
83 111 143
88 115 152
83 111 148
75 106 150
76 104 137
77 106 152
83 112 162
76 104 146
76 105 158
71 101 142
64 97 142
67 99 133
61 95 139
65 98 136
64 95 130
64 97 136
62 96 142
63 96 136
66 98 126
69 100 130
62 96 139
61 95 138
59 94 134
58 92 127
59 93 129
60 95 141
61 94 125
57 91 134
60 95 139
58 93 136
59 93 125
60 94 133
58 92 124
60 95 138
59 93 130
59 93 134
59 93 121
59 93 128
57 91 114
58 92 129
60 95 134
61 95 136
60 94 137
59 93 124
59 94 126
60 94 134
60 95 133
58 92 120
60 94 136
60 95 137
59 93 129
60 95 128
59 94 134
59 94 129
60 94 128
60 95 140
60 94 130
60 95 137
59 93 133
60 94 129
59 94 128
59 93 121
60 94 135
58 92 126
61 95 140
59 93 128
59 93 135
59 93 122
59 93 130
60 95 135
59 93 122
59 93 125
60 94 122
58 92 121
59 93 118
58 92 115
59 92 118
59 93 124
58 92 120
59 94 124
60 95 131
61 95 133
58 92 122
60 95 128
59 93 130
59 94 126
58 93 124
57 91 115
58 91 118
60 93 128
59 93 118
60 94 126
56 89 97
58 92 113
57 89 117
69 96 103
88 108 65
102 119 62
109 126 21
124 138 0
125 140 0
115 128 0
120 134 0
124 137 0
126 140 0
127 141 0
123 137 0
133 147 0
128 140 0
125 139 0
126 139 0
137 151 0
135 150 0
129 141 0
125 137 0
135 150 0
133 147 0
133 146 0
136 150 0
130 143 0
133 145 0
137 149 0
128 141 0
139 154 0
140 155 0
135 149 0
138 151 0
134 149 0
141 156 0
137 150 0
134 147 0
142 155 0
132 147 0
130 143 0
143 158 0
134 145 0
141 155 0
147 158 0
144 156 0
144 159 0
149 160 0
140 155 0
141 156 0
150 164 0
146 161 0
149 161 0
148 164 0
154 168 0
150 165 0
152 166 0
146 160 0
147 160 0
147 159 0
150 164 0
147 159 0
145 158 0
149 162 0
149 162 0
152 165 0
148 161 0
152 165 0
149 164 0
149 163 0
151 164 0
157 173 0
154 167 0
155 169 0
155 168 0
154 166 0
160 175 0
156 170 0
152 163 0
153 165 0
162 179 0
157 171 0
157 169 0
155 170 0
152 165 0
154 168 0
153 166 0
163 178 0
159 172 0
160 172 0
158 171 0
168 187 0
159 173 0
162 176 0
161 175 0
160 175 0
161 177 0
152 166 0
156 170 0
160 178 0
159 176 0
163 180 0
164 179 0
162 179 0
159 174 0
165 179 0
164 180 0
165 185 0
167 184 0
164 182 0
164 181 0
163 181 0
164 181 0
166 184 0
166 183 0
162 178 0
166 184 0
166 185 0
166 186 0
168 187 0
167 184 0
168 185 0
166 183 0
164 182 0
167 185 0
165 184 0
165 181 0
167 183 0
167 183 0
166 184 0
169 189 0
167 187 0
164 182 0
167 184 0
167 187 0
165 184 0
168 188 0
168 187 0
165 183 0
169 189 0
169 191 0
167 186 0
168 189 0
168 189 0
168 186 0
169 190 0
170 191 0
167 187 0
171 191 0
170 189 0
171 191 0
170 192 0
169 190 0
170 193 0
170 190 0
168 188 0
171 192 0
167 188 0
171 191 0
170 191 0
168 188 0
171 191 0
170 191 0
169 192 0
169 191 0
170 192 0
172 194 0
169 190 0
170 192 0
167 188 0
174 196 0
189 209 147
189 209 151
190 210 151
193 212 161
196 215 167
196 215 167
194 213 163
196 215 171
197 215 173
196 215 173
197 216 179
197 215 171
192 211 157
192 212 165
192 212 155
185 206 135
187 207 142
187 208 130
183 204 130
177 200 99
176 198 99
175 199 72
177 200 84
171 195 76
173 196 72
173 196 67
174 197 62
175 199 88
172 195 80
172 195 72
171 193 51
172 196 80
172 195 84
173 197 72
173 196 57
172 196 72
173 196 80
172 196 72
173 197 67
169 193 67
169 193 57
167 190 67
171 195 62
172 197 76
170 193 72
173 197 62
172 196 76
175 199 95
170 193 44
170 194 67
172 196 92
167 191 51
170 194 72
170 194 67
168 193 76
168 192 67
166 190 62
170 193 67
168 192 67
171 195 62
168 193 76
169 194 57
170 194 36
172 195 67
167 190 62
164 188 51
165 190 92
164 188 57
168 192 72
167 191 72
168 193 88
166 190 80
163 188 84
163 187 67
168 192 67
162 186 80
168 192 67
162 185 36
166 189 67
169 195 88
160 184 62
162 186 76
162 187 57
167 191 95
164 187 84
162 185 51
167 191 76
164 188 76
159 183 72
163 187 67
165 188 76
162 186 57
157 181 67
160 184 76
159 183 62
165 189 88
163 187 67
163 187 80
164 187 72
161 184 67
162 185 57
155 177 57
163 186 88
157 179 62
148 172 51
164 187 76
155 177 72
154 176 62
150 173 65
142 165 80
114 139 113
106 131 124
81 109 118
78 107 107
91 118 130
97 123 136
89 116 143
93 119 131
95 122 145
95 122 140
95 122 148
94 120 141
95 121 137
91 117 144
99 124 139
95 121 141
96 122 129
96 122 133
91 117 136
102 126 139
97 123 137
95 121 141
82 111 142
103 128 152
97 123 139
93 119 143
85 114 152
93 120 151
88 114 145
90 117 149
79 108 153
82 110 150
80 107 146
70 100 151
73 103 143
71 102 151
69 100 146
67 98 141
71 102 143
70 101 147
67 100 151
64 95 133
65 99 129
72 100 125
64 96 130
65 98 142
65 97 134
58 93 131
62 96 122
57 91 130
61 93 117
59 93 137
57 91 127
57 89 118
57 91 120
57 90 124
59 93 134
58 92 118
59 93 124
58 93 136
58 93 121
58 92 115
61 96 143
60 94 134
57 91 125
61 96 144
59 93 129
59 93 128
59 94 137
59 94 133
60 95 131
60 95 144
60 94 135
59 93 122
58 92 113
58 92 117
60 95 134
60 95 131
59 94 133
60 95 133
59 93 124
60 94 126
59 94 131
60 95 134
60 95 129
60 95 134
60 94 128
60 95 130
58 93 117
60 95 129
60 94 133
58 92 121
60 94 130
57 91 124
61 96 140
58 92 117
59 94 131
59 93 124
58 92 125
58 91 117
57 90 117
60 94 122
59 94 126
56 90 108
57 91 118
58 92 125
59 93 124
60 95 129
58 92 120
58 92 130
59 93 121
57 90 122
59 93 125
60 94 130
59 92 122
58 92 124
56 89 110
57 90 108
59 92 118
56 87 107
65 94 104
87 107 72
100 118 57
112 129 36
126 143 0
125 138 0
113 127 0
115 126 0
123 135 0
126 142 0
123 137 0
116 131 0
128 143 0
134 151 0
118 132 0
126 139 0
123 137 0
128 144 0
128 141 0
125 140 0
133 147 0
139 154 0
132 147 0
136 151 0
137 152 0
130 141 0
132 147 0
135 148 0
131 143 0
135 149 0
143 155 0
122 137 0
147 163 0
135 149 0
139 154 0
140 156 0
141 155 0
135 150 0
133 145 0
132 144 0
127 140 0
143 157 0
147 160 0
146 160 0
135 150 0
140 151 0
149 162 0
140 152 0
133 145 0
144 156 0
138 152 0
152 170 0
151 165 0
143 155 0
148 165 0
137 150 0
154 168 0
147 159 0
147 161 0
145 159 0
142 155 0
146 160 0
150 163 0
152 164 0
155 170 0
147 160 0
144 157 0
154 167 0
153 168 0
159 175 0
155 171 0
158 174 0
152 167 0
151 162 0
154 165 0
150 162 0
160 175 0
156 171 0
152 165 0
155 170 0
155 172 0
161 177 0
157 172 0
159 173 0
158 174 0
156 171 0
157 171 0
159 172 0
160 174 0
157 170 0
161 176 0
159 174 0
165 179 0
156 173 0
163 177 0
162 177 0
163 178 0
165 184 0
164 183 0
158 175 0
159 175 0
162 177 0
162 179 0
163 179 0
163 180 0
163 180 0
163 180 0
163 179 0
166 182 0
161 179 0
160 178 0
163 180 0
167 184 0
165 180 0
164 184 0
163 182 0
164 181 0
166 183 0
163 180 0
165 184 0
165 184 0
166 186 0
170 188 0
165 182 0
168 186 0
165 182 0
168 186 0
169 189 0
168 187 0
171 189 0
164 183 0
167 186 0
167 184 0
168 187 0
168 187 0
169 188 0
165 186 0
168 187 0
171 190 0
166 185 0
171 191 0
168 185 0
172 189 0
170 191 0
167 189 0
167 188 0
170 189 0
169 188 0
165 183 0
168 189 0
169 190 0
168 190 0
170 191 0
168 188 0
171 191 0
168 189 0
168 189 0
169 192 0
171 192 0
170 191 0
168 187 0
172 195 0
171 193 0
172 193 0
170 191 0
172 195 0
172 193 0
172 194 0
169 190 0
169 193 0
189 209 147
192 211 163
200 218 177
196 215 177
195 214 167
197 216 173
195 214 169
198 216 181
194 213 163
194 213 161
192 211 165
193 213 163
186 206 137
192 211 163
190 210 155
190 210 159
180 202 114
185 206 128
181 203 111
180 202 114
175 198 72
177 200 84
174 197 72
175 199 72
174 197 72
174 198 84
172 195 67
172 196 62
173 197 72
172 195 76
175 199 80
175 199 88
174 196 76
172 195 67
171 195 67
169 192 76
170 194 80
173 197 95
172 195 72
173 197 84
174 197 76
172 195 80
171 195 76
174 198 95
170 194 72
173 197 72
169 193 84
171 196 67
173 197 80
166 190 67
165 190 76
172 196 67
165 189 84
172 196 72
170 194 72
171 194 62
168 192 72
169 193 80
169 193 57
169 194 67
166 190 57
165 189 57
169 194 72
169 194 88
169 193 62
169 194 84
168 192 80
168 191 51
167 191 72
169 193 72
170 194 99
164 189 80
166 190 62
169 193 57
165 189 80
170 195 95
168 193 76
168 193 76
167 191 72
164 188 57
166 190 88
162 185 84
163 187 62
165 189 67
166 190 92
159 182 67
155 179 57
164 187 57
160 184 92
167 191 95
163 187 76
160 184 76
149 172 44
158 183 67
158 182 84
161 185 80
155 178 51
159 182 80
160 183 92
154 176 44
161 183 80
163 187 88
159 182 57
148 169 36
160 183 67
158 181 76
153 176 57
141 164 67
160 182 76
141 163 80
136 159 105
111 134 102
85 112 126
96 121 128
86 114 143
88 114 132
100 126 122
89 117 136
91 118 129
102 128 128
87 114 137
99 124 128
90 117 126
87 115 134
92 118 134
82 110 122
97 124 144
99 125 140
93 120 142
95 121 151
83 111 132
96 123 144
88 116 134
95 121 129
104 129 156
90 117 144
81 111 141
88 115 147
96 123 162
84 112 149
76 106 147
90 115 151
78 106 147
87 111 148
80 106 140
81 106 145
77 105 143
70 101 145
71 101 135
73 104 138
72 102 130
71 101 124
67 98 138
67 98 136
66 98 138
64 97 127
61 94 128
62 95 139
62 94 118
61 94 133
58 93 125
59 92 126
59 93 129
58 92 122
59 93 136
59 94 131
57 90 110
60 95 137
59 93 131
60 94 134
59 94 130
60 94 136
60 94 128
57 91 122
58 92 129
60 94 134
60 94 134
59 93 120
59 94 131
60 94 134
59 93 128
59 93 123
58 92 121
57 90 121
60 95 130
60 95 135
59 93 129
59 93 117
59 93 124
60 94 130
58 93 118
60 95 139
61 96 142
58 93 122
60 95 137
59 94 136
58 92 120
60 95 139
60 94 133
59 93 124
60 95 131
59 93 118
61 96 134
59 93 122
60 95 129
59 94 128
61 95 130
60 94 128
60 94 128
59 94 144
58 92 121
59 93 133
59 93 126
60 95 131
57 91 110
59 93 122
59 94 125
59 93 131
60 94 125
56 89 114
58 91 111
57 91 115
58 91 111
57 89 115
58 92 115
58 92 108
57 89 107
55 88 102
55 87 99
72 100 110
76 98 78
111 126 47
113 127 36
120 131 18
116 129 0
119 133 0
104 118 0
127 141 0
120 131 0
137 151 0
117 131 0
131 145 0
125 139 0
134 148 0
123 138 0
124 138 0
129 144 0
128 143 0
130 143 0
132 147 0
130 145 0
130 144 0
134 148 0
124 139 0
138 152 0
134 148 0
131 147 0
123 135 0
137 152 0
127 141 0
135 149 0
140 154 0
126 141 0
139 151 0
136 149 0
139 152 0
135 148 0
139 154 0
140 154 0
136 150 0
135 148 0
140 154 0
148 162 0
142 153 0
142 157 0
147 160 0
139 151 0
141 155 0
137 149 0
150 163 0
136 149 0
146 159 0
148 161 0
144 159 0
146 158 0
141 156 0
154 168 0
143 159 0
154 169 0
151 163 0
147 161 0
151 163 0
154 167 0
153 166 0
149 162 0
164 178 0
150 162 0
158 174 0
147 158 0
158 173 0
154 166 0
153 165 0
152 166 0
147 161 0
150 163 0
155 169 0
150 162 0
157 175 0
146 159 0
153 167 0
159 170 0
154 167 0
156 169 0
157 173 0
161 178 0
152 166 0
158 174 0
158 172 0
163 180 0
163 180 0
164 182 0
166 182 0
159 174 0
163 179 0
163 178 0
166 183 0
155 169 0
162 178 0
160 175 0
164 181 0
165 181 0
164 182 0
163 179 0
163 177 0
162 179 0
161 179 0
167 185 0
164 182 0
163 181 0
164 181 0
164 182 0
161 179 0
166 181 0
166 183 0
168 187 0
167 185 0
167 184 0
163 180 0
167 187 0
164 183 0
164 181 0
166 180 0
162 180 0
168 187 0
166 184 0
172 191 0
167 186 0
165 184 0
166 187 0
166 188 0
165 184 0
166 183 0
167 188 0
167 186 0
171 192 0
166 184 0
167 185 0
167 187 0
171 191 0
167 186 0
168 186 0
168 187 0
164 184 0
169 189 0
168 188 0
169 190 0
171 192 0
167 188 0
169 190 0
171 192 0
167 188 0
170 190 0
168 188 0
171 193 0
170 190 0
171 193 0
170 190 0
171 192 0
169 188 0
167 188 0
169 191 0
170 189 0
169 189 0
171 193 0
168 188 0
173 192 0
168 190 0
168 190 0
170 192 0
171 193 0
196 215 175
194 213 169
192 211 159
197 216 179
197 215 177
194 214 165
192 211 155
197 216 175
194 213 161
196 215 167
194 213 163
194 213 155
192 212 155
191 211 157
190 210 151
189 210 149
182 204 117
182 204 125
178 199 111
176 199 84
174 198 76
172 197 72
176 199 80
174 198 99
168 191 67
173 196 76
174 198 88
175 198 72
171 194 72
169 193 76
172 195 62
173 196 57
172 196 95
170 194 57
174 198 80
176 200 80
172 196 72
173 197 72
173 196 84
171 195 57
173 197 84
170 194 88
170 195 57
169 193 44
168 192 76
166 190 62
168 192 57
172 195 57
168 192 62
170 194 72
168 193 88
171 196 51
171 196 84
170 194 95
171 195 76
167 192 84
167 193 88
166 190 51
171 196 84
168 192 57
169 194 62
168 192 57
166 190 84
168 192 76
170 194 84
169 192 72
166 189 72
167 191 80
166 191 95
163 187 72
170 195 84
169 193 62
161 184 62
164 189 72
168 192 51
168 192 67
167 191 88
162 186 36
167 191 88
157 181 62
167 190 72
163 188 72
169 192 57
165 188 67
163 187 76
165 187 62
164 187 44
162 186 62
164 188 62
162 185 72
162 185 95
156 179 72
161 184 44
159 182 51
164 188 80
162 186 72
154 177 67
162 187 84
157 180 72
156 178 72
163 186 84
161 184 76
154 177 88
161 184 72
159 181 76
153 174 84
144 166 51
149 171 36
152 175 88
148 169 65
152 175 66
129 153 102
96 123 113
89 117 128
95 121 113
97 123 127
96 123 139
89 116 124
93 119 126
86 114 130
80 109 131
93 120 136
86 113 131
99 124 126
84 112 129
101 126 141
94 118 130
91 117 134
98 124 136
82 111 135
96 122 140
104 129 139
90 117 134
85 112 137
105 130 157
101 126 134
94 120 143
87 115 144
77 108 142
80 110 148
74 104 146
76 105 142
85 114 154
79 107 153
80 106 147
85 109 139
68 99 143
72 101 135
71 102 149
64 98 129
65 97 136
75 103 125
65 97 124
59 94 128
77 107 129
64 97 125
69 101 134
58 91 122
62 95 117
59 93 133
63 96 131
57 91 117
56 90 123
61 95 128
57 90 114
59 94 126
58 92 120
56 90 120
59 93 131
58 92 124
59 93 129
60 95 130
59 94 134
58 92 129
59 93 121
60 94 125
59 94 126
60 94 129
60 94 135
59 93 131
58 92 124
60 94 137
58 92 129
58 92 111
59 94 125
59 94 129
60 94 125
58 92 125
60 95 128
60 94 136
58 92 117
58 92 118
60 94 128
59 94 130
60 95 137
59 93 120
60 94 133
60 94 131
58 92 120
58 92 126
58 92 111
59 93 130
60 95 126
60 95 134
57 91 105
59 93 118
60 95 134
56 90 116
59 93 125
59 93 126
59 93 120
58 91 114
58 92 113
58 92 113
60 94 125
59 94 133
56 89 110
59 93 125
59 94 122
60 95 131
59 92 118
57 91 114
57 91 100
57 90 110
57 90 108
56 89 100
57 90 100
57 90 115
64 92 101
76 101 87
98 115 70
99 114 40
111 125 0
112 125 0
125 138 0
123 136 0
117 131 0
118 131 0
117 129 0
127 141 0
120 133 0
129 146 0
127 140 0
126 139 0
119 137 0
130 143 0
128 143 0
128 143 0
129 144 0
131 144 0
140 157 0
130 143 0
139 153 0
146 162 0
140 155 0
130 147 0
142 156 0
144 158 0
139 155 0
141 155 0
137 149 0
146 159 0
147 163 0
139 155 0
139 154 0
131 144 0
136 150 0
144 161 0
144 158 0
136 150 0
138 151 0
152 166 0
142 154 0
141 157 0
146 160 0
148 160 0
138 152 0
142 159 0
149 164 0
140 156 0
141 158 0
150 163 0
149 165 0
145 159 0
143 159 0
145 159 0
151 164 0
152 169 0
147 161 0
155 168 0
154 169 0
152 165 0
156 171 0
157 170 0
152 167 0
144 159 0
158 174 0
154 168 0
158 175 0
146 159 0
152 168 0
154 171 0
148 163 0
145 159 0
157 173 0
162 176 0
155 169 0
152 167 0
162 179 0
155 171 0
156 169 0
159 175 0
155 170 0
160 175 0
160 175 0
159 173 0
158 174 0
158 171 0
162 178 0
162 177 0
156 172 0
162 176 0
161 178 0
162 177 0
164 181 0
163 177 0
163 180 0
157 173 0
158 175 0
166 185 0
168 185 0
163 181 0
163 181 0
165 184 0
160 178 0
167 185 0
163 179 0
163 180 0
161 179 0
164 181 0
164 181 0
163 181 0
155 172 0
168 186 0
166 184 0
166 185 0
163 181 0
163 181 0
165 183 0
170 189 0
165 185 0
168 188 0
170 190 0
164 184 0
166 185 0
170 188 0
166 186 0
167 185 0
166 183 0
166 186 0
164 184 0
169 188 0
169 189 0
170 189 0
166 187 0
169 190 0
169 189 0
167 187 0
165 186 0
169 189 0
171 191 0
167 188 0
169 189 0
165 185 0
168 189 0
165 186 0
171 191 0
169 189 0
170 189 0
169 190 0
169 188 0
169 191 0
170 190 0
168 188 0
170 191 0
170 190 0
171 191 0
168 190 0
166 187 0
168 189 0
170 192 0
171 192 0
171 192 0
168 187 0
171 193 0
167 186 0
169 189 0
172 193 0
169 191 0
173 194 0
195 214 167
189 209 142
196 215 169
196 215 171
195 214 169
192 212 161
200 218 182
195 214 167
198 216 181
189 210 147
191 211 153
194 213 171
191 211 153
186 207 135
182 204 122
182 203 120
184 206 130
183 205 130
179 202 95
176 199 80
175 199 67
173 196 51
172 196 62
175 198 76
173 196 62
172 195 62
174 197 57
176 199 88
174 197 67
172 196 72
173 196 76
173 197 80
173 196 67
174 198 84
174 198 76
174 196 57
175 198 72
166 191 88
170 194 62
172 196 80
168 191 67
172 196 51
171 194 76
173 197 84
170 195 80
173 196 67
169 194 72
168 192 84
169 194 57
172 195 88
173 197 88
171 195 76
171 196 92
170 196 88
169 193 51
170 194 80
167 191 80
168 192 67
168 192 84
165 188 62
171 195 80
171 194 76
163 188 76
165 189 51
168 191 62
167 190 57
166 190 72
166 190 84
166 188 57
166 191 76
163 187 51
168 192 80
166 190 72
163 187 67
168 192 88
168 191 62
169 193 76
169 193 95
166 189 76
162 185 57
169 193 92
163 186 72
168 192 95
161 184 51
159 182 62
157 181 67
157 180 57
163 187 72
163 187 76
162 185 72
166 190 80
166 190 76
166 189 80
159 182 57
159 182 67
160 184 84
159 182 88
158 181 76
154 178 88
151 174 72
148 171 67
158 181 62
156 178 67
156 179 67
152 173 72
153 175 72
154 178 80
158 179 76
150 173 80
154 175 57
147 168 60
140 163 51
128 152 108
100 125 117
86 113 122
92 119 122
82 111 131
82 110 128
92 117 125
95 120 123
101 126 130
90 118 129
103 128 133
89 117 142
87 114 145
97 123 126
95 120 128
92 118 132
98 124 140
91 119 144
102 127 148
92 119 126
99 125 131
92 118 136
96 122 136
93 120 134
84 113 144
90 118 139
84 113 146
72 103 137
80 108 144
83 111 148
82 110 142
78 104 135
88 112 150
79 106 139
78 105 145
89 113 148
64 97 129
70 101 141
70 102 136
62 96 132
75 104 128
69 99 124
60 93 129
70 99 117
58 91 119
64 97 134
60 94 134
60 94 123
63 96 127
60 94 129
61 94 128
59 92 122
58 92 132
58 92 120
58 92 122
59 94 130
59 93 130
59 94 130
59 94 122
60 95 134
59 93 136
59 93 134
58 92 122
59 93 124
58 92 115
59 94 129
59 93 125
58 92 118
60 94 138
58 92 122
59 94 122
58 91 124
59 94 126
60 94 133
59 93 122
60 94 129
60 94 130
61 95 137
57 91 117
59 93 128
59 94 129
59 93 124
60 95 140
60 95 131
58 92 125
59 93 130
59 93 128
58 92 121
59 93 131
58 91 120
59 93 128
59 93 122
59 94 126
59 93 124
59 93 118
58 92 124
59 92 124
57 91 115
59 93 125
60 94 124
58 92 114
58 92 115
58 92 129
56 89 114
58 92 122
59 92 128
58 92 124
58 91 113
57 89 114
57 90 122
57 91 111
58 91 118
57 89 107
56 90 110
58 92 120
58 87 90
85 107 74
104 120 67
102 117 36
112 127 0
116 132 0
116 132 0
115 130 0
118 132 0
118 131 0
130 147 0
130 145 0
130 145 0
138 151 0
130 145 0
122 135 0
122 136 0
128 143 0
130 145 0
113 129 0
130 144 0
130 146 0
129 143 0
136 149 0
132 147 0
142 158 0
136 151 0
134 149 0
132 147 0
131 146 0
139 154 0
137 154 0
138 155 0
137 151 0
148 163 0
143 158 0
142 158 0
141 156 0
139 154 0
142 158 0
144 160 0
139 155 0
149 164 0
147 165 0
150 165 0
150 166 0
145 160 0
146 163 0
146 159 0
144 160 0
147 161 0
141 154 0
140 155 0
143 158 0
150 164 0
144 157 0
147 162 0
145 158 0
154 168 0
146 159 0
149 162 0
151 161 0
148 161 0
146 162 0
149 163 0
153 171 0
153 168 0
152 169 0
145 156 0
158 176 0
149 164 0
158 173 0
154 169 0
155 169 0
155 171 0
155 170 0
153 165 0
154 166 0
153 169 0
157 174 0
156 171 0
150 163 0
157 173 0
162 178 0
157 172 0
160 174 0
155 171 0
156 172 0
160 175 0
154 169 0
161 179 0
159 175 0
161 178 0
161 178 0
158 178 0
160 175 0
164 181 0
164 182 0
158 175 0
161 177 0
164 179 0
160 175 0
161 179 0
164 180 0
164 183 0
163 180 0
163 180 0
160 178 0
165 183 0
166 182 0
163 178 0
163 180 0
161 178 0
169 186 0
165 184 0
163 180 0
165 183 0
164 182 0
165 183 0
162 182 0
164 184 0
166 183 0
157 175 0
168 187 0
165 185 0
167 187 0
167 184 0
165 184 0
168 185 0
165 185 0
169 191 0
170 191 0
165 184 0
166 187 0
167 184 0
171 192 0
166 183 0
166 186 0
168 187 0
167 186 0
169 191 0
165 185 0
166 184 0
167 185 0
168 186 0
166 187 0
170 191 0
168 189 0
170 188 0
172 192 0
168 188 0
169 190 0
170 190 0
167 188 0
171 192 0
166 184 0
168 189 0
170 190 0
169 189 0
171 191 0
166 187 0
170 191 0
171 191 0
170 191 0
168 187 0
166 186 0
172 194 0
169 190 0
169 190 0
170 192 0
174 195 0
171 192 0
170 191 0
194 213 167
189 209 155
194 213 165
191 211 147
199 217 179
194 213 165
196 215 167
196 215 171
194 213 171
192 211 167
192 211 149
195 214 167
189 209 142
190 210 149
189 209 151
186 207 142
184 206 133
176 199 99
167 190 67
172 197 67
172 195 76
173 196 67
177 201 95
174 197 57
174 198 72
171 194 57
167 191 72
170 193 76
175 199 88
169 193 62
174 198 99
172 195 62
172 195 76
172 195 84
174 197 80
174 197 51
176 199 80
170 194 51
167 191 44
171 195 84
168 192 51
165 189 51
171 195 80
174 198 57
168 192 80
171 194 51
174 199 95
169 193 67
170 194 76
173 197 80
173 197 92
168 192 51
169 193 76
171 194 57
165 189 57
167 190 44
167 190 72
167 192 57
168 192 57
167 191 72
169 193 57
170 195 84
166 190 67
170 194 67
167 191 72
166 191 57
168 192 72
167 192 62
166 190 72
168 193 76
169 193 92
170 194 72
170 194 88
165 188 67
162 186 80
165 188 76
166 190 80
170 195 95
168 192 57
167 191 57
162 187 76
157 181 72
162 186 95
162 185 72
160 185 92
165 190 105
164 186 57
158 181 57
159 181 67
164 188 62
166 189 80
165 189 57
162 185 84
161 184 57
160 184 80
157 180 84
158 181 62
159 183 99
159 180 62
152 174 57
155 177 80
159 182 84
159 181 92
153 176 80
154 177 67
159 181 62
154 177 80
144 165 67
149 171 62
145 167 57
150 172 76
143 165 78
139 161 92
118 143 105
105 130 126
82 110 125
94 120 131
78 106 124
100 124 137
91 116 135
87 113 113
94 119 139
87 114 129
85 114 131
97 122 124
96 122 144
97 122 130
102 128 146
93 120 141
78 105 125
89 115 129
94 120 129
99 124 146
101 125 136
104 129 151
85 112 128
82 110 138
93 119 140
94 118 148
91 117 154
85 114 150
82 110 135
89 115 151
77 107 151
82 110 149
80 108 148
79 105 144
77 104 133
80 106 140
75 105 145
67 99 135
64 95 126
65 96 123
73 103 131
71 101 127
66 97 125
63 95 128
59 93 125
59 93 114
59 93 121
59 93 124
64 98 133
59 92 125
58 91 118
57 91 120
57 91 118
56 90 112
58 92 126
59 93 126
57 90 108
58 92 117
57 90 120
59 94 130
59 93 122
58 92 125
60 95 133
59 94 129
59 93 131
60 94 121
58 92 124
58 92 120
57 91 114
60 94 134
58 93 129
58 91 117
60 95 136
59 94 124
60 95 131
59 93 126
59 93 122
57 91 115
60 94 118
58 92 122
60 95 137
59 93 126
58 92 120
59 93 125
59 94 133
59 94 125
59 93 128
58 92 124
58 92 118
58 91 110
59 93 122
58 92 121
57 91 110
59 94 121
60 94 122
58 92 125
60 94 117
57 90 114
57 91 120
57 90 118
59 93 114
59 92 125
58 92 126
58 92 110
57 90 118
57 90 125
56 89 108
58 91 118
58 92 121
58 90 120
58 90 110
57 90 111
57 89 113
57 86 97
70 94 79
98 117 54
102 117 51
112 126 18
112 126 0
118 133 0
113 128 0
111 125 0
120 134 0
132 145 0
120 135 0
124 141 0
123 136 0
124 139 0
125 141 0
136 152 0
130 147 0
134 147 0
125 140 0
128 141 0
126 140 0
132 149 0
131 148 0
126 140 0
124 141 0
144 159 0
135 149 0
133 148 0
146 162 0
139 153 0
132 147 0
136 151 0
128 142 0
139 155 0
141 157 0
139 154 0
137 152 0
136 152 0
146 161 0
146 159 0
140 155 0
139 154 0
145 161 0
149 164 0
136 152 0
141 158 0
135 150 0
148 162 0
139 153 0
140 154 0
144 161 0
143 158 0
143 157 0
146 162 0
151 166 0
143 160 0
152 167 0
153 168 0
144 160 0
144 156 0
147 161 0
148 162 0
136 150 0
148 164 0
150 166 0
151 166 0
152 165 0
156 171 0
152 167 0
151 166 0
151 166 0
153 168 0
161 174 0
151 168 0
158 175 0
152 166 0
154 170 0
155 170 0
156 171 0
153 169 0
156 170 0
157 174 0
157 171 0
155 171 0
153 169 0
162 178 0
162 178 0
151 168 0
160 176 0
157 173 0
157 173 0
154 168 0
153 168 0
160 174 0
159 177 0
162 179 0
163 178 0
162 180 0
157 172 0
160 176 0
165 181 0
161 177 0
167 185 0
164 182 0
167 186 0
163 180 0
164 181 0
163 181 0
165 181 0
160 174 0
162 181 0
162 180 0
165 184 0
163 181 0
167 184 0
167 186 0
163 182 0
166 184 0
162 178 0
160 178 0
166 187 0
166 185 0
167 184 0
165 185 0
166 186 0
167 183 0
163 182 0
166 185 0
168 185 0
167 187 0
170 188 0
167 187 0
166 185 0
170 189 0
168 188 0
168 187 0
168 187 0
164 183 0
170 190 0
165 186 0
166 185 0
171 191 0
169 189 0
171 191 0
170 189 0
168 189 0
172 194 0
170 190 0
167 188 0
168 186 0
169 189 0
169 190 0
166 187 0
167 187 0
172 193 0
168 189 0
169 190 0
171 191 0
166 187 0
168 190 0
171 193 0
170 192 0
168 191 0
166 187 0
171 190 0
173 194 0
168 189 0
171 193 0
170 191 0
170 192 0
170 192 0
173 195 0
168 190 0
194 213 169
192 212 159
194 213 163
191 211 155
191 211 151
196 215 169
190 210 153
191 211 153
193 213 159
187 207 142
194 213 167
190 210 149
183 205 122
191 210 151
186 206 128
184 205 135
180 202 108
175 198 99
175 198 88
173 197 67
173 197 76
173 196 67
173 196 72
173 196 62
177 201 84
171 194 72
170 193 72
169 192 76
171 195 57
172 195 62
174 198 72
170 195 76
173 196 76
172 197 88
173 197 80
169 193 67
171 195 62
172 195 84
167 192 57
173 197 88
175 198 67
171 194 51
171 196 84
171 196 84
172 196 88
169 193 62
173 197 80
166 190 51
170 194 92
168 192 62
167 192 84
169 193 57
170 194 80
166 189 72
168 192 76
169 193 92
169 193 80
165 188 44
173 197 105
165 190 80
168 193 80
169 192 62
169 193 80
168 192 72
171 196 72
166 190 57
166 191 76
166 190 67
170 193 80
171 195 72
171 195 80
163 187 76
167 190 57
170 194 80
167 191 92
169 193 80
164 188 72
164 188 84
160 183 72
161 184 67
163 188 95
167 190 80
162 186 67
161 186 80
161 185 62
166 190 84
157 180 72
163 186 88
156 179 76
162 185 95
164 187 76
163 186 76
159 184 67
163 187 76
153 177 72
154 178 84
156 180 78
160 183 62
162 184 88
152 175 62
159 182 76
158 181 88
157 180 80
152 173 80
154 176 76
149 172 67
154 177 84
152 174 62
143 165 51
153 175 72
140 162 44
152 175 72
143 165 57
133 156 94
113 136 107
89 116 125
94 119 126
86 113 128
88 115 125
91 118 124
97 123 138
83 110 127
87 113 121
92 117 113
87 112 126
77 105 122
94 119 135
106 131 145
103 130 135
87 113 117
94 119 144
96 122 126
104 129 146
96 122 141
95 121 143
106 131 150
98 123 152
93 119 142
87 115 137
85 114 144
76 106 137
89 115 142
83 109 135
81 109 146
75 104 148
82 109 151
83 106 129
80 105 137
78 103 130
68 100 135
71 101 138
66 99 142
75 103 130
75 105 129
75 103 126
65 95 115
67 99 129
59 94 126
57 89 102
60 93 120
58 90 108
63 95 118
60 92 125
61 94 124
59 93 128
59 93 126
60 93 122
58 92 124
57 90 110
57 91 124
58 92 122
58 92 124
59 93 128
58 92 118
59 93 122
59 92 126
59 93 124
59 94 126
58 91 117
59 93 121
60 94 125
57 90 105
59 93 122
59 93 130
59 93 120
59 93 125
60 95 136
58 92 124
59 94 129
57 91 113
58 92 130
58 91 122
57 91 118
59 93 131
59 94 140
59 93 128
58 92 117
58 92 130
59 93 124
59 93 126
58 92 126
59 93 118
59 93 125
59 93 120
59 94 122
56 90 105
59 93 126
57 91 115
59 93 122
59 93 128
59 94 126
56 88 115
58 91 117
59 92 122
58 92 111
59 92 120
57 90 121
58 91 111
58 92 120
57 90 110
59 92 122
56 88 108
57 89 108
56 89 95
55 87 102
70 98 105
76 98 82
89 107 44
108 123 47
102 113 18
111 125 0
123 139 0
105 121 0
117 130 0
116 129 0
115 132 0
126 142 0
118 135 0
122 137 0
120 136 0
130 147 0
128 144 0
131 146 0
129 143 0
136 151 0
125 140 0
117 132 0
118 130 0
132 147 0
134 151 0
129 143 0
135 148 0
126 141 0
142 159 0
132 148 0
141 156 0
127 143 0
121 136 0
132 148 0
125 141 0
137 153 0
140 154 0
135 149 0
136 150 0
132 148 0
140 153 0
141 156 0
146 161 0
135 153 0
145 160 0
143 157 0
146 161 0
145 161 0
146 161 0
145 162 0
142 159 0
137 154 0
139 154 0
147 160 0
149 164 0
145 161 0
150 166 0
144 158 0
144 158 0
146 160 0
151 169 0
147 163 0
156 172 0
151 165 0
152 168 0
143 158 0
153 168 0
153 170 0
152 169 0
152 168 0
147 159 0
151 167 0
157 172 0
151 168 0
155 170 0
156 171 0
153 166 0
155 169 0
152 168 0
154 168 0
155 170 0
159 176 0
158 175 0
156 170 0
160 176 0
161 177 0
156 172 0
156 170 0
157 174 0
161 178 0
164 182 0
159 176 0
160 175 0
158 175 0
158 174 0
160 177 0
165 182 0
165 182 0
159 174 0
162 179 0
164 183 0
159 175 0
158 175 0
164 183 0
163 182 0
165 182 0
163 181 0
161 177 0
165 183 0
169 187 0
161 179 0
165 183 0
169 188 0
165 183 0
167 183 0
165 182 0
164 182 0
165 184 0
167 185 0
165 184 0
165 186 0
164 182 0
165 183 0
165 183 0
170 190 0
168 187 0
168 188 0
167 186 0
166 184 0
164 182 0
162 181 0
168 185 0
165 183 0
165 182 0
168 187 0
167 186 0
167 188 0
168 190 0
160 179 0
169 188 0
166 187 0
165 187 0
168 188 0
166 186 0
165 186 0
172 192 0
167 186 0
170 191 0
167 187 0
169 190 0
168 188 0
170 190 0
167 188 0
169 189 0
170 191 0
170 190 0
168 187 0
169 191 0
168 188 0
170 192 0
167 190 0
170 191 0
167 188 0
168 190 0
169 189 0
169 191 0
169 191 0
172 193 0
171 192 0
170 191 0
169 190 0
169 192 0
171 192 0
171 191 0
171 191 0
202 219 188
190 209 147
189 209 151
194 213 165
195 214 165
195 214 163
186 207 130
191 211 144
192 212 161
193 212 157
191 211 155
188 208 142
188 209 144
186 207 128
181 202 122
185 206 120
175 197 84
175 199 88
174 198 80
174 197 44
175 199 76
168 191 57
175 199 80
170 193 84
177 200 76
176 199 84
173 197 62
171 194 76
172 196 72
172 196 51
173 198 88
172 196 57
171 195 57
171 195 62
173 196 51
174 198 88
170 194 72
170 194 72
173 196 80
168 193 72
171 195 67
171 195 76
169 193 62
171 195 57
171 195 80
168 192 51
167 191 57
171 195 67
170 195 72
166 191 67
169 193 72
167 192 76
170 195 76
172 196 80
174 197 72
170 193 51
167 191 67
169 192 62
164 188 36
165 189 80
167 192 84
165 189 51
169 193 84
165 190 36
165 189 72
166 190 51
163 187 51
167 192 80
166 190 62
164 187 72
164 188 62
171 196 76
156 181 80
167 191 67
163 186 72
170 195 99
163 186 80
164 188 62
167 191 62
163 187 92
164 187 88
162 185 84
161 184 67
160 183 76
165 189 102
164 187 88
166 190 84
159 183 80
161 185 80
162 186 80
155 177 62
164 187 62
162 185 99
159 182 76
156 179 62
162 184 72
161 184 95
162 186 95
158 181 72
157 180 76
154 177 99
158 181 80
151 173 67
157 179 72
154 177 88
153 175 88
156 179 80
154 177 105
152 175 76
152 174 102
151 172 62
153 175 84
143 166 84
144 166 88
128 151 106
98 123 103
75 103 93
92 118 124
88 115 136
100 125 132
97 122 110
94 121 134
90 116 122
93 119 130
84 110 118
89 114 118
93 118 129
103 128 136
105 129 140
90 117 140
82 111 114
91 117 138
87 115 120
91 118 142
91 117 127
89 116 136
101 127 142
92 119 139
95 120 146
80 108 128
92 116 142
85 111 136
80 107 132
76 104 138
79 106 136
98 121 143
81 107 134
85 108 130
80 105 133
77 104 125
75 105 140
69 101 133
69 99 131
67 99 126
65 97 133
68 100 131
67 97 113
59 92 110
63 94 108
63 96 126
63 96 125
62 95 117
59 91 107
55 88 95
60 92 118
57 91 107
57 91 117
59 93 124
57 91 114
56 89 107
60 95 140
57 91 103
58 92 124
58 92 126
58 92 126
56 90 111
58 92 115
59 93 135
58 93 120
59 93 126
57 90 114
58 91 124
60 94 128
58 92 121
58 92 125
57 91 102
58 91 110
59 94 128
59 93 126
57 90 113
58 92 117
58 93 128
59 93 126
58 92 121
57 90 110
58 93 124
60 95 131
57 91 128
57 90 118
58 92 118
57 90 113
60 94 130
57 90 115
58 92 125
57 91 122
60 94 125
58 92 117
59 93 125
58 91 111
56 89 111
57 90 103
58 92 124
58 92 121
59 92 120
57 91 117
58 92 111
58 91 108
58 91 115
58 92 118
55 88 105
55 87 99
58 91 110
56 88 105
54 86 82
73 99 90
71 94 62
100 118 44
106 121 44
96 111 0
107 120 0
119 135 0
114 128 0
114 128 0
115 129 0
122 135 0
116 132 0
112 127 0
127 142 0
129 143 0
129 142 0
136 151 0
118 131 0
129 145 0
121 137 0
127 143 0
133 148 0
133 149 0
130 144 0
143 160 0
119 132 0
121 135 0
135 152 0
139 154 0
142 157 0
141 156 0
142 157 0
137 154 0
128 143 0
141 159 0
137 154 0
141 158 0
139 155 0
141 158 0
143 158 0
139 152 0
141 158 0
136 151 0
139 156 0
141 158 0
139 155 0
142 158 0
142 158 0
143 157 0
145 162 0
144 159 0
143 158 0
145 159 0
152 166 0
142 156 0
148 165 0
155 172 0
148 163 0
147 164 0
151 168 0
149 163 0
153 168 0
152 168 0
156 173 0
150 167 0
153 168 0
150 168 0
149 165 0
148 164 0
145 160 0
144 158 0
155 168 0
152 167 0
156 169 0
155 171 0
150 166 0
157 174 0
161 177 0
155 172 0
155 172 0
152 164 0
151 168 0
154 169 0
163 181 0
156 171 0
155 173 0
162 176 0
157 172 0
162 180 0
159 176 0
155 169 0
156 171 0
159 177 0
160 176 0
155 173 0
163 179 0
160 175 0
165 183 0
158 175 0
165 185 0
158 178 0
158 175 0
159 175 0
163 182 0
162 179 0
159 176 0
162 179 0
159 176 0
165 183 0
160 177 0
163 180 0
163 180 0
162 179 0
166 184 0
161 181 0
166 183 0
164 183 0
167 186 0
163 183 0
165 184 0
164 180 0
165 183 0
166 185 0
163 180 0
163 181 0
166 186 0
165 185 0
163 179 0
169 188 0
168 187 0
167 186 0
169 190 0
166 186 0
170 190 0
168 190 0
167 187 0
170 192 0
166 184 0
164 183 0
166 185 0
169 190 0
168 188 0
166 187 0
168 189 0
168 188 0
168 189 0
167 188 0
166 185 0
167 187 0
167 188 0
168 191 0
168 191 0
168 187 0
170 190 0
169 188 0
169 189 0
169 190 0
167 188 0
169 189 0
167 187 0
166 187 0
171 192 0
170 190 0
170 191 0
172 194 0
169 191 0
171 192 0
170 190 0
171 192 0
168 190 0
170 191 0
168 190 0
167 189 0
171 193 0
165 186 0
171 193 0
188 208 144
190 210 151
195 214 157
198 216 175
193 212 155
189 209 142
190 210 155
189 209 147
189 209 149
193 213 163
188 209 147
184 205 120
185 207 128
180 202 114
180 202 95
183 205 108
176 198 88
174 196 72
175 198 72
176 199 92
173 197 72
169 192 80
175 197 72
175 199 88
175 199 62
174 196 67
171 195 72
172 196 72
172 195 76
174 198 84
170 193 57
168 191 72
170 194 67
169 193 72
172 196 72
174 196 76
170 193 62
171 195 67
168 192 67
173 197 84
171 195 92
169 193 72
170 194 62
174 198 88
172 195 51
172 196 80
171 194 76
172 196 62
170 194 105
165 190 76
165 190 80
165 190 36
169 194 62
170 194 84
166 190 51
169 193 72
168 191 67
167 191 67
170 194 72
169 194 67
170 195 84
169 193 67
164 188 67
159 183 72
170 194 80
166 190 67
167 191 84
168 191 80
164 188 92
169 192 76
169 193 84
172 195 67
164 189 84
169 193 99
166 189 72
164 187 57
167 190 92
165 188 84
161 184 95
166 189 84
166 189 80
166 189 84
166 190 80
165 188 80
158 180 76
156 178 72
169 192 76
167 190 72
153 175 72
165 188 88
161 183 84
161 185 88
158 181 92
154 176 76
156 179 72
161 184 92
168 191 102
158 180 67
151 175 84
158 180 92
152 173 67
152 176 76
161 184 102
158 181 72
157 179 72
157 179 80
163 186 76
152 174 92
160 183 72
146 168 57
147 168 57
145 166 67
144 165 67
140 162 51
134 155 80
116 138 82
83 109 109
88 114 122
81 108 113
88 115 129
104 129 137
91 116 122
102 127 128
83 108 118
96 121 120
92 119 133
84 112 129
91 117 134
91 116 123
86 113 122
91 118 130
89 117 127
86 115 131
88 115 115
102 127 149
86 115 139
86 113 134
90 117 152
95 119 126
89 115 142
96 120 146
84 109 136
77 105 137
77 105 140
80 107 134
87 111 138
89 112 132
89 112 142
73 101 130
79 105 133
69 98 131
72 102 137
69 99 122
75 105 122
76 104 121
72 103 126
66 97 113
68 96 99
69 98 102
62 93 114
57 90 114
63 94 110
64 96 120
56 89 113
61 94 113
57 91 120
58 91 115
57 90 107
57 89 113
59 93 120
58 93 114
59 94 128
57 90 115
59 92 120
58 92 113
60 95 136
58 92 129
59 93 122
58 91 117
59 93 122
57 90 113
58 92 117
58 91 113
59 93 115
58 92 122
57 90 117
58 92 114
58 92 124
59 93 122
58 91 110
59 93 126
58 92 122
57 91 112
58 92 121
57 89 110
57 91 118
58 92 120
58 92 114
60 94 122
59 94 124
58 92 126
58 92 120
60 94 120
59 94 124
58 91 122
58 92 121
58 92 125
55 87 99
58 92 108
56 89 111
57 90 113
56 89 115
60 93 129
56 90 111
56 89 113
56 90 99
57 89 100
56 89 108
57 89 111
56 89 108
55 86 103
54 86 87
60 91 95
75 100 84
88 107 57
95 111 54
118 133 40
111 127 18
99 112 0
106 122 0
121 136 0
122 137 0
112 124 0
116 131 0
120 134 0
119 135 0
110 126 0
117 131 0
120 134 0
128 144 0
124 138 0
130 147 0
129 145 0
122 137 0
132 145 0
130 148 0
135 150 0
125 143 0
130 145 0
131 147 0
136 153 0
137 153 0
134 150 0
128 144 0
135 152 0
145 160 0
137 154 0
130 145 0
136 155 0
143 159 0
135 153 0
140 152 0
136 153 0
133 149 0
138 154 0
143 161 0
142 157 0
141 160 0
146 165 0
145 163 0
145 158 0
145 161 0
140 155 0
142 158 0
140 155 0
139 155 0
142 158 0
148 163 0
151 167 0
144 160 0
148 165 0
142 156 0
159 176 0
150 167 0
145 159 0
154 171 0
154 170 0
153 169 0
146 163 0
145 162 0
153 170 0
158 175 0
149 163 0
153 170 0
156 173 0
152 167 0
152 170 0
146 161 0
156 172 0
155 170 0
152 169 0
155 169 0
156 171 0
154 170 0
157 171 0
154 171 0
150 166 0
158 177 0
162 182 0
157 173 0
157 171 0
153 170 0
161 178 0
157 172 0
162 177 0
157 173 0
160 177 0
159 176 0
159 176 0
152 169 0
166 181 0
160 178 0
161 177 0
159 176 0
157 172 0
159 176 0
166 183 0
158 177 0
165 182 0
166 184 0
162 179 0
165 182 0
160 177 0
158 173 0
161 180 0
157 176 0
169 187 0
165 183 0
164 181 0
163 182 0
164 179 0
165 183 0
165 183 0
169 188 0
163 181 0
167 184 0
166 183 0
168 188 0
168 187 0
167 186 0
170 186 0
165 185 0
162 178 0
165 186 0
162 180 0
167 187 0
167 185 0
163 182 0
166 185 0
167 187 0
169 188 0
167 186 0
168 187 0
173 194 0
167 187 0
168 188 0
169 190 0
169 190 0
167 189 0
169 189 0
167 188 0
167 187 0
169 191 0
165 187 0
165 185 0
170 192 0
167 188 0
166 187 0
169 190 0
169 189 0
169 190 0
169 189 0
169 191 0
172 193 0
170 190 0
168 188 0
167 188 0
171 192 0
171 191 0
169 191 0
171 193 0
170 192 0
171 189 0
171 192 0
170 191 0
170 190 0
169 191 0
168 190 0
170 192 0
170 191 0
192 211 153
190 210 144
194 213 159
192 212 153
192 212 157
196 215 171
189 209 149
188 208 149
188 208 137
192 212 159
191 211 151
189 210 149
184 205 128
179 199 130
180 201 108
173 197 84
178 200 105
174 197 99
177 200 88
174 198 67
175 198 80
165 188 51
173 197 62
176 198 80
172 195 72
174 198 80
173 196 76
175 198 76
172 195 84
170 194 84
168 192 67
173 197 72
173 197 95
171 195 62
172 196 99
171 194 72
167 191 72
170 195 76
173 197 62
170 194 57
171 194 72
173 196 88
165 189 80
170 194 67
170 195 72
171 196 99
169 194 72
171 196 95
169 193 72
172 196 76
166 190 57
170 194 76
163 188 62
170 194 76
168 192 84
173 196 62
165 189 51
166 191 88
171 194 80
167 192 67
165 189 67
171 195 80
170 194 57
164 188 67
166 191 80
168 191 51
166 190 95
171 195 88
166 190 80
170 194 99
169 193 84
168 192 92
171 194 84
170 193 95
165 188 67
165 188 76
163 187 76
165 188 72
165 189 99
167 190 95
166 189 95
171 194 105
169 191 99
162 186 84
170 193 105
171 193 99
159 181 72
161 184 67
161 184 80
164 186 76
161 183 84
163 186 105
161 183 84
161 183 76
159 182 95
156 179 95
168 191 105
153 176 84
150 172 80
156 178 84
151 174 92
159 181 84
153 176 84
151 172 84
161 183 92
153 175 67
150 172 72
155 176 76
149 171 76
145 167 51
155 178 95
145 167 84
143 164 51
142 162 62
143 165 57
135 156 84
127 150 86
90 116 88
86 113 113
84 111 122
93 118 111
85 112 120
106 130 142
94 119 120
91 117 123
85 112 118
85 112 124
95 121 132
98 122 139
88 114 127
106 130 125
87 113 122
92 119 132
95 121 133
101 127 137
91 118 134
91 117 135
92 119 141
90 116 135
92 118 141
81 109 133
79 108 126
92 116 136
85 111 142
72 101 134
78 104 134
83 109 134
91 114 140
85 109 130
73 101 129
77 105 136
77 105 131
71 100 121
62 94 121
60 93 108
70 99 124
72 100 110
61 94 121
58 91 108
66 97 118
63 94 118
66 97 116
57 90 113
59 91 117
57 91 114
56 89 116
55 88 107
58 91 117
59 93 122
56 88 108
57 91 111
58 92 121
57 90 103
58 92 115
58 92 118
57 91 108
58 91 119
56 90 105
56 89 113
56 89 108
59 93 129
58 92 114
58 92 108
57 91 111
58 92 115
59 93 121
57 90 115
59 93 124
59 93 117
57 90 110
57 91 120
57 90 107
58 91 115
58 91 114
58 91 117
58 92 120
58 92 121
58 92 120
58 92 124
57 91 108
58 92 122
58 91 122
58 92 122
59 93 121
57 90 111
57 90 107
57 90 121
57 91 115
57 90 118
56 89 105
56 88 92
56 89 105
58 92 118
57 90 108
58 92 114
54 86 97
58 91 118
54 86 97
56 88 102
53 85 97
52 84 86
62 91 92
81 105 94
78 99 65
100 117 40
98 115 18
117 130 0
113 127 0
111 125 0
126 141 0
112 127 0
115 129 0
127 143 0
111 125 0
123 139 0
120 134 0
121 138 0
110 124 0
122 137 0
129 145 0
129 144 0
134 149 0
127 142 0
128 143 0
132 148 0
130 146 0
131 147 0
143 161 0
135 153 0
138 153 0
139 156 0
139 155 0
127 145 0
135 152 0
138 154 0
139 157 0
149 167 0
150 167 0
133 148 0
128 145 0
141 158 0
135 150 0
139 155 0
144 160 0
140 155 0
140 158 0
131 148 0
141 157 0
139 155 0
143 158 0
136 152 0
142 160 0
151 167 0
139 156 0
152 169 0
146 162 0
149 165 0
148 166 0
148 164 0
142 158 0
148 165 0
143 160 0
148 163 0
144 161 0
149 168 0
146 162 0
151 167 0
152 167 0
149 166 0
147 163 0
138 153 0
151 167 0
156 174 0
156 174 0
155 171 0
152 168 0
150 168 0
157 172 0
156 173 0
150 168 0
160 176 0
162 180 0
161 176 0
153 168 0
154 172 0
152 165 0
158 176 0
156 171 0
158 173 0
156 173 0
152 168 0
154 171 0
156 173 0
162 177 0
162 181 0
153 170 0
155 171 0
160 176 0
161 177 0
157 173 0
157 175 0
162 180 0
162 179 0
162 180 0
156 174 0
160 179 0
164 182 0
162 178 0
166 184 0
168 186 0
164 184 0
165 184 0
160 177 0
163 180 0
157 175 0
161 180 0
159 177 0
162 180 0
163 180 0
161 180 0
166 183 0
163 183 0
165 184 0
168 186 0
164 182 0
167 185 0
166 186 0
161 178 0
168 186 0
164 182 0
167 186 0
167 186 0
166 185 0
170 191 0
167 185 0
169 190 0
167 186 0
167 187 0
166 187 0
169 189 0
168 186 0
168 189 0
165 185 0
168 188 0
167 187 0
165 185 0
168 189 0
168 189 0
169 190 0
167 188 0
167 188 0
170 190 0
167 189 0
167 187 0
169 189 0
166 188 0
169 191 0
168 190 0
170 191 0
167 187 0
170 190 0
169 188 0
166 187 0
168 188 0
168 188 0
171 192 0
170 192 0
172 194 0
170 191 0
172 194 0
172 192 0
169 190 0
168 189 0
168 191 0
171 193 0
170 189 0
170 192 0
169 192 0
167 189 0
171 191 0
193 213 157
193 212 151
191 211 153
188 209 144
191 209 157
193 213 157
190 210 140
185 206 133
192 212 157
190 210 142
186 207 133
187 208 130
185 206 117
181 202 117
179 201 105
179 200 111
176 198 67
174 198 72
172 196 76
174 197 72
172 196 80
174 197 62
172 196 72
173 196 62
174 198 76
173 196 57
170 193 57
169 193 72
174 198 95
169 194 57
174 198 67
175 198 84
173 196 72
174 198 92
171 194 76
171 195 57
170 194 72
170 194 62
171 195 80
171 195 76
167 192 72
169 193 80
171 196 76
168 193 76
172 197 102
169 194 67
168 191 57
167 192 88
172 196 72
168 192 44
171 195 67
174 199 88
168 191 62
172 196 62
170 195 72
165 190 88
171 195 51
174 198 76
168 194 95
168 192 72
173 197 88
170 194 57
166 189 80
169 192 62
166 190 76
165 188 76
170 193 76
165 189 84
164 188 76
174 199 108
167 191 84
167 190 99
165 189 88
168 191 72
166 190 84
170 193 95
169 192 95
164 188 80
173 196 92
168 192 88
161 185 84
166 188 102
163 186 88
170 195 102
167 190 105
164 188 90
162 184 95
167 190 88
157 180 76
169 192 88
156 180 80
164 186 102
162 184 80
162 186 92
159 182 62
154 177 57
164 187 95
158 180 105
156 178 76
161 184 92
154 176 62
161 185 102
150 173 76
153 175 84
149 172 51
150 172 88
152 173 72
158 180 88
156 178 88
144 165 62
155 177 80
150 171 76
148 169 72
145 166 67
147 169 62
138 158 57
145 166 92
110 132 90
111 134 117
88 116 113
89 115 115
81 108 118
83 110 119
88 114 134
78 104 110
86 112 114
88 114 121
88 115 130
85 111 113
99 123 130
104 128 131
91 116 122
93 118 133
104 128 137
93 119 138
89 116 142
96 121 120
104 127 136
90 116 132
98 122 135
86 114 134
93 118 134
95 120 137
93 119 144
88 114 135
80 105 117
100 121 134
89 113 134
86 109 117
74 100 125
74 102 134
73 100 126
67 97 111
69 99 107
67 97 121
67 97 115
75 103 93
71 100 120
67 97 122
57 90 113
70 100 110
59 92 114
55 87 108
61 94 119
60 91 103
58 91 113
59 93 129
56 89 110
57 91 117
56 89 107
57 91 115
57 90 120
58 92 113
57 91 105
56 89 111
58 91 111
58 91 114
58 91 120
58 92 118
58 92 113
58 92 121
57 91 113
58 91 105
59 93 130
57 90 103
58 92 114
59 93 117
58 92 121
58 92 113
58 92 128
58 91 118
57 90 110
56 89 113
56 89 114
58 91 110
59 93 117
58 92 118
58 92 120
57 91 118
56 90 102
57 91 105
58 92 114
58 91 115
57 91 120
59 93 121
57 90 110
58 91 120
57 90 113
57 90 107
58 91 114
56 89 101
58 92 107
55 88 92
56 88 103
55 87 94
55 87 95
55 87 94
55 87 99
53 84 92
53 84 92
61 89 94
78 100 76
89 110 60
100 115 18
107 123 18
117 133 0
112 126 0
105 119 0
119 134 0
113 127 0
115 130 0
119 131 0
118 133 0
118 133 0
122 140 0
115 130 0
129 147 0
129 146 0
126 142 0
120 134 0
136 153 0
129 147 0
125 140 0
126 140 0
124 139 0
131 150 0
137 155 0
119 136 0
131 147 0
129 147 0
134 151 0
133 149 0
135 151 0
139 156 0
136 152 0
140 156 0
129 146 0
135 150 0
136 152 0
142 157 0
141 157 0
138 156 0
140 157 0
140 159 0
141 157 0
138 155 0
136 153 0
143 162 0
146 161 0
138 154 0
147 163 0
140 157 0
142 157 0
143 160 0
147 162 0
144 162 0
143 159 0
148 165 0
151 167 0
147 165 0
148 163 0
149 164 0
152 170 0
159 178 0
146 165 0
155 171 0
156 172 0
154 169 0
153 166 0
155 170 0
154 169 0
155 171 0
159 176 0
156 174 0
154 170 0
156 172 0
151 167 0
151 165 0
150 166 0
150 165 0
154 169 0
151 170 0
161 176 0
154 171 0
160 175 0
156 171 0
154 170 0
153 170 0
159 174 0
157 173 0
161 177 0
163 184 0
153 171 0
158 176 0
159 175 0
159 175 0
156 172 0
161 178 0
161 178 0
161 178 0
158 175 0
158 174 0
162 181 0
165 183 0
163 181 0
160 178 0
160 178 0
164 184 0
159 177 0
163 179 0
157 175 0
165 186 0
165 183 0
170 188 0
164 181 0
162 179 0
165 184 0
163 182 0
163 183 0
165 181 0
166 186 0
163 182 0
168 188 0
162 182 0
168 188 0
164 183 0
171 191 0
167 186 0
166 186 0
168 185 0
165 183 0
166 186 0
166 185 0
169 189 0
165 184 0
168 187 0
167 186 0
166 185 0
171 191 0
168 187 0
166 186 0
166 185 0
165 182 0
165 185 0
165 186 0
168 188 0
167 187 0
169 189 0
166 186 0
168 189 0
167 188 0
166 187 0
169 190 0
168 189 0
168 186 0
169 190 0
166 187 0
167 188 0
163 183 0
166 187 0
165 185 0
171 192 0
171 192 0
171 192 0
173 195 0
169 190 0
169 189 0
170 189 0
168 190 0
170 190 0
171 192 0
170 192 0
171 193 0
171 193 0
171 193 0
171 193 0
168 190 0
171 193 0
171 194 0
171 192 0
187 207 130
190 210 147
195 214 165
195 214 165
190 210 151
191 211 151
190 210 149
190 210 142
188 208 135
186 207 144
179 202 102
185 206 137
183 205 125
181 203 108
176 198 88
176 199 95
175 197 76
176 200 76
172 196 57
175 198 62
177 200 92
176 199 72
171 194 51
169 193 44
171 195 62
172 195 57
170 194 67
170 193 67
171 195 72
171 195 51
171 195 67
171 195 84
173 197 88
171 194 76
169 193 67
172 196 67
172 196 72
171 195 72
172 196 57
173 197 76
173 197 84
170 195 67
167 191 76
173 197 67
173 198 95
168 192 67
167 191 67
171 195 57
165 189 67
165 189 62
170 194 88
168 192 76
171 195 84
171 195 72
169 194 84
170 195 76
168 191 62
169 193 72
171 196 88
166 190 67
170 194 88
165 190 92
168 192 76
171 195 76
173 196 76
166 191 76
172 195 114
168 190 84
165 188 57
166 190 92
166 190 99
166 190 95
166 190 88
168 191 84
159 184 88
164 188 80
174 198 117
167 190 102
165 189 102
165 189 84
162 185 95
167 190 88
167 190 99
166 190 108
167 191 92
161 184 99
162 184 76
162 185 88
156 180 88
166 188 84
159 182 72
164 186 95
163 185 62
154 177 84
162 184 108
157 180 88
164 187 76
157 180 76
155 177 67
156 179 92
156 179 76
155 177 76
154 175 76
162 185 99
152 173 84
151 173 80
156 177 92
151 172 72
145 166 80
151 172 88
147 169 88
150 172 72
143 164 62
150 169 76
154 176 95
149 171 95
135 155 74
122 144 92
116 138 100
83 109 104
92 117 118
99 122 126
85 112 113
84 111 121
77 105 113
88 114 122
92 117 130
100 125 126
90 116 128
92 117 126
96 120 123
103 125 128
88 115 129
100 124 133
98 122 139
92 119 134
95 121 133
103 127 135
85 113 129
89 116 136
89 115 126
94 119 140
97 123 149
82 108 147
85 109 132
87 112 134
88 113 139
87 111 134
80 106 131
83 107 117
88 110 122
71 100 125
75 101 108
69 99 120
71 98 112
73 102 103
65 95 106
66 97 111
60 91 102
64 95 113
63 94 108
63 95 115
58 91 121
58 92 117
61 94 117
64 96 122
56 89 108
56 89 100
57 90 107
57 90 115
58 91 118
59 93 125
56 89 103
57 90 118
57 91 113
57 91 114
57 91 114
58 92 114
57 91 110
57 90 117
58 91 107
57 90 113
58 92 118
59 93 128
58 92 121
57 90 110
59 93 124
55 88 108
58 91 117
58 92 114
59 93 121
59 93 114
56 89 111
58 92 125
57 90 113
56 89 114
57 90 113
59 93 118
56 89 111
56 89 117
57 89 110
59 93 124
55 88 102
57 91 111
57 90 102
57 90 110
57 90 111
55 87 107
56 88 105
57 90 108
58 91 111
57 90 103
57 89 110
55 87 99
56 88 108
55 87 107
54 86 90
56 88 90
55 85 86
74 99 80
82 103 70
103 123 62
106 119 18
98 113 18
98 115 0
113 129 0
111 124 0
120 136 0
111 125 0
108 123 0
115 131 0
107 121 0
120 138 0
119 134 0
116 129 0
131 146 0
121 135 0
131 148 0
130 146 0
132 147 0
128 144 0
127 143 0
124 140 0
127 141 0
129 144 0
131 148 0
129 145 0
129 144 0
137 156 0
132 150 0
128 146 0
133 151 0
142 155 0
125 142 0
124 137 0
135 151 0
133 150 0
144 162 0
141 159 0
135 152 0
133 148 0
141 157 0
135 151 0
141 159 0
139 156 0
136 155 0
138 158 0
142 158 0
150 167 0
146 163 0
142 158 0
145 162 0
144 160 0
140 155 0
145 164 0
145 161 0
146 164 0
150 168 0
152 169 0
150 164 0
147 164 0
151 170 0
142 158 0
153 170 0
148 163 0
147 166 0
156 175 0
144 161 0
151 167 0
152 167 0
149 163 0
151 168 0
147 163 0
150 166 0
155 173 0
151 168 0
153 171 0
151 169 0
158 174 0
160 175 0
157 174 0
154 171 0
161 177 0
152 169 0
162 179 0
153 172 0
162 177 0
161 177 0
161 178 0
160 177 0
154 172 0
161 178 0
160 178 0
159 174 0
155 171 0
160 177 0
161 179 0
162 181 0
159 176 0
158 178 0
153 170 0
162 178 0
163 181 0
162 180 0
161 177 0
163 182 0
162 180 0
164 184 0
160 177 0
163 181 0
164 183 0
161 179 0
162 181 0
165 183 0
167 185 0
163 182 0
164 183 0
163 181 0
163 180 0
165 184 0
161 180 0
160 180 0
158 177 0
164 184 0
162 181 0
166 184 0
163 182 0
168 186 0
165 185 0
166 186 0
166 185 0
167 187 0
166 185 0
168 187 0
165 185 0
167 186 0
166 187 0
165 184 0
164 185 0
163 182 0
170 189 0
170 189 0
168 188 0
167 187 0
168 190 0
171 192 0
169 187 0
168 189 0
163 183 0
171 191 0
168 189 0
170 191 0
169 189 0
169 189 0
167 187 0
169 188 0
166 186 0
167 189 0
171 194 0
169 190 0
168 190 0
170 190 0
169 192 0
170 191 0
168 189 0
168 191 0
168 190 0
172 193 0
166 187 0
171 191 0
167 189 0
170 190 0
169 190 0
168 190 0
169 189 0
168 191 0
173 196 0
170 192 0
169 191 0
172 195 0
190 211 149
187 207 140
192 211 157
191 211 151
189 208 151
190 209 140
192 212 151
188 209 144
189 208 142
187 208 147
187 207 133
181 202 114
180 202 95
179 201 95
177 199 88
178 201 72
175 197 80
175 198 76
173 196 57
171 194 76
176 200 84
174 197 84
172 195 67
176 199 92
172 195 62
172 196 62
179 201 88
172 195 57
170 193 76
173 196 72
171 194 62
171 195 57
170 194 76
176 199 80
172 195 92
171 195 72
170 194 84
172 196 72
171 194 67
174 198 72
170 195 80
173 197 95
167 192 51
170 194 80
169 192 67
169 192 80
166 191 72
169 193 72
169 193 67
171 195 76
169 194 88
164 188 51
173 197 84
173 196 72
169 193 62
169 193 99
169 193 80
161 186 80
168 192 84
168 192 80
168 192 99
165 190 95
173 197 95
164 190 84
170 194 99
171 195 99
167 190 72
166 191 88
169 192 92
174 198 108
175 199 95
169 192 88
168 191 92
169 192 95
164 186 108
166 189 72
168 191 72
169 193 92
167 190 99
168 192 102
166 187 88
166 188 92
167 190 105
162 186 102
162 185 84
155 178 76
167 190 95
159 182 88
165 188 92
161 183 95
168 190 88
163 186 102
162 185 88
167 190 114
156 179 95
162 183 102
162 184 95
159 182 84
160 182 80
164 187 84
155 176 67
158 179 102
162 184 99
153 175 72
154 177 95
154 176 72
144 166 62
143 164 80
160 182 95
155 176 88
149 171 76
142 163 84
144 165 76
141 163 84
148 169 92
139 158 76
144 164 102
133 152 90
135 156 90
114 136 113
80 106 88
80 105 99
93 118 117
93 119 135
98 122 126
99 125 131
94 120 129
101 126 133
86 112 127
90 115 119
96 120 123
108 131 137
96 121 125
101 126 126
85 110 134
101 124 124
88 115 131
86 112 122
102 126 133
79 107 132
102 125 143
90 115 135
82 108 132
76 104 117
95 116 124
90 110 113
91 113 114
103 122 108
86 109 130
95 116 120
85 109 120
77 103 129
83 108 114
77 104 115
76 105 108
71 100 95
73 103 124
59 91 104
68 97 99
61 93 115
67 97 111
64 96 123
65 95 108
59 92 107
60 91 113
59 93 122
59 92 113
60 93 108
58 91 112
57 90 100
56 89 107
58 92 117
56 89 98
56 89 100
57 89 110
57 90 111
60 94 124
57 91 117
58 92 114
59 93 121
57 91 102
57 91 113
56 89 107
58 91 111
59 93 115
58 92 122
58 92 118
57 91 111
57 90 103
58 92 114
59 92 120
57 91 110
57 90 117
57 90 114
56 89 107
56 89 107
57 90 108
59 93 115
58 92 121
57 90 110
58 91 114
58 91 115
57 89 114
56 89 113
58 91 111
56 90 103
55 88 105
58 92 117
57 90 122
57 90 118
55 87 97
56 88 103
55 87 107
56 89 102
57 90 113
55 88 95
58 90 102
66 91 90
74 95 65
87 106 44
97 115 44
116 131 31
111 124 0
117 131 0
119 135 0
120 134 0
116 133 0
116 129 0
112 128 0
115 129 0
116 131 0
117 132 0
113 131 0
122 136 0
128 143 0
124 139 0
126 142 0
133 146 0
132 147 0
130 147 0
130 146 0
135 152 0
127 143 0
130 146 0
139 155 0
127 143 0
133 150 0
129 146 0
128 145 0
129 144 0
127 145 0
129 144 0
133 150 0
139 157 0
133 150 0
138 157 0
144 161 0
142 158 0
141 159 0
130 148 0
139 157 0
145 164 0
146 161 0
135 152 0
143 159 0
143 160 0
142 159 0
132 148 0
149 167 0
146 162 0
143 160 0
147 165 0
148 164 0
151 168 0
144 161 0
147 162 0
153 170 0
152 169 0
154 170 0
151 169 0
146 164 0
150 166 0
154 171 0
154 173 0
148 165 0
157 173 0
155 172 0
155 170 0
151 170 0
149 164 0
150 166 0
156 173 0
156 172 0
153 168 0
153 169 0
153 172 0
162 180 0
153 171 0
161 176 0
154 174 0
152 169 0
162 182 0
162 182 0
155 172 0
160 176 0
153 168 0
158 176 0
161 178 0
153 171 0
155 174 0
156 175 0
158 176 0
155 173 0
153 171 0
154 169 0
160 178 0
159 175 0
160 179 0
163 183 0
153 172 0
162 180 0
162 182 0
158 175 0
164 181 0
158 176 0
164 183 0
164 183 0
159 178 0
165 182 0
158 179 0
163 181 0
165 183 0
159 176 0
163 182 0
158 177 0
169 188 0
169 188 0
165 184 0
163 182 0
162 180 0
165 185 0
168 188 0
168 187 0
163 183 0
161 180 0
163 184 0
167 186 0
161 179 0
166 185 0
165 185 0
164 184 0
165 185 0
168 188 0
165 185 0
165 184 0
166 185 0
168 188 0
168 190 0
163 184 0
168 189 0
165 183 0
165 184 0
168 188 0
164 183 0
169 190 0
170 190 0
164 184 0
167 188 0
164 183 0
167 188 0
170 190 0
170 191 0
168 187 0
168 189 0
166 184 0
167 188 0
168 189 0
168 189 0
171 191 0
168 188 0
173 195 0
169 189 0
171 190 0
170 193 0
169 190 0
167 186 0
170 191 0
171 193 0
169 192 0
172 192 0
168 187 0
168 189 0
169 189 0
170 189 0
166 187 0
169 190 0
168 188 0
171 193 0
172 195 0
172 194 0
186 207 122
187 207 128
187 207 140
187 208 128
187 208 130
188 208 137
188 209 137
185 205 125
183 204 117
188 209 140
188 209 137
182 204 125
180 201 108
175 197 92
175 198 76
174 197 57
171 195 57
173 196 92
173 197 84
177 200 92
174 197 72
175 198 67
174 197 51
169 192 72
175 198 80
170 194 72
170 194 76
174 196 72
176 199 67
173 196 72
172 196 88
169 193 80
172 195 57
168 193 62
168 192 51
172 194 62
172 196 67
170 194 72
171 196 92
172 195 92
171 195 67
169 193 62
173 197 76
166 191 72
168 193 88
169 193 44
169 193 67
168 193 80
170 195 80
170 195 84
171 195 84
168 192 51
170 194 57
170 194 92
170 195 80
169 193 76
169 193 62
171 193 57
170 194 80
168 192 76
166 189 67
165 189 76
164 188 80
168 193 102
167 191 72
172 195 92
174 197 88
166 190 84
167 190 76
167 191 95
171 194 105
167 191 99
167 190 80
169 193 88
169 192 84
167 191 95
169 192 117
167 190 80
165 188 92
168 190 84
173 195 95
161 184 67
168 191 84
171 194 108
167 190 105
167 190 108
167 189 102
160 183 82
166 189 92
162 186 92
165 186 102
163 186 84
161 184 105
162 185 84
165 188 117
165 189 108
158 181 84
159 180 84
161 184 88
157 178 95
169 191 114
149 172 76
151 173 72
156 178 95
153 174 111
149 171 72
144 166 72
148 169 84
147 169 72
150 171 76
145 167 67
145 166 80
147 168 92
142 163 84
151 172 102
141 161 72
142 162 72
140 159 62
138 157 76
124 143 82
107 129 84
108 131 111
82 108 94
89 114 119
105 130 118
91 117 121
98 123 126
81 108 110
88 115 124
94 118 125
88 114 124
105 130 122
98 122 131
107 131 133
85 111 124
86 113 118
96 122 125
97 123 147
99 125 144
100 125 129
101 125 133
99 121 123
98 121 122
85 109 137
93 116 122
90 114 125
96 118 115
93 118 125
95 116 107
99 119 126
87 112 124
79 103 113
77 104 125
72 101 126
72 99 94
64 94 120
71 101 114
65 97 121
76 103 99
78 105 103
64 95 108
56 89 108
62 94 111
59 92 111
63 94 112
55 88 88
58 90 99
58 90 110
55 87 97
57 91 115
56 88 114
57 90 105
55 88 92
57 90 110
56 89 114
59 93 128
56 90 99
60 94 122
57 91 113
57 91 104
58 92 107
58 92 120
59 93 114
59 93 128
59 93 114
56 89 110
57 91 115
55 88 102
59 93 118
56 89 103
56 89 111
59 92 117
57 89 110
55 88 108
57 91 103
57 90 111
58 92 107
58 92 115
57 90 111
54 86 88
57 91 111
56 89 94
55 88 100
55 88 108
57 90 107
56 89 97
54 86 94
58 92 122
53 84 78
55 87 103
56 88 103
55 87 92
55 88 102
56 89 103
53 83 90
67 94 88
61 88 72
90 113 76
72 91 36
103 120 25
105 118 25
101 116 0
117 130 0
103 116 0
107 122 0
107 122 0
114 128 0
106 121 0
120 134 0
115 129 0
123 139 0
119 136 0
127 145 0
121 139 0
125 140 0
126 143 0
123 138 0
115 130 0
115 132 0
130 147 0
123 141 0
121 137 0
135 152 0
135 152 0
135 152 0
132 148 0
134 150 0
128 147 0
127 142 0
134 151 0
134 152 0
145 165 0
139 157 0
141 159 0
129 146 0
137 153 0
142 156 0
146 166 0
136 153 0
135 151 0
139 157 0
139 157 0
142 159 0
146 161 0
139 157 0
149 167 0
141 158 0
149 166 0
143 160 0
150 167 0
148 168 0
148 167 0
149 165 0
148 165 0
148 163 0
148 166 0
153 170 0
148 166 0
154 170 0
156 174 0
147 165 0
145 163 0
153 171 0
153 171 0
146 163 0
146 162 0
154 172 0
153 171 0
151 168 0
152 167 0
157 173 0
156 171 0
156 175 0
152 169 0
155 173 0
154 173 0
150 168 0
151 167 0
154 173 0
156 173 0
157 174 0
156 173 0
150 166 0
156 171 0
155 171 0
159 177 0
156 175 0
156 174 0
154 171 0
163 179 0
156 174 0
155 174 0
164 183 0
162 182 0
157 174 0
160 178 0
156 173 0
154 172 0
159 179 0
153 170 0
157 173 0
159 179 0
158 176 0
160 179 0
167 186 0
161 178 0
163 179 0
161 179 0
160 179 0
163 180 0
163 183 0
159 177 0
163 183 0
158 177 0
163 182 0
164 184 0
165 185 0
163 182 0
164 183 0
166 186 0
162 182 0
165 184 0
169 189 0
169 189 0
167 187 0
168 186 0
164 183 0
162 181 0
167 186 0
168 188 0
163 184 0
167 187 0
166 184 0
166 186 0
166 187 0
164 185 0
168 189 0
170 191 0
164 182 0
166 186 0
170 190 0
167 188 0
171 193 0
167 185 0
168 189 0
169 189 0
169 190 0
165 186 0
167 186 0
165 185 0
167 187 0
168 187 0
168 189 0
166 186 0
169 189 0
171 193 0
168 190 0
168 190 0
169 191 0
168 189 0
167 187 0
169 191 0
167 187 0
171 193 0
168 188 0
170 191 0
168 188 0
169 190 0
171 192 0
170 192 0
169 191 0
168 188 0
171 191 0
170 193 0
169 192 0
170 192 0
168 188 0
172 193 0
170 192 0
170 194 0
190 210 144
193 212 155
190 211 153
179 201 99
186 207 133
188 208 147
188 208 135
189 209 142
185 206 137
186 207 128
181 202 122
183 204 125
185 205 128
176 199 102
175 198 76
176 198 72
175 197 76
173 197 44
172 195 51
175 197 67
171 194 51
175 197 88
169 193 84
172 195 95
172 195 51
170 194 67
169 192 80
171 194 80
173 197 76
170 193 62
174 198 76
172 196 72
170 194 72
170 194 67
172 195 57
173 197 80
169 194 72
169 193 57
169 194 72
170 194 88
171 196 76
169 193 67
167 191 72
171 195 76
170 194 84
168 191 72
171 195 92
169 193 95
165 189 72
168 192 88
168 191 80
167 191 62
165 190 102
165 189 62
170 194 92
174 198 114
169 193 95
171 195 92
166 190 92
174 198 102
167 191 80
168 190 67
167 191 92
167 190 80
168 190 84
172 196 122
164 187 80
173 195 108
173 196 99
170 193 88
165 189 88
171 195 95
162 185 62
167 191 108
166 189 88
172 196 84
168 191 99
167 192 92
167 190 92
159 183 92
165 187 99
171 195 117
162 185 92
162 185 102
164 187 92
160 184 72
158 182 108
168 190 105
165 188 95
169 193 114
162 184 95
162 184 84
162 184 86
163 186 88
159 182 99
160 183 84
166 187 95
154 176 102
159 182 95
158 181 80
155 178 108
160 181 99
159 180 102
158 181 84
156 177 108
147 169 92
158 180 108
163 184 95
147 169 99
147 169 88
140 162 57
147 168 80
148 168 62
140 160 80
153 173 105
148 169 80
139 159 72
146 166 80
142 162 90
139 160 111
132 152 100
121 142 105
101 124 107
76 102 107
96 121 125
91 116 100
91 117 110
91 116 122
100 125 123
96 121 111
87 113 108
101 125 122
90 115 117
93 117 121
98 123 132
97 122 134
91 116 115
96 121 133
100 124 109
92 117 122
108 131 139
77 107 131
91 117 133
91 116 124
102 124 134
100 122 130
97 121 128
94 117 112
99 120 107
95 114 114
98 118 102
88 111 125
83 106 118
78 104 102
75 105 122
79 107 111
77 105 94
71 100 118
62 94 114
72 102 108
66 96 90
57 89 103
63 95 102
61 92 105
55 88 99
60 92 98
58 92 118
60 92 100
57 89 108
55 88 99
54 86 102
56 88 107
57 91 111
56 89 104
57 90 105
58 91 113
58 92 115
59 92 115
56 89 107
58 91 107
56 88 108
56 89 103
58 91 107
57 90 118
56 88 103
56 89 102
57 91 113
56 88 121
59 92 122
58 92 113
57 90 113
58 91 113
56 89 103
56 89 107
58 92 117
57 90 111
57 89 114
55 88 95
56 89 113
56 89 99
58 91 114
56 88 103
57 91 99
55 86 107
57 90 100
55 87 105
55 87 97
55 88 103
55 87 105
52 83 84
56 88 95
54 86 92
52 83 88
62 91 100
64 91 67
81 101 65
89 107 44
93 109 31
94 112 36
99 114 0
104 119 0
113 128 0
101 118 0
108 124 0
113 129 0
115 130 0
115 130 0
106 121 0
120 135 0
120 136 0
129 144 0
114 127 0
123 141 0
121 138 0
115 130 0
124 140 0
124 140 0
129 144 0
130 147 0
115 131 0
130 148 0
130 147 0
125 141 0
133 151 0
130 147 0
137 153 0
132 150 0
131 148 0
135 151 0
129 145 0
140 157 0
137 155 0
141 158 0
132 149 0
126 142 0
141 159 0
136 153 0
142 159 0
147 163 0
143 159 0
146 164 0
142 159 0
135 152 0
138 154 0
138 155 0
147 165 0
148 165 0
147 164 0
147 165 0
147 164 0
146 164 0
147 163 0
142 159 0
145 165 0
147 165 0
145 160 0
148 167 0
149 165 0
154 172 0
148 165 0
148 167 0
147 164 0
152 168 0
143 160 0
156 174 0
154 172 0
153 172 0
155 171 0
156 173 0
157 176 0
153 172 0
158 176 0
153 173 0
157 174 0
146 163 0
158 174 0
157 176 0
149 164 0
153 169 0
155 174 0
157 176 0
152 169 0
162 180 0
157 174 0
155 173 0
160 177 0
158 176 0
149 168 0
159 178 0
154 171 0
160 179 0
160 178 0
161 178 0
158 175 0
162 181 0
166 185 0
158 178 0
163 182 0
162 180 0
162 182 0
161 177 0
160 177 0
160 178 0
159 176 0
159 179 0
156 172 0
163 181 0
163 184 0
160 180 0
162 179 0
167 186 0
164 182 0
163 181 0
163 183 0
161 180 0
165 185 0
162 184 0
161 178 0
165 183 0
167 187 0
162 179 0
164 183 0
165 186 0
166 184 0
167 188 0
163 184 0
168 186 0
164 183 0
163 182 0
164 184 0
164 184 0
167 188 0
162 181 0
167 187 0
168 187 0
166 187 0
169 188 0
171 189 0
169 189 0
169 189 0
169 188 0
169 190 0
171 193 0
166 186 0
165 185 0
168 188 0
169 187 0
170 189 0
169 191 0
167 187 0
170 190 0
166 186 0
168 189 0
168 189 0
171 194 0
169 190 0
167 187 0
168 188 0
168 189 0
171 194 0
170 190 0
171 191 0
164 185 0
169 190 0
171 193 0
171 193 0
173 195 0
170 191 0
170 193 0
170 190 0
171 193 0
170 193 0
166 189 0
168 190 0
168 190 0
171 192 0
168 189 0
169 191 0
173 195 0
170 192 0
187 207 128
186 206 120
190 210 137
188 208 137
184 205 114
183 204 108
187 207 128
186 207 125
184 205 122
185 205 137
186 207 125
181 203 105
180 202 95
176 199 88
177 200 88
176 200 88
177 199 76
173 196 62
171 194 72
175 199 76
165 188 51
175 198 67
174 197 72
170 194 44
174 197 76
171 194 62
171 195 84
174 197 72
170 194 76
176 199 92
172 196 95
171 194 67
170 195 57
169 194 72
175 199 76
172 195 72
173 197 44
172 196 80
173 197 80
172 196 72
169 193 92
170 193 67
171 194 67
175 199 80
169 193 51
172 195 84
172 195 72
173 196 80
173 196 62
168 193 72
168 192 62
176 199 88
172 197 99
169 192 92
170 193 102
163 187 76
175 199 102
165 189 88
164 188 76
167 191 72
174 197 88
170 194 105
175 198 92
172 195 108
171 194 99
165 188 88
165 189 88
165 189 105
171 195 102
169 192 99
167 191 105
168 192 102
165 188 84
167 189 80
171 194 92
170 194 102
170 194 105
165 187 105
172 196 95
169 191 108
164 187 105
167 190 88
170 193 125
165 187 95
162 186 62
165 188 84
166 189 95
163 185 105
160 184 105
163 186 113
165 187 84
163 186 94
157 179 88
155 178 80
166 189 100
166 188 114
159 181 92
158 181 80
159 181 84
160 180 92
152 175 80
160 182 99
160 183 105
155 176 72
152 174 88
150 172 84
163 184 102
154 176 76
160 181 114
160 181 95
150 171 92
132 153 67
139 160 62
147 167 80
155 176 92
139 159 88
145 165 80
143 164 62
134 154 67
133 153 84
116 135 70
130 151 113
117 138 103
100 124 100
80 106 100
93 118 111
96 120 128
88 114 121
86 110 122
85 112 111
84 109 112
94 120 126
72 101 95
98 123 120
95 120 128
92 118 124
95 120 112
117 139 133
107 131 136
92 117 113
93 118 118
88 115 115
90 114 124
98 122 130
94 116 133
84 108 108
99 119 107
98 120 121
105 127 121
91 114 106
95 118 117
92 116 110
86 111 114
76 104 111
85 112 103
70 98 114
76 105 102
81 108 92
69 96 94
70 99 112
74 102 97
67 97 108
62 91 97
64 94 105
59 93 115
59 90 100
56 89 104
58 89 99
55 87 101
56 88 107
59 93 128
56 89 111
56 89 102
56 89 110
58 91 114
57 90 107
58 91 108
58 92 113
55 88 103
57 89 113
57 91 110
55 88 105
58 93 122
56 88 108
56 89 110
56 89 107
57 91 107
58 91 111
57 90 105
55 88 110
55 87 90
56 88 107
54 87 105
56 88 103
56 89 110
55 88 95
56 89 114
57 90 110
55 88 103
57 90 111
57 90 105
55 88 102
55 87 100
55 87 107
56 89 111
54 86 97
57 90 115
55 87 95
55 87 94
56 89 94
56 88 92
57 87 80
65 90 74
74 94 44
82 103 65
91 106 31
93 108 31
98 113 0
99 115 0
108 123 0
113 128 0
107 122 0
101 117 0
123 139 0
127 144 0
122 137 0
115 129 0
118 135 0
113 129 0
116 130 0
120 137 0
125 141 0
120 136 0
128 145 0
113 131 0
130 145 0
115 132 0
125 142 0
125 142 0
124 141 0
123 139 0
124 142 0
130 148 0
134 152 0
131 149 0
133 150 0
133 151 0
135 152 0
130 147 0
135 152 0
140 159 0
134 150 0
143 159 0
138 156 0
150 169 0
143 161 0
143 159 0
143 162 0
138 155 0
135 152 0
142 159 0
145 164 0
146 163 0
142 161 0
146 164 0
145 165 0
140 155 0
139 156 0
144 159 0
149 167 0
146 164 0
153 171 0
153 171 0
148 166 0
141 159 0
144 160 0
152 168 0
156 174 0
147 165 0
151 167 0
157 176 0
146 165 0
151 169 0
151 169 0
155 174 0
155 175 0
148 165 0
154 172 0
152 170 0
150 166 0
154 169 0
146 163 0
158 175 0
155 172 0
151 167 0
155 173 0
157 173 0
159 178 0
155 174 0
156 174 0
158 176 0
159 179 0
152 168 0
159 174 0
155 173 0
153 172 0
155 173 0
155 174 0
157 174 0
157 175 0
160 177 0
160 180 0
158 174 0
157 176 0
156 173 0
164 183 0
160 178 0
159 176 0
164 184 0
159 177 0
159 177 0
159 177 0
162 180 0
160 178 0
156 175 0
164 183 0
162 178 0
161 178 0
163 181 0
158 177 0
165 185 0
164 184 0
166 186 0
167 186 0
165 183 0
166 187 0
163 183 0
164 183 0
167 186 0
164 184 0
168 185 0
165 184 0
163 183 0
164 184 0
167 187 0
165 184 0
166 184 0
165 186 0
164 186 0
167 187 0
162 182 0
167 189 0
167 186 0
167 187 0
164 186 0
165 186 0
165 185 0
171 190 0
171 191 0
167 188 0
162 181 0
171 190 0
165 187 0
169 190 0
165 185 0
171 192 0
168 188 0
168 190 0
167 187 0
169 189 0
166 187 0
167 187 0
167 189 0
169 188 0
171 193 0
170 191 0
168 187 0
165 185 0
169 191 0
170 192 0
166 188 0
168 190 0
169 190 0
169 190 0
170 191 0
169 190 0
169 190 0
169 191 0
168 190 0
169 190 0
169 191 0
171 191 0
170 193 0
172 193 0
170 193 0
172 193 0
170 192 0
171 193 0
174 197 0
173 195 0
190 210 149
187 208 130
187 207 120
187 207 130
183 204 117
186 206 128
190 210 155
188 208 142
178 200 105
181 202 102
186 207 122
181 203 105
178 200 105
178 200 92
172 194 57
170 194 67
175 198 80
173 195 57
178 201 102
175 198 80
174 197 88
171 194 76
174 197 88
168 191 57
171 194 67
169 192 57
172 197 67
174 198 76
170 194 67
173 197 72
169 193 62
170 194 57
172 195 76
171 194 95
170 193 88
172 196 62
170 194 80
172 195 62
171 195 72
169 193 57
169 193 62
170 195 67
169 194 88
168 192 72
168 192 88
173 197 92
169 192 62
172 196 57
170 194 67
170 193 99
171 194 80
171 194 84
168 192 84
174 197 84
174 197 95
168 192 76
172 196 84
173 197 92
168 192 88
172 194 95
170 193 88
170 194 99
173 197 111
170 192 76
167 191 105
169 193 95
168 192 95
173 196 111
171 194 111
170 194 99
165 188 99
166 190 80
169 191 95
169 193 92
173 197 99
163 186 105
165 189 95
166 190 92
169 193 99
168 192 105
169 192 92
167 189 92
167 190 100
159 182 76
161 185 102
160 183 97
166 189 114
161 183 105
171 193 107
167 190 107
160 182 88
164 186 107
162 184 105
157 180 80
161 183 100
161 184 95
155 178 84
157 180 88
163 185 92
151 173 92
160 180 108
158 180 88
156 177 84
148 169 88
156 178 111
146 167 88
153 174 76
150 172 92
147 169 88
149 170 95
157 178 99
163 185 108
148 168 92
144 165 72
136 157 51
146 166 95
143 163 72
147 166 76
132 152 72
143 162 102
135 155 80
124 143 78
103 124 70
115 135 99
100 123 107
88 112 97
92 117 125
93 118 114
92 117 115
83 109 118
74 101 103
92 117 114
84 110 95
95 120 130
102 126 137
102 125 118
105 129 143
102 126 125
102 125 128
98 122 121
87 112 121
99 122 121
111 132 130
109 130 124
104 125 105
111 130 113
100 121 102
105 123 111
101 122 112
104 127 114
93 116 113
100 121 97
96 119 103
84 110 100
71 98 108
66 93 95
74 103 105
73 102 99
72 99 113
71 100 103
66 96 110
68 97 88
68 97 99
57 89 97
63 92 92
59 91 103
64 95 107
60 92 106
61 93 114
55 88 86
57 91 113
56 89 102
54 86 95
57 90 100
54 85 97
57 90 117
57 90 108
56 89 97
56 89 107
57 90 107
56 89 105
58 91 111
56 88 113
55 87 99
55 88 103
55 88 99
58 91 115
57 90 113
56 88 107
56 89 100
55 87 108
56 88 100
55 87 99
55 87 105
57 90 117
55 87 100
55 87 94
56 89 102
55 87 92
56 88 100
56 88 99
58 91 110
57 89 105
58 91 115
55 87 103
52 82 82
55 88 95
53 85 92
54 85 92
61 88 76
64 92 82
74 96 65
75 95 60
76 96 47
99 115 36
100 116 25
104 119 0
107 120 0
109 123 0
105 119 0
110 126 0
122 137 0
109 124 0
112 127 0
119 135 0
117 135 0
114 130 0
116 133 0
126 143 0
105 123 0
123 141 0
114 131 0
119 136 0
117 134 0
130 147 0
126 142 0
123 141 0
129 145 0
131 147 0
131 147 0
125 141 0
133 149 0
131 148 0
141 157 0
132 149 0
130 147 0
144 162 0
127 143 0
135 152 0
133 151 0
133 150 0
140 159 0
129 146 0
140 157 0
139 157 0
141 158 0
143 162 0
141 156 0
134 152 0
142 160 0
142 159 0
148 165 0
137 155 0
142 160 0
142 160 0
145 162 0
151 167 0
149 166 0
148 167 0
143 161 0
144 162 0
146 164 0
152 171 0
150 167 0
146 163 0
151 170 0
155 175 0
149 167 0
150 167 0
150 166 0
152 172 0
153 170 0
154 170 0
145 163 0
156 174 0
157 174 0
154 171 0
150 170 0
152 170 0
154 171 0
150 167 0
156 174 0
154 173 0
153 171 0
148 168 0
152 170 0
162 179 0
156 174 0
155 172 0
152 171 0
154 171 0
160 180 0
156 175 0
160 179 0
157 176 0
159 177 0
164 182 0
155 174 0
154 174 0
158 177 0
157 174 0
160 178 0
160 180 0
153 171 0
164 182 0
163 182 0
160 180 0
162 182 0
153 172 0
160 178 0
159 176 0
163 183 0
161 179 0
160 179 0
156 172 0
164 183 0
160 178 0
161 178 0
158 176 0
158 177 0
159 178 0
165 184 0
162 179 0
157 175 0
166 184 0
161 179 0
166 182 0
167 186 0
162 182 0
166 186 0
165 186 0
167 187 0
166 187 0
163 184 0
167 186 0
168 187 0
165 185 0
162 180 0
163 183 0
163 185 0
166 185 0
167 186 0
167 186 0
168 188 0
165 184 0
167 187 0
161 180 0
168 188 0
168 189 0
165 187 0
163 182 0
166 186 0
165 184 0
168 188 0
171 191 0
168 189 0
168 189 0
167 188 0
170 191 0
168 190 0
167 187 0
168 190 0
170 190 0
168 190 0
170 191 0
166 188 0
169 189 0
166 186 0
166 188 0
166 186 0
169 192 0
172 193 0
173 195 0
168 190 0
169 190 0
170 192 0
170 193 0
170 192 0
168 190 0
171 192 0
170 192 0
169 190 0
172 194 0
170 189 0
171 193 0
170 192 0
170 192 0
167 187 0
166 187 0
167 189 0
186 207 130
187 207 128
189 209 147
187 208 133
185 206 128
187 207 133
183 204 122
184 205 120
181 202 108
183 204 114
179 202 102
179 201 99
180 202 92
176 199 108
172 195 57
174 197 67
172 195 67
173 197 67
171 194 92
173 196 62
172 195 72
174 197 84
173 197 72
173 197 72
172 195 57
170 193 62
171 194 51
175 198 72
174 198 62
169 192 44
173 196 67
169 192 80
167 191 80
171 195 95
176 199 76
172 196 72
171 195 57
169 194 72
169 192 67
170 194 80
170 195 88
166 189 76
170 193 51
172 195 76
173 197 102
170 194 72
170 193 84
173 197 84
172 195 88
173 197 92
169 193 84
171 195 76
170 193 88
166 191 88
173 196 99
172 195 92
169 193 92
169 193 95
171 194 88
174 197 99
172 195 88
174 197 125
166 189 95
166 189 84
167 191 95
169 192 95
170 194 84
169 192 102
168 192 95
164 187 72
163 187 95
172 195 105
168 190 72
169 193 105
169 190 95
169 192 105
172 195 102
167 191 88
163 186 102
165 187 92
163 187 84
161 184 92
166 188 88
163 186 92
168 190 99
168 190 108
166 189 88
168 191 88
159 181 84
153 176 99
160 183 108
161 183 120
162 184 95
159 182 72
160 183 80
159 181 80
161 183 105
155 177 99
165 187 120
161 183 105
155 178 92
157 179 95
162 183 105
151 172 102
153 174 92
162 185 95
147 168 92
149 169 102
146 167 80
155 176 99
146 166 102
145 165 99
140 162 80
137 157 76
151 171 88
144 163 80
138 158 84
140 160 92
139 159 72
131 150 92
134 154 62
139 158 76
137 156 76
126 145 92
115 134 78
104 126 115
89 113 100
88 112 111
93 119 110
88 113 113
111 133 140
97 121 131
99 122 115
104 129 131
88 113 112
102 126 117
98 123 128
106 129 129
102 126 115
82 109 120
103 126 118
95 119 114
96 116 110
99 123 133
99 118 107
108 126 125
110 129 99
105 126 113
102 124 103
114 133 88
105 130 111
96 118 99
96 117 97
90 114 90
85 110 92
79 102 92
89 115 105
75 102 107
69 97 100
68 97 95
68 97 102
66 94 102
62 92 84
63 94 107
60 88 90
60 91 90
64 95 100
57 88 95
55 88 95
56 88 94
55 87 90
56 89 107
57 90 99
57 90 111
57 90 107
57 90 102
55 87 99
56 89 100
55 88 99
55 87 97
56 89 100
55 88 94
57 91 107
54 86 103
57 90 108
56 88 107
55 87 92
56 89 103
56 88 108
55 87 99
55 88 102
56 88 108
55 87 95
54 87 97
57 90 114
56 89 99
56 89 110
56 89 107
57 90 114
54 86 95
54 87 102
56 89 103
54 86 92
53 85 82
56 88 100
53 83 94
55 87 100
59 86 70
58 85 86
73 95 60
85 104 62
91 108 44
101 116 25
102 117 18
116 130 0
92 109 0
108 124 0
123 139 0
108 123 0
115 131 0
114 131 0
116 131 0
116 131 0
121 136 0
120 136 0
102 118 0
106 123 0
132 150 0
127 142 0
129 145 0
123 140 0
121 136 0
125 142 0
120 136 0
128 145 0
121 137 0
118 134 0
126 142 0
140 157 0
130 146 0
129 147 0
119 139 0
126 144 0
127 144 0
132 149 0
120 139 0
130 150 0
127 144 0
143 162 0
128 146 0
136 155 0
138 154 0
138 157 0
138 156 0
137 155 0
145 166 0
142 161 0
134 152 0
138 156 0
141 159 0
146 164 0
150 168 0
145 163 0
150 170 0
147 165 0
144 161 0
151 168 0
141 160 0
141 160 0
147 166 0
147 166 0
147 164 0
151 169 0
147 163 0
153 171 0
150 169 0
154 172 0
155 174 0
152 169 0
144 162 0
143 162 0
150 168 0
154 171 0
158 175 0
145 164 0
149 166 0
150 169 0
157 174 0
156 172 0
158 178 0
150 169 0
161 182 0
157 175 0
155 175 0
152 169 0
160 179 0
153 172 0
160 179 0
154 174 0
157 175 0
151 168 0
157 175 0
158 178 0
160 181 0
157 174 0
160 181 0
154 173 0
155 173 0
156 176 0
161 179 0
155 172 0
160 179 0
162 181 0
160 178 0
160 178 0
163 182 0
158 178 0
159 178 0
164 183 0
157 176 0
163 182 0
166 184 0
162 181 0
163 180 0
157 175 0
160 178 0
159 178 0
161 181 0
164 182 0
163 182 0
161 180 0
158 177 0
164 183 0
162 181 0
162 181 0
167 187 0
166 186 0
169 189 0
163 183 0
165 183 0
167 187 0
162 180 0
168 187 0
161 179 0
168 189 0
161 181 0
164 185 0
167 189 0
166 186 0
164 186 0
163 183 0
165 185 0
167 187 0
166 186 0
168 186 0
165 185 0
170 190 0
164 184 0
165 185 0
167 190 0
168 188 0
165 186 0
166 187 0
167 188 0
168 190 0
167 187 0
168 189 0
165 185 0
165 187 0
167 189 0
167 189 0
167 188 0
170 190 0
170 189 0
170 191 0
170 192 0
168 189 0
168 188 0
169 193 0
168 189 0
169 191 0
170 192 0
167 188 0
167 187 0
168 191 0
168 189 0
167 188 0
170 193 0
166 186 0
171 192 0
172 193 0
170 192 0
169 190 0
169 191 0
170 192 0
170 192 0
171 192 0
169 192 0
172 192 0
171 193 0
187 208 130
181 203 102
191 211 147
185 206 133
183 204 111
181 203 105
187 207 133
186 207 133
182 203 117
182 203 108
178 199 102
178 200 105
174 197 95
173 196 72
174 196 76
174 198 76
174 198 84
174 197 84
172 194 67
173 196 67
176 199 84
175 198 92
169 193 51
173 197 80
171 195 57
174 198 80
172 196 80
172 196 67
169 192 51
171 195 57
171 194 57
169 194 92
173 197 80
166 190 72
172 196 76
174 197 84
171 195 72
168 191 72
173 197 80
171 194 92
169 193 95
172 196 67
169 193 76
171 194 62
170 194 84
173 197 67
172 196 99
167 191 62
172 194 76
170 194 80
172 195 72
170 194 84
172 195 84
173 197 105
177 199 102
172 196 99
171 193 105
171 194 105
169 193 95
169 192 95
168 192 117
173 196 92
169 193 102
168 193 99
173 195 125
172 195 120
161 185 108
173 196 92
166 189 108
165 188 95
164 187 108
174 197 120
167 191 80
164 188 80
164 188 84
163 186 95
162 185 92
165 189 102
165 188 99
171 195 95
162 184 105
167 190 94
172 195 114
157 180 105
160 184 95
154 177 90
168 190 99
166 189 86
167 191 80
168 191 114
154 176 92
165 188 80
162 185 102
151 174 76
158 181 95
164 185 95
156 178 92
155 177 99
151 173 102
159 181 122
154 176 88
153 175 72
159 181 105
163 185 95
154 177 88
156 177 111
156 177 99
143 164 72
156 177 117
145 165 95
138 158 88
145 165 102
145 165 92
146 167 76
143 163 88
146 165 92
146 165 102
139 159 92
146 165 99
128 147 72
135 154 88
128 147 67
136 154 95
120 138 51
109 129 70
119 139 99
99 122 88
90 113 108
90 113 103
99 124 124
103 127 126
97 120 111
92 117 103
81 108 116
102 125 131
99 123 121
95 120 117
95 120 104
109 132 115
102 124 107
99 121 118
101 124 110
109 130 114
111 131 115
101 120 103
102 123 97
104 122 82
105 125 110
103 125 113
104 126 110
103 124 112
96 118 107
98 119 102
93 115 99
88 112 99
84 108 97
77 104 106
76 102 92
73 101 103
72 100 95
76 102 95
72 99 97
68 97 80
67 95 94
59 89 90
56 88 103
59 90 92
66 95 86
54 87 88
56 88 100
55 87 111
53 84 78
55 88 95
54 87 97
56 88 92
55 87 97
55 87 94
54 86 105
56 88 95
54 85 90
55 87 102
54 87 84
56 89 99
56 89 102
56 88 97
56 88 102
56 88 111
58 90 110
54 86 92
54 86 84
55 88 97
56 89 105
55 87 102
55 88 99
53 84 80
55 86 99
57 89 103
55 88 103
57 89 103
54 86 99
53 84 88
55 87 100
51 82 78
54 86 99
51 82 78
63 90 72
70 93 67
79 100 54
89 107 44
80 97 36
84 100 31
105 120 0
96 110 0
101 113 0
99 111 0
101 115 0
115 131 0
100 114 0
112 128 0
109 126 0
112 129 0
116 132 0
114 130 0
123 140 0
111 128 0
117 134 0
114 130 0
121 137 0
118 136 0
116 133 0
126 140 0
139 156 0
130 149 0
117 133 0
115 130 0
129 146 0
124 141 0
117 134 0
125 140 0
124 142 0
132 150 0
131 150 0
133 151 0
123 142 0
135 153 0
131 147 0
129 147 0
132 150 0
134 151 0
132 150 0
135 153 0
143 160 0
143 161 0
132 151 0
136 155 0
147 164 0
143 163 0
142 159 0
144 159 0
136 153 0
142 162 0
149 168 0
133 152 0
141 158 0
152 171 0
146 164 0
154 174 0
140 158 0
145 163 0
145 164 0
143 161 0
146 165 0
148 166 0
157 176 0
147 164 0
150 169 0
152 173 0
147 164 0
151 169 0
150 169 0
154 172 0
152 170 0
150 167 0
157 176 0
155 174 0
156 174 0
159 178 0
149 166 0
154 172 0
155 173 0
161 179 0
159 179 0
149 168 0
150 169 0
147 167 0
155 175 0
149 167 0
161 180 0
159 179 0
150 167 0
156 174 0
155 172 0
156 174 0
157 176 0
159 178 0
161 180 0
158 178 0
153 171 0
159 177 0
160 177 0
160 179 0
157 177 0
159 178 0
162 181 0
158 177 0
158 176 0
160 178 0
164 182 0
157 174 0
162 180 0
164 184 0
154 170 0
166 184 0
164 183 0
160 179 0
165 186 0
164 183 0
162 183 0
164 184 0
166 186 0
164 182 0
165 184 0
164 183 0
163 182 0
167 187 0
165 185 0
164 182 0
163 181 0
162 182 0
166 185 0
168 188 0
162 184 0
164 184 0
162 184 0
164 184 0
165 184 0
165 185 0
170 190 0
165 185 0
167 187 0
171 190 0
169 189 0
168 187 0
167 187 0
164 183 0
167 189 0
165 184 0
165 185 0
163 185 0
169 189 0
167 188 0
166 188 0
167 186 0
168 189 0
167 189 0
167 188 0
170 190 0
169 190 0
171 191 0
168 188 0
166 187 0
167 188 0
168 190 0
169 189 0
168 188 0
173 194 0
169 189 0
168 190 0
165 186 0
167 188 0
168 189 0
164 184 0
169 191 0
167 189 0
169 188 0
172 192 0
171 191 0
169 191 0
167 188 0
167 188 0
174 195 0
169 190 0
171 192 0
170 192 0
167 189 0
168 190 0
169 190 0
170 191 0
170 192 0
170 193 0
189 209 135
183 205 117
187 207 128
189 209 137
188 208 133
187 208 135
182 204 102
184 205 120
174 197 76
182 204 108
172 195 84
176 199 102
176 199 76
174 198 67
171 195 57
177 201 88
173 196 76
168 193 67
175 198 76
173 197 62
175 197 80
176 198 92
171 194 51
170 193 51
176 199 84
177 201 99
173 196 76
173 197 92
170 194 51
170 194 57
171 195 44
171 195 76
170 193 57
171 196 80
171 195 76
169 193 76
171 194 72
167 191 57
174 198 92
173 196 67
170 194 51
173 197 95
172 195 80
174 197 92
170 193 84
164 188 72
173 196 88
171 194 76
168 192 84
168 191 57
172 196 76
174 198 114
171 195 88
171 194 62
172 195 88
173 196 122
170 194 108
167 191 92
171 195 95
169 192 102
171 194 84
169 193 88
173 196 102
167 190 84
173 197 108
165 189 114
160 184 88
168 191 80
169 192 95
166 190 80
166 190 105
167 191 108
171 194 108
166 191 95
168 192 99
168 191 92
166 189 80
163 187 95
173 197 108
169 192 117
166 188 102
166 187 76
159 184 95
163 186 102
163 187 99
161 184 84
162 186 84
165 186 95
164 186 100
164 186 94
161 183 92
165 188 120
159 182 92
161 184 72
160 182 102
159 181 88
162 184 108
156 178 84
158 180 99
166 187 99
154 176 102
161 183 99
152 174 99
158 180 76
155 177 80
152 174 105
159 180 108
156 178 88
152 173 105
158 180 102
152 173 88
163 183 102
141 160 92
145 166 88
145 165 102
143 162 114
147 167 99
145 165 92
136 156 88
145 165 92
141 160 88
132 151 72
138 156 92
123 142 72
130 149 82
121 139 90
105 124 72
94 115 81
97 121 118
91 115 115
82 106 99
99 123 113
90 114 105
88 112 104
77 105 105
93 117 105
91 116 109
90 116 107
97 120 111
98 122 107
98 120 110
105 126 114
105 127 124
109 128 98
112 132 105
92 114 102
103 125 105
92 112 107
111 131 88
110 128 97
110 130 100
100 123 100
95 118 103
95 115 90
84 108 96
87 112 90
79 104 90
85 109 90
80 106 78
80 106 92
72 97 88
75 102 99
70 98 84
65 93 72
56 87 92
56 87 85
59 89 94
59 91 111
57 88 85
55 88 92
53 85 88
52 84 94
56 89 90
52 84 75
54 85 88
53 84 92
57 90 107
56 89 95
54 85 97
56 88 99
54 87 90
54 86 80
56 88 102
56 89 99
55 87 97
53 85 88
55 86 102
56 88 103
56 88 90
55 87 99
55 87 94
56 89 102
55 86 95
52 82 92
55 87 100
53 85 82
53 85 86
54 86 92
54 86 84
51 82 84
56 87 80
56 87 90
58 87 84
68 93 78
69 91 57
74 93 54
87 106 44
80 98 40
100 116 0
85 101 18
94 108 0
112 128 0
98 114 0
102 117 0
103 118 0
113 128 0
115 132 0
121 137 0
115 130 0
109 125 0
112 128 0
116 133 0
122 137 0
115 134 0
125 140 0
115 131 0
118 134 0
125 142 0
127 143 0
118 136 0
128 147 0
123 139 0
118 135 0
123 140 0
134 152 0
124 141 0
126 144 0
122 140 0
133 150 0
132 152 0
139 158 0
132 151 0
125 143 0
137 154 0
137 156 0
132 149 0
138 155 0
128 145 0
136 154 0
134 151 0
136 153 0
145 162 0
137 155 0
149 165 0
135 153 0
130 148 0
140 158 0
141 160 0
140 159 0
151 168 0
141 160 0
145 163 0
141 159 0
145 164 0
143 162 0
146 164 0
150 170 0
155 174 0
149 166 0
151 172 0
143 162 0
145 162 0
146 165 0
149 166 0
154 170 0
150 169 0
149 169 0
146 162 0
149 166 0
145 163 0
146 165 0
150 168 0
157 176 0
147 166 0
143 161 0
153 171 0
156 175 0
152 170 0
154 172 0
148 166 0
157 178 0
154 172 0
159 178 0
157 176 0
159 179 0
151 170 0
156 175 0
150 167 0
156 174 0
151 169 0
151 168 0
158 176 0
153 170 0
165 186 0
161 181 0
151 168 0
159 178 0
161 179 0
160 179 0
160 179 0
154 171 0
159 178 0
158 177 0
157 176 0
162 179 0
160 177 0
158 178 0
160 178 0
157 174 0
161 179 0
160 178 0
163 181 0
158 177 0
166 185 0
162 182 0
156 177 0
166 187 0
161 180 0
164 183 0
167 189 0
164 184 0
162 181 0
168 185 0
166 185 0
164 183 0
166 184 0
165 184 0
166 185 0
161 181 0
167 189 0
168 189 0
164 183 0
166 186 0
164 185 0
166 188 0
163 185 0
160 180 0
166 185 0
161 181 0
162 182 0
164 184 0
167 187 0
162 182 0
165 186 0
168 189 0
169 189 0
167 188 0
162 181 0
168 188 0
165 183 0
159 180 0
165 187 0
169 190 0
170 189 0
168 189 0
170 191 0
166 186 0
167 190 0
166 187 0
172 192 0
168 190 0
169 189 0
167 188 0
169 190 0
169 190 0
166 187 0
168 188 0
169 192 0
168 189 0
171 191 0
169 192 0
168 190 0
169 190 0
165 186 0
168 189 0
167 188 0
165 186 0
170 191 0
169 190 0
168 190 0
170 193 0
170 192 0
170 192 0
171 193 0
170 190 0
169 190 0
171 194 0
169 188 0
170 192 0
167 189 0
183 205 114
187 208 122
188 208 133
189 209 147
186 206 125
181 202 99
184 205 117
176 197 88
178 199 111
187 207 128
179 201 105
179 201 95
178 200 95
175 198 76
174 197 51
170 193 67
174 197 76
174 197 99
174 196 80
172 196 57
176 198 92
170 194 44
172 195 84
173 196 72
169 192 57
173 197 67
173 196 67
168 192 57
168 192 44
171 194 67
169 192 72
173 196 62
171 195 80
174 197 92
169 194 62
169 193 92
170 194 72
173 196 76
173 197 99
172 197 99
172 196 102
173 197 95
168 191 67
169 192 80
175 199 95
174 198 105
173 196 99
168 193 92
167 190 72
174 197 80
166 189 62
172 195 84
174 197 80
172 195 102
173 196 95
165 189 102
171 195 88
173 195 108
174 197 99
171 195 88
174 197 88
171 195 117
171 195 92
176 200 105
170 193 99
172 195 76
173 197 120
169 193 95
174 198 128
174 197 105
170 192 111
172 196 122
171 194 105
167 190 88
166 190 125
168 192 111
167 190 102
164 187 92
169 193 84
165 187 102
161 185 99
168 191 76
160 183 90
169 191 114
162 185 95
165 187 111
159 182 95
165 188 88
164 188 88
165 188 97
165 187 111
155 179 107
158 180 92
163 186 94
160 183 117
157 180 102
162 185 92
163 186 76
159 181 111
159 182 84
164 185 95
159 181 95
158 179 117
150 172 76
156 178 99
157 180 114
155 176 105
151 172 102
152 173 108
155 176 105
150 170 95
152 172 111
143 163 92
150 170 95
151 170 88
140 159 62
147 167 84
137 157 72
134 154 88
144 163 99
139 159 80
133 151 76
133 150 80
136 154 80
123 141 76
123 139 84
122 140 99
110 127 80
94 115 97
85 108 94
91 116 105
91 114 105
99 122 111
89 114 107
108 129 118
91 115 108
111 132 125
95 121 117
94 118 110
96 118 95
91 115 95
91 113 99
113 134 99
113 133 111
117 137 108
125 145 97
112 130 86
114 133 97
105 123 86
118 139 94
114 134 94
109 126 82
89 112 92
116 136 84
88 114 108
81 106 95
81 105 80
81 106 86
81 106 92
77 102 80
76 103 92
70 97 82
68 95 84
66 94 90
62 90 70
57 89 94
53 85 90
58 88 84
54 86 94
53 85 84
56 89 99
55 87 97
53 85 86
55 87 95
56 88 103
52 83 88
56 89 102
52 84 80
56 88 100
52 84 90
55 87 100
53 85 88
53 85 83
53 85 95
54 86 88
52 83 94
54 86 86
52 84 84
57 89 107
54 87 92
54 86 90
52 83 74
52 83 82
54 85 78
56 89 100
53 85 86
53 84 78
50 80 86
53 83 84
58 86 76
60 84 57
66 89 47
70 91 54
75 92 36
78 96 44
98 114 31
68 85 31
96 111 18
96 110 0
100 114 0
94 108 0
99 114 0
99 115 0
103 118 0
104 118 0
112 129 0
106 123 0
117 134 0
122 141 0
116 132 0
106 121 0
113 129 0
121 138 0
109 124 0
112 129 0
118 136 0
131 147 0
101 118 0
128 143 0
137 154 0
137 155 0
134 152 0
113 131 0
119 137 0
123 141 0
129 146 0
129 146 0
125 141 0
126 144 0
136 152 0
121 138 0
133 151 0
133 152 0
142 160 0
136 155 0
130 149 0
135 153 0
135 153 0
134 152 0
133 151 0
128 146 0
136 154 0
145 163 0
146 162 0
135 153 0
149 168 0
142 159 0
140 159 0
143 161 0
143 163 0
140 158 0
138 158 0
143 160 0
139 160 0
150 170 0
139 156 0
150 171 0
146 164 0
148 169 0
151 170 0
147 164 0
150 169 0
150 168 0
140 159 0
145 164 0
149 166 0
149 168 0
152 170 0
150 171 0
156 174 0
145 163 0
155 174 0
151 168 0
143 163 0
156 174 0
154 174 0
155 172 0
150 167 0
155 174 0
155 174 0
162 181 0
152 171 0
152 171 0
159 179 0
153 173 0
152 171 0
154 172 0
155 175 0
156 174 0
157 175 0
162 181 0
155 174 0
157 174 0
158 175 0
159 177 0
159 178 0
156 175 0
162 184 0
162 181 0
163 181 0
166 187 0
161 180 0
158 177 0
158 177 0
158 178 0
158 177 0
161 182 0
160 178 0
160 180 0
161 181 0
161 180 0
159 179 0
160 178 0
168 187 0
160 178 0
162 182 0
164 184 0
160 179 0
165 184 0
167 186 0
162 180 0
164 183 0
155 173 0
166 187 0
164 185 0
162 182 0
163 182 0
160 181 0
164 185 0
163 182 0
169 190 0
167 187 0
161 179 0
167 187 0
166 186 0
166 186 0
163 183 0
163 182 0
167 186 0
165 186 0
167 185 0
168 190 0
166 185 0
169 191 0
164 185 0
168 188 0
169 189 0
169 187 0
168 188 0
168 189 0
169 188 0
165 187 0
169 189 0
169 191 0
167 188 0
165 186 0
169 188 0
167 189 0
168 188 0
169 190 0
170 190 0
169 188 0
168 190 0
171 191 0
169 192 0
167 188 0
168 191 0
172 194 0
168 190 0
167 188 0
171 192 0
172 194 0
169 190 0
169 190 0
169 189 0
169 190 0
167 189 0
168 189 0
172 192 0
171 191 0
168 190 0
169 190 0
170 191 0
169 190 0
167 190 0
170 192 0
173 195 0
168 189 0
168 191 0
170 193 0
184 205 117
185 206 135
186 207 122
182 203 108
181 203 102
181 203 99
185 206 120
180 202 95
181 203 105
178 200 84
174 196 80
177 199 99
176 198 72
173 196 72
175 198 72
175 198 80
172 196 62
173 196 80
170 194 67
171 195 44
169 192 67
173 197 76
174 197 72
174 197 72
172 195 88
179 202 102
168 192 84
173 196 105
175 198 62
168 192 67
171 194 67
170 193 72
174 198 84
165 189 76
170 193 80
164 188 62
171 194 72
175 198 88
172 196 92
172 195 80
170 195 80
173 197 92
175 197 102
168 192 80
169 193 76
173 196 99
171 195 99
169 192 80
175 198 111
171 194 92
171 194 92
173 197 111
170 194 92
169 192 84
166 190 88
170 194 105
172 195 80
166 189 76
164 187 88
173 196 92
166 189 105
166 188 84
169 192 88
171 195 105
167 191 95
172 195 80
165 190 92
171 194 105
165 189 80
167 191 99
166 190 114
166 190 62
167 190 84
166 190 105
174 197 102
170 193 105
167 190 88
169 192 105
165 187 88
162 184 108
161 185 84
167 189 88
156 179 99
167 191 95
161 183 80
166 190 108
164 187 102
160 184 80
166 190 80
165 188 115
163 186 120
163 186 95
165 187 95
160 184 100
163 186 99
162 184 111
167 188 105
164 186 99
157 178 99
152 174 90
156 178 82
162 184 111
157 180 80
163 186 92
164 186 102
154 176 88
151 172 80
158 179 114
150 170 108
143 164 76
149 170 88
144 164 95
150 170 102
149 169 92
148 167 122
143 163 88
147 168 84
149 169 111
137 157 84
142 162 108
147 167 88
131 149 84
140 159 62
131 149 88
129 147 72
128 145 67
124 140 72
119 136 94
102 119 90
111 129 108
95 116 100
101 123 110
90 114 99
91 115 86
87 112 113
100 123 110
102 126 105
99 122 112
97 120 114
101 122 102
97 120 115
96 121 113
114 134 92
113 131 107
106 126 90
120 137 94
106 124 92
125 141 88
114 133 84
100 120 78
123 142 76
114 133 82
99 118 88
85 106 86
93 114 80
90 113 84
95 118 84
87 109 74
89 112 86
96 116 72
65 90 60
73 98 67
80 105 78
69 95 67
70 96 90
56 85 67
58 87 82
54 84 80
59 89 84
53 84 86
52 83 76
50 80 81
53 85 90
52 83 65
52 83 78
51 81 72
54 85 80
53 85 92
54 86 87
52 84 74
54 86 90
53 84 92
53 84 92
53 85 94
52 83 84
53 85 102
54 86 80
53 84 88
53 84 92
53 84 94
54 85 94
54 86 102
54 85 94
52 82 82
52 83 78
62 91 88
65 89 65
57 82 65
75 97 74
63 84 62
89 108 54
93 111 36
80 94 18
82 98 18
80 94 25
100 116 0
91 105 0
89 104 0
104 119 0
103 118 0
105 119 0
115 130 0
101 118 0
89 105 0
117 135 0
111 126 0
113 129 0
107 123 0
107 121 0
115 132 0
118 133 0
121 135 0
116 132 0
129 145 0
123 140 0
121 138 0
110 126 0
116 133 0
134 154 0
122 140 0
128 145 0
131 149 0
118 135 0
125 144 0
122 139 0
128 146 0
128 146 0
140 157 0
129 145 0
125 143 0
131 149 0
132 151 0
137 155 0
139 157 0
129 148 0
134 154 0
133 151 0
137 156 0
134 154 0
134 151 0
143 161 0
131 148 0
143 162 0
140 160 0
151 171 0
136 154 0
147 166 0
148 166 0
133 151 0
152 170 0
147 165 0
140 157 0
140 159 0
144 163 0
147 165 0
145 164 0
149 170 0
146 165 0
144 162 0
147 166 0
152 171 0
151 172 0
147 166 0
153 172 0
155 171 0
148 170 0
153 172 0
146 165 0
157 177 0
153 170 0
152 171 0
150 170 0
149 169 0
151 170 0
151 168 0
158 177 0
155 174 0
157 177 0
156 173 0
149 169 0
155 174 0
152 171 0
151 170 0
152 173 0
153 173 0
155 174 0
150 167 0
148 166 0
162 179 0
157 175 0
149 166 0
157 176 0
156 174 0
152 172 0
159 179 0
153 175 0
159 177 0
154 173 0
164 183 0
157 176 0
155 174 0
157 176 0
164 182 0
159 178 0
158 177 0
157 176 0
162 182 0
166 186 0
159 178 0
164 184 0
163 180 0
162 181 0
166 187 0
166 188 0
158 179 0
156 176 0
163 184 0
163 181 0
158 177 0
159 178 0
163 183 0
160 179 0
163 184 0
166 184 0
164 184 0
166 186 0
162 182 0
166 188 0
162 180 0
166 186 0
160 180 0
162 183 0
164 185 0
170 190 0
164 184 0
170 191 0
167 186 0
163 184 0
164 183 0
165 184 0
167 186 0
164 186 0
163 186 0
167 188 0
171 192 0
166 187 0
166 188 0
169 190 0
165 185 0
166 188 0
167 188 0
166 187 0
168 187 0
168 189 0
167 189 0
168 189 0
166 188 0
171 192 0
168 188 0
171 190 0
168 187 0
166 188 0
166 188 0
169 190 0
166 185 0
169 191 0
167 189 0
167 189 0
167 188 0
169 189 0
168 190 0
168 188 0
170 192 0
171 192 0
169 191 0
170 191 0
168 188 0
172 195 0
170 191 0
170 192 0
167 190 0
170 192 0
170 194 0
171 193 0
168 191 0
171 193 0
167 190 0
169 193 0
173 195 0
173 196 0
184 205 111
184 205 114
185 205 130
182 203 117
184 204 122
185 206 120
182 203 108
179 201 92
177 199 88
180 202 95
177 199 88
174 198 72
176 199 80
169 192 57
172 195 76
173 197 88
179 201 88
175 198 67
171 194 76
171 195 76
169 192 51
174 197 80
171 196 72
169 192 44
169 193 51
171 195 72
171 194 84
172 195 57
172 195 51
173 195 95
171 195 51
171 194 84
167 190 62
170 193 67
171 195 76
168 192 57
177 200 84
173 197 62
169 193 72
177 201 105
170 193 67
169 193 76
170 194 88
172 195 62
172 195 84
169 192 88
165 188 84
163 187 84
171 195 114
176 199 99
167 190 80
167 190 95
173 197 114
173 197 80
172 196 88
172 196 102
171 195 95
170 193 95
172 196 99
170 194 99
168 193 111
171 194 99
170 193 105
172 195 99
171 194 99
175 197 95
172 196 99
169 192 84
169 192 102
164 188 95
170 193 111
166 188 92
169 193 102
163 186 84
168 191 95
158 182 99
162 185 88
161 184 80
169 191 80
167 191 95
168 191 105
164 187 105
166 189 100
161 183 100
167 191 120
159 183 95
163 186 102
167 190 114
161 184 84
159 181 92
163 185 92
163 185 72
154 176 99
162 184 105
159 182 88
159 181 105
155 177 90
155 178 105
161 184 105
154 176 97
156 178 105
161 184 102
158 179 102
151 173 105
157 178 105
157 179 92
156 178 92
160 181 114
153 173 88
160 180 108
156 177 108
159 180 88
153 173 105
145 166 84
145 165 92
133 151 88
137 158 80
144 165 92
134 154 95
149 169 105
138 157 88
143 162 102
128 147 76
128 146 67
116 135 67
123 141 67
108 125 57
115 131 84
129 146 103
103 122 70
99 118 84
98 119 86
99 121 100
104 126 112
101 124 106
96 120 108
81 107 95
89 114 97
89 114 115
92 115 100
97 120 95
106 127 108
115 134 99
121 138 88
109 130 88
111 126 92
124 144 90
121 141 60
118 136 78
122 139 74
117 135 74
104 124 70
114 133 67
108 127 86
100 121 76
90 108 65
101 122 65
93 115 65
85 107 51
93 115 65
94 111 44
102 121 51
86 105 62
85 106 62
74 96 51
70 92 62
71 95 62
51 79 72
61 87 74
53 82 72
57 85 72
50 80 82
51 82 65
53 84 82
52 83 72
54 85 92
55 87 86
55 87 95
52 83 92
53 84 88
52 83 86
52 83 90
51 81 78
50 80 70
52 83 72
52 84 90
51 81 88
53 85 76
51 81 72
57 85 78
58 84 70
61 87 80
64 90 80
77 100 78
65 87 62
71 91 47
79 98 57
76 91 31
85 101 36
87 104 31
96 112 0
93 106 0
99 112 0
96 110 0
75 88 0
92 106 0
93 107 0
102 118 0
102 118 0
102 118 0
97 113 0
109 126 0
102 120 0
85 102 0
116 133 0
120 138 0
120 137 0
116 133 0
125 142 0
115 132 0
114 133 0
115 133 0
119 135 0
114 132 0
113 130 0
128 146 0
121 140 0
117 133 0
128 146 0
137 154 0
115 131 0
124 142 0
120 138 0
124 142 0
130 147 0
127 146 0
123 140 0
129 148 0
134 151 0
135 153 0
139 158 0
135 153 0
136 155 0
131 150 0
126 144 0
137 156 0
136 156 0
136 157 0
136 155 0
142 160 0
137 156 0
145 163 0
143 163 0
139 157 0
144 164 0
147 167 0
134 154 0
146 164 0
145 163 0
137 155 0
134 154 0
149 168 0
146 165 0
140 157 0
138 157 0
146 165 0
146 165 0
151 169 0
144 163 0
151 170 0
153 173 0
152 170 0
147 166 0
151 169 0
146 165 0
152 170 0
152 171 0
141 160 0
150 170 0
145 164 0
146 165 0
148 166 0
155 174 0
152 173 0
151 169 0
158 177 0
144 161 0
150 171 0
158 177 0
162 180 0
155 173 0
156 175 0
155 174 0
153 173 0
154 173 0
157 175 0
154 174 0
158 176 0
154 173 0
161 180 0
162 180 0
161 181 0
154 173 0
162 182 0
159 179 0
159 179 0
161 180 0
161 182 0
161 182 0
154 171 0
162 181 0
168 188 0
161 181 0
164 181 0
161 180 0
160 182 0
159 177 0
157 176 0
162 180 0
161 181 0
160 180 0
164 184 0
158 178 0
160 180 0
168 188 0
161 180 0
161 180 0
169 190 0
163 183 0
162 183 0
165 184 0
157 178 0
167 188 0
165 182 0
165 185 0
165 184 0
161 181 0
166 186 0
163 181 0
161 180 0
163 184 0
163 184 0
169 190 0
167 187 0
162 182 0
165 186 0
165 185 0
163 184 0
167 190 0
164 184 0
165 185 0
162 181 0
166 187 0
167 189 0
165 187 0
166 186 0
168 187 0
168 189 0
168 189 0
165 186 0
168 187 0
167 188 0
165 184 0
169 190 0
171 190 0
168 188 0
169 190 0
164 186 0
166 186 0
168 187 0
172 192 0
170 189 0
169 191 0
168 190 0
168 188 0
169 189 0
168 189 0
170 192 0
168 187 0
170 192 0
172 192 0
170 192 0
169 191 0
171 191 0
161 183 0
170 193 0
168 188 0
170 190 0
168 188 0
166 188 0
167 191 0
166 189 0
170 190 0
169 191 0
170 192 0
170 192 0
173 195 0
173 195 0
172 194 0
171 194 0
187 207 120
183 205 114
186 207 128
185 205 120
182 203 120
179 201 95
181 202 120
177 199 76
176 198 84
175 197 62
176 199 72
176 198 84
172 195 76
175 198 67
177 200 88
173 196 72
174 197 67
174 197 62
174 197 72
172 195 84
173 195 80
173 197 92
167 191 51
170 193 57
171 195 57
169 192 57
175 198 84
170 194 76
170 194 67
175 198 80
174 197 67
165 188 67
169 193 84
170 193 92
173 197 88
172 195 72
176 199 84
173 197 88
177 199 84
175 198 67
173 197 84
173 196 80
168 191 62
173 197 84
169 193 76
173 197 92
170 193 76
171 194 80
167 191 80
168 192 80
178 200 108
173 197 102
169 192 95
173 197 102
171 193 102
166 191 102
171 194 95
173 197 120
172 196 114
163 187 84
170 193 92
169 193 108
171 194 99
173 196 84
174 198 120
171 193 105
173 196 102
168 191 76
173 197 102
165 188 108
172 195 108
169 192 117
165 188 84
166 190 99
168 192 105
163 186 105
167 190 99
164 188 95
165 188 108
160 183 76
157 181 84
165 189 105
163 186 99
163 185 92
165 188 102
165 188 97
161 183 88
163 187 84
168 190 122
168 191 95
166 188 99
154 177 76
161 184 84
159 182 86
157 179 92
157 179 86
164 187 102
163 186 108
167 190 128
162 185 95
156 178 92
160 182 105
157 179 108
152 174 99
156 178 105
157 180 102
161 182 95
153 174 105
148 169 95
155 176 88
155 175 108
156 175 122
149 170 84
151 172 88
155 175 95
148 168 80
140 160 67
147 167 95
144 164 108
145 164 99
146 164 99
139 157 88
142 160 108
132 149 88
122 140 72
130 149 92
130 148 102
129 146 80
122 139 82
125 142 65
119 136 82
100 119 84
104 122 94
91 113 97
98 120 99
94 118 102
94 117 114
89 114 95
87 111 99
97 122 102
115 135 103
108 130 88
108 128 82
120 140 88
109 127 70
111 130 82
127 146 92
119 137 84
123 143 86
127 145 65
125 145 78
124 143 86
108 127 76
107 127 70
108 129 76
98 120 74
96 118 70
106 126 62
92 112 57
91 112 65
94 114 67
94 113 40
92 111 51
94 115 60
105 124 62
81 98 40
93 112 44
76 95 36
74 96 54
54 79 36
67 90 57
73 94 51
61 86 57
55 80 57
67 91 62
65 89 67
56 84 70
53 79 72
48 76 72
54 81 80
59 87 78
70 95 76
60 87 67
59 84 60
54 80 80
68 95 86
57 83 60
57 82 65
66 90 76
67 88 60
86 105 36
79 99 54
75 95 54
71 90 57
81 96 31
85 100 31
80 95 36
96 110 25
82 99 25
99 115 0
89 104 0
100 113 0
96 112 0
105 120 0
107 121 0
105 121 0
101 117 0
94 108 0
106 121 0
110 127 0
105 120 0
109 127 0
84 99 0
106 124 0
111 128 0
104 121 0
114 131 0
107 125 0
116 133 0
128 144 0
118 136 0
118 134 0
121 140 0
113 132 0
135 153 0
116 134 0
125 143 0
112 128 0
130 150 0
126 145 0
128 146 0
130 147 0
118 134 0
132 150 0
126 143 0
118 136 0
146 165 0
130 149 0
135 154 0
133 152 0
135 151 0
137 155 0
129 147 0
130 150 0
140 158 0
130 148 0
133 152 0
135 152 0
134 152 0
136 154 0
144 163 0
145 164 0
146 165 0
130 150 0
143 162 0
143 163 0
138 156 0
142 163 0
151 170 0
146 163 0
141 159 0
140 157 0
151 170 0
145 162 0
143 163 0
146 165 0
140 159 0
145 165 0
142 161 0
150 168 0
152 172 0
148 167 0
146 165 0
150 169 0
148 167 0
147 166 0
152 171 0
154 174 0
150 169 0
146 166 0
154 172 0
157 176 0
150 169 0
154 172 0
147 164 0
152 174 0
158 179 0
156 175 0
154 173 0
151 169 0
156 176 0
153 173 0
161 180 0
155 175 0
157 175 0
158 178 0
156 175 0
158 177 0
160 179 0
155 174 0
164 184 0
155 174 0
164 184 0
157 175 0
160 180 0
162 182 0
159 179 0
165 186 0
155 175 0
161 177 0
156 176 0
163 181 0
166 186 0
162 182 0
168 187 0
157 176 0
165 182 0
159 178 0
160 180 0
165 186 0
154 174 0
163 182 0
163 183 0
164 184 0
168 190 0
163 183 0
167 186 0
165 185 0
168 189 0
161 181 0
164 184 0
165 186 0
165 184 0
163 183 0
162 181 0
164 183 0
163 181 0
161 182 0
164 187 0
162 183 0
167 188 0
163 185 0
164 183 0
164 183 0
166 183 0
165 185 0
161 180 0
164 182 0
166 187 0
166 188 0
168 188 0
166 185 0
168 189 0
167 188 0
168 189 0
167 188 0
164 183 0
169 191 0
168 189 0
165 186 0
166 186 0
169 189 0
166 185 0
168 188 0
170 191 0
167 188 0
169 188 0
165 186 0
167 189 0
169 190 0
167 190 0
168 190 0
167 188 0
167 188 0
166 187 0
169 189 0
168 188 0
169 190 0
170 190 0
171 193 0
167 188 0
171 194 0
168 188 0
164 186 0
171 193 0
167 187 0
169 193 0
166 188 0
171 192 0
171 192 0
169 189 0
171 192 0
169 189 0
167 188 0
171 194 0
169 191 0
170 192 0
169 190 0
168 190 0
171 191 0
181 203 105
180 202 95
181 203 105
184 205 111
178 200 88
174 197 57
182 203 99
182 204 108
175 198 80
177 200 84
171 194 57
174 197 67
179 201 99
177 200 80
174 197 67
177 199 80
174 196 80
174 197 62
167 190 57
170 194 76
169 192 76
174 197 67
171 194 88
177 199 84
168 192 62
167 190 84
168 191 51
173 197 80
171 196 67
171 195 51
176 199 67
170 193 57
171 195 80
173 196 76
172 196 88
169 193 84
171 193 76
170 193 99
174 197 88
169 191 99
175 198 80
170 193 88
171 194 72
168 192 102
168 192 92
170 195 92
171 194 76
172 196 105
169 194 102
171 194 99
170 194 80
172 195 105
172 196 102
169 192 102
173 197 92
173 197 105
162 185 80
167 190 95
174 197 105
166 188 84
173 196 92
171 193 105
169 192 95
171 194 92
171 193 99
168 191 92
167 190 99
169 193 108
168 192 99
168 192 95
170 193 67
173 196 114
166 188 72
171 195 108
168 191 117
172 195 108
159 183 84
166 189 99
162 185 72
172 195 105
166 190 102
161 185 108
167 190 88
160 183 74
163 185 76
163 186 92
164 187 95
170 192 105
155 177 76
161 184 95
165 188 97
157 180 95
159 181 92
165 187 94
161 184 99
159 182 97
164 186 97
153 175 102
158 181 84
166 188 117
160 182 95
161 183 118
149 171 102
163 184 88
164 185 99
151 173 76
156 178 99
151 173 111
155 175 102
159 180 108
150 171 102
152 173 105
147 167 88
156 177 105
144 165 105
148 168 105
156 175 114
143 162 88
142 162 99
145 164 92
136 156 84
137 155 92
131 149 92
132 150 92
139 156 92
125 143 67
132 150 76
118 134 76
127 144 76
109 124 62
115 132 72
104 120 82
112 131 88
102 122 80
98 119 94
95 118 99
95 119 92
103 126 102
99 122 107
87 111 107
99 121 78
117 137 100
112 134 97
110 132 95
118 138 76
120 139 84
113 132 76
129 149 67
126 146 76
115 135 72
115 136 80
118 136 72
125 145 67
112 130 67
101 120 70
100 119 62
103 123 70
99 118 44
105 125 57
101 123 67
100 118 60
93 111 36
103 123 40
85 103 54
118 135 36
99 115 36
94 109 31
98 115 18
94 111 31
82 97 36
74 91 18
86 103 36
79 97 31
71 91 44
78 95 31
86 105 44
83 100 44
76 95 62
82 101 47
75 96 47
76 95 44
82 101 47
72 90 57
67 86 31
89 106 51
76 92 36
66 85 44
79 95 36
78 93 25
78 95 36
95 111 36
75 91 25
85 100 25
88 102 0
88 103 18
87 101 0
107 122 0
98 112 0
93 109 0
87 103 0
101 116 0
86 100 0
108 123 0
86 101 0
105 121 0
103 119 0
113 128 0
115 129 0
102 118 0
109 125 0
103 119 0
107 122 0
110 125 0
116 132 0
119 137 0
118 135 0
110 126 0
126 144 0
126 144 0
118 135 0
117 135 0
137 156 0
112 132 0
124 142 0
123 138 0
123 139 0
115 133 0
134 151 0
112 129 0
126 144 0
131 149 0
118 136 0
133 151 0
119 136 0
129 147 0
124 142 0
134 153 0
123 140 0
139 158 0
139 158 0
140 159 0
135 153 0
140 159 0
130 147 0
135 154 0
136 155 0
137 156 0
137 156 0
144 161 0
136 154 0
142 163 0
136 156 0
139 157 0
143 161 0
141 161 0
144 164 0
138 156 0
140 158 0
149 167 0
145 163 0
149 170 0
147 166 0
143 163 0
152 170 0
143 163 0
137 154 0
152 173 0
153 173 0
151 172 0
156 176 0
152 172 0
152 171 0
150 170 0
148 166 0
163 182 0
153 174 0
155 175 0
149 167 0
139 159 0
150 170 0
147 168 0
158 176 0
158 179 0
159 178 0
154 175 0
154 175 0
153 174 0
156 175 0
154 171 0
152 172 0
151 170 0
149 165 0
161 181 0
155 172 0
156 173 0
154 174 0
155 176 0
158 177 0
163 182 0
160 180 0
151 170 0
162 184 0
158 177 0
159 178 0
159 180 0
160 179 0
159 178 0
159 179 0
158 178 0
159 178 0
159 178 0
160 179 0
157 175 0
162 182 0
159 179 0
162 182 0
157 176 0
159 179 0
160 179 0
162 181 0
162 182 0
161 180 0
159 178 0
163 183 0
166 185 0
164 183 0
165 186 0
162 181 0
169 190 0
165 184 0
161 181 0
165 186 0
164 183 0
167 188 0
164 183 0
163 183 0
167 188 0
167 189 0
159 181 0
159 178 0
164 185 0
164 181 0
165 186 0
165 186 0
167 188 0
169 190 0
165 186 0
169 188 0
165 186 0
165 186 0
169 190 0
164 185 0
166 188 0
164 185 0
169 189 0
168 189 0
167 185 0
169 190 0
169 190 0
165 186 0
166 185 0
167 190 0
166 189 0
167 188 0
170 189 0
165 185 0
167 187 0
167 189 0
170 189 0
169 190 0
166 186 0
169 190 0
172 194 0
169 190 0
172 195 0
167 191 0
171 193 0
168 190 0
164 184 0
168 189 0
170 191 0
166 187 0
172 194 0
170 191 0
168 191 0
170 192 0
165 186 0
169 189 0
168 189 0
171 193 0
171 192 0
171 194 0
169 189 0
169 190 0
173 195 0
172 193 0
166 186 0
168 189 0
169 191 0
170 191 0
184 205 117
181 202 95
181 202 80
182 204 105
186 206 117
175 198 84
183 204 114
173 196 62
176 199 80
172 195 67
169 193 44
176 199 51
175 198 62
177 200 95
174 197 72
168 192 57
169 192 44
176 198 84
173 196 76
170 193 72
173 196 67
172 196 80
173 197 84
174 197 72
176 199 80
170 194 67
173 197 80
168 192 67
176 198 88
174 197 80
168 192 76
170 194 84
174 198 99
169 192 67
172 195 88
176 199 67
175 198 84
172 196 92
170 193 67
175 198 102
173 195 72
175 199 88
169 192 62
169 192 80
178 201 99
174 197 105
171 194 84
168 192 72
172 195 88
174 197 108
171 194 99
171 195 108
173 196 108
172 195 102
169 192 92
172 196 95
173 197 102
168 192 76
165 188 80
167 191 105
174 196 102
173 197 105
163 187 76
172 196 102
171 194 102
169 193 76
171 195 111
162 186 99
168 191 67
169 191 99
164 189 95
168 192 84
163 187 84
168 191 76
168 191 92
164 187 108
164 187 105
167 190 99
167 190 108
164 188 108
165 188 105
172 196 133
163 186 107
162 185 97
168 191 100
169 191 107
166 189 100
159 182 80
161 184 88
159 182 102
159 182 94
159 182 105
156 179 82
160 183 108
160 182 105
157 179 99
156 179 82
160 182 99
156 178 102
155 177 84
162 184 103
151 173 80
163 185 105
152 172 80
161 182 92
158 179 99
160 181 102
158 180 111
159 180 92
160 181 99
152 173 102
148 170 76
155 175 102
152 173 80
150 171 95
138 157 80
145 165 120
152 172 95
139 159 80
148 168 92
140 158 88
149 169 111
145 164 102
136 154 99
129 147 80
140 159 67
130 148 88
122 139 72
122 138 80
123 140 44
127 144 84
119 136 78
109 127 78
110 126 97
105 122 94
105 124 102
103 123 99
85 109 97
100 122 102
94 116 102
92 116 99
97 120 88
117 139 76
107 127 76
115 136 82
128 144 70
124 142 60
130 148 62
127 144 67
133 153 62
130 148 51
121 137 57
125 146 60
114 134 44
107 126 57
118 137 54
102 121 51
96 114 40
111 129 25
107 125 57
89 107 36
105 124 31
94 110 40
101 121 40
91 108 31
101 118 31
95 111 18
91 107 25
82 97 0
97 112 18
93 107 0
92 108 0
92 106 0
97 113 0
83 97 0
90 106 0
97 113 0
76 91 18
95 110 18
78 94 25
83 98 31
72 88 18
91 107 25
75 91 25
91 106 0
90 104 18
75 88 0
94 108 0
87 103 0
84 100 0
84 100 0
93 107 0
73 88 0
88 103 0
90 105 0
85 100 0
101 118 0
93 108 0
98 113 0
94 111 0
96 111 0
93 108 0
106 122 0
111 128 0
95 112 0
109 124 0
110 126 0
105 120 0
88 103 0
98 115 0
109 127 0
113 131 0
107 124 0
129 146 0
120 138 0
120 138 0
118 137 0
116 134 0
106 123 0
118 136 0
123 140 0
114 132 0
119 137 0
120 136 0
108 126 0
125 143 0
119 136 0
124 142 0
124 143 0
124 142 0
125 143 0
119 139 0
129 147 0
134 151 0
139 157 0
134 154 0
132 151 0
129 149 0
129 147 0
135 156 0
137 154 0
135 155 0
131 149 0
131 150 0
141 159 0
138 157 0
148 167 0
134 154 0
141 161 0
145 166 0
146 165 0
147 166 0
151 170 0
148 166 0
148 168 0
145 165 0
142 161 0
147 167 0
145 164 0
147 168 0
143 162 0
138 157 0
144 163 0
157 177 0
148 166 0
149 170 0
147 167 0
137 156 0
148 167 0
149 169 0
151 170 0
150 172 0
160 179 0
152 172 0
148 166 0
156 176 0
150 169 0
149 165 0
156 174 0
153 173 0
152 170 0
144 164 0
159 178 0
158 177 0
154 173 0
147 167 0
159 177 0
157 178 0
152 172 0
159 176 0
160 180 0
155 173 0
152 171 0
154 173 0
154 173 0
155 175 0
156 175 0
157 177 0
158 178 0
155 175 0
166 187 0
159 179 0
155 176 0
155 175 0
156 177 0
156 176 0
158 178 0
162 183 0
160 180 0
158 179 0
162 180 0
162 182 0
165 185 0
166 185 0
160 180 0
158 177 0
161 180 0
159 179 0
159 178 0
163 184 0
166 185 0
164 184 0
163 184 0
166 186 0
163 184 0
167 186 0
161 180 0
165 185 0
168 188 0
163 182 0
159 179 0
162 183 0
164 184 0
166 186 0
154 173 0
161 179 0
165 184 0
166 187 0
162 181 0
163 184 0
164 184 0
165 184 0
166 187 0
168 188 0
166 188 0
167 189 0
167 187 0
167 186 0
166 189 0
166 186 0
165 185 0
168 191 0
167 189 0
166 187 0
165 187 0
169 188 0
165 187 0
167 190 0
167 190 0
164 184 0
165 185 0
167 189 0
165 186 0
163 183 0
167 189 0
168 189 0
166 187 0
166 186 0
166 186 0
168 190 0
168 189 0
170 191 0
167 188 0
167 189 0
170 190 0
167 190 0
172 193 0
169 192 0
170 191 0
168 190 0
164 184 0
168 190 0
170 191 0
165 187 0
170 191 0
171 192 0
167 188 0
170 190 0
170 191 0
169 190 0
172 192 0
168 190 0
171 194 0
171 193 0
170 190 0
169 190 0
173 195 0
171 191 0
169 189 0
170 191 0
181 202 95
184 205 111
179 201 92
177 200 80
174 197 76
177 200 80
178 200 84
176 199 72
175 198 62
173 196 72
174 197 72
174 197 67
173 196 84
173 196 80
172 195 67
172 196 76
175 198 99
172 194 72
173 195 84
170 194 92
172 195 67
172 195 80
172 195 57
173 197 67
173 196 88
166 189 67
171 195 36
173 197 62
175 198 80
170 193 57
171 195 72
170 194 76
174 197 67
170 194 105
168 191 51
171 194 67
172 196 108
176 199 76
171 194 84
170 193 62
174 198 88
166 190 72
177 200 92
171 194 99
176 199 120
176 199 95
172 195 105
174 197 105
174 197 128
170 193 111
173 196 111
175 198 92
170 194 80
168 191 95
169 193 111
170 194 95
167 192 105
169 192 84
170 193 102
172 196 92
171 194 114
166 190 92
169 193 111
172 195 102
160 183 95
168 192 102
164 188 102
169 193 102
172 195 88
162 185 88
170 194 111
167 190 92
163 187 67
167 190 84
161 184 84
163 186 114
167 190 84
160 183 72
164 187 99
168 191 99
164 187 115
161 184 62
164 187 105
162 185 84
163 187 118
161 184 84
163 186 92
170 194 117
164 188 124
156 178 102
161 184 95
164 187 115
164 187 118
158 181 92
159 181 88
155 178 99
160 183 99
160 182 113
165 187 120
162 184 108
157 181 92
158 180 88
164 185 105
153 175 76
159 180 117
154 175 88
159 181 92
163 185 105
159 180 105
152 173 88
150 170 102
161 182 92
152 174 99
156 176 99
146 167 92
150 170 99
151 171 102
137 157 76
146 166 99
154 173 105
136 155 80
138 156 88
137 155 76
139 157 88
132 151 84
122 139 62
143 159 95
135 151 114
138 155 80
126 143 51
133 150 99
115 131 76
118 135 67
115 131 62
103 120 76
94 113 70
95 116 72
94 113 86
97 118 76
104 124 115
93 116 84
109 130 94
113 134 92
109 129 65
122 139 60
128 146 70
128 147 57
137 156 62
134 152 44
126 143 47
132 152 51
120 138 36
130 150 54
120 138 47
113 130 44
112 128 25
115 134 57
114 133 44
107 124 25
103 121 31
106 124 31
95 113 25
98 116 25
109 126 18
93 108 18
96 113 0
95 111 0
101 117 0
98 112 0
105 121 0
72 88 0
97 112 0
96 112 0
87 102 0
89 102 0
92 106 0
82 96 0
81 95 0
96 110 0
87 102 0
93 106 0
94 109 0
83 97 0
89 103 0
101 116 0
90 105 0
96 110 0
90 105 0
97 111 0
100 115 0
96 112 0
94 109 0
96 112 0
85 101 0
95 111 0
93 108 0
98 113 0
105 121 0
110 126 0
89 105 0
103 118 0
91 108 0
105 119 0
108 124 0
108 125 0
95 111 0
111 128 0
99 116 0
117 133 0
114 131 0
106 122 0
112 129 0
124 141 0
119 136 0
120 138 0
101 115 0
127 144 0
121 137 0
115 132 0
126 144 0
119 137 0
119 137 0
130 149 0
122 139 0
120 137 0
124 142 0
122 139 0
132 150 0
133 150 0
118 138 0
133 151 0
121 140 0
135 153 0
127 146 0
139 156 0
129 149 0
140 160 0
137 156 0
123 143 0
129 149 0
138 158 0
134 153 0
137 155 0
147 167 0
145 164 0
133 151 0
141 162 0
140 157 0
142 161 0
141 159 0
144 164 0
132 151 0
141 160 0
137 156 0
141 162 0
145 165 0
145 165 0
139 158 0
146 167 0
149 169 0
147 167 0
149 169 0
146 165 0
142 160 0
150 172 0
152 170 0
152 174 0
142 162 0
154 174 0
138 157 0
152 170 0
152 172 0
157 174 0
148 167 0
149 170 0
148 166 0
151 171 0
156 174 0
153 171 0
150 171 0
151 170 0
149 169 0
158 176 0
153 172 0
156 177 0
150 169 0
155 175 0
163 182 0
154 175 0
154 172 0
151 171 0
166 186 0
149 167 0
158 177 0
158 178 0
156 176 0
158 177 0
154 175 0
162 181 0
153 173 0
157 177 0
159 177 0
159 178 0
155 174 0
161 182 0
157 176 0
158 178 0
161 180 0
164 184 0
164 183 0
156 176 0
162 182 0
163 182 0
164 184 0
155 175 0
160 183 0
159 178 0
163 182 0
162 184 0
167 187 0
160 180 0
164 184 0
158 175 0
163 182 0
164 184 0
161 182 0
165 183 0
160 181 0
162 181 0
163 184 0
162 184 0
166 186 0
162 181 0
168 188 0
162 182 0
165 186 0
165 186 0
165 185 0
161 182 0
164 185 0
161 181 0
168 190 0
162 183 0
163 185 0
165 186 0
164 184 0
165 186 0
162 183 0
167 188 0
166 186 0
167 189 0
166 188 0
165 185 0
167 188 0
166 186 0
160 181 0
170 192 0
166 188 0
168 189 0
168 187 0
171 192 0
165 186 0
169 191 0
170 192 0
166 186 0
166 186 0
166 188 0
170 192 0
168 190 0
166 186 0
170 190 0
168 189 0
169 189 0
171 191 0
168 190 0
170 191 0
168 189 0
169 190 0
167 188 0
171 192 0
169 190 0
172 194 0
174 195 0
170 192 0
171 194 0
169 190 0
168 189 0
171 193 0
167 189 0
170 192 0
168 190 0
168 188 0
169 191 0
166 186 0
169 190 0
171 192 0
169 192 0
168 190 0
171 192 0
170 191 0
180 202 95
178 200 84
175 198 84
178 200 99
180 202 88
177 199 72
178 200 76
179 200 95
176 199 67
174 196 80
174 197 67
178 201 99
174 197 80
177 198 76
173 196 72
174 196 88
176 199 76
171 194 51
170 193 76
172 195 84
172 196 76
173 196 72
173 196 80
168 192 62
169 192 72
171 195 62
170 193 67
172 195 76
169 193 88
167 190 80
169 192 67
176 200 99
176 199 84
174 197 84
173 196 84
172 195 76
174 198 88
172 196 95
172 194 80
173 196 99
176 200 105
172 196 95
170 194 102
174 197 102
169 192 102
174 198 80
177 200 111
174 196 105
174 197 80
167 192 102
173 197 108
173 197 117
172 195 80
170 194 99
173 197 92
168 192 72
169 192 88
170 192 99
172 196 102
170 193 92
176 200 105
168 191 92
166 190 99
172 196 117
171 194 102
164 187 76
169 193 92
167 191 105
165 189 88
167 191 80
170 193 92
164 188 117
167 191 95
164 188 88
168 190 102
168 191 99
171 194 105
163 186 84
168 191 67
165 188 92
168 190 99
163 187 100
162 186 84
164 188 92
169 192 90
162 185 84
153 176 70
162 186 88
163 185 95
165 188 99
164 187 115
154 177 97
160 182 95
161 185 92
159 183 92
161 184 105
150 172 80
153 175 92
158 181 80
161 183 99
155 176 57
160 183 108
157 179 84
160 181 102
157 179 95
154 176 84
153 175 92
156 177 88
151 172 72
157 178 105
152 173 92
152 173 95
148 168 102
159 179 117
152 173 99
147 167 84
143 162 122
141 162 80
139 160 76
136 156 84
144 163 95
131 151 88
136 154 108
140 160 80
127 144 99
135 153 88
133 151 80
129 147 62
138 155 88
139 157 95
127 144 72
118 135 67
109 126 51
112 129 60
110 127 62
104 120 80
94 113 54
108 127 94
108 126 82
94 112 70
104 122 74
105 124 74
106 126 82
128 150 78
108 126 62
125 144 47
128 148 60
138 155 40
133 151 60
127 146 51
138 156 36
129 147 31
128 144 25
115 133 46
120 137 31
127 143 31
116 132 25
111 128 0
120 137 0
119 135 18
114 131 0
107 124 0
100 116 0
103 119 0
120 137 0
103 120 0
108 126 0
93 110 0
87 103 0
93 110 0
95 111 0
97 112 0
88 102 0
102 117 0
96 111 0
88 103 0
87 102 0
75 90 0
83 98 0
92 108 0
97 113 0
86 101 0
97 112 0
88 103 0
100 117 0
86 100 0
87 101 0
96 111 0
101 117 0
104 121 0
105 120 0
107 122 0
104 118 0
81 97 0
109 125 0
95 110 0
100 116 0
97 113 0
96 112 0
97 113 0
106 122 0
89 106 0
99 115 0
100 115 0
102 118 0
112 130 0
110 127 0
113 131 0
107 123 0
112 130 0
103 119 0
119 136 0
116 133 0
118 135 0
108 124 0
115 131 0
122 138 0
127 145 0
124 142 0
122 139 0
113 129 0
125 143 0
119 138 0
119 137 0
124 141 0
107 125 0
125 143 0
126 144 0
123 141 0
135 152 0
133 152 0
132 152 0
127 144 0
127 144 0
133 151 0
123 142 0
122 141 0
131 149 0
135 153 0
128 148 0
136 155 0
138 156 0
137 157 0
142 161 0
138 156 0
143 162 0
131 149 0
147 167 0
134 154 0
144 164 0
149 167 0
139 158 0
140 160 0
146 166 0
153 174 0
150 170 0
144 163 0
138 157 0
146 166 0
149 167 0
143 162 0
141 159 0
152 173 0
141 162 0
151 172 0
148 168 0
146 165 0
151 171 0
142 161 0
142 162 0
144 163 0
157 175 0
149 169 0
150 170 0
153 172 0
147 167 0
151 171 0
153 174 0
153 173 0
151 170 0
151 170 0
156 176 0
151 171 0
155 175 0
152 173 0
158 178 0
153 173 0
147 166 0
157 179 0
151 171 0
154 172 0
160 180 0
155 175 0
157 178 0
158 177 0
154 173 0
162 181 0
160 179 0
160 179 0
159 179 0
160 181 0
163 183 0
156 177 0
162 181 0
157 178 0
161 182 0
159 180 0
161 182 0
161 183 0
162 183 0
158 177 0
163 183 0
159 177 0
161 180 0
167 186 0
163 184 0
165 185 0
167 189 0
157 177 0
162 182 0
164 186 0
165 187 0
161 181 0
165 185 0
163 182 0
161 181 0
164 184 0
160 179 0
159 178 0
162 182 0
167 188 0
168 187 0
166 187 0
168 186 0
160 181 0
160 178 0
168 189 0
164 184 0
165 186 0
164 184 0
168 190 0
165 186 0
163 181 0
164 185 0
158 178 0
165 186 0
167 188 0
165 185 0
168 188 0
164 185 0
165 186 0
166 186 0
166 186 0
166 188 0
165 185 0
166 188 0
166 189 0
167 188 0
170 192 0
166 186 0
168 189 0
166 187 0
168 188 0
167 187 0
164 185 0
166 189 0
169 189 0
169 190 0
165 187 0
167 187 0
165 186 0
166 188 0
171 193 0
174 195 0
170 189 0
169 189 0
168 188 0
169 191 0
165 186 0
171 193 0
169 191 0
165 188 0
166 186 0
169 191 0
171 192 0
167 187 0
166 188 0
168 191 0
170 192 0
169 190 0
172 194 0
165 186 0
171 193 0
169 190 0
169 190 0
172 193 0
170 192 0
172 195 0
171 192 0
168 189 0
182 204 105
180 202 84
177 199 76
178 200 92
182 204 99
175 198 51
173 196 57
172 195 76
175 198 84
169 191 57
177 199 72
172 195 76
172 196 67
176 198 72
174 197 76
168 191 57
173 196 76
175 198 72
170 194 72
171 194 62
172 194 62
170 193 67
167 190 76
173 196 80
169 193 72
170 194 76
177 199 80
171 195 76
172 194 76
174 197 88
174 197 72
170 194 72
170 194 72
176 200 92
172 195 102
175 198 88
175 199 92
174 198 76
170 194 84
175 198 95
172 195 84
171 194 102
172 194 84
173 197 117
173 196 102
174 196 84
174 197 88
174 197 95
173 196 84
170 193 76
175 198 102
170 194 80
169 192 72
169 192 84
173 196 92
176 200 108
167 190 99
171 195 88
164 187 84
174 198 117
173 197 105
168 192 102
169 192 102
172 195 114
170 194 88
168 192 80
168 191 95
165 188 84
166 190 62
163 186 80
166 190 88
164 187 95
166 189 99
169 191 102
168 191 95
168 192 88
167 190 80
168 191 100
163 187 105
157 179 84
161 185 105
151 174 62
157 180 72
160 183 102
166 190 92
165 188 105
159 181 94
162 185 92
160 183 107
166 188 99
160 182 86
156 179 103
167 190 95
162 185 102
152 175 102
164 186 92
158 181 90
163 186 92
154 177 90
160 182 72
153 175 95
155 177 111
156 178 102
165 188 92
151 173 80
158 180 105
157 178 92
158 180 76
147 169 102
152 173 99
145 166 92
158 179 99
156 177 92
146 167 72
142 161 76
161 181 111
140 160 72
155 173 111
156 175 108
149 168 99
150 169 105
149 168 99
149 168 99
137 156 76
145 163 102
131 148 102
126 144 51
128 147 51
123 140 72
137 154 72
125 141 84
124 141 76
122 138 67
126 142 95
106 122 57
114 129 76
99 115 60
87 106 44
110 127 51
113 131 76
112 129 78
112 129 51
114 133 65
125 144 70
126 144 57
133 151 65
138 157 57
138 155 36
128 146 25
142 162 0
142 160 36
122 139 36
132 149 0
127 144 18
130 146 0
121 139 0
128 144 0
120 137 0
119 135 0
108 123 0
117 134 0
94 112 0
105 122 0
106 123 0
100 117 0
104 122 0
101 118 0
113 129 0
102 119 0
92 108 0
105 120 0
106 123 0
84 99 0
98 115 0
85 101 0
92 107 0
98 114 0
104 120 0
107 123 0
81 96 0
97 112 0
91 106 0
94 109 0
95 110 0
98 115 0
108 124 0
102 118 0
100 116 0
98 114 0
99 115 0
97 112 0
95 110 0
115 131 0
119 136 0
99 115 0
106 123 0
97 112 0
111 127 0
99 115 0
112 129 0
96 112 0
99 116 0
118 135 0
115 130 0
108 124 0
114 132 0
114 131 0
107 124 0
111 127 0
104 121 0
121 140 0
101 118 0
116 133 0
118 135 0
118 135 0
120 138 0
124 141 0
112 129 0
111 130 0
122 139 0
128 147 0
125 144 0
125 144 0
129 146 0
127 145 0
132 152 0
131 148 0
130 148 0
126 144 0
133 150 0
129 148 0
126 145 0
128 146 0
126 144 0
137 154 0
140 159 0
129 149 0
144 162 0
133 153 0
138 156 0
132 151 0
132 152 0
138 158 0
144 162 0
145 165 0
136 154 0
140 159 0
138 158 0
141 160 0
132 151 0
138 158 0
143 162 0
145 165 0
131 152 0
151 170 0
143 162 0
148 168 0
140 159 0
140 159 0
141 161 0
151 170 0
147 166 0
150 171 0
149 168 0
146 165 0
148 169 0
154 174 0
150 169 0
153 175 0
150 170 0
143 160 0
147 168 0
153 174 0
150 171 0
154 174 0
151 172 0
151 170 0
151 172 0
150 170 0
155 176 0
157 177 0
152 171 0
150 169 0
152 172 0
151 170 0
151 173 0
156 177 0
155 175 0
159 179 0
158 177 0
156 174 0
155 175 0
160 180 0
161 182 0
160 179 0
156 174 0
161 181 0
158 177 0
155 175 0
157 178 0
157 177 0
156 177 0
155 176 0
162 182 0
160 180 0
159 181 0
154 173 0
161 182 0
158 178 0
160 181 0
160 181 0
159 179 0
160 182 0
162 182 0
158 178 0
161 183 0
166 187 0
159 178 0
162 182 0
163 183 0
159 178 0
162 182 0
162 182 0
165 186 0
165 187 0
162 184 0
162 181 0
163 183 0
165 185 0
157 179 0
163 183 0
170 192 0
164 183 0
163 181 0
166 186 0
163 183 0
159 178 0
163 185 0
166 186 0
161 180 0
165 187 0
165 187 0
168 189 0
167 186 0
165 185 0
166 188 0
167 189 0
167 189 0
166 186 0
166 188 0
165 184 0
168 188 0
164 185 0
169 190 0
166 186 0
163 184 0
163 186 0
168 188 0
167 189 0
170 192 0
168 190 0
169 190 0
169 191 0
169 190 0
170 192 0
166 188 0
168 188 0
164 183 0
168 189 0
170 193 0
167 187 0
168 189 0
169 192 0
168 188 0
170 192 0
169 191 0
168 191 0
168 191 0
173 195 0
168 190 0
173 194 0
172 194 0
169 190 0
167 188 0
168 188 0
167 188 0
172 195 0
169 192 0
171 194 0
170 192 0
172 195 0
172 193 0
170 192 0
169 189 0
170 192 0
170 191 0
168 190 0
169 190 0
169 191 0
169 191 0
175 199 44
177 199 72
179 201 84
177 200 72
181 203 102
178 201 80
176 199 72
173 196 76
175 197 84
176 198 88
172 195 62
172 196 51
176 199 72
175 197 76
174 197 67
174 197 62
170 193 76
177 200 102
173 196 72
173 196 84
172 196 80
174 197 62
171 193 76
175 198 88
177 199 92
170 194 80
170 193 72
169 192 84
172 196 92
173 196 72
171 194 80
175 198 80
173 196 72
174 197 92
176 199 76
173 196 76
174 197 76
172 195 88
169 192 80
169 193 76
176 199 99
172 195 92
168 192 99
172 195 99
170 193 99
178 201 92
173 196 99
176 198 99
173 196 80
174 198 105
171 194 105
174 196 95
172 196 111
172 195 84
170 193 88
172 195 84
168 191 76
171 195 117
171 194 88
169 191 72
168 193 84
166 189 105
164 188 95
169 193 105
168 191 105
168 192 95
169 193 102
169 191 105
168 191 102
167 190 88
163 187 102
168 192 102
166 190 102
166 189 99
169 192 108
169 192 99
165 187 95
166 190 111
167 190 95
165 188 80
167 190 102
169 192 95
163 186 88
162 184 80
171 193 102
160 183 102
167 190 102
167 189 99
167 190 97
165 188 95
163 185 92
157 179 84
156 179 97
160 183 99
158 181 78
165 189 100
164 186 105
154 176 88
154 176 88
158 180 102
162 184 92
159 181 105
161 183 114
162 183 80
159 181 95
163 184 114
161 182 117
165 185 108
158 179 117
161 183 99
163 184 99
159 180 99
157 178 92
147 167 95
154 175 95
151 171 99
152 173 95
148 168 95
153 172 92
158 177 99
156 175 105
147 166 92
145 166 92
153 173 88
132 150 95
144 162 102
139 158 67
129 147 88
141 160 80
130 148 51
140 158 62
139 157 76
132 149 88
126 143 84
128 145 67
115 131 51
101 117 65
108 125 51
105 123 36
105 119 62
134 152 67
117 135 36
124 140 65
128 146 47
120 137 18
132 148 0
135 152 25
135 153 31
144 162 47
134 150 25
146 164 0
128 145 25
126 141 0
117 132 0
121 139 0
129 146 0
121 139 0
122 140 0
110 126 0
116 134 0
104 122 0
117 135 0
107 124 0
112 130 0
92 110 0
115 132 0
101 117 0
106 124 0
94 111 0
118 134 0
101 117 0
106 122 0
100 115 0
111 127 0
98 115 0
94 110 0
100 116 0
95 111 0
91 108 0
108 123 0
87 104 0
92 108 0
101 118 0
102 118 0
107 123 0
99 114 0
100 115 0
107 123 0
96 113 0
104 120 0
108 123 0
96 113 0
91 107 0
108 124 0
101 118 0
104 121 0
100 117 0
111 128 0
108 125 0
113 130 0
119 136 0
107 125 0
112 131 0
109 125 0
121 138 0
111 126 0
127 146 0
101 119 0
119 136 0
117 134 0
113 131 0
113 129 0
118 136 0
112 130 0
122 141 0
126 145 0
123 142 0
116 135 0
123 140 0
119 137 0
123 142 0
123 143 0
119 137 0
126 143 0
124 143 0
134 152 0
133 153 0
125 141 0
132 149 0
129 148 0
142 159 0
138 157 0
130 150 0
131 151 0
133 150 0
139 159 0
139 160 0
136 156 0
134 154 0
139 158 0
136 156 0
134 153 0
131 150 0
134 152 0
136 155 0
138 157 0
134 153 0
149 170 0
138 156 0
145 164 0
145 165 0
141 160 0
143 162 0
144 164 0
144 164 0
140 160 0
146 167 0
148 166 0
157 178 0
141 159 0
134 154 0
155 175 0
161 181 0
155 175 0
144 165 0
142 162 0
148 169 0
146 165 0
151 171 0
158 177 0
149 171 0
151 171 0
147 166 0
148 167 0
153 173 0
151 171 0
157 176 0
151 171 0
155 174 0
154 175 0
148 167 0
154 173 0
155 175 0
161 183 0
155 175 0
158 176 0
157 175 0
155 176 0
158 178 0
159 179 0
155 175 0
154 174 0
160 180 0
157 176 0
158 178 0
156 172 0
148 166 0
155 175 0
158 177 0
161 180 0
162 181 0
155 176 0
161 181 0
159 178 0
164 184 0
159 179 0
163 185 0
155 176 0
154 173 0
160 180 0
157 177 0
159 178 0
161 181 0
163 185 0
155 174 0
165 186 0
158 179 0
165 186 0
164 184 0
163 184 0
162 182 0
163 183 0
165 188 0
162 183 0
162 180 0
162 182 0
163 185 0
162 183 0
165 186 0
164 187 0
165 186 0
162 183 0
164 184 0
165 186 0
166 185 0
167 186 0
164 186 0
159 181 0
166 188 0
166 186 0
165 186 0
168 188 0
170 190 0
166 186 0
164 186 0
165 186 0
168 188 0
163 185 0
163 184 0
169 191 0
168 189 0
165 184 0
166 189 0
168 190 0
165 187 0
171 193 0
166 188 0
169 189 0
170 191 0
168 189 0
170 190 0
170 192 0
169 189 0
169 191 0
168 190 0
168 189 0
169 191 0
169 192 0
168 189 0
171 192 0
170 192 0
166 187 0
170 192 0
168 190 0
170 191 0
168 190 0
169 192 0
170 192 0
170 191 0
170 192 0
169 191 0
171 193 0
171 192 0
169 190 0
172 194 0
168 189 0
168 190 0
172 195 0
169 193 0
169 192 0
168 189 0
171 193 0
171 192 0
169 190 0
170 193 0
171 194 0
172 194 0
170 193 0
171 193 0
171 193 0
179 201 76
178 200 76
179 201 80
176 198 72
176 198 67
174 197 62
174 197 51
174 198 62
173 196 62
174 197 72
173 197 62
174 197 80
172 196 88
175 198 76
173 195 72
171 195 76
173 196 44
172 194 51
173 195 88
171 194 62
168 191 92
173 196 67
175 198 76
169 192 57
170 193 57
173 196 62
172 195 80
175 197 88
174 197 80
169 193 72
169 192 72
172 195 76
174 196 88
170 193 72
169 191 88
172 195 84
172 195 84
171 194 80
174 196 95
173 196 62
172 196 95
176 199 111
178 200 111
176 199 108
171 194 99
175 198 99
175 198 108
168 192 76
173 197 99
167 190 88
172 196 99
176 200 102
168 192 80
165 188 84
171 194 99
167 191 88
168 191 95
171 195 99
166 189 102
171 195 84
171 194 99
163 187 95
169 193 105
166 189 80
171 195 111
165 188 76
171 193 99
162 186 92
162 186 99
169 193 114
169 191 105
173 196 102
169 193 105
169 192 111
169 193 102
170 193 111
169 192 105
172 195 99
162 185 99
162 185 84
160 183 99
168 192 88
168 190 102
160 184 76
162 185 80
165 188 110
158 181 90
162 185 114
161 184 88
164 186 105
160 183 95
158 181 102
153 176 88
166 188 80
160 183 95
158 181 99
151 174 84
166 188 80
166 188 108
156 177 80
155 178 92
157 179 80
154 175 111
157 179 88
165 187 125
154 176 88
154 176 95
151 172 88
157 177 102
141 162 67
160 180 105
161 182 130
152 172 108
154 174 88
154 175 88
152 173 111
154 174 99
137 158 95
160 180 102
150 169 114
136 155 88
147 165 111
156 175 102
142 161 92
146 165 84
148 167 102
147 165 102
144 163 95
125 143 72
135 153 92
132 150 80
120 137 76
128 147 67
110 128 62
134 152 80
119 135 62
119 134 67
127 145 67
120 137 67
101 118 25
128 146 78
131 148 70
123 138 67
131 150 44
128 146 44
135 152 25
138 155 36
127 146 0
127 145 0
140 158 25
145 162 25
140 160 0
136 154 0
126 142 0
135 154 0
129 146 0
119 138 0
118 136 0
129 147 0
122 139 0
116 133 0
126 144 0
120 138 0
111 129 0
109 126 0
114 132 0
120 137 0
103 120 0
104 122 0
112 129 0
113 130 0
108 124 0
113 130 0
101 117 0
89 103 0
99 116 0
102 118 0
112 129 0
102 118 0
102 119 0
112 129 0
92 109 0
101 117 0
106 122 0
114 130 0
100 117 0
99 116 0
90 106 0
104 121 0
104 120 0
115 132 0
103 120 0
104 120 0
103 121 0
112 129 0
98 117 0
108 125 0
109 127 0
103 118 0
120 137 0
122 140 0
114 131 0
111 129 0
117 133 0
109 125 0
118 136 0
99 116 0
118 137 0
111 127 0
116 134 0
109 128 0
115 132 0
114 132 0
128 147 0
123 141 0
122 140 0
136 155 0
126 144 0
124 142 0
123 142 0
127 146 0
128 146 0
131 149 0
131 149 0
130 148 0
128 147 0
127 147 0
140 159 0
124 142 0
129 148 0
128 148 0
139 155 0
135 152 0
130 147 0
138 157 0
135 153 0
131 148 0
144 165 0
132 151 0
133 152 0
133 153 0
144 163 0
136 155 0
138 158 0
137 155 0
152 173 0
139 160 0
140 160 0
144 166 0
139 159 0
143 162 0
138 157 0
144 163 0
144 164 0
134 153 0
139 158 0
148 169 0
146 167 0
153 174 0
146 166 0
148 170 0
150 168 0
140 161 0
143 165 0
148 166 0
148 169 0
146 167 0
152 172 0
155 177 0
153 172 0
148 168 0
153 173 0
144 164 0
149 168 0
153 173 0
151 171 0
162 183 0
156 177 0
152 173 0
147 166 0
155 176 0
161 183 0
152 173 0
156 174 0
156 176 0
151 171 0
158 179 0
161 181 0
159 179 0
158 178 0
162 182 0
157 179 0
161 180 0
160 179 0
150 169 0
157 179 0
156 175 0
159 178 0
161 181 0
161 180 0
162 182 0
165 184 0
161 183 0
162 182 0
159 180 0
155 176 0
156 175 0
158 176 0
153 172 0
158 177 0
160 180 0
163 185 0
164 182 0
162 183 0
158 178 0
159 179 0
164 183 0
166 186 0
160 181 0
167 188 0
159 181 0
164 183 0
165 186 0
162 181 0
157 177 0
161 180 0
168 188 0
162 182 0
162 184 0
164 184 0
164 185 0
165 186 0
165 187 0
165 186 0
167 187 0
168 188 0
165 186 0
164 184 0
166 188 0
168 190 0
161 182 0
165 186 0
168 189 0
162 183 0
164 184 0
165 187 0
163 184 0
164 187 0
164 185 0
164 184 0
170 190 0
165 187 0
167 188 0
168 189 0
164 185 0
168 189 0
168 189 0
167 188 0
167 189 0
168 188 0
167 188 0
166 189 0
168 189 0
167 188 0
168 189 0
165 188 0
167 190 0
167 188 0
163 184 0
167 190 0
166 188 0
165 186 0
170 192 0
170 194 0
169 191 0
171 191 0
168 189 0
171 193 0
168 190 0
169 192 0
171 192 0
167 189 0
171 193 0
167 190 0
172 194 0
170 190 0
165 185 0
171 194 0
165 187 0
170 192 0
172 193 0
167 189 0
171 193 0
171 194 0
171 194 0
168 192 0
169 192 0
170 192 0
171 193 0
172 195 0
178 200 67
180 202 88
175 198 67
177 200 76
178 200 84
179 201 72
175 197 92
177 199 80
174 197 88
174 196 84
173 196 72
175 197 57
173 195 84
174 198 67
172 195 67
174 197 72
177 200 76
171 194 72
172 195 72
172 195 92
170 193 72
173 196 72
168 192 84
168 192 67
172 195 76
170 193 80
173 196 51
175 198 80
171 195 92
173 196 76
171 194 80
174 197 84
174 197 84
173 196 95
174 198 80
173 197 92
174 197 84
172 195 92
172 195 76
177 199 95
171 195 92
173 196 88
173 195 102
173 196 99
177 199 95
173 196 95
170 193 92
170 194 102
170 192 88
171 193 95
173 196 92
173 196 114
170 194 95
172 195 102
168 192 92
169 192 99
172 195 92
174 196 111
172 195 111
169 193 102
170 194 102
167 190 92
174 197 120
168 191 99
172 195 95
168 192 95
169 193 128
167 191 105
170 193 105
168 191 99
160 184 88
166 190 95
172 195 84
170 193 72
166 189 102
163 187 95
171 195 88
164 187 88
164 188 95
167 190 108
169 192 99
159 181 88
169 192 88
155 178 86
162 184 99
169 192 114
165 188 113
159 182 92
162 185 95
154 177 102
164 187 95
161 184 99
160 182 108
158 182 99
161 184 92
160 182 92
157 180 99
156 179 88
158 180 84
158 180 92
162 184 105
156 180 88
155 178 95
151 173 99
166 187 122
158 180 88
160 181 95
165 187 120
161 182 99
157 178 92
154 175 105
155 177 80
159 180 99
151 172 105
150 171 88
145 166 92
151 173 102
147 166 99
148 168 105
152 172 111
146 165 95
142 161 84
152 171 102
142 161 92
151 170 92
139 157 92
140 160 84
143 161 92
134 153 72
133 152 88
135 153 84
138 155 76
131 148 80
116 134 62
122 139 62
112 128 36
110 128 36
130 147 57
118 135 51
113 129 57
136 152 51
134 152 36
129 145 51
124 140 25
122 139 25
136 155 25
142 160 0
138 156 25
146 164 25
139 155 25
133 153 25
142 162 0
140 157 0
136 156 0
127 142 0
129 145 0
128 145 0
127 145 0
114 131 0
119 137 0
115 131 0
118 136 0
118 137 0
115 132 0
113 129 0
110 127 0
116 131 0
110 128 0
116 133 0
110 129 0
113 130 0
105 121 0
98 114 0
108 124 0
109 126 0
91 109 0
103 119 0
108 125 0
102 118 0
108 125 0
105 121 0
99 115 0
107 124 0
115 132 0
106 123 0
114 130 0
102 120 0
108 125 0
112 127 0
111 128 0
115 133 0
107 124 0
112 129 0
102 118 0
105 123 0
114 129 0
105 122 0
114 130 0
100 117 0
119 134 0
106 123 0
108 126 0
110 126 0
114 133 0
114 131 0
121 139 0
111 129 0
119 138 0
129 146 0
117 134 0
124 142 0
116 134 0
120 139 0
134 153 0
121 140 0
130 149 0
124 142 0
129 147 0
124 141 0
123 142 0
121 141 0
126 145 0
123 141 0
143 162 0
126 144 0
134 152 0
135 154 0
143 162 0
133 152 0
138 158 0
141 160 0
142 161 0
133 154 0
134 153 0
139 158 0
136 154 0
129 148 0
138 158 0
142 162 0
129 148 0
141 163 0
141 160 0
133 152 0
145 164 0
131 149 0
139 160 0
142 162 0
146 164 0
138 159 0
146 166 0
146 167 0
151 171 0
146 166 0
142 162 0
147 167 0
146 167 0
142 160 0
133 153 0
141 162 0
152 172 0
145 166 0
150 170 0
152 171 0
146 166 0
140 160 0
158 179 0
154 173 0
147 166 0
160 180 0
151 169 0
158 178 0
155 176 0
149 167 0
150 170 0
148 168 0
153 174 0
147 166 0
153 173 0
150 169 0
162 183 0
158 180 0
154 172 0
156 178 0
143 162 0
154 174 0
162 183 0
159 179 0
159 179 0
160 180 0
163 183 0
158 178 0
166 188 0
154 175 0
163 182 0
153 173 0
154 173 0
161 181 0
165 186 0
156 176 0
155 175 0
160 181 0
162 182 0
156 177 0
158 179 0
164 185 0
163 185 0
162 183 0
158 180 0
158 178 0
161 180 0
155 176 0
162 183 0
161 182 0
163 183 0
161 182 0
166 187 0
158 179 0
160 182 0
162 183 0
163 186 0
162 184 0
166 186 0
163 182 0
165 186 0
163 184 0
166 187 0
160 180 0
164 185 0
165 185 0
165 185 0
166 187 0
164 184 0
164 186 0
163 183 0
166 188 0
161 181 0
167 188 0
159 179 0
165 186 0
158 179 0
165 186 0
161 181 0
165 187 0
166 188 0
165 187 0
163 185 0
166 188 0
166 187 0
168 191 0
166 187 0
166 187 0
164 184 0
172 193 0
165 186 0
167 186 0
164 185 0
168 190 0
169 189 0
168 190 0
166 188 0
168 190 0
171 192 0
169 190 0
167 188 0
168 189 0
168 188 0
170 192 0
168 187 0
167 189 0
171 193 0
166 189 0
169 190 0
169 191 0
167 187 0
168 188 0
168 189 0
164 185 0
168 191 0
164 185 0
171 194 0
173 195 0
167 188 0
168 190 0
168 190 0
170 191 0
169 191 0
170 193 0
169 189 0
170 190 0
170 192 0
170 192 0
170 192 0
170 192 0
169 189 0
168 189 0
172 194 0
172 192 0
170 192 0
169 190 0
168 191 0
177 200 76
178 200 72
178 200 72
173 196 57
177 199 62
174 197 67
173 196 62
176 199 72
174 197 62
169 192 57
174 197 80
176 199 84
170 194 67
173 196 84
174 196 62
168 191 67
171 194 51
176 199 76
175 199 88
175 198 76
171 195 57
173 197 80
172 195 67
171 194 92
174 198 76
172 194 76
171 195 72
175 198 102
168 192 76
172 195 80
173 195 67
175 199 80
170 194 84
170 195 76
168 191 72
171 193 95
174 197 88
176 199 95
172 195 80
173 196 102
166 189 76
172 195 76
174 197 102
169 193 80
172 195 99
172 196 92
177 200 95
175 199 105
172 195 95
171 194 99
167 191 88
169 193 99
168 191 76
172 196 92
174 196 92
173 195 88
174 197 84
170 193 114
169 192 88
165 188 67
168 191 92
165 189 92
170 193 80
170 193 92
167 191 95
161 185 72
167 190 105
169 193 105
169 193 102
173 197 95
166 190 72
167 191 88
168 191 99
164 188 88
170 194 102
166 189 95
169 192 92
171 194 111
164 187 95
163 186 99
165 189 105
163 186 99
165 188 99
166 189 84
163 186 103
167 190 108
158 182 92
165 188 108
165 187 105
163 186 95
161 183 100
164 187 88
161 184 102
162 185 99
162 184 92
157 179 102
161 183 102
160 181 92
155 177 99
154 176 92
160 182 95
161 182 117
152 174 92
162 184 102
160 182 114
156 179 67
158 180 95
158 180 84
160 181 99
158 179 95
158 180 95
155 175 105
155 175 111
148 169 102
144 164 92
150 170 102
146 166 99
145 165 92
146 165 84
144 163 95
150 170 84
145 164 84
153 173 88
146 166 92
148 167 105
154 172 99
151 169 114
147 165 99
124 142 62
139 157 84
139 156 88
131 149 57
133 151 72
124 143 67
120 138 44
135 152 51
124 142 72
122 139 72
116 134 44
124 141 62
136 156 44
129 147 62
117 135 36
137 154 44
135 155 25
141 158 44
138 157 25
143 162 25
142 161 0
138 157 25
142 161 25
146 164 0
132 151 0
123 141 0
139 158 0
137 153 0
139 158 0
121 138 0
133 153 0
110 129 0
119 138 0
129 147 0
112 130 0
121 138 0
115 132 0
110 130 0
119 137 0
106 123 0
119 137 0
109 127 0
114 131 0
113 131 0
98 115 0
121 140 0
114 132 0
112 130 0
110 128 0
113 130 0
103 120 0
109 125 0
100 118 0
116 134 0
116 132 0
110 127 0
106 124 0
121 138 0
94 113 0
117 135 0
101 120 0
114 131 0
104 121 0
110 128 0
102 118 0
100 116 0
113 128 0
112 130 0
110 128 0
111 127 0
105 122 0
109 126 0
125 143 0
117 134 0
109 127 0
108 126 0
113 129 0
119 137 0
120 140 0
133 151 0
116 135 0
114 131 0
105 123 0
113 132 0
119 137 0
126 142 0
129 148 0
128 146 0
122 139 0
119 138 0
130 149 0
134 153 0
130 149 0
127 145 0
127 146 0
126 145 0
128 148 0
123 141 0
120 137 0
128 147 0
129 147 0
135 154 0
130 151 0
134 154 0
135 155 0
137 156 0
135 156 0
130 149 0
137 157 0
141 161 0
143 163 0
142 161 0
147 165 0
137 157 0
135 154 0
137 156 0
138 158 0
144 164 0
137 156 0
134 151 0
143 161 0
148 169 0
145 165 0
141 161 0
146 167 0
145 165 0
146 168 0
147 168 0
155 175 0
151 173 0
150 169 0
152 173 0
156 176 0
147 167 0
146 166 0
149 169 0
148 168 0
149 169 0
152 172 0
151 172 0
151 172 0
152 172 0
154 174 0
147 167 0
149 168 0
154 175 0
157 178 0
151 171 0
157 178 0
152 172 0
151 170 0
154 172 0
150 169 0
151 171 0
153 174 0
153 174 0
156 176 0
161 181 0
157 177 0
156 178 0
159 178 0
155 175 0
160 180 0
161 182 0
156 177 0
151 172 0
154 174 0
154 174 0
161 181 0
160 181 0
164 185 0
156 176 0
160 181 0
162 182 0
162 183 0
161 180 0
158 179 0
157 176 0
155 176 0
160 179 0
161 182 0
159 180 0
162 184 0
164 185 0
165 185 0
162 181 0
163 185 0
158 179 0
160 180 0
160 180 0
164 185 0
163 185 0
167 188 0
168 190 0
160 180 0
161 180 0
168 190 0
162 182 0
163 183 0
165 186 0
162 180 0
166 187 0
164 184 0
160 181 0
166 186 0
166 188 0
166 188 0
165 184 0
166 187 0
162 182 0
163 182 0
166 186 0
170 192 0
166 187 0
164 185 0
169 191 0
168 188 0
166 187 0
165 187 0
165 188 0
166 186 0
169 190 0
166 187 0
169 191 0
168 190 0
171 193 0
169 188 0
167 187 0
170 191 0
167 189 0
168 191 0
166 187 0
171 192 0
167 189 0
171 192 0
168 189 0
166 186 0
167 187 0
167 188 0
167 190 0
168 190 0
171 191 0
168 189 0
171 193 0
169 190 0
170 193 0
168 189 0
166 186 0
171 192 0
169 190 0
168 191 0
165 186 0
168 191 0
172 193 0
169 191 0
169 191 0
170 191 0
166 188 0
170 192 0
168 189 0
170 192 0
173 194 0
167 189 0
171 194 0
167 190 0
169 191 0
171 193 0
169 192 0
169 191 0
169 191 0
171 193 0
170 190 0
181 203 95
174 197 51
174 197 62
177 199 62
175 197 72
172 195 57
172 195 44
171 195 44
174 196 72
173 197 62
173 195 72
176 198 84
174 196 72
177 199 90
172 194 51
174 197 76
172 195 80
173 197 72
171 193 67
171 194 57
172 195 67
169 192 57
172 195 62
170 193 70
171 194 80
170 193 62
172 194 74
169 191 80
171 194 67
177 200 99
170 194 76
175 198 84
173 196 88
174 198 95
170 193 88
176 198 95
171 195 76
177 199 102
179 202 122
169 192 57
174 196 88
176 198 95
168 191 80
175 198 102
174 197 102
174 197 105
173 197 95
171 194 102
166 190 88
174 196 111
174 197 95
172 196 108
174 198 117
170 193 84
172 195 80
168 192 102
172 195 111
167 190 95
171 195 92
175 198 114
162 185 88
171 194 111
169 193 108
170 194 105
170 194 105
167 191 99
167 191 111
167 191 102
165 188 99
171 194 88
168 192 84
163 186 99
173 196 108
169 193 95
168 191 92
165 189 95
169 192 99
167 191 95
163 186 105
161 183 72
166 189 99
168 191 92
167 191 102
164 188 88
168 192 105
164 187 72
164 186 117
164 186 84
160 182 67
158 181 111
164 186 111
157 180 67
161 184 76
170 193 122
157 180 114
157 179 90
158 181 108
160 183 99
164 186 108
156 179 88
155 176 102
159 181 108
163 185 102
153 175 84
157 179 102
154 176 102
149 170 99
159 181 105
146 168 84
159 180 88
153 174 80
150 171 88
154 175 99
157 178 95
154 174 108
153 174 122
150 170 95
145 165 108
138 158 67
160 181 120
150 170 95
150 169 102
159 178 111
152 172 108
142 161 92
138 156 99
140 158 84
136 155 76
145 162 95
138 157 80
133 151 62
133 150 84
129 146 67
124 143 44
137 155 76
134 152 57
121 139 51
121 138 57
135 153 51
131 150 51
134 151 76
116 133 25
120 138 0
127 145 51
130 148 36
150 168 51
136 154 25
138 158 25
142 160 25
145 165 0
132 150 0
138 158 0
145 164 0
136 157 0
138 158 0
141 161 0
135 154 0
128 147 0
130 149 0
123 143 0
113 131 0
114 133 0
120 138 0
126 145 0
119 137 0
121 139 0
116 134 0
121 139 0
114 132 0
115 133 0
110 128 0
110 128 0
112 130 0
116 134 0
114 132 0
116 133 0
106 123 0
112 130 0
103 120 0
125 143 0
118 136 0
108 125 0
115 132 0
115 133 0
117 134 0
121 139 0
119 137 0
106 123 0
108 126 0
97 114 0
113 130 0
104 121 0
118 135 0
106 124 0
124 142 0
117 136 0
103 120 0
116 135 0
113 132 0
118 134 0
114 132 0
121 139 0
108 125 0
121 140 0
120 138 0
114 133 0
132 151 0
122 140 0
113 131 0
137 156 0
117 136 0
122 142 0
127 146 0
128 147 0
126 145 0
123 140 0
125 143 0
125 144 0
126 146 0
126 145 0
135 154 0
127 144 0
129 148 0
129 150 0
134 154 0
128 145 0
131 150 0
133 151 0
132 150 0
133 152 0
138 157 0
140 159 0
129 148 0
128 148 0
140 160 0
131 150 0
139 158 0
149 168 0
136 155 0
138 159 0
133 152 0
145 165 0
145 166 0
141 159 0
148 169 0
137 158 0
153 173 0
139 159 0
143 164 0
147 167 0
141 162 0
140 159 0
142 162 0
139 158 0
146 164 0
148 168 0
142 163 0
150 172 0
157 176 0
151 172 0
151 171 0
157 177 0
158 179 0
151 171 0
149 171 0
147 165 0
150 171 0
152 171 0
146 166 0
156 177 0
155 175 0
154 174 0
151 172 0
149 170 0
151 170 0
148 169 0
154 175 0
157 177 0
153 173 0
160 181 0
154 174 0
156 175 0
157 178 0
163 184 0
152 170 0
153 173 0
153 173 0
159 179 0
153 174 0
157 178 0
154 174 0
156 177 0
154 175 0
161 181 0
155 175 0
154 176 0
159 180 0
164 183 0
157 179 0
153 172 0
160 179 0
161 183 0
157 177 0
156 178 0
158 180 0
158 179 0
165 185 0
162 183 0
163 183 0
161 183 0
160 181 0
161 181 0
156 176 0
161 182 0
164 184 0
163 183 0
162 184 0
166 187 0
159 180 0
162 182 0
161 182 0
164 184 0
164 185 0
161 182 0
163 182 0
164 185 0
162 180 0
162 182 0
161 180 0
166 188 0
160 181 0
166 186 0
161 182 0
165 185 0
161 180 0
159 179 0
168 188 0
163 185 0
163 183 0
168 188 0
164 183 0
164 185 0
168 191 0
166 188 0
162 183 0
164 183 0
167 188 0
164 186 0
165 186 0
164 185 0
167 189 0
168 190 0
165 185 0
169 190 0
165 186 0
168 190 0
165 185 0
168 189 0
166 188 0
170 191 0
166 187 0
170 192 0
170 191 0
166 188 0
166 186 0
167 188 0
164 186 0
168 189 0
165 185 0
171 193 0
166 187 0
171 192 0
170 192 0
169 192 0
171 193 0
169 190 0
169 190 0
170 191 0
170 192 0
169 192 0
170 191 0
170 191 0
169 191 0
166 188 0
169 190 0
166 188 0
168 190 0
168 189 0
169 190 0
172 192 0
168 190 0
170 192 0
167 190 0
168 191 0
171 193 0
171 193 0
168 189 0
170 191 0
168 190 0
173 195 0
178 200 67
178 201 80
176 198 57
175 197 72
174 196 80
174 197 72
175 198 76
172 196 62
173 196 67
177 199 80
176 198 84
171 193 62
174 197 62
174 197 92
169 192 67
176 198 100
174 196 84
173 196 67
173 195 80
166 189 44
167 191 72
170 193 74
177 199 86
176 199 111
171 194 67
170 194 60
171 194 72
173 196 84
178 200 95
175 198 76
174 197 80
173 197 99
177 200 88
173 196 99
171 194 92
177 201 108
172 194 92
175 198 95
178 200 108
171 193 84
172 196 95
170 194 95
176 199 117
176 199 99
176 200 99
173 195 99
169 193 76
172 196 95
174 197 125
165 188 72
173 196 99
168 192 95
175 198 105
170 193 99
166 190 92
170 194 76
164 189 95
166 190 105
165 189 108
169 192 92
166 190 88
169 192 88
170 194 99
163 187 92
169 192 88
172 196 88
171 194 95
168 191 95
166 189 95
164 187 95
167 190 80
169 192 62
162 186 99
168 192 95
167 190 84
166 189 99
165 189 120
164 188 111
161 185 72
161 184 108
162 185 92
163 186 117
166 189 108
167 190 99
162 184 102
167 190 102
160 182 105
163 185 105
166 189 108
164 187 111
166 189 99
162 185 92
160 183 99
158 180 95
158 180 92
155 177 84
149 171 72
160 182 102
156 179 95
160 182 105
159 181 105
156 178 76
150 171 84
152 175 88
159 181 102
157 179 84
167 187 111
155 176 99
162 183 114
149 170 76
154 175 99
147 168 84
155 175 108
161 182 102
153 174 92
153 173 102
149 169 111
154 174 108
153 173 102
147 168 84
155 174 114
148 168 99
148 167 95
150 170 92
150 170 99
153 172 84
139 158 80
144 164 72
132 151 72
141 160 67
140 159 67
144 162 102
131 149 51
127 145 67
126 144 51
124 142 57
119 137 62
125 144 36
129 146 51
132 150 57
127 144 44
119 139 25
138 156 51
134 154 0
141 161 51
147 167 25
142 162 25
138 157 0
147 166 0
142 162 25
144 163 0
135 155 0
136 158 0
135 155 0
141 161 0
131 151 0
128 146 0
130 148 0
132 151 0
127 147 0
124 142 0
126 145 0
114 132 0
113 131 0
123 141 0
112 132 0
128 147 0
117 135 0
103 121 0
122 140 0
106 125 0
114 133 0
116 135 0
114 132 0
118 138 0
112 131 0
122 141 0
109 127 0
106 124 0
100 117 0
102 119 0
108 125 0
122 140 0
94 113 0
115 133 0
120 137 0
123 142 0
112 130 0
119 135 0
115 133 0
117 134 0
103 120 0
112 130 0
100 119 0
110 128 0
120 138 0
115 132 0
122 139 0
114 130 0
124 142 0
118 137 0
129 148 0
117 136 0
120 138 0
127 147 0
127 145 0
120 138 0
124 142 0
116 133 0
121 140 0
123 141 0
125 144 0
132 150 0
120 140 0
115 135 0
130 149 0
122 141 0
125 143 0
127 145 0
123 143 0
129 149 0
121 140 0
132 150 0
140 159 0
130 151 0
130 149 0
140 159 0
123 143 0
139 159 0
136 154 0
131 150 0
124 143 0
130 147 0
132 151 0
134 153 0
140 160 0
134 154 0
145 165 0
145 164 0
132 151 0
147 167 0
144 164 0
143 163 0
139 158 0
146 164 0
150 171 0
145 165 0
146 166 0
142 161 0
150 171 0
147 168 0
151 172 0
147 167 0
146 165 0
152 172 0
148 169 0
151 171 0
142 163 0
149 170 0
155 176 0
153 175 0
146 168 0
156 178 0
153 174 0
148 169 0
156 177 0
153 173 0
152 173 0
150 171 0
158 178 0
152 173 0
155 175 0
151 170 0
152 172 0
152 172 0
160 181 0
150 170 0
154 173 0
146 167 0
158 178 0
155 176 0
151 170 0
157 178 0
156 178 0
163 183 0
159 180 0
159 179 0
150 171 0
155 175 0
156 177 0
159 180 0
163 184 0
156 177 0
160 181 0
160 182 0
160 181 0
159 179 0
159 180 0
160 181 0
160 180 0
157 176 0
157 178 0
161 183 0
164 185 0
161 180 0
161 182 0
161 183 0
163 184 0
160 182 0
159 181 0
163 185 0
165 186 0
163 184 0
166 186 0
162 182 0
163 185 0
164 185 0
157 177 0
164 186 0
160 180 0
160 181 0
164 185 0
165 185 0
165 185 0
162 182 0
163 184 0
166 186 0
166 186 0
162 182 0
166 186 0
168 187 0
168 189 0
159 180 0
159 179 0
164 186 0
164 185 0
167 188 0
166 188 0
169 191 0
164 186 0
162 184 0
167 188 0
166 187 0
164 185 0
166 187 0
168 188 0
165 186 0
168 190 0
169 190 0
170 192 0
169 191 0
166 187 0
167 186 0
167 190 0
168 189 0
165 186 0
169 192 0
168 190 0
165 187 0
168 189 0
167 189 0
168 190 0
168 188 0
167 189 0
170 191 0
169 191 0
167 188 0
169 191 0
170 192 0
168 187 0
166 187 0
170 192 0
170 193 0
169 192 0
169 191 0
172 194 0
168 191 0
167 189 0
169 191 0
170 191 0
169 190 0
168 190 0
170 192 0
170 191 0
171 193 0
170 192 0
170 191 0
172 193 0
169 191 0
171 193 0
168 191 0
170 192 0
169 192 0
167 188 0
171 193 0
170 192 0
169 190 0
169 192 0
169 191 0
172 194 0
176 198 51
174 196 67
176 199 67
181 203 95
175 198 72
174 196 67
172 196 25
173 196 67
175 198 62
176 198 72
174 197 67
173 196 72
179 201 99
170 193 57
173 196 62
173 196 67
170 192 76
171 193 80
173 196 84
171 194 76
168 192 65
171 194 76
174 196 84
171 195 67
170 193 67
170 193 88
177 199 102
173 196 88
171 195 76
174 198 92
178 200 84
172 195 92
180 202 108
175 198 92
179 201 99
174 198 105
167 191 80
176 200 114
168 192 95
176 198 105
171 194 108
173 196 92
176 198 108
173 196 95
178 201 108
175 199 117
170 193 88
170 194 88
173 196 114
167 191 76
171 194 111
168 192 102
170 193 88
171 194 72
170 193 84
169 193 102
167 191 80
169 193 99
166 189 99
173 197 92
172 195 88
170 193 84
170 194 88
169 192 95
176 199 108
164 188 88
168 191 99
166 190 92
170 193 105
165 188 76
166 189 105
166 190 99
167 191 95
169 193 92
168 190 92
163 186 76
164 188 102
165 188 99
163 185 95
168 192 99
165 188 95
166 190 111
164 187 76
162 185 114
167 190 84
158 181 92
159 182 84
156 179 76
158 181 102
158 180 95
154 177 70
154 176 72
165 187 88
162 184 102
164 188 99
164 187 102
162 185 114
166 189 102
158 181 95
163 185 95
160 182 99
158 179 67
155 176 108
162 184 76
162 184 111
150 171 88
163 184 105
156 177 99
163 183 102
160 181 111
160 181 120
159 180 102
153 173 108
168 189 120
160 181 114
163 184 125
154 175 99
146 168 84
163 183 120
147 167 67
143 163 76
139 158 99
140 159 80
156 175 108
144 163 92
146 165 95
151 171 105
140 160 84
145 164 76
148 166 84
147 165 95
144 162 72
135 153 44
135 154 76
142 161 62
134 153 62
120 139 44
119 138 44
123 142 57
131 150 44
114 134 0
134 153 57
142 161 25
137 157 36
143 164 0
147 166 36
143 162 25
145 165 36
141 161 0
137 156 0
140 159 0
149 170 0
135 152 0
149 167 0
135 156 0
133 152 0
131 149 0
127 146 0
133 152 0
128 146 0
124 144 0
124 143 0
122 140 0
120 140 0
118 136 0
121 139 0
120 138 0
120 138 0
118 136 0
112 130 0
123 141 0
115 133 0
127 146 0
115 134 0
109 126 0
114 133 0
99 116 0
119 137 0
119 137 0
118 137 0
116 134 0
119 136 0
117 135 0
117 134 0
112 129 0
118 137 0
112 129 0
105 123 0
119 137 0
113 131 0
119 139 0
109 127 0
122 141 0
116 132 0
115 133 0
119 138 0
116 135 0
113 130 0
122 138 0
122 142 0
114 132 0
118 136 0
116 135 0
126 145 0
122 139 0
113 132 0
114 132 0
126 143 0
120 138 0
119 138 0
124 142 0
114 134 0
130 148 0
130 150 0
122 141 0
122 141 0
131 150 0
135 154 0
126 146 0
127 147 0
138 157 0
126 146 0
125 144 0
133 151 0
138 159 0
135 154 0
142 162 0
147 167 0
128 147 0
142 162 0
144 164 0
140 160 0
142 160 0
136 156 0
140 159 0
139 159 0
139 159 0
150 170 0
139 158 0
136 157 0
141 160 0
142 163 0
137 157 0
149 169 0
147 167 0
139 159 0
137 156 0
143 163 0
142 162 0
146 167 0
142 163 0
155 176 0
151 170 0
147 167 0
138 158 0
147 167 0
143 163 0
147 167 0
149 168 0
148 169 0
156 177 0
151 170 0
147 167 0
142 162 0
153 174 0
155 177 0
145 165 0
151 172 0
153 172 0
154 174 0
154 176 0
149 171 0
152 173 0
153 173 0
158 180 0
158 178 0
161 181 0
160 180 0
159 181 0
151 172 0
147 167 0
149 169 0
159 181 0
159 180 0
161 182 0
156 178 0
163 184 0
160 181 0
159 179 0
156 178 0
164 184 0
157 179 0
156 175 0
160 181 0
156 177 0
164 184 0
164 186 0
157 179 0
151 172 0
159 180 0
156 176 0
162 183 0
160 180 0
162 184 0
160 182 0
163 183 0
162 182 0
166 187 0
162 184 0
160 181 0
160 181 0
168 189 0
163 183 0
163 182 0
162 182 0
159 180 0
160 182 0
162 181 0
160 178 0
163 186 0
161 182 0
164 184 0
162 182 0
162 184 0
168 189 0
165 187 0
164 185 0
166 187 0
165 185 0
168 190 0
159 179 0
167 188 0
168 189 0
163 184 0
167 187 0
169 190 0
166 186 0
163 184 0
163 185 0
166 186 0
163 182 0
166 186 0
171 191 0
165 185 0
167 189 0
166 189 0
170 190 0
165 186 0
166 188 0
162 183 0
173 194 0
164 184 0
166 186 0
165 188 0
169 190 0
167 190 0
169 190 0
166 187 0
166 188 0
165 185 0
169 190 0
167 190 0
167 188 0
173 195 0
169 190 0
167 188 0
165 188 0
169 190 0
169 188 0
167 189 0
167 188 0
171 193 0
170 192 0
165 187 0
171 193 0
172 194 0
170 192 0
167 189 0
168 190 0
167 190 0
169 191 0
169 192 0
171 192 0
172 194 0
168 189 0
168 190 0
170 193 0
171 193 0
171 194 0
170 192 0
167 189 0
168 189 0
169 190 0
169 192 0
171 193 0
171 192 0
171 193 0
171 193 0
168 191 0
167 190 0
175 198 67
179 201 76
176 199 51
177 199 62
177 200 80
171 194 62
170 194 44
177 199 67
177 200 72
175 197 72
170 193 76
174 196 80
171 193 67
175 197 88
171 194 67
172 195 62
176 199 99
166 189 60
171 194 80
172 195 92
172 194 72
173 196 86
172 194 72
175 198 99
178 200 99
173 196 84
174 198 88
168 190 51
174 197 88
176 198 80
170 193 67
176 199 92
174 198 88
178 200 108
177 199 105
175 198 102
172 195 72
173 196 76
177 199 99
178 201 111
176 198 108
172 195 84
176 198 92
173 196 92
177 200 76
174 198 88
172 196 102
173 196 95
171 194 99
173 195 114
172 195 76
174 197 99
170 193 105
170 193 105
170 194 111
174 196 92
165 189 92
167 189 99
170 194 105
166 190 76
167 190 117
166 190 84
167 190 84
166 189 76
167 191 111
162 186 102
166 189 84
167 190 99
160 183 80
169 192 95
170 193 99
173 196 111
169 192 99
166 190 88
166 189 72
166 190 95
165 189 99
169 193 105
165 188 105
162 185 88
165 187 84
156 178 72
163 186 105
166 189 108
161 185 105
163 187 76
162 186 84
162 185 99
163 186 120
157 179 72
160 183 108
160 182 102
157 181 111
164 186 84
157 180 95
166 188 108
162 185 99
168 190 92
163 186 92
154 177 88
162 184 76
159 182 99
158 181 92
155 177 99
154 177 99
162 185 105
159 182 120
158 180 95
157 178 84
154 176 95
158 179 105
146 167 80
157 177 99
143 164 84
153 174 88
152 173 105
142 163 92
153 173 88
150 171 102
149 169 88
149 170 105
156 175 105
143 163 92
153 173 99
149 169 95
148 167 99
146 165 84
143 162 99
153 173 84
152 171 80
152 170 95
133 152 51
142 160 67
150 169 84
133 152 67
137 155 67
128 145 57
137 156 67
125 143 57
140 159 72
132 151 0
139 158 44
132 151 36
134 153 25
134 153 25
135 154 25
150 171 0
144 163 36
146 165 0
150 172 0
146 167 0
148 168 0
152 171 0
148 170 0
129 149 0
130 150 0
130 151 0
128 147 0
125 143 0
129 149 0
126 144 0
129 148 0
139 158 0
119 138 0
127 145 0
120 139 0
116 134 0
118 136 0
108 127 0
110 128 0
114 132 0
119 138 0
127 147 0
104 122 0
123 142 0
123 141 0
109 129 0
120 139 0
110 129 0
117 136 0
116 133 0
105 123 0
115 133 0
116 135 0
112 130 0
116 134 0
114 133 0
123 142 0
118 136 0
120 139 0
128 147 0
121 139 0
123 141 0
125 143 0
116 134 0
99 117 0
120 139 0
129 147 0
124 144 0
124 142 0
127 147 0
127 146 0
117 135 0
133 151 0
113 133 0
121 139 0
124 144 0
120 138 0
123 143 0
127 146 0
124 142 0
128 147 0
129 149 0
129 148 0
141 161 0
126 145 0
125 144 0
126 146 0
139 159 0
137 157 0
135 155 0
137 157 0
131 150 0
134 154 0
139 159 0
142 162 0
142 162 0
127 146 0
136 157 0
141 161 0
136 157 0
140 160 0
128 147 0
146 166 0
146 164 0
143 164 0
136 157 0
141 162 0
139 160 0
132 151 0
139 158 0
150 171 0
133 152 0
140 160 0
145 165 0
139 158 0
145 164 0
141 161 0
140 160 0
134 155 0
152 171 0
143 163 0
144 163 0
150 169 0
140 159 0
150 171 0
148 169 0
148 167 0
143 162 0
141 162 0
147 168 0
146 167 0
157 178 0
147 167 0
154 173 0
150 169 0
152 172 0
158 181 0
147 167 0
155 176 0
158 177 0
149 168 0
154 175 0
156 176 0
154 175 0
146 166 0
155 175 0
157 178 0
150 172 0
155 175 0
148 169 0
154 175 0
156 177 0
156 177 0
158 179 0
158 178 0
158 179 0
160 180 0
150 170 0
162 181 0
161 183 0
161 183 0
163 184 0
157 177 0
160 180 0
161 182 0
161 183 0
162 182 0
152 172 0
161 181 0
162 183 0
155 175 0
162 184 0
158 178 0
161 181 0
160 182 0
163 182 0
163 184 0
155 176 0
160 182 0
162 183 0
165 185 0
169 190 0
161 181 0
159 180 0
158 179 0
162 182 0
161 182 0
164 185 0
158 178 0
166 188 0
164 187 0
167 188 0
160 181 0
164 184 0
163 183 0
171 192 0
163 184 0
162 183 0
159 180 0
162 182 0
167 189 0
167 188 0
170 191 0
163 185 0
162 184 0
165 186 0
164 187 0
164 185 0
166 186 0
164 185 0
168 188 0
163 184 0
165 187 0
168 188 0
170 191 0
165 187 0
168 190 0
170 192 0
163 183 0
168 190 0
170 189 0
166 187 0
168 190 0
171 193 0
169 191 0
170 192 0
172 195 0
168 189 0
169 190 0
164 185 0
170 192 0
166 189 0
168 190 0
170 192 0
167 188 0
161 182 0
168 191 0
168 189 0
168 191 0
168 190 0
170 192 0
169 190 0
168 188 0
167 189 0
170 194 0
172 194 0
165 186 0
165 187 0
170 192 0
168 190 0
169 190 0
168 189 0
170 192 0
169 191 0
170 192 0
168 189 0
171 193 0
168 190 0
172 195 0
164 186 0
168 190 0
170 192 0
171 193 0
167 189 0
168 191 0
170 192 0
170 193 0
170 193 0
170 193 0
172 195 57
174 197 36
176 198 51
176 199 80
179 201 84
172 195 76
174 197 57
175 197 57
175 198 62
176 199 92
178 200 80
173 196 62
175 198 72
175 197 84
169 192 92
164 187 62
168 191 51
167 190 62
170 192 51
171 194 76
170 193 44
173 195 62
176 198 114
171 194 67
168 192 72
170 193 74
171 195 80
175 198 92
175 198 105
172 196 67
176 198 84
172 194 67
170 194 72
172 195 84
175 198 92
171 194 88
173 196 102
178 200 95
173 196 102
178 200 102
173 196 92
175 198 114
174 198 99
170 193 84
178 202 114
173 196 114
172 196 84
175 198 117
173 196 108
169 192 88
172 195 95
173 195 88
171 195 88
168 192 105
163 186 108
167 191 95
174 197 108
163 186 95
173 197 111
170 194 108
167 191 92
166 190 84
166 190 95
171 195 92
164 188 95
164 187 102
164 186 88
168 192 99
167 191 105
165 188 111
167 191 105
165 189 111
170 193 105
162 186 67
171 194 80
161 185 84
167 190 105
164 188 95
164 187 84
161 185 105
162 185 67
162 186 95
162 185 99
165 188 95
163 187 84
164 187 92
161 185 80
164 187 95
165 188 108
169 191 108
156 178 88
163 186 80
153 175 84
166 187 92
163 186 102
156 179 92
163 185 102
159 180 95
163 185 102
158 179 84
154 176 76
168 191 102
162 184 84
154 176 117
163 184 88
162 184 99
153 174 95
157 178 76
164 186 117
162 183 92
158 179 102
157 179 114
164 185 117
160 182 92
162 182 120
154 175 105
155 175 95
154 175 105
160 180 92
148 169 76
156 176 99
155 175 102
146 167 76
141 161 76
153 172 102
147 165 102
151 170 95
147 166 88
148 166 102
146 165 76
135 155 51
145 165 62
135 154 62
139 158 62
131 149 57
132 151 25
139 159 36
126 144 44
122 140 44
135 155 36
133 152 51
129 149 36
144 163 51
140 160 0
145 163 44
136 156 0
147 168 36
144 164 0
141 161 25
147 167 0
140 159 0
149 169 0
138 158 0
133 152 0
132 151 0
139 160 0
125 144 0
143 164 0
133 153 0
123 143 0
124 144 0
123 142 0
124 143 0
122 140 0
124 143 0
106 124 0
131 150 0
125 144 0
138 156 0
122 141 0
125 145 0
124 143 0
126 144 0
116 135 0
118 136 0
113 131 0
125 143 0
110 127 0
124 141 0
124 143 0
114 131 0
117 135 0
127 145 0
117 136 0
119 138 0
136 154 0
113 132 0
113 131 0
111 129 0
133 152 0
121 139 0
112 130 0
117 137 0
120 139 0
114 133 0
113 132 0
128 146 0
116 134 0
123 142 0
117 135 0
117 135 0
119 137 0
131 150 0
131 150 0
125 145 0
122 142 0
128 147 0
127 147 0
119 138 0
132 151 0
131 151 0
135 154 0
131 151 0
124 144 0
125 146 0
128 147 0
123 143 0
128 149 0
143 163 0
132 152 0
127 145 0
134 154 0
129 148 0
131 150 0
135 156 0
131 151 0
136 156 0
143 165 0
138 159 0
133 153 0
146 167 0
139 158 0
139 159 0
142 163 0
132 151 0
147 165 0
127 145 0
137 157 0
137 158 0
142 163 0
139 160 0
148 169 0
142 161 0
148 169 0
145 166 0
142 163 0
144 164 0
151 170 0
148 169 0
149 168 0
145 166 0
147 167 0
139 158 0
152 172 0
149 171 0
152 171 0
144 164 0
151 172 0
150 171 0
154 176 0
153 174 0
151 173 0
154 173 0
155 175 0
155 176 0
163 182 0
143 164 0
157 177 0
157 178 0
157 177 0
146 167 0
157 178 0
157 179 0
156 177 0
150 171 0
154 176 0
155 174 0
156 175 0
156 175 0
157 178 0
157 178 0
158 178 0
155 176 0
158 179 0
153 174 0
154 174 0
163 183 0
158 177 0
156 176 0
150 170 0
156 178 0
164 186 0
159 180 0
162 184 0
161 181 0
157 178 0
162 182 0
157 178 0
165 185 0
157 178 0
157 177 0
158 179 0
159 179 0
160 181 0
159 180 0
159 179 0
165 185 0
164 185 0
161 182 0
161 184 0
165 187 0
156 176 0
157 178 0
160 182 0
161 181 0
168 187 0
165 186 0
163 184 0
166 188 0
165 185 0
161 181 0
164 183 0
161 182 0
165 186 0
161 181 0
168 190 0
164 184 0
165 187 0
165 186 0
164 186 0
167 189 0
159 178 0
163 184 0
163 184 0
163 185 0
165 184 0
166 186 0
167 189 0
161 182 0
165 185 0
167 189 0
166 187 0
168 189 0
167 188 0
171 193 0
162 184 0
166 187 0
163 185 0
168 189 0
168 189 0
168 190 0
169 191 0
168 190 0
169 192 0
167 188 0
164 186 0
169 190 0
166 186 0
168 189 0
171 194 0
169 190 0
164 185 0
169 191 0
163 184 0
167 188 0
166 187 0
172 194 0
167 191 0
168 191 0
166 187 0
168 188 0
170 191 0
163 187 0
171 193 0
166 189 0
167 188 0
173 195 0
163 184 0
170 192 0
171 194 0
162 184 0
166 188 0
167 189 0
167 189 0
169 192 0
169 192 0
172 196 0
171 194 0
167 188 0
167 188 0
170 191 0
166 190 0
171 194 0
168 191 0
171 193 0
169 190 0
170 192 0
169 192 0
172 193 0
168 191 0
175 197 57
175 198 51
176 199 44
172 195 51
175 198 72
176 198 80
174 197 67
176 198 80
174 197 62
176 199 80
171 193 88
174 197 72
174 196 88
170 193 72
174 196 84
173 196 76
173 195 84
170 193 72
172 195 67
168 191 57
167 190 57
170 193 40
173 195 94
170 193 82
174 198 84
169 192 102
167 189 62
173 197 84
175 198 88
168 191 84
176 198 92
177 199 97
176 199 92
176 198 84
172 195 92
170 192 84
174 198 105
178 200 105
175 197 102
176 198 117
170 193 88
173 196 95
168 192 92
171 194 76
172 195 80
175 198 84
172 195 105
174 197 99
171 193 99
170 194 84
172 195 92
171 193 102
174 197 105
172 195 99
171 195 92
165 189 95
165 188 80
172 195 95
168 191 72
167 190 76
169 192 108
170 193 88
171 194 76
168 193 130
167 191 95
169 192 102
163 186 92
162 184 80
164 187 92
169 193 80
172 195 105
167 190 92
162 184 102
166 189 92
165 187 84
171 194 99
162 184 88
172 195 88
163 186 76
160 183 84
164 188 111
162 185 88
166 190 95
160 183 88
166 189 76
159 182 80
167 189 95
168 191 102
163 186 88
162 184 92
169 193 105
165 189 102
155 177 84
159 182 92
161 183 92
164 186 99
166 188 88
165 188 99
162 185 105
165 187 102
166 188 122
159 180 108
166 189 111
161 183 99
155 177 76
159 181 114
160 182 88
154 176 76
165 187 120
160 180 114
154 175 76
165 187 117
159 180 95
146 167 88
161 182 105
156 176 84
150 171 80
157 177 105
151 171 92
149 169 105
160 180 102
151 171 84
156 176 108
149 169 84
150 169 111
149 168 76
151 170 92
145 165 62
145 165 72
140 160 80
145 165 76
137 157 57
149 170 62
136 157 51
141 160 76
137 158 36
133 152 44
128 148 51
135 156 62
136 156 36
144 166 0
128 148 36
134 153 44
144 164 0
143 163 0
145 166 25
146 166 0
140 161 25
143 164 25
146 166 0
145 166 0
146 167 0
141 162 0
143 163 0
140 160 0
139 160 0
123 142 0
129 149 0
143 164 0
138 157 0
131 150 0
140 160 0
127 145 0
134 152 0
137 157 0
132 151 0
124 143 0
131 150 0
134 153 0
124 142 0
121 139 0
123 143 0
131 149 0
122 141 0
120 140 0
127 147 0
124 142 0
123 142 0
126 146 0
118 136 0
114 132 0
119 139 0
118 136 0
133 151 0
119 138 0
117 136 0
116 134 0
123 142 0
121 139 0
121 139 0
115 133 0
113 131 0
125 145 0
117 137 0
122 141 0
115 134 0
120 140 0
119 138 0
129 147 0
120 139 0
121 141 0
122 142 0
135 155 0
132 152 0
128 147 0
125 146 0
132 151 0
119 138 0
132 152 0
132 153 0
129 148 0
126 145 0
122 142 0
135 153 0
122 142 0
130 150 0
130 151 0
140 160 0
136 156 0
125 144 0
134 154 0
133 153 0
132 153 0
137 157 0
138 156 0
145 165 0
140 159 0
132 150 0
136 156 0
136 156 0
142 163 0
136 156 0
149 170 0
146 167 0
144 165 0
148 169 0
138 158 0
147 168 0
144 163 0
142 161 0
149 169 0
140 162 0
139 161 0
142 163 0
139 159 0
145 165 0
151 170 0
148 168 0
151 173 0
150 171 0
144 165 0
151 172 0
136 157 0
144 163 0
153 175 0
155 175 0
148 169 0
148 169 0
148 170 0
152 172 0
162 181 0
148 169 0
145 166 0
158 179 0
153 174 0
153 174 0
154 176 0
149 170 0
149 172 0
152 175 0
155 177 0
150 169 0
156 176 0
153 174 0
161 181 0
154 174 0
151 172 0
157 179 0
153 175 0
161 183 0
150 171 0
156 178 0
148 169 0
157 179 0
156 177 0
161 182 0
155 175 0
159 181 0
157 178 0
158 178 0
158 179 0
161 182 0
159 180 0
165 186 0
159 180 0
164 185 0
155 176 0
154 175 0
157 178 0
157 178 0
156 176 0
166 188 0
165 185 0
165 187 0
158 178 0
164 184 0
154 174 0
159 181 0
162 185 0
162 182 0
166 188 0
165 185 0
163 183 0
161 181 0
162 183 0
166 187 0
163 184 0
163 183 0
164 186 0
165 187 0
166 188 0
162 182 0
163 184 0
159 179 0
160 180 0
168 189 0
163 185 0
164 186 0
161 183 0
163 187 0
168 190 0
163 184 0
167 187 0
160 180 0
162 185 0
166 187 0
163 185 0
164 187 0
166 187 0
160 183 0
162 184 0
167 189 0
167 189 0
162 183 0
167 190 0
170 191 0
170 191 0
167 190 0
167 189 0
166 186 0
167 189 0
162 184 0
170 191 0
165 185 0
165 187 0
166 186 0
163 184 0
166 188 0
164 186 0
165 187 0
165 185 0
169 190 0
165 186 0
170 192 0
170 192 0
171 193 0
170 191 0
164 186 0
170 190 0
165 185 0
170 193 0
168 191 0
170 192 0
167 190 0
169 192 0
166 189 0
170 192 0
170 191 0
170 192 0
170 191 0
168 190 0
168 190 0
166 188 0
169 192 0
169 192 0
168 191 0
166 188 0
170 191 0
170 193 0
170 193 0
170 193 0
170 193 0
171 194 0
171 193 0
167 188 0
172 194 0
166 188 0
169 191 0
173 194 0
170 193 0
178 200 88
178 200 76
177 199 57
177 199 67
174 196 72
177 199 80
174 197 62
175 197 67
179 201 92
180 201 84
173 196 72
176 199 72
171 194 62
173 195 67
174 196 80
169 192 65
171 194 72
170 193 76
173 196 84
173 196 76
173 196 95
170 192 84
175 197 95
178 200 80
173 196 88
171 194 84
172 195 97
175 197 88
172 195 82
176 199 95
169 192 84
175 199 95
176 198 102
171 194 80
170 194 88
175 198 108
175 198 92
173 196 92
175 198 80
172 194 84
176 199 120
175 198 111
173 196 102
176 200 95
165 188 76
170 195 99
173 196 111
176 199 102
173 197 102
171 193 92
175 199 105
166 190 84
170 193 92
171 195 99
169 192 92
170 193 88
175 198 102
168 191 88
165 188 76
166 189 95
173 197 108
172 195 95
173 196 92
164 187 72
168 190 102
167 190 102
168 191 84
164 187 72
168 191 102
163 186 88
169 193 99
164 187 95
163 186 84
164 188 92
166 190 114
167 191 88
164 188 95
168 191 99
161 184 99
164 187 92
171 194 108
160 183 84
162 185 105
167 191 92
167 190 95
165 188 120
166 189 95
164 186 92
164 187 99
158 181 92
162 185 88
160 183 117
163 187 92
161 184 92
161 184 84
160 183 105
162 185 88
167 189 88
167 189 114
162 184 105
162 184 92
154 176 102
160 182 88
156 179 108
156 177 80
166 188 120
161 182 99
153 174 80
146 167 72
152 173 111
154 174 95
165 186 130
159 180 111
153 175 95
143 163 72
163 183 111
151 172 84
150 171 92
154 175 99
142 162 84
151 172 102
157 176 108
150 170 92
154 174 111
148 168 102
141 162 67
139 158 67
149 168 92
148 169 76
149 169 76
147 167 80
140 160 57
135 155 62
149 168 72
129 149 57
138 157 57
139 158 80
138 159 36
142 162 44
131 151 44
141 162 36
137 157 36
140 160 0
148 169 0
145 165 25
145 167 25
141 161 36
153 173 25
150 171 0
149 171 0
140 160 25
146 166 0
138 159 0
140 159 0
143 163 0
140 161 0
139 160 0
134 154 0
140 160 0
136 156 0
128 147 0
116 134 0
130 149 0
118 138 0
133 154 0
127 147 0
122 142 0
126 144 0
129 148 0
136 155 0
132 151 0
111 129 0
117 136 0
136 156 0
113 132 0
124 143 0
124 143 0
129 147 0
122 141 0
133 152 0
124 142 0
130 149 0
121 140 0
121 140 0
117 136 0
121 140 0
125 144 0
114 133 0
125 144 0
116 135 0
118 136 0
120 139 0
133 152 0
129 149 0
126 146 0
114 133 0
121 140 0
119 137 0
139 157 0
112 131 0
127 146 0
129 147 0
124 145 0
122 141 0
133 151 0
133 153 0
125 145 0
128 146 0
119 139 0
130 149 0
134 153 0
129 149 0
128 148 0
138 158 0
134 153 0
136 155 0
141 161 0
136 156 0
132 152 0
136 155 0
142 162 0
136 156 0
134 152 0
130 149 0
138 158 0
139 159 0
126 144 0
138 158 0
148 168 0
130 150 0
137 159 0
148 168 0
135 154 0
131 150 0
143 165 0
135 155 0
146 167 0
140 159 0
141 160 0
148 169 0
137 158 0
148 169 0
142 163 0
149 169 0
146 167 0
147 168 0
150 173 0
153 175 0
144 167 0
145 167 0
153 174 0
144 164 0
152 174 0
148 170 0
156 177 0
147 169 0
147 167 0
149 169 0
156 177 0
144 164 0
153 175 0
155 174 0
152 173 0
148 169 0
157 177 0
145 166 0
150 171 0
153 174 0
153 172 0
155 177 0
143 164 0
156 176 0
155 175 0
154 173 0
157 177 0
157 178 0
149 169 0
156 176 0
159 181 0
150 172 0
154 175 0
160 181 0
158 179 0
157 179 0
158 181 0
153 174 0
157 179 0
159 182 0
159 180 0
152 172 0
151 170 0
159 180 0
163 182 0
161 182 0
160 180 0
163 184 0
162 183 0
160 180 0
159 179 0
161 181 0
164 184 0
161 183 0
161 181 0
162 185 0
165 185 0
161 182 0
163 185 0
163 186 0
160 181 0
165 185 0
161 183 0
165 187 0
162 185 0
160 182 0
165 186 0
163 186 0
170 191 0
164 186 0
165 187 0
166 187 0
163 184 0
163 186 0
164 184 0
163 184 0
167 187 0
168 189 0
161 183 0
163 185 0
167 189 0
167 187 0
167 190 0
163 183 0
164 185 0
168 188 0
163 184 0
166 188 0
167 189 0
163 185 0
165 186 0
168 190 0
164 185 0
168 189 0
168 190 0
166 188 0
163 185 0
164 186 0
167 187 0
168 190 0
167 190 0
167 188 0
169 192 0
168 189 0
163 185 0
169 189 0
169 190 0
171 193 0
166 186 0
167 189 0
167 188 0
169 191 0
165 188 0
167 190 0
165 186 0
166 187 0
164 185 0
165 186 0
166 187 0
170 193 0
168 192 0
167 190 0
169 189 0
166 189 0
166 189 0
167 189 0
170 193 0
170 192 0
166 187 0
168 189 0
169 191 0
171 193 0
168 191 0
170 193 0
168 189 0
169 192 0
170 192 0
169 189 0
172 193 0
169 192 0
170 192 0
172 194 0
166 188 0
171 193 0
172 193 0
170 191 0
169 192 0
172 194 0
168 191 0
171 194 0
169 192 0
169 192 0
175 198 62
173 196 25
175 198 54
175 198 62
174 196 72
176 198 76
173 195 51
174 196 67
172 195 72
172 195 51
175 198 88
171 194 62
176 197 95
167 191 44
169 192 51
173 196 80
174 197 72
175 198 80
170 193 67
169 192 57
170 193 62
167 189 70
170 192 82
173 196 76
168 191 82
174 197 99
175 197 76
172 195 80
168 191 92
174 196 80
173 196 88
177 200 94
174 197 84
176 199 92
174 197 105
173 195 82
173 196 88
177 200 108
172 195 84
177 199 92
172 195 88
179 201 105
176 199 108
173 196 102
177 199 102
174 198 102
172 196 108
167 191 105
171 194 102
168 192 92
168 192 102
171 194 99
169 192 84
173 197 105
174 197 95
169 192 105
168 191 80
169 193 108
165 189 92
168 191 84
169 192 84
170 193 99
162 185 76
165 189 92
168 192 67
165 188 62
169 192 99
171 194 114
168 190 99
167 190 120
168 192 102
165 188 84
167 190 92
165 188 95
165 187 95
165 188 99
164 187 76
160 184 80
161 184 92
164 188 102
162 185 92
169 193 95
170 193 108
165 188 88
161 184 84
160 182 88
164 187 102
160 183 76
163 186 108
163 187 102
162 185 105
165 188 114
166 189 99
162 185 92
163 185 102
161 184 108
157 178 72
152 175 92
165 187 99
163 184 108
158 180 80
158 179 84
152 175 92
153 175 92
164 185 95
162 185 88
156 178 92
156 178 84
166 187 114
157 178 88
150 172 84
152 173 88
166 187 111
155 176 99
157 178 88
158 178 114
159 179 99
157 177 95
153 173 95
153 173 88
152 173 80
149 169 92
158 178 92
167 186 125
154 174 102
146 165 80
150 169 95
147 166 84
141 161 67
143 164 72
150 169 67
142 161 72
148 167 80
142 162 57
141 161 57
137 157 44
137 156 57
140 161 25
139 160 44
129 147 36
140 160 44
138 156 44
140 159 44
141 162 0
146 167 36
139 160 0
144 166 25
151 172 0
149 171 0
146 165 0
149 169 25
147 169 0
151 172 0
140 160 0
153 173 0
143 163 0
133 153 0
129 149 0
126 146 0
131 151 0
134 154 0
133 153 0
132 152 0
125 146 0
132 153 0
129 149 0
126 144 0
120 139 0
129 149 0
125 144 0
128 146 0
127 147 0
126 146 0
132 152 0
126 146 0
124 142 0
123 143 0
118 138 0
119 139 0
121 140 0
114 132 0
128 147 0
110 130 0
131 149 0
126 145 0
114 133 0
112 132 0
123 143 0
114 133 0
134 154 0
122 141 0
125 144 0
126 146 0
120 139 0
115 132 0
123 142 0
111 131 0
134 153 0
126 144 0
128 147 0
131 150 0
134 154 0
126 146 0
128 147 0
127 147 0
121 140 0
136 156 0
122 141 0
129 148 0
137 157 0
134 153 0
137 156 0
125 145 0
141 161 0
137 157 0
135 155 0
132 152 0
137 157 0
142 163 0
129 150 0
135 155 0
141 162 0
140 161 0
134 154 0
145 165 0
136 157 0
137 157 0
133 154 0
132 153 0
138 157 0
131 151 0
135 156 0
145 166 0
146 166 0
150 170 0
143 162 0
138 158 0
145 164 0
146 166 0
151 172 0
139 159 0
159 179 0
143 163 0
133 152 0
149 170 0
143 163 0
152 174 0
146 167 0
150 172 0
145 166 0
152 173 0
145 165 0
148 169 0
152 172 0
151 171 0
146 167 0
151 171 0
149 168 0
148 171 0
151 172 0
158 178 0
148 168 0
161 182 0
153 175 0
151 173 0
150 170 0
155 176 0
154 176 0
158 178 0
159 181 0
156 177 0
150 171 0
151 171 0
155 176 0
155 178 0
161 182 0
160 180 0
157 178 0
153 174 0
160 182 0
158 178 0
152 173 0
157 178 0
155 176 0
160 179 0
165 186 0
157 179 0
155 176 0
157 177 0
161 184 0
155 175 0
161 183 0
157 178 0
161 182 0
161 183 0
163 184 0
161 182 0
159 180 0
158 179 0
156 175 0
162 183 0
160 180 0
161 181 0
161 182 0
159 181 0
161 182 0
161 181 0
157 176 0
164 184 0
163 184 0
163 184 0
159 179 0
160 181 0
158 178 0
161 182 0
166 188 0
165 187 0
163 184 0
164 185 0
167 188 0
162 184 0
167 188 0
167 188 0
164 184 0
163 183 0
163 184 0
167 189 0
167 189 0
165 187 0
159 180 0
171 193 0
164 185 0
166 188 0
166 187 0
167 188 0
164 186 0
161 183 0
167 188 0
164 187 0
164 185 0
167 188 0
168 189 0
168 188 0
166 189 0
163 184 0
170 191 0
168 190 0
165 186 0
167 189 0
168 189 0
165 188 0
168 189 0
169 190 0
167 188 0
168 187 0
167 190 0
169 191 0
168 190 0
171 193 0
167 188 0
169 189 0
168 191 0
168 189 0
168 190 0
168 188 0
165 187 0
173 196 0
167 189 0
169 192 0
164 185 0
166 188 0
171 193 0
168 191 0
170 192 0
171 191 0
169 190 0
169 192 0
168 191 0
169 191 0
170 192 0
170 193 0
173 195 0
167 189 0
170 193 0
169 190 0
168 190 0
170 192 0
166 189 0
170 192 0
170 192 0
171 194 0
170 192 0
170 192 0
170 192 0
167 188 0
171 194 0
171 192 0
171 192 0
168 190 0
170 192 0
175 197 67
177 199 62
174 198 62
175 197 62
175 198 57
174 197 62
176 199 84
174 197 57
172 195 76
176 199 92
169 192 67
173 196 62
178 201 88
178 199 90
171 194 78
168 191 78
169 192 65
169 193 74
169 192 62
167 191 51
171 194 80
167 190 76
171 194 74
171 195 76
171 194 102
168 191 76
172 194 88
171 194 82
175 198 92
174 197 72
173 196 67
175 197 80
172 195 80
174 197 76
172 195 92
174 197 80
175 198 95
173 196 92
174 196 117
174 197 114
170 193 76
173 195 95
172 195 108
167 190 80
175 197 99
168 191 99
170 193 122
168 192 95
170 193 84
169 193 102
167 189 88
174 197 105
172 196 80
170 194 90
171 194 92
166 190 92
168 191 88
167 190 76
174 197 95
167 189 72
169 192 102
168 191 105
167 190 92
171 195 92
166 189 99
166 189 102
166 190 80
167 189 84
166 190 99
164 187 76
167 189 108
172 194 92
161 184 88
165 187 80
167 190 76
175 197 102
171 194 88
162 186 92
168 192 117
169 192 88
163 187 95
165 187 88
162 185 108
161 185 108
160 183 88
166 189 92
160 183 99
162 185 76
169 192 92
165 188 95
171 193 102
165 188 105
163 186 88
151 173 62
161 184 99
156 179 102
153 176 84
157 180 88
168 190 122
157 178 84
165 187 99
156 178 99
161 183 114
163 184 99
156 178 88
159 181 108
162 183 99
161 181 88
164 186 105
153 175 95
156 177 108
152 174 80
148 169 80
166 187 114
158 179 102
158 179 72
153 173 102
150 171 76
164 185 105
155 176 62
151 171 99
159 179 105
159 179 108
154 174 92
160 179 99
150 171 57
154 174 102
152 172 92
150 170 72
146 167 80
149 169 67
147 167 44
159 179 84
145 165 57
144 164 57
137 157 51
147 167 44
145 164 62
143 164 51
140 160 36
144 165 25
145 166 0
145 166 36
153 173 25
150 172 25
153 174 25
149 169 0
146 167 0
146 167 0
146 168 0
148 170 0
150 172 0
151 172 0
136 156 0
148 169 0
137 158 0
142 163 0
150 170 0
131 150 0
147 168 0
138 157 0
137 157 0
138 158 0
122 142 0
126 145 0
119 138 0
132 153 0
134 154 0
130 150 0
123 142 0
130 149 0
124 143 0
127 147 0
132 151 0
115 134 0
133 153 0
125 146 0
131 151 0
125 145 0
125 144 0
133 154 0
119 138 0
121 140 0
120 140 0
129 149 0
129 150 0
124 144 0
129 149 0
125 145 0
130 149 0
124 144 0
129 148 0
120 139 0
129 149 0
130 150 0
128 148 0
119 138 0
132 151 0
137 157 0
129 148 0
134 154 0
119 138 0
130 149 0
124 144 0
133 153 0
141 159 0
131 151 0
132 152 0
139 159 0
128 148 0
131 152 0
130 149 0
137 157 0
136 156 0
135 155 0
142 163 0
146 167 0
136 157 0
124 144 0
137 157 0
131 152 0
128 148 0
141 161 0
140 160 0
139 159 0
135 156 0
135 156 0
137 158 0
134 155 0
143 163 0
139 160 0
134 155 0
135 155 0
151 170 0
152 174 0
148 168 0
147 167 0
147 167 0
144 166 0
142 163 0
143 164 0
144 165 0
148 167 0
147 169 0
147 168 0
138 157 0
138 159 0
148 169 0
145 166 0
152 173 0
152 174 0
150 171 0
151 172 0
154 175 0
143 164 0
153 173 0
151 171 0
160 181 0
149 169 0
154 176 0
156 177 0
153 174 0
151 173 0
151 171 0
154 176 0
154 175 0
157 180 0
156 177 0
151 172 0
153 172 0
152 173 0
151 172 0
156 176 0
160 181 0
151 172 0
157 178 0
150 171 0
161 183 0
158 179 0
150 170 0
158 180 0
156 178 0
160 179 0
158 179 0
152 171 0
156 177 0
156 177 0
153 175 0
160 182 0
162 182 0
160 182 0
163 185 0
161 181 0
156 177 0
154 175 0
152 173 0
154 174 0
163 182 0
161 182 0
158 178 0
163 185 0
164 186 0
165 187 0
160 182 0
166 188 0
157 179 0
159 182 0
157 177 0
161 184 0
163 185 0
162 183 0
165 186 0
166 188 0
156 178 0
165 185 0
163 185 0
161 182 0
165 187 0
160 181 0
156 178 0
161 184 0
163 185 0
164 188 0
166 187 0
165 186 0
162 183 0
165 185 0
163 185 0
167 187 0
163 184 0
169 191 0
165 186 0
167 188 0
163 185 0
165 187 0
162 183 0
167 189 0
164 186 0
164 185 0
169 190 0
165 187 0
166 188 0
169 190 0
168 189 0
168 190 0
163 184 0
169 190 0
168 189 0
167 188 0
166 188 0
167 189 0
170 192 0
167 190 0
167 189 0
163 184 0
165 186 0
165 187 0
167 189 0
166 188 0
166 188 0
164 186 0
169 192 0
169 191 0
170 191 0
167 190 0
167 188 0
165 188 0
170 194 0
169 190 0
165 187 0
170 193 0
170 192 0
169 192 0
170 192 0
168 189 0
170 192 0
167 188 0
169 191 0
166 188 0
168 191 0
169 191 0
168 191 0
171 194 0
169 191 0
169 191 0
168 190 0
170 194 0
171 194 0
167 189 0
169 192 0
170 192 0
170 192 0
170 192 0
166 189 0
169 193 0
171 192 0
172 194 0
171 191 0
169 191 0
170 193 0
169 192 51
172 195 36
175 198 67
175 197 44
171 195 51
174 197 57
173 196 84
173 196 57
172 195 72
174 197 72
168 192 65
176 198 76
170 192 51
172 195 67
172 194 86
171 194 44
169 192 76
163 186 51
167 191 57
169 193 57
166 189 62
169 192 84
171 194 72
175 198 92
167 190 70
175 198 88
168 192 82
173 195 88
173 197 95
171 194 84
174 196 103
171 194 97
174 197 99
170 194 100
175 198 102
180 202 125
174 197 95
174 197 105
170 193 95
176 199 108
177 199 108
173 196 111
173 196 88
173 196 108
172 196 95
173 196 80
175 197 108
167 191 88
171 194 88
173 195 72
169 192 92
167 190 62
173 197 105
174 197 120
174 196 99
172 195 76
173 196 105
170 193 95
165 189 80
171 194 105
170 193 99
173 197 114
173 197 111
174 197 92
172 195 102
168 191 95
167 190 84
168 191 99
170 192 99
166 188 88
168 192 105
168 192 114
169 193 108
169 191 111
165 188 114
165 189 99
163 186 80
163 186 92
167 189 99
160 183 67
168 192 84
168 192 102
162 184 95
162 185 108
162 185 92
165 189 105
161 184 88
162 185 80
165 188 102
162 184 62
161 183 92
159 181 99
164 187 80
163 186 95
155 178 88
159 182 92
157 180 102
167 189 102
158 179 80
159 181 95
157 179 95
161 182 102
159 181 80
160 182 102
157 179 76
166 187 95
165 186 114
160 181 102
166 187 128
162 183 108
163 184 80
166 187 120
153 175 88
164 184 114
150 171 84
162 183 105
159 179 99
141 162 72
149 171 67
163 183 99
153 173 99
154 173 102
164 183 102
145 165 88
154 173 105
151 170 102
144 164 80
153 173 92
147 167 95
156 176 80
149 169 88
154 174 67
145 164 62
149 170 51
136 156 51
152 173 62
148 168 62
153 173 57
145 167 36
143 163 25
136 156 44
145 167 0
149 171 0
141 162 0
143 165 0
146 167 25
151 173 0
140 162 0
153 175 0
149 169 0
154 176 0
146 166 0
145 165 0
141 162 0
139 158 0
143 164 0
137 157 0
143 165 0
130 151 0
139 160 0
140 160 0
128 149 0
131 151 0
139 159 0
133 153 0
140 160 0
123 144 0
126 145 0
131 151 0
133 152 0
128 149 0
126 146 0
135 155 0
131 151 0
123 142 0
130 150 0
114 133 0
124 143 0
133 153 0
138 157 0
116 135 0
127 147 0
120 140 0
139 159 0
132 151 0
128 147 0
128 147 0
129 148 0
130 149 0
137 156 0
134 154 0
134 154 0
137 157 0
133 152 0
127 146 0
134 154 0
133 154 0
124 144 0
132 151 0
130 148 0
127 146 0
139 159 0
121 140 0
140 160 0
130 150 0
127 146 0
141 160 0
135 155 0
129 151 0
148 169 0
128 148 0
144 165 0
140 160 0
133 153 0
136 156 0
127 146 0
132 153 0
139 159 0
137 157 0
131 152 0
134 155 0
143 164 0
133 154 0
138 157 0
133 153 0
150 172 0
143 164 0
138 158 0
144 165 0
145 165 0
141 162 0
147 167 0
134 154 0
143 163 0
151 172 0
145 166 0
138 159 0
149 170 0
149 169 0
144 164 0
146 166 0
144 165 0
147 168 0
140 161 0
149 171 0
142 161 0
146 166 0
146 166 0
156 177 0
152 174 0
147 167 0
151 172 0
154 175 0
155 176 0
146 169 0
152 173 0
158 180 0
149 171 0
159 180 0
145 165 0
158 180 0
151 170 0
153 175 0
149 170 0
159 180 0
155 175 0
154 176 0
155 175 0
157 179 0
149 168 0
147 168 0
152 172 0
159 181 0
153 173 0
157 177 0
157 178 0
159 179 0
155 176 0
162 183 0
149 169 0
157 179 0
157 180 0
158 180 0
154 175 0
158 180 0
161 182 0
158 179 0
162 184 0
161 183 0
151 174 0
160 181 0
161 182 0
155 176 0
161 183 0
159 181 0
163 183 0
150 169 0
159 180 0
159 181 0
155 177 0
168 189 0
164 186 0
164 186 0
161 184 0
162 182 0
164 184 0
163 184 0
158 179 0
155 176 0
164 186 0
160 183 0
161 183 0
158 179 0
161 182 0
165 186 0
156 177 0
160 181 0
163 185 0
165 187 0
166 188 0
163 185 0
165 187 0
164 186 0
164 184 0
167 189 0
163 185 0
165 185 0
165 187 0
163 184 0
164 184 0
166 189 0
164 186 0
165 187 0
170 192 0
164 186 0
169 191 0
161 181 0
166 188 0
171 191 0
164 184 0
168 189 0
166 186 0
167 189 0
167 188 0
166 187 0
167 189 0
163 186 0
167 189 0
167 189 0
167 188 0
163 184 0
168 189 0
164 184 0
164 184 0
166 188 0
166 187 0
166 187 0
165 187 0
166 189 0
168 189 0
169 191 0
171 193 0
168 189 0
169 191 0
168 190 0
169 190 0
165 188 0
169 191 0
168 189 0
165 187 0
169 190 0
168 189 0
167 188 0
168 189 0
169 190 0
169 192 0
167 188 0
169 190 0
166 188 0
167 190 0
166 188 0
170 193 0
167 189 0
165 186 0
169 191 0
171 193 0
168 190 0
169 192 0
168 190 0
171 193 0
167 190 0
171 193 0
169 191 0
172 194 0
168 190 0
169 192 0
168 190 0
173 195 0
170 192 0
171 194 0
174 198 57
175 198 36
173 196 51
177 199 76
175 198 62
175 197 67
179 201 84
175 197 72
175 197 62
173 196 57
171 194 60
172 195 44
175 198 80
174 197 84
173 195 72
176 199 84
175 197 74
169 192 72
175 197 84
174 196 84
173 195 67
170 192 74
171 194 84
168 191 51
173 196 88
170 193 72
170 193 92
169 191 84
169 192 40
168 191 72
167 189 65
176 199 102
169 192 72
177 200 105
174 197 80
174 197 114
183 204 130
170 193 80
173 195 95
173 197 99
170 192 84
171 194 88
163 186 76
173 196 88
172 195 88
175 199 117
175 198 99
173 196 88
173 196 92
173 197 99
173 196 108
172 195 88
171 194 84
169 192 76
171 195 92
169 192 111
172 195 88
171 195 125
173 195 99
167 190 72
171 195 102
164 187 67
167 191 84
167 190 92
170 193 108
166 188 84
167 190 95
166 189 92
163 185 72
167 190 88
164 187 67
165 187 80
168 191 92
164 188 95
168 192 102
163 187 92
168 192 102
163 186 95
171 193 99
166 189 84
164 187 105
170 193 111
163 185 92
169 191 92
169 192 95
159 182 88
157 181 84
163 185 108
168 190 102
160 182 84
164 187 88
158 181 84
153 175 76
160 183 88
164 187 95
171 193 95
164 185 108
160 182 84
161 183 95
158 180 84
156 179 76
162 184 95
157 179 88
158 180 108
160 182 117
159 179 88
155 176 92
163 184 105
161 182 88
163 184 114
172 193 117
158 179 95
163 184 108
151 171 99
159 181 95
151 171 88
169 190 114
159 180 99
165 185 102
157 177 117
150 171 95
162 183 88
161 182 92
157 177 95
155 175 92
150 170 76
152 172 72
153 173 76
151 172 76
150 170 62
150 169 88
148 168 67
141 161 51
151 170 67
142 163 62
149 169 51
140 160 57
138 159 44
153 173 67
151 171 57
145 165 44
139 160 0
155 176 25
155 177 36
146 167 25
139 161 0
148 169 25
150 172 0
153 174 0
148 169 0
149 171 0
149 170 0
152 172 0
139 161 0
151 172 0
136 157 0
139 158 0
146 167 0
138 158 0
140 161 0
150 171 0
137 157 0
135 155 0
137 157 0
127 146 0
131 150 0
137 157 0
132 152 0
136 155 0
139 159 0
133 153 0
132 152 0
134 154 0
117 135 0
131 151 0
130 149 0
138 158 0
125 145 0
119 139 0
124 144 0
138 158 0
129 149 0
124 144 0
140 159 0
122 142 0
130 150 0
128 148 0
136 157 0
124 143 0
127 148 0
119 138 0
129 148 0
135 154 0
139 159 0
137 157 0
133 153 0
130 151 0
132 152 0
123 144 0
139 159 0
134 153 0
130 150 0
122 142 0
133 153 0
132 150 0
131 151 0
131 151 0
133 154 0
133 154 0
142 162 0
132 152 0
135 154 0
136 156 0
133 153 0
141 162 0
143 163 0
133 154 0
134 154 0
145 166 0
137 157 0
137 156 0
128 148 0
143 164 0
138 159 0
134 154 0
142 163 0
148 168 0
142 163 0
148 169 0
140 162 0
145 165 0
137 156 0
144 163 0
139 160 0
142 164 0
152 172 0
149 169 0
150 171 0
147 168 0
144 164 0
144 165 0
151 171 0
138 160 0
153 176 0
139 158 0
143 163 0
148 170 0
148 171 0
154 176 0
151 173 0
153 175 0
158 179 0
151 173 0
147 167 0
154 176 0
138 159 0
147 167 0
149 171 0
153 172 0
154 176 0
153 175 0
147 168 0
147 166 0
157 178 0
158 179 0
156 177 0
157 179 0
148 170 0
152 172 0
156 177 0
162 184 0
159 180 0
153 176 0
154 174 0
162 183 0
158 179 0
158 181 0
157 179 0
154 175 0
162 183 0
158 178 0
156 177 0
156 176 0
165 186 0
158 180 0
160 181 0
158 180 0
158 178 0
163 184 0
161 181 0
161 183 0
156 179 0
162 183 0
159 178 0
160 184 0
163 185 0
164 186 0
156 177 0
161 183 0
163 184 0
164 184 0
167 188 0
158 181 0
152 175 0
162 185 0
161 184 0
162 184 0
162 185 0
162 185 0
166 189 0
159 180 0
159 181 0
158 179 0
164 185 0
159 180 0
164 186 0
162 183 0
165 187 0
166 186 0
168 189 0
167 189 0
164 184 0
163 184 0
161 182 0
165 187 0
161 182 0
168 189 0
161 184 0
159 180 0
162 185 0
158 179 0
164 184 0
170 192 0
166 186 0
166 186 0
168 189 0
167 189 0
165 186 0
166 188 0
165 188 0
164 186 0
165 187 0
167 190 0
167 189 0
166 187 0
165 187 0
166 190 0
163 186 0
167 187 0
169 190 0
171 193 0
166 187 0
169 190 0
170 194 0
168 189 0
167 189 0
165 189 0
168 191 0
168 190 0
169 190 0
169 191 0
170 190 0
168 190 0
167 189 0
167 189 0
166 187 0
172 193 0
170 192 0
164 187 0
168 188 0
172 195 0
169 192 0
166 188 0
169 192 0
166 189 0
171 194 0
168 190 0
170 193 0
172 194 0
169 191 0
166 189 0
168 189 0
171 193 0
170 191 0
169 190 0
168 190 0
169 192 0
166 189 0
169 192 0
170 190 0
170 192 0
171 192 0
169 192 0
169 191 0
171 194 0
170 192 0
173 194 0
168 190 0
172 195 0
173 195 0
175 198 25
176 199 62
172 195 44
176 199 67
174 198 57
174 196 44
175 197 62
175 198 80
173 196 57
174 197 60
173 196 80
172 195 57
174 197 72
172 195 76
163 187 57
172 194 76
171 194 76
173 196 72
170 193 76
166 189 72
173 195 76
166 189 67
171 194 78
166 188 67
170 193 80
168 191 82
170 193 94
171 192 84
174 198 84
170 192 111
173 196 74
173 196 99
170 194 84
176 198 107
172 195 84
175 197 80
176 198 114
171 195 92
176 199 102
178 200 108
171 194 67
175 198 88
175 198 95
171 194 102
175 198 105
174 197 102
170 193 76
175 198 105
166 189 88
170 193 88
175 198 99
171 194 95
173 197 105
174 198 84
169 193 84
170 194 92
169 192 99
171 194 80
173 195 72
170 193 105
169 192 99
174 197 99
171 193 84
168 190 80
163 187 88
170 193 88
173 196 99
172 194 76
170 194 111
168 191 99
166 189 105
160 183 88
170 193 108
168 192 108
168 191 95
166 190 92
168 191 92
162 185 102
166 189 95
163 186 88
169 191 108
163 186 99
169 191 102
168 191 92
168 192 99
164 188 92
159 181 76
160 182 88
159 182 88
166 189 105
169 192 99
165 187 102
159 182 84
159 181 105
163 185 88
160 182 108
157 180 84
160 183 92
161 184 88
159 180 92
163 185 99
164 187 84
159 181 108
164 187 102
159 181 95
157 179 95
155 177 84
160 182 95
155 176 84
160 181 95
158 179 92
162 184 108
158 179 105
149 171 92
159 181 105
151 171 84
155 176 102
149 170 62
165 185 105
157 178 108
156 176 92
156 178 88
157 177 95
161 181 105
156 176 92
155 175 80
160 180 76
153 173 88
148 168 95
151 171 84
153 174 80
151 171 72
149 169 51
159 179 80
145 166 51
153 174 62
142 162 62
143 163 25
146 167 36
139 159 36
143 163 36
136 157 0
136 156 36
140 161 36
139 160 36
150 172 25
147 168 25
153 175 0
150 172 0
150 172 0
152 174 0
153 174 0
155 176 0
152 174 0
149 169 0
145 165 0
140 161 0
145 166 0
140 162 0
143 163 0
136 157 0
135 155 0
142 163 0
134 154 0
138 158 0
123 144 0
134 155 0
131 153 0
134 155 0
134 154 0
134 154 0
133 154 0
134 155 0
127 146 0
122 143 0
128 149 0
143 162 0
134 155 0
125 145 0
128 147 0
134 154 0
126 145 0
129 149 0
129 149 0
123 143 0
134 154 0
132 152 0
118 137 0
134 155 0
132 153 0
139 160 0
132 153 0
132 152 0
136 157 0
127 147 0
130 149 0
136 155 0
130 151 0
126 147 0
137 157 0
133 154 0
138 157 0
135 155 0
135 156 0
132 151 0
133 154 0
140 160 0
132 153 0
141 161 0
141 161 0
136 157 0
135 154 0
137 157 0
145 167 0
133 153 0
136 157 0
139 159 0
141 162 0
130 151 0
134 155 0
139 159 0
138 159 0
142 162 0
136 157 0
146 167 0
145 166 0
136 155 0
140 162 0
145 165 0
145 165 0
140 161 0
142 163 0
143 164 0
144 166 0
142 162 0
144 165 0
151 171 0
139 160 0
140 159 0
138 159 0
143 163 0
144 165 0
153 175 0
153 174 0
148 170 0
141 161 0
144 166 0
149 170 0
153 174 0
149 171 0
153 175 0
150 170 0
144 164 0
155 176 0
157 179 0
151 171 0
148 169 0
155 177 0
153 173 0
149 171 0
148 169 0
151 171 0
151 173 0
152 175 0
154 174 0
150 172 0
147 167 0
154 174 0
148 170 0
150 172 0
159 181 0
158 180 0
154 176 0
156 178 0
155 176 0
161 183 0
161 183 0
155 178 0
161 183 0
156 177 0
157 179 0
164 184 0
157 178 0
161 181 0
157 178 0
155 176 0
158 178 0
158 181 0
161 182 0
165 185 0
159 181 0
153 174 0
159 181 0
158 179 0
165 187 0
161 182 0
159 182 0
159 179 0
161 183 0
162 183 0
158 182 0
162 183 0
157 179 0
160 181 0
162 184 0
164 185 0
164 187 0
165 187 0
160 181 0
161 183 0
169 190 0
166 189 0
164 187 0
163 185 0
162 184 0
160 182 0
164 186 0
165 186 0
164 186 0
162 183 0
165 187 0
165 185 0
163 185 0
163 184 0
165 186 0
167 188 0
161 183 0
166 187 0
165 186 0
163 184 0
165 187 0
166 186 0
164 185 0
165 187 0
167 188 0
166 188 0
165 187 0
163 184 0
168 190 0
169 189 0
167 189 0
169 192 0
166 189 0
165 187 0
167 189 0
167 186 0
166 189 0
165 187 0
167 189 0
169 192 0
162 185 0
170 190 0
167 188 0
167 188 0
169 192 0
166 187 0
165 187 0
170 193 0
164 184 0
168 190 0
167 189 0
170 191 0
168 190 0
167 189 0
167 188 0
173 196 0
170 192 0
165 187 0
167 189 0
170 193 0
165 188 0
169 191 0
168 190 0
171 192 0
170 191 0
164 185 0
169 191 0
166 187 0
172 194 0
169 191 0
166 189 0
167 191 0
171 195 0
169 192 0
171 193 0
172 194 0
169 192 0
167 188 0
170 192 0
172 195 0
167 189 0
170 191 0
171 192 0
174 195 0
170 191 0
171 193 0
167 189 0
171 192 0
170 192 0
168 191 0
172 195 36
174 197 57
173 196 51
174 197 67
175 198 62
179 200 84
173 196 57
174 196 62
175 197 84
171 195 44
173 195 76
169 192 62
176 198 70
169 192 51
173 196 84
171 194 62
175 198 102
173 195 67
170 192 72
169 192 60
169 192 90
163 186 60
170 192 78
170 192 70
172 195 62
166 189 78
169 192 84
166 189 54
175 197 105
173 196 78
174 197 99
171 194 74
171 193 57
168 191 94
176 198 76
180 202 108
175 197 97
176 199 102
173 196 84
174 197 105
174 196 108
175 198 99
172 195 95
176 199 95
172 195 108
173 196 88
173 196 111
172 194 95
175 198 105
174 196 108
177 200 130
170 193 111
164 188 72
167 191 88
169 192 80
175 198 117
172 195 92
169 193 95
170 192 88
172 195 105
175 197 108
171 193 80
171 195 88
171 195 92
169 191 88
164 187 88
164 188 95
168 191 111
167 190 84
167 190 88
165 188 111
167 191 102
168 191 84
163 186 84
165 189 111
168 191 105
170 193 102
171 194 111
159 180 67
170 193 102
166 189 105
164 187 102
171 194 102
171 193 122
168 191 99
164 186 105
161 184 84
165 188 67
159 181 92
169 191 84
166 188 95
166 189 102
163 185 88
165 188 102
165 186 102
167 189 102
169 191 114
164 186 102
162 184 76
160 182 84
165 187 95
152 174 84
164 186 92
160 182 88
153 174 76
158 181 95
162 184 111
158 179 84
154 175 92
169 190 120
162 183 120
163 184 120
155 176 88
154 175 88
156 177 88
159 180 95
165 185 105
153 174 76
156 178 92
144 165 76
160 181 95
162 183 102
152 172 72
156 176 102
158 178 102
162 183 95
159 178 80
163 183 88
150 170 84
158 178 76
158 177 80
149 169 62
153 174 76
142 163 44
149 169 57
138 158 51
148 170 36
148 169 44
148 169 44
145 165 51
153 175 0
142 162 36
143 165 25
152 173 25
152 173 0
152 173 0
153 174 25
151 172 25
147 169 0
148 171 0
161 182 0
151 172 0
142 163 0
145 166 0
151 172 0
147 168 0
148 169 0
147 168 0
132 153 0
139 160 0
147 167 0
137 158 0
141 162 0
131 151 0
119 140 0
143 163 0
132 153 0
125 145 0
132 152 0
128 149 0
137 158 0
136 155 0
134 153 0
139 160 0
130 150 0
129 148 0
138 158 0
127 147 0
131 152 0
123 143 0
132 151 0
130 150 0
132 152 0
125 145 0
127 146 0
134 155 0
141 161 0
128 147 0
136 156 0
135 155 0
131 151 0
136 158 0
134 155 0
122 141 0
136 156 0
130 151 0
128 149 0
135 155 0
126 147 0
142 162 0
141 161 0
142 162 0
141 161 0
138 158 0
140 160 0
137 157 0
143 164 0
141 160 0
138 160 0
136 157 0
126 146 0
136 156 0
140 161 0
136 158 0
142 163 0
137 158 0
141 163 0
146 166 0
145 164 0
134 156 0
140 162 0
137 157 0
140 159 0
146 168 0
138 159 0
143 165 0
141 162 0
144 166 0
138 157 0
139 159 0
138 158 0
149 170 0
149 171 0
146 167 0
137 158 0
144 165 0
149 169 0
153 175 0
150 171 0
144 166 0
153 174 0
149 170 0
144 166 0
156 178 0
144 164 0
144 165 0
147 168 0
141 163 0
148 170 0
146 167 0
151 172 0
146 167 0
157 179 0
150 173 0
147 167 0
159 180 0
151 171 0
151 173 0
154 175 0
161 181 0
156 177 0
148 171 0
156 177 0
155 177 0
152 175 0
156 177 0
154 173 0
155 176 0
154 175 0
158 178 0
149 170 0
155 177 0
160 183 0
160 180 0
154 176 0
163 184 0
155 176 0
156 176 0
159 181 0
159 182 0
157 178 0
155 177 0
158 179 0
156 179 0
158 180 0
161 182 0
162 185 0
165 188 0
159 180 0
155 177 0
164 185 0
162 184 0
164 186 0
161 183 0
162 183 0
162 183 0
158 179 0
164 185 0
162 183 0
157 178 0
163 185 0
162 183 0
158 181 0
165 186 0
161 180 0
160 182 0
165 187 0
163 185 0
164 185 0
163 184 0
164 187 0
164 185 0
165 187 0
166 188 0
159 179 0
166 188 0
161 183 0
161 183 0
166 187 0
169 190 0
168 190 0
165 186 0
165 186 0
160 181 0
160 184 0
168 189 0
167 188 0
164 185 0
167 187 0
166 187 0
161 182 0
167 188 0
166 187 0
169 192 0
166 188 0
169 191 0
166 188 0
164 185 0
163 184 0
168 190 0
168 188 0
165 187 0
163 186 0
167 188 0
166 187 0
163 185 0
168 190 0
165 188 0
165 186 0
168 190 0
163 184 0
166 188 0
164 186 0
166 189 0
165 186 0
167 188 0
170 191 0
168 190 0
166 188 0
169 192 0
163 184 0
165 187 0
169 190 0
169 191 0
170 193 0
166 189 0
171 194 0
170 191 0
170 193 0
164 187 0
165 187 0
170 193 0
166 189 0
169 192 0
170 192 0
168 191 0
169 191 0
168 191 0
162 183 0
167 188 0
166 188 0
168 191 0
168 191 0
169 191 0
171 193 0
171 193 0
170 191 0
170 193 0
167 190 0
170 193 0
172 194 0
171 193 0
172 194 0
172 194 0
169 191 0
171 192 0
170 193 0
170 193 0
170 191 0
167 190 0
173 196 62
173 196 44
176 199 62
175 198 67
175 198 57
176 198 57
173 195 72
173 196 44
175 198 57
171 193 67
176 198 67
173 196 67
172 195 70
169 191 67
178 200 82
175 196 72
172 195 72
171 193 74
168 191 78
169 191 74
171 194 82
170 192 88
164 187 67
171 194 92
169 192 62
170 193 90
170 192 76
175 198 82
175 198 92
169 191 97
168 191 88
173 195 88
173 196 80
173 196 84
174 197 102
177 199 108
178 199 117
175 197 117
172 194 100
174 197 99
176 199 95
175 197 108
170 192 88
173 196 92
169 192 95
177 201 105
171 194 92
173 197 105
168 191 95
168 191 57
169 192 102
175 197 105
170 194 99
168 192 108
170 193 117
168 191 80
174 198 102
171 194 108
172 195 105
166 190 88
170 193 99
166 189 67
166 190 88
165 188 80
165 188 92
167 190 92
169 191 92
167 190 102
163 188 88
169 192 95
170 194 114
170 193 108
165 187 80
166 189 95
163 186 80
167 190 84
165 187 99
160 183 84
164 188 105
169 191 99
173 196 114
168 190 95
166 189 108
161 184 84
168 191 99
166 189 102
155 178 76
163 185 84
165 187 105
163 186 102
163 185 84
165 188 95
167 189 108
158 180 76
160 182 76
163 185 114
165 188 92
158 180 92
158 181 102
160 182 99
170 191 108
158 179 95
159 181 95
158 180 72
161 182 108
158 179 72
161 182 108
155 176 84
160 182 99
159 181 114
160 182 76
158 180 92
161 182 80
155 177 88
149 170 84
158 178 76
152 173 95
153 173 105
158 178 99
156 176 102
146 166 80
162 183 114
153 173 80
158 179 99
150 170 80
162 183 99
152 172 76
156 176 72
158 178 99
157 178 57
149 169 44
155 177 44
150 171 72
150 171 57
153 173 51
149 170 57
151 172 51
146 167 51
151 172 36
152 173 36
144 165 44
147 168 25
153 174 36
144 165 0
156 178 25
150 172 0
153 176 25
150 172 25
158 179 0
149 170 0
141 163 0
153 175 0
148 170 0
138 159 0
140 161 0
136 156 0
141 162 0
148 169 0
144 165 0
140 160 0
134 154 0
130 151 25
140 161 0
129 149 0
137 158 0
135 156 0
137 156 0
133 153 0
135 155 0
143 162 0
127 147 0
126 146 0
137 157 0
137 158 0
138 159 0
132 153 0
137 157 0
126 146 0
136 156 0
131 151 0
131 151 0
134 155 0
135 155 0
136 156 0
133 152 0
138 159 0
126 146 0
136 155 0
139 160 0
133 154 0
125 145 0
140 160 0
142 162 0
138 159 0
129 150 0
137 156 0
135 155 0
145 166 0
135 157 0
127 148 0
147 168 0
139 159 0
122 143 0
144 165 0
146 168 0
142 163 0
146 165 0
142 162 0
142 161 0
140 160 0
134 155 0
142 163 0
140 160 0
137 158 0
136 158 0
144 164 0
152 173 0
144 166 0
144 165 0
144 163 0
140 160 0
133 152 0
144 164 0
144 165 0
134 155 0
148 170 0
141 162 0
148 169 0
149 170 0
153 174 0
145 165 0
145 167 0
147 168 0
152 174 0
147 169 0
144 164 0
148 170 0
143 165 0
144 165 0
146 168 0
154 176 0
152 175 0
146 167 0
148 169 0
145 167 0
147 168 0
151 173 0
159 181 0
151 172 0
154 177 0
148 169 0
153 172 0
150 171 0
154 176 0
152 173 0
155 176 0
153 175 0
156 176 0
154 175 0
153 175 0
154 176 0
150 171 0
154 176 0
149 169 0
153 172 0
153 176 0
154 177 0
152 172 0
159 181 0
158 180 0
159 180 0
160 182 0
155 177 0
155 177 0
160 181 0
158 178 0
157 178 0
157 176 0
160 182 0
150 170 0
155 177 0
161 183 0
163 184 0
161 184 0
158 180 0
159 181 0
157 178 0
162 183 0
158 180 0
163 185 0
161 184 0
160 182 0
163 184 0
164 186 0
162 182 0
169 191 0
160 183 0
159 181 0
155 177 0
161 185 0
164 185 0
160 182 0
166 188 0
161 182 0
164 187 0
159 181 0
162 182 0
164 185 0
163 186 0
164 184 0
164 186 0
161 183 0
165 186 0
158 179 0
158 180 0
162 184 0
165 187 0
161 184 0
170 191 0
169 190 0
163 185 0
163 185 0
160 180 0
163 185 0
165 187 0
165 188 0
163 185 0
161 184 0
167 189 0
170 193 0
167 188 0
164 185 0
161 182 0
165 188 0
165 188 0
167 189 0
170 191 0
167 189 0
162 184 0
168 190 0
167 189 0
163 184 0
168 190 0
167 189 0
165 186 0
162 183 0
166 188 0
170 192 0
162 185 0
166 187 0
169 192 0
166 188 0
170 193 0
164 186 0
170 192 0
166 188 0
168 189 0
168 188 0
168 191 0
171 192 0
166 188 0
169 192 0
165 187 0
167 190 0
170 192 0
169 190 0
172 194 0
169 190 0
166 189 0
170 193 0
164 185 0
170 194 0
169 190 0
170 192 0
171 195 0
170 192 0
170 192 0
170 193 0
171 192 0
170 192 0
171 194 0
169 190 0
169 192 0
168 190 0
167 190 0
169 192 0
169 192 0
170 191 0
171 192 0
169 189 0
171 194 0
171 193 0
166 190 0
169 191 0
170 191 0
168 191 0
171 193 0
170 194 0
168 191 0
170 192 0
174 197 44
174 197 44
176 198 62
175 197 67
174 196 57
175 198 57
173 196 62
172 195 57
173 195 65
173 196 62
173 195 62
177 199 67
170 193 51
175 199 76
175 197 62
167 190 51
173 195 84
175 197 90
166 188 65
167 190 67
171 193 94
170 192 76
170 192 80
172 195 60
168 191 70
168 192 88
173 196 86
166 189 76
169 191 80
177 199 102
174 196 80
168 191 82
175 197 99
175 197 111
177 200 95
173 196 67
171 194 96
173 196 95
177 200 102
172 195 90
175 197 105
171 195 84
174 196 88
171 194 105
175 198 105
173 195 80
175 198 102
172 195 99
174 197 88
175 198 92
173 195 99
170 193 95
175 198 108
176 199 120
172 195 105
170 193 108
168 190 80
172 195 105
172 195 102
174 197 108
174 197 108
168 192 111
168 191 92
168 191 99
170 193 105
165 188 99
174 198 120
170 192 88
169 192 95
158 182 80
161 183 80
165 187 76
169 192 95
168 191 102
165 188 92
170 193 117
167 190 99
164 188 76
168 191 114
167 190 102
169 192 108
167 190 80
165 187 99
164 186 84
161 183 95
168 190 105
159 181 76
159 181 76
160 182 84
160 183 99
159 181 95
163 185 88
165 187 88
164 186 108
157 179 84
157 180 84
163 186 108
162 185 88
164 186 95
162 182 114
157 179 92
158 180 84
161 184 102
159 180 99
168 190 105
163 184 114
162 183 102
164 186 72
168 189 102
157 178 72
167 187 120
160 182 84
165 186 117
151 172 92
168 189 120
163 184 95
162 182 102
155 176 92
163 183 105
154 175 95
165 186 88
154 173 84
158 179 84
155 175 80
160 180 92
158 178 95
161 181 95
155 174 102
155 176 95
157 177 99
147 168 62
152 172 84
145 166 57
149 169 57
148 170 36
145 167 25
142 163 25
153 175 36
143 164 25
147 168 0
153 175 25
148 170 25
153 174 36
155 177 44
147 169 0
151 173 0
157 179 0
150 172 25
153 176 0
146 168 0
146 168 0
149 171 0
144 166 0
152 174 0
151 173 0
146 168 0
131 153 0
150 172 0
143 163 0
147 167 0
138 159 0
139 159 0
141 162 0
137 158 0
130 150 0
133 154 0
134 155 0
133 154 0
131 152 0
133 154 0
136 156 0
131 151 0
128 150 0
140 161 0
134 155 0
125 146 0
137 157 0
130 151 0
140 160 0
134 155 0
142 161 0
136 157 0
139 159 0
143 164 0
120 141 0
130 149 0
131 150 0
133 153 0
134 154 0
134 154 0
132 151 0
140 162 0
133 153 0
135 157 0
125 145 0
135 155 0
146 167 0
133 154 0
138 158 0
126 146 0
127 147 0
135 154 0
138 159 0
145 166 0
147 167 0
140 161 0
126 146 0
126 146 0
135 155 0
136 157 0
142 165 0
138 158 0
142 162 0
137 156 0
137 158 0
138 159 0
142 163 0
142 163 0
141 161 0
139 159 0
142 162 0
151 172 0
136 158 0
138 159 0
140 161 0
149 168 0
142 161 0
148 168 0
138 159 0
147 167 0
151 173 0
151 173 0
142 163 0
144 162 0
146 167 0
156 177 0
143 165 0
145 165 0
154 176 0
143 164 0
147 168 0
147 169 0
146 168 0
152 174 0
150 173 0
149 170 0
151 172 0
148 169 0
153 175 0
153 175 0
148 170 0
150 171 0
149 170 0
153 177 0
154 175 0
157 178 0
153 174 0
153 175 0
155 176 0
149 170 0
155 177 0
149 170 0
161 182 0
154 176 0
154 176 0
155 176 0
158 179 0
157 178 0
155 176 0
155 177 0
155 177 0
156 179 0
161 183 0
156 178 0
153 174 0
158 179 0
156 177 0
156 179 0
153 176 0
152 173 0
150 170 0
153 175 0
149 169 0
165 188 0
159 178 0
166 188 0
162 183 0
160 182 0
159 180 0
159 181 0
163 184 0
165 185 0
161 182 0
157 177 0
160 181 0
158 180 0
161 183 0
162 184 0
154 175 0
162 183 0
163 183 0
161 184 0
161 183 0
159 180 0
156 178 0
160 181 0
160 182 0
163 185 0
159 181 0
161 181 0
162 182 0
164 185 0
163 186 0
165 188 0
161 182 0
166 189 0
166 189 0
168 189 0
168 190 0
169 192 0
164 186 0
165 186 0
169 191 0
167 189 0
165 187 0
164 185 0
163 184 0
165 186 0
164 185 0
164 187 0
166 188 0
168 190 0
170 192 0
167 188 0
170 191 0
166 189 0
167 190 0
169 192 0
164 186 0
168 191 0
163 184 0
167 188 0
165 188 0
166 189 0
162 184 0
169 190 0
169 193 0
170 189 0
171 192 0
167 189 0
164 186 0
171 193 0
169 192 0
168 190 0
170 191 0
164 185 0
166 188 0
167 189 0
167 189 0
172 194 0
170 191 0
168 191 0
169 190 0
169 191 0
168 192 0
171 193 0
167 188 0
172 196 0
166 187 0
165 188 0
168 191 0
170 193 0
168 191 0
168 191 0
170 191 0
171 193 0
165 187 0
165 186 0
169 192 0
168 191 0
172 193 0
167 189 0
171 193 0
168 189 0
166 189 0
170 191 0
169 190 0
172 194 0
169 192 0
169 192 0
170 192 0
168 189 0
170 192 0
170 192 0
173 195 0
171 193 0
171 193 0
171 193 0
168 191 0
169 192 0
171 194 40
174 197 54
173 195 65
172 195 62
172 195 36
172 196 36
172 194 36
172 194 54
173 196 44
170 192 44
165 188 62
176 198 76
171 194 70
170 193 51
171 193 62
173 195 88
171 194 70
170 193 78
173 196 86
168 191 60
165 188 80
174 196 76
175 198 88
172 194 72
168 191 70
169 193 60
170 193 102
170 192 57
166 188 78
169 191 84
167 191 78
174 196 100
170 192 97
168 191 80
170 193 78
171 193 88
173 196 102
174 197 102
170 193 76
175 199 108
172 194 67
176 198 103
176 198 105
173 196 102
177 199 108
172 194 105
169 192 80
172 195 88
177 200 108
168 191 99
176 198 99
173 196 111
176 198 117
174 197 120
173 196 105
169 192 62
166 190 80
168 192 84
171 193 76
173 196 80
166 190 84
171 193 80
175 198 120
164 186 95
169 193 95
169 193 95
166 189 99
171 195 108
165 188 102
164 187 76
172 195 105
162 185 88
168 190 80
173 196 111
170 192 102
168 191 105
164 187 84
159 181 102
159 182 57
164 187 95
163 184 80
170 193 88
167 190 88
170 192 88
163 186 99
168 191 99
158 180 92
168 191 102
160 183 76
166 188 84
159 182 95
168 190 95
169 191 105
158 180 95
154 176 92
160 182 102
167 189 92
159 181 92
166 189 105
164 185 88
166 188 105
158 179 99
161 183 76
168 189 108
162 184 102
150 171 62
161 182 105
157 177 102
160 181 105
161 182 111
157 178 72
147 168 84
157 178 95
158 178 76
161 181 88
167 188 105
160 180 95
160 180 117
165 186 102
159 180 92
158 179 88
166 186 92
159 180 80
155 176 88
158 178 84
153 174 72
149 169 62
153 173 84
154 175 76
148 169 72
153 174 62
149 170 51
158 178 62
152 172 57
157 179 57
152 173 36
154 175 36
155 176 36
151 173 25
146 167 0
146 167 25
158 179 25
156 176 44
155 177 25
158 180 25
150 171 0
138 159 0
149 171 0
152 173 0
149 170 0
153 175 0
155 176 0
154 176 0
149 171 0
145 168 0
142 162 0
145 167 0
138 159 0
141 163 0
139 159 0
136 158 0
138 159 0
145 167 0
137 157 0
136 157 0
143 163 0
130 150 0
136 156 0
142 163 0
136 157 0
138 157 0
137 157 0
133 154 0
132 153 0
131 151 0
130 148 0
136 157 0
140 160 0
144 165 0
129 149 0
135 155 0
133 154 0
140 161 0
128 149 0
136 156 0
117 136 0
135 156 0
140 159 0
140 162 0
131 152 0
140 159 0
136 157 0
140 159 0
132 152 0
137 158 0
141 163 0
137 156 0
136 157 0
131 152 0
136 157 0
131 151 0
134 155 0
133 155 0
140 162 0
136 158 0
131 153 0
127 148 0
139 159 0
145 165 0
142 163 0
140 160 0
146 168 0
143 164 0
142 163 0
139 160 0
140 160 0
146 166 0
139 160 0
133 155 0
147 167 0
147 169 0
131 151 0
142 163 0
149 170 0
140 160 0
136 157 0
147 168 0
137 158 0
154 176 0
136 158 0
145 165 0
143 164 0
146 167 0
143 165 0
154 175 0
145 165 0
146 167 0
149 171 0
147 168 0
155 177 0
145 165 0
153 175 0
147 169 0
152 175 0
147 168 0
155 177 0
146 168 0
153 174 0
150 171 0
147 168 0
154 175 0
152 173 0
158 180 0
149 168 0
152 174 0
158 180 0
153 174 0
158 178 0
150 170 0
160 180 0
147 168 0
158 180 0
157 177 0
155 177 0
162 183 0
155 175 0
159 181 0
152 174 0
150 171 0
153 174 0
155 176 0
166 189 0
156 177 0
158 179 0
153 175 0
161 182 0
160 183 0
160 182 0
157 176 0
155 178 0
158 179 0
158 179 0
157 178 0
158 180 0
157 178 0
162 184 0
159 181 0
155 176 0
157 179 0
159 181 0
162 184 0
153 175 0
160 181 0
160 182 0
165 187 0
160 182 0
153 175 0
163 183 0
166 188 0
161 183 0
159 182 0
163 184 0
166 188 0
162 183 0
162 185 0
165 187 0
160 182 0
162 186 0
161 183 0
160 180 0
161 183 0
166 189 0
162 185 0
156 178 0
166 186 0
164 186 0
161 183 0
166 188 0
167 188 0
159 180 0
168 190 0
168 189 0
165 187 0
165 187 0
167 190 0
163 185 0
170 192 0
167 189 0
163 186 0
166 188 0
166 188 0
162 184 0
166 188 0
166 188 0
161 184 0
163 183 0
168 190 0
162 183 0
168 189 0
168 190 0
170 191 0
166 189 0
164 184 0
167 188 0
166 188 0
164 185 0
168 189 0
165 189 0
167 189 0
168 191 0
166 188 0
164 185 0
170 193 0
168 189 0
171 193 0
171 194 0
167 189 0
167 189 0
168 190 0
163 186 0
170 192 0
169 191 0
171 194 0
170 191 0
171 193 0
168 189 0
166 190 0
168 189 0
167 190 0
169 190 0
166 187 0
172 194 0
166 186 0
168 191 0
171 192 0
172 194 0
168 191 0
167 187 0
168 191 0
169 190 0
169 191 0
165 187 0
167 189 0
170 192 0
171 192 0
170 191 0
169 191 0
168 191 0
170 192 0
168 191 0
172 193 0
171 193 0
171 195 0
169 192 0
171 194 0
172 195 0
170 192 0
169 191 0
168 191 0
165 187 0
174 197 36
172 195 36
176 199 51
173 196 62
177 200 76
174 197 44
174 197 51
175 198 51
176 198 44
172 195 72
171 193 57
169 192 36
175 197 95
174 195 99
170 194 60
169 192 51
172 195 57
170 193 51
170 192 62
167 189 95
172 194 76
167 189 60
173 196 84
172 195 60
171 193 76
171 194 100
166 189 74
170 193 80
170 193 72
165 188 82
172 195 82
169 192 90
174 197 88
165 188 67
174 196 92
174 197 94
177 199 88
176 198 110
174 197 88
173 195 105
174 198 105
170 192 95
174 197 99
167 189 95
177 199 92
173 196 99
173 196 99
168 191 88
172 196 76
174 196 72
171 194 105
169 192 105
167 190 99
174 197 88
170 193 95
168 190 95
175 197 80
171 194 111
173 196 88
174 196 108
167 190 95
169 191 108
168 191 76
172 194 108
169 193 95
172 195 108
166 189 99
171 195 99
168 191 105
170 193 95
169 192 105
166 189 72
167 190 95
169 192 102
170 193 111
170 192 95
170 193 95
165 188 88
164 186 111
165 187 88
165 188 99
165 188 105
167 190 92
168 190 114
169 192 95
163 186 88
163 184 84
168 190 102
158 180 76
159 182 92
163 184 95
165 187 92
153 175 84
155 178 72
162 184 92
162 184 108
163 184 92
162 184 102
158 180 76
159 181 80
167 188 111
158 179 88
164 185 108
153 175 92
161 182 95
161 183 80
162 183 92
162 183 99
155 176 88
160 181 88
163 184 108
156 177 67
159 180 99
153 174 99
155 176 99
157 178 84
158 178 95
153 174 76
162 182 88
162 183 84
158 178 72
161 182 84
166 186 95
163 183 102
158 179 76
160 181 92
155 176 80
154 175 84
151 172 67
152 173 67
151 172 67
149 170 72
160 180 72
147 168 51
155 177 25
145 166 25
145 166 51
150 171 51
156 178 51
145 165 25
152 174 44
149 170 0
153 176 0
151 173 0
155 177 25
157 178 36
152 174 25
158 180 0
150 173 25
154 176 0
147 169 0
154 175 0
151 173 0
147 170 0
150 172 0
148 169 0
148 170 0
136 156 0
141 161 0
138 159 0
145 167 0
145 166 0
139 160 0
146 168 0
138 159 0
135 156 0
135 156 0
138 158 0
140 160 0
138 158 0
152 173 0
134 156 0
138 159 0
134 154 0
133 154 0
152 172 0
133 154 0
122 143 0
134 154 0
140 161 0
135 156 0
133 154 0
134 154 0
131 152 0
138 158 0
131 151 0
142 163 0
148 169 0
143 163 0
136 157 0
141 162 0
129 149 0
137 158 0
134 154 0
139 161 0
137 158 0
139 160 0
142 163 0
144 164 0
130 151 0
146 167 0
143 164 0
146 167 0
141 162 0
133 155 0
141 162 0
130 152 0
140 161 0
143 164 0
145 166 0
135 156 0
139 161 0
143 163 0
138 159 0
145 166 0
147 169 0
148 170 0
146 166 0
142 163 0
134 155 0
151 172 0
140 161 0
151 172 0
147 168 0
155 177 0
137 158 0
137 159 0
143 165 0
146 167 0
149 170 0
155 177 0
148 169 0
156 177 0
145 165 0
148 170 0
157 179 0
146 168 0
141 162 0
146 167 0
149 170 0
145 167 0
156 177 0
150 172 0
159 180 0
151 172 0
149 170 0
148 170 0
151 173 0
151 173 0
147 168 0
149 171 0
151 173 0
154 174 0
152 173 0
154 175 0
148 171 0
158 180 0
149 171 0
148 170 0
160 183 0
149 169 0
155 177 0
154 175 0
149 170 0
157 180 0
157 180 0
153 174 0
146 166 0
159 181 0
150 171 0
160 181 0
163 186 0
159 181 0
159 181 0
161 183 0
159 181 0
155 176 0
162 184 0
164 186 0
163 185 0
161 183 0
164 187 0
158 180 0
164 185 0
152 173 0
163 184 0
161 184 0
154 176 0
163 185 0
160 182 0
162 183 0
164 186 0
160 182 0
164 186 0
162 183 0
162 183 0
163 186 0
162 182 0
164 186 0
162 184 0
163 184 0
167 188 0
163 185 0
160 181 0
168 190 0
163 185 0
166 187 0
159 180 0
159 180 0
166 189 0
162 183 0
164 184 0
166 187 0
166 186 0
162 184 0
162 184 0
161 182 0
165 187 0
166 190 0
168 189 0
160 182 0
166 188 0
164 186 0
164 186 0
161 180 0
164 187 0
166 189 0
163 185 0
167 188 0
164 186 0
169 190 0
167 189 0
166 187 0
167 188 0
166 187 0
159 181 0
167 190 0
165 187 0
166 188 0
168 189 0
163 184 0
164 184 0
170 193 0
163 184 0
167 190 0
165 188 0
167 189 0
165 187 0
169 190 0
172 195 0
166 187 0
165 189 0
170 193 0
168 189 0
168 190 0
168 190 0
168 188 0
170 193 0
171 192 0
171 194 0
165 188 0
166 188 0
164 187 0
167 189 0
168 190 0
170 193 0
167 189 0
168 190 0
168 190 0
169 192 0
170 192 0
166 188 0
165 188 0
167 189 0
170 191 0
170 193 0
168 190 0
168 191 0
169 191 0
173 195 0
168 191 0
168 192 0
169 192 0
171 193 0
169 191 0
170 191 0
169 190 0
171 194 0
170 194 0
171 193 0
170 193 0
171 192 0
171 193 0
172 195 0
171 194 0
170 192 0
172 194 0
166 189 0
172 195 0
168 190 0
176 199 51
175 197 44
175 197 25
174 196 60
173 196 51
172 196 60
171 194 51
176 199 80
170 193 72
172 195 57
170 192 72
178 199 84
176 198 95
170 194 57
171 194 78
170 192 78
169 193 44
172 194 62
170 193 76
170 193 72
176 198 90
166 189 82
168 191 76
170 192 78
170 193 78
172 195 97
168 191 80
173 196 86
169 191 94
171 193 65
176 198 107
174 196 92
173 195 70
171 194 94
178 200 108
171 194 97
170 193 92
170 194 92
174 197 94
170 192 76
171 194 102
176 198 105
176 198 92
175 198 92
173 196 92
173 196 105
172 195 95
171 195 108
175 197 88
177 199 105
165 189 92
170 193 108
170 192 95
171 194 111
174 195 95
172 195 99
172 195 99
173 195 92
164 187 94
172 194 95
172 195 102
170 193 105
172 196 105
170 192 72
168 191 92
165 188 92
167 190 99
162 185 94
165 189 95
164 186 99
165 189 95
171 194 111
168 191 92
168 190 102
165 187 108
168 190 84
168 191 95
170 193 111
165 188 80
170 192 108
168 191 102
165 188 102
167 190 114
166 188 99
162 184 102
166 189 102
169 191 102
166 189 84
162 184 108
157 181 80
165 187 102
161 184 99
168 190 99
161 183 84
164 186 80
173 194 99
163 186 92
162 184 95
157 178 99
161 184 99
163 184 88
157 179 76
161 182 105
167 189 99
158 180 95
161 182 95
166 186 102
166 188 114
161 183 80
163 185 108
160 181 95
162 183 80
166 187 105
156 177 72
156 177 92
159 180 102
162 182 80
164 184 99
160 181 99
162 183 92
165 187 105
153 173 80
159 180 92
163 183 117
162 182 84
156 177 88
161 183 95
155 176 72
159 179 76
150 171 57
151 171 72
150 172 44
153 174 88
150 171 44
153 174 51
157 178 72
154 175 57
158 181 25
149 171 0
153 175 44
159 179 0
151 172 0
154 177 25
157 179 0
155 177 0
156 179 0
150 172 0
150 173 25
151 173 0
153 175 0
151 173 0
160 183 0
148 171 0
157 178 0
147 170 0
140 163 0
154 175 25
145 166 0
143 164 0
139 161 0
139 161 25
137 157 0
139 160 0
136 158 0
136 157 0
137 157 0
139 159 0
142 163 0
139 160 0
138 158 0
136 157 0
138 159 0
134 154 0
134 155 0
145 166 0
146 167 0
138 159 0
138 160 0
151 173 0
146 166 0
139 160 0
144 165 0
137 158 0
134 155 0
143 164 0
125 146 0
135 156 0
134 155 0
135 156 0
137 157 0
135 155 0
136 156 0
141 163 0
141 162 0
130 150 0
142 164 0
139 161 0
137 159 0
136 157 0
146 167 0
139 160 0
144 164 0
136 157 0
145 166 0
139 160 0
146 167 0
151 172 0
143 163 0
142 164 0
147 168 0
142 162 0
144 166 0
147 168 0
144 165 0
143 164 0
134 154 0
144 166 0
142 163 0
139 160 0
147 167 0
145 165 0
140 161 0
145 166 0
151 172 0
150 172 0
150 172 0
151 172 0
147 169 0
144 164 0
146 166 0
152 174 0
147 169 0
154 175 0
152 175 0
154 177 0
150 172 0
150 171 0
140 160 0
151 173 0
147 169 0
157 179 0
157 177 0
144 166 0
151 172 0
154 176 0
162 184 0
148 170 0
148 170 0
148 170 0
157 180 0
153 174 0
150 171 0
156 178 0
155 178 0
155 177 0
153 174 0
154 175 0
156 178 0
160 182 0
153 174 0
154 176 0
156 177 0
156 178 0
154 177 0
160 181 0
150 171 0
159 180 0
158 182 0
156 178 0
154 175 0
159 180 0
155 176 0
162 184 0
160 181 0
157 181 0
156 177 0
157 178 0
157 180 0
156 177 0
156 176 0
156 177 0
159 179 0
156 178 0
152 173 0
160 181 0
156 177 0
159 180 0
158 179 0
163 185 0
160 182 0
159 181 0
159 180 0
161 184 0
157 178 0
165 187 0
150 171 0
165 188 0
165 188 0
165 185 0
158 180 0
167 189 0
159 181 0
166 189 0
164 186 0
163 185 0
164 186 0
164 184 0
167 187 0
161 183 0
166 188 0
159 181 0
161 183 0
166 188 0
167 189 0
164 187 0
162 184 0
168 190 0
166 188 0
164 186 0
159 179 0
167 190 0
162 186 0
165 189 0
168 189 0
164 185 0
165 187 0
164 186 0
163 185 0
166 187 0
166 188 0
163 185 0
163 184 0
167 190 0
167 190 0
168 189 0
167 190 0
167 190 0
165 187 0
163 185 0
169 192 0
166 189 0
166 188 0
168 189 0
163 184 0
166 189 0
165 187 0
167 189 0
164 186 0
167 190 0
169 190 0
168 191 0
166 188 0
167 188 0
168 189 0
167 188 0
167 189 0
168 190 0
168 192 0
169 191 0
165 188 0
165 187 0
170 192 0
171 194 0
164 185 0
171 193 0
168 190 0
169 191 0
165 188 0
165 186 0
171 195 0
167 190 0
170 193 0
171 192 0
168 191 0
169 193 0
172 194 0
171 191 0
166 188 0
169 191 0
169 190 0
166 188 0
169 192 0
166 188 0
170 193 0
169 191 0
169 190 0
168 190 0
167 190 0
169 191 0
172 194 0
171 194 0
169 191 0
168 190 0
170 191 0
171 192 0
167 191 0
169 191 0
172 194 0
168 190 0
167 190 0
172 196 25
176 199 72
171 194 36
171 194 51
174 197 44
175 198 72
171 195 25
171 194 51
171 194 44
173 195 72
173 196 74
170 193 57
168 190 62
172 195 72
170 192 62
169 192 62
168 191 76
173 195 62
170 194 67
176 198 82
173 196 84
164 186 54
171 193 92
170 193 80
172 194 82
166 188 92
168 189 84
168 190 65
170 192 86
171 193 95
176 198 113
171 194 99
167 190 90
178 199 102
172 195 67
170 192 92
176 198 105
173 196 84
172 194 76
174 196 90
169 192 86
171 195 100
176 198 105
174 197 95
177 199 102
169 191 76
170 193 84
172 195 92
170 193 114
171 193 76
169 193 92
175 197 102
176 199 117
167 190 102
171 194 80
173 196 105
169 192 108
170 193 84
174 197 108
166 188 102
169 192 105
170 193 102
165 188 88
164 187 84
174 197 102
175 197 120
162 185 95
172 195 105
170 193 108
173 195 105
171 194 105
166 188 95
170 193 108
160 183 84
169 192 80
166 188 92
166 188 88
168 192 105
164 187 108
171 194 92
158 180 76
167 189 76
170 192 95
160 183 76
166 188 84
169 191 108
157 179 88
164 185 99
162 184 92
160 182 99
166 188 102
171 194 117
166 188 80
161 183 95
166 188 99
155 177 105
163 186 80
166 189 99
159 180 99
168 189 102
164 185 84
164 185 99
160 182 88
168 190 92
157 179 84
158 179 95
164 186 88
167 188 76
157 179 92
161 182 102
159 180 92
160 180 111
155 176 51
157 177 88
166 188 95
153 174 84
164 184 105
159 180 67
166 187 92
157 179 92
158 179 84
155 175 80
160 181 88
164 185 80
159 180 84
156 176 80
157 177 80
149 170 76
156 178 62
163 185 76
148 169 36
154 175 76
155 175 51
150 171 36
153 175 44
147 169 51
151 173 36
154 175 57
153 174 0
155 177 0
148 170 25
146 169 36
150 171 36
155 177 0
156 179 0
159 182 25
155 178 25
155 178 0
162 184 0
145 167 0
155 178 0
150 172 0
158 181 0
150 172 0
159 180 0
153 175 0
155 178 0
144 166 0
142 164 0
135 156 0
143 165 0
150 171 0
145 165 0
141 160 0
138 159 0
143 164 0
145 166 0
141 162 0
140 162 0
145 167 0
144 165 0
136 157 0
137 158 0
137 158 0
143 165 0
134 155 0
134 155 0
141 163 0
138 159 0
138 159 0
144 166 0
136 157 0
136 156 0
137 159 0
137 158 0
142 163 0
141 162 0
144 165 0
145 167 0
140 162 0
144 165 0
140 159 0
150 171 0
137 158 0
128 148 0
146 167 0
140 160 0
142 164 0
144 165 0
140 161 0
142 161 0
134 155 0
147 168 0
137 159 0
141 164 0
140 163 0
142 164 0
146 167 0
151 171 0
142 163 0
144 166 0
149 170 0
133 155 0
138 160 0
142 164 0
149 169 0
142 164 0
145 167 0
143 165 0
143 164 0
151 172 0
134 155 0
152 175 0
154 175 0
139 160 0
151 172 0
146 166 0
146 167 0
148 170 0
145 166 0
149 171 0
141 162 0
144 165 0
147 168 0
139 160 0
153 174 0
152 174 0
145 165 0
154 177 0
148 170 0
150 172 0
149 170 0
150 171 0
149 170 0
158 179 0
153 176 0
154 175 0
152 173 0
153 175 0
154 176 0
155 175 0
156 177 0
158 180 0
155 176 0
156 178 0
147 168 0
151 173 0
156 178 0
148 170 0
150 174 0
158 180 0
151 173 0
151 172 0
154 175 0
161 183 0
151 171 0
153 174 0
159 180 0
159 181 0
153 175 0
158 180 0
156 177 0
164 187 0
159 182 0
158 180 0
159 179 0
160 182 0
159 181 0
156 179 0
159 181 0
159 181 0
161 183 0
157 181 0
159 182 0
157 178 0
160 182 0
160 181 0
162 184 0
164 185 0
160 183 0
162 183 0
163 184 0
156 178 0
160 184 0
163 185 0
162 185 0
165 188 0
159 181 0
164 186 0
163 185 0
162 186 0
162 182 0
161 183 0
165 187 0
165 187 0
166 187 0
160 182 0
158 178 0
164 186 0
163 185 0
160 183 0
166 187 0
165 188 0
167 187 0
165 188 0
164 186 0
161 182 0
165 187 0
166 187 0
169 192 0
165 187 0
165 187 0
166 187 0
163 186 0
167 189 0
165 188 0
160 182 0
167 188 0
168 191 0
168 190 0
166 189 0
168 191 0
164 186 0
167 189 0
164 186 0
165 188 0
169 192 0
165 187 0
163 185 0
162 184 0
165 187 0
161 183 0
169 191 0
171 193 0
167 189 0
165 188 0
169 192 0
164 185 0
167 189 0
166 188 0
165 187 0
168 188 0
168 191 0
168 189 0
164 186 0
168 190 0
168 190 0
168 190 0
165 187 0
169 191 0
169 191 0
168 190 0
168 190 0
163 186 0
162 184 0
168 190 0
171 192 0
166 189 0
171 192 0
168 191 0
169 191 0
171 195 0
169 192 0
170 192 0
167 188 0
172 195 0
171 192 0
169 191 0
164 185 0
168 191 0
168 190 0
169 191 0
171 193 0
172 194 0
165 186 0
165 186 0
172 194 0
168 190 0
170 192 0
170 193 0
169 191 0
168 189 0
172 195 0
168 190 0
170 192 0
171 193 0
168 191 0
171 195 0
171 194 0
171 193 0
174 197 36
175 198 44
175 198 51
174 197 67
172 196 51
175 198 44
168 192 44
171 193 51
171 195 25
176 198 67
176 199 62
170 192 51
171 193 62
176 198 95
169 191 40
170 193 57
173 195 62
166 189 54
171 194 62
171 192 92
168 190 65
167 189 78
166 189 78
168 191 72
171 193 57
167 190 60
165 187 82
171 194 74
166 188 67
167 189 92
164 187 74
171 194 78
173 195 72
170 192 65
165 188 74
177 200 90
173 196 72
173 195 90
172 194 97
177 199 114
174 196 76
173 195 76
172 195 95
176 199 102
172 195 108
170 193 102
172 195 84
172 194 114
173 195 84
171 194 105
174 196 99
170 192 80
174 197 108
171 194 80
175 198 108
170 193 95
174 197 111
172 194 95
169 192 102
172 195 84
167 190 95
172 194 99
170 194 128
172 194 114
170 193 99
169 191 84
167 189 99
171 193 105
168 192 105
168 192 105
171 193 92
171 195 102
169 192 88
170 191 114
163 186 108
166 188 84
164 187 76
166 188 95
172 195 111
157 179 95
164 187 84
168 191 108
165 188 108
165 188 92
166 188 92
167 189 84
160 182 95
166 188 105
161 184 99
168 191 120
162 184 80
165 187 88
158 181 95
162 184 95
159 182 99
164 185 105
162 184 84
157 179 72
165 187 111
159 179 95
158 179 84
164 186 105
154 175 95
161 183 95
155 177 92
160 181 72
168 188 111
167 189 130
152 173 84
165 186 95
159 179 84
155 175 80
163 184 99
155 176 80
156 177 92
158 179 80
157 179 80
148 170 62
158 178 88
163 184 84
161 180 88
158 178 92
161 181 72
151 172 72
166 186 102
155 176 72
153 173 84
162 182 76
143 164 57
157 177 51
156 177 72
154 174 67
155 176 67
154 175 51
150 171 36
157 177 51
153 175 36
149 170 25
158 180 36
153 174 36
151 173 0
148 169 25
156 177 25
146 168 25
155 177 36
154 176 0
159 181 0
155 177 0
152 175 0
159 181 0
151 175 0
153 175 0
151 171 0
149 171 0
156 177 0
154 176 0
145 166 0
145 167 0
140 160 0
148 168 0
151 174 0
145 167 0
133 156 0
136 157 0
134 155 0
140 161 0
136 157 0
135 156 0
145 166 0
149 170 0
136 157 0
142 163 0
128 150 0
132 153 0
147 168 0
154 175 0
133 155 0
134 154 0
136 158 0
136 158 0
150 171 0
140 161 0
134 155 0
146 166 0
136 157 0
140 161 0
144 166 0
137 158 0
139 160 0
134 154 0
145 166 0
132 153 0
149 169 0
139 160 0
146 167 0
143 164 0
137 158 0
143 163 0
152 173 0
140 162 0
138 160 0
140 163 0
135 158 0
139 161 0
146 168 0
144 165 0
136 157 0
142 164 0
144 167 0
147 168 0
145 166 0
141 162 0
147 168 0
141 163 0
147 168 0
151 173 0
149 169 0
143 163 0
144 164 0
143 163 0
150 171 0
146 168 0
145 167 0
148 168 0
143 165 0
147 168 0
152 174 0
154 174 0
150 172 0
154 176 0
142 165 0
144 165 0
138 159 0
148 171 0
150 172 0
154 175 0
143 165 0
157 179 0
151 172 0
152 174 0
145 167 0
146 168 0
152 174 0
154 175 0
152 173 0
148 170 0
156 178 0
159 181 0
157 178 0
153 175 0
142 163 0
160 181 0
157 178 0
149 170 0
151 173 0
160 183 0
150 171 0
157 178 0
157 179 0
163 184 0
153 174 0
156 178 0
158 180 0
162 186 0
156 177 0
155 177 0
149 171 0
156 179 0
152 173 0
159 182 0
159 182 0
156 178 0
164 186 0
161 183 0
159 180 0
161 184 0
162 185 0
161 183 0
153 174 0
162 184 0
155 177 0
158 181 0
160 182 0
158 180 0
153 176 0
157 179 0
162 184 0
161 184 0
167 189 0
163 184 0
158 181 0
162 182 0
167 189 0
161 183 0
157 178 0
162 183 0
159 180 0
161 183 0
162 184 0
160 182 0
158 179 0
164 185 0
163 184 0
161 182 0
163 184 0
160 183 0
159 181 0
162 185 0
169 191 0
164 186 0
167 189 0
166 189 0
163 184 0
165 186 0
165 186 0
165 187 0
156 177 0
163 186 0
163 186 0
162 184 0
167 187 0
160 181 0
165 187 0
164 186 0
168 190 0
164 186 0
165 186 0
168 190 0
169 191 0
170 192 0
163 184 0
164 185 0
162 185 0
166 188 0
168 191 0
165 188 0
167 190 0
161 183 0
170 192 0
166 188 0
169 192 0
168 190 0
165 187 0
167 189 0
162 185 0
168 190 0
165 188 0
165 187 0
167 189 0
166 187 0
165 187 0
164 185 0
164 184 0
169 192 0
167 188 0
169 192 0
167 190 0
170 192 0
164 186 0
169 190 0
168 190 0
168 190 0
167 190 0
170 192 0
170 193 0
168 191 0
170 193 0
169 191 0
171 195 0
173 195 0
173 196 0
171 194 0
171 193 0
169 192 0
169 192 0
172 193 0
173 196 0
170 194 0
167 191 0
168 191 0
169 191 0
168 191 0
169 191 0
169 192 0
171 193 0
168 190 0
170 192 0
169 191 0
169 191 0
169 192 0
171 192 0
172 194 0
171 193 0
167 190 0
171 193 0
169 191 0
167 189 0
168 190 0
166 189 0
166 188 0
174 198 44
173 195 57
175 197 51
175 198 67
174 198 57
175 198 51
174 197 51
174 196 57
173 195 57
174 196 67
170 193 51
171 194 74
173 196 36
174 197 67
167 190 44
172 195 67
167 190 67
167 190 62
169 191 70
173 195 97
173 196 62
172 194 90
164 188 70
166 189 70
175 197 82
175 197 99
169 192 78
168 191 86
171 194 74
167 191 67
174 196 88
173 195 92
172 194 111
172 195 78
170 192 100
171 194 88
167 190 78
174 197 92
175 198 95
176 198 99
171 193 97
175 197 105
172 195 86
176 198 92
175 198 95
176 198 103
175 196 92
175 197 76
174 196 80
167 190 76
174 198 102
175 197 120
166 189 80
174 197 102
170 192 76
173 196 114
173 196 92
167 191 80
172 195 95
166 189 84
171 195 102
174 197 114
166 189 92
169 193 76
177 200 125
174 197 108
169 192 95
164 187 117
162 184 99
168 191 92
171 193 95
167 189 95
162 185 95
169 191 76
167 190 95
162 184 80
168 190 102
170 193 105
166 188 102
164 187 88
168 190 92
166 188 95
162 184 92
162 184 108
165 187 99
165 187 99
165 187 102
168 189 99
160 182 95
166 188 88
160 183 84
162 184 92
164 186 92
166 189 80
158 180 95
165 186 72
159 181 95
159 182 99
169 190 95
162 184 108
164 186 76
169 190 105
165 186 108
158 180 88
166 186 80
154 175 72
164 186 102
156 178 102
164 186 84
162 183 108
162 183 102
152 173 95
163 185 80
160 182 92
163 184 95
155 176 88
155 176 76
160 181 95
155 176 76
152 173 72
159 179 95
158 179 95
158 179 80
158 180 99
150 171 67
158 180 76
147 167 57
158 179 76
153 174 51
151 172 51
156 177 67
154 176 44
155 175 57
153 174 25
162 183 57
157 179 51
156 178 0
149 171 36
149 171 25
156 178 25
153 175 25
153 175 0
157 179 25
147 169 0
154 176 25
153 175 25
153 175 25
155 177 0
149 171 0
152 172 0
146 168 0
147 170 0
158 180 0
155 177 0
138 160 0
148 170 0
150 172 0
149 171 0
147 168 0
144 167 0
153 175 0
154 176 0
140 162 0
150 171 0
146 168 0
148 169 0
137 158 0
147 168 0
141 162 0
139 158 0
143 164 0
135 157 0
147 168 0
142 164 0
136 158 0
134 157 0
142 163 0
128 149 0
146 167 0
142 164 0
142 164 0
148 170 0
140 160 0
143 164 0
141 161 0
140 162 0
134 153 0
136 157 0
140 161 0
143 166 0
144 164 0
145 166 0
136 157 0
128 148 0
149 171 0
148 170 0
137 157 0
142 164 0
155 177 0
140 160 0
145 167 0
142 162 0
142 163 0
145 166 0
146 168 0
134 156 0
148 170 0
145 167 0
141 162 0
147 168 0
142 163 0
144 165 0
143 164 0
139 160 0
143 165 0
141 162 0
144 166 0
152 173 0
143 165 0
142 163 0
148 170 0
149 170 0
150 171 0
152 172 0
151 172 0
148 170 0
150 173 0
148 172 0
146 167 0
146 168 0
139 160 0
155 176 0
156 178 0
155 176 0
148 170 0
145 166 0
149 172 0
155 176 0
147 168 0
160 181 0
152 173 0
158 180 0
152 172 0
152 172 0
157 179 0
161 183 0
149 170 0
156 179 0
160 181 0
157 179 0
153 175 0
154 175 0
155 177 0
158 180 0
153 174 0
146 168 0
153 176 0
153 174 0
144 166 0
152 174 0
159 180 0
161 185 0
156 177 0
156 177 0
150 172 0
156 180 0
164 185 0
160 182 0
160 182 0
160 183 0
161 183 0
158 179 0
156 176 0
159 180 0
156 178 0
163 185 0
162 183 0
159 179 0
161 182 0
156 176 0
161 183 0
157 181 0
160 182 0
159 182 0
162 185 0
161 184 0
159 181 0
162 183 0
162 183 0
163 185 0
153 175 0
164 187 0
162 185 0
161 183 0
166 189 0
169 191 0
160 183 0
158 179 0
163 185 0
158 179 0
164 186 0
159 180 0
162 183 0
164 185 0
163 185 0
159 182 0
161 182 0
168 191 0
161 183 0
166 186 0
160 181 0
164 187 0
167 189 0
164 185 0
168 190 0
154 176 0
168 190 0
161 182 0
161 183 0
161 182 0
166 188 0
164 186 0
170 192 0
166 190 0
165 188 0
168 190 0
160 183 0
167 189 0
167 189 0
163 185 0
168 190 0
170 193 0
163 184 0
163 187 0
168 190 0
163 184 0
166 188 0
165 187 0
164 185 0
161 183 0
163 186 0
168 192 0
170 192 0
167 190 0
166 190 0
166 188 0
170 192 0
169 190 0
163 186 0
165 186 0
170 193 0
171 193 0
167 189 0
164 185 0
167 189 0
169 191 0
168 189 0
168 190 0
172 194 0
167 188 0
169 192 0
168 190 0
165 185 0
170 193 0
172 194 0
168 190 0
169 192 0
168 189 0
171 193 0
162 184 0
169 192 0
171 195 0
170 192 0
167 189 0
171 194 0
171 191 0
167 189 0
166 188 0
164 187 0
170 192 0
168 191 0
171 193 0
171 194 0
167 190 0
170 192 0
170 194 0
171 193 0
172 194 0
168 190 0
171 194 0
170 193 0
167 190 0
170 192 0
170 192 0
168 191 0
167 189 0
169 192 0
167 189 0
170 192 0
168 191 0
172 196 0
175 197 51
171 194 47
172 195 25
177 199 62
174 197 57
175 197 62
173 196 67
171 195 57
174 196 57
169 192 44
172 194 76
172 194 60
174 197 76
167 190 25
168 190 47
173 196 65
172 195 78
170 192 51
172 194 67
167 190 76
167 190 76
166 188 82
173 196 74
170 192 82
170 193 95
166 188 80
169 192 84
165 188 74
165 188 62
167 189 88
170 193 78
171 194 67
169 192 70
172 195 84
167 190 82
170 193 94
171 193 74
174 197 92
172 195 76
171 194 100
172 194 86
165 187 84
170 194 100
175 197 102
175 198 108
174 197 95
171 194 84
176 200 130
173 196 92
174 197 105
174 196 88
174 196 102
174 197 92
168 191 108
173 196 95
170 193 84
173 196 95
172 195 95
166 190 72
176 198 120
164 186 80
168 191 76
171 194 108
169 192 95
172 194 102
165 188 67
163 185 99
173 195 88
167 190 102
169 191 105
172 194 84
165 187 92
167 190 108
166 189 111
167 190 88
170 194 108
163 186 88
165 186 99
164 186 80
168 190 108
168 190 95
166 188 102
161 182 84
165 187 99
168 190 92
161 183 84
166 189 84
169 192 99
160 182 105
168 190 99
166 188 99
164 185 92
167 189 105
164 186 105
168 190 108
172 193 111
163 184 72
163 184 80
167 187 80
161 183 102
164 185 72
162 184 99
159 180 84
159 180 108
160 182 95
164 185 95
160 181 92
160 181 84
160 181 99
154 176 84
159 179 99
161 182 99
161 182 80
153 174 84
154 176 80
162 183 84
157 178 84
162 183 80
156 177 62
149 170 72
166 185 88
157 178 80
153 174 80
157 178 67
161 181 84
159 182 62
160 181 72
150 171 84
158 179 62
159 181 51
154 175 76
147 169 51
160 181 44
159 180 51
151 173 25
158 179 44
156 177 25
150 172 44
147 169 36
155 178 25
151 173 0
155 176 36
156 178 25
154 176 36
155 178 25
158 180 25
150 173 0
152 176 25
156 178 0
150 171 0
155 178 0
154 176 0
161 184 0
150 172 0
155 177 0
148 168 0
136 158 0
151 173 0
147 169 0
147 168 0
149 171 0
139 159 0
138 159 0
142 163 0
141 163 0
148 169 0
129 149 0
133 154 0
147 167 0
149 170 0
144 165 0
142 163 0
154 175 0
143 164 0
136 158 0
139 161 0
136 158 0
145 166 0
142 163 0
145 166 0
135 156 0
147 168 0
142 162 0
144 166 0
141 162 0
142 162 0
139 161 0
147 168 0
137 158 0
138 159 0
136 156 0
143 164 0
145 166 0
150 173 0
136 157 0
147 168 0
145 166 0
146 166 0
148 168 0
145 167 0
135 157 0
135 155 0
138 159 0
142 163 0
136 157 0
145 166 0
141 163 0
145 165 0
152 174 0
134 153 0
144 166 0
140 161 0
141 163 0
138 159 0
150 172 0
150 172 0
142 163 0
144 166 0
146 167 0
142 163 0
142 164 0
148 169 0
144 166 0
142 162 0
143 164 0
148 171 0
153 175 0
144 166 0
151 173 0
147 168 0
147 169 0
153 175 0
153 175 0
151 174 0
154 177 0
148 169 0
145 165 0
145 167 0
151 175 0
147 170 0
150 171 0
144 166 0
153 176 0
150 172 0
149 172 0
153 175 0
160 182 0
149 169 0
152 175 0
152 175 0
159 181 0
153 175 0
153 174 0
160 183 0
154 176 0
154 176 0
158 180 0
154 176 0
161 181 0
157 179 0
156 178 0
159 181 0
157 179 0
160 181 0
156 178 0
158 181 0
164 186 0
158 181 0
156 176 0
157 180 0
163 186 0
162 183 0
163 185 0
159 180 0
158 179 0
157 180 0
161 183 0
159 181 0
163 185 0
162 183 0
166 186 0
163 185 0
160 182 0
159 181 0
158 180 0
159 181 0
163 185 0
159 179 0
168 189 0
161 182 0
158 178 0
162 184 0
158 179 0
160 182 0
163 185 0
157 179 0
162 184 0
163 184 0
164 186 0
165 187 0
166 188 0
161 184 0
158 177 0
164 188 0
164 187 0
162 183 0
161 184 0
163 185 0
164 185 0
165 188 0
163 185 0
167 189 0
165 188 0
169 192 0
167 189 0
164 185 0
162 183 0
164 186 0
164 186 0
165 187 0
166 188 0
162 185 0
166 187 0
165 186 0
162 183 0
167 188 0
167 189 0
167 189 0
166 188 0
165 188 0
161 183 0
168 190 0
167 188 0
169 191 0
168 190 0
172 194 0
167 189 0
169 192 0
167 189 0
168 190 0
167 188 0
165 187 0
168 191 0
165 187 0
168 190 0
170 192 0
165 187 0
166 188 0
168 191 0
165 189 0
166 189 0
169 192 0
167 189 0
167 189 0
169 190 0
169 191 0
167 189 0
169 193 0
169 192 0
171 194 0
167 190 0
171 193 0
169 192 0
171 191 0
169 190 0
170 193 0
166 189 0
168 190 0
171 194 0
166 189 0
171 193 0
170 192 0
171 192 0
171 194 0
167 190 0
167 191 0
168 191 0
172 193 0
169 191 0
171 194 0
170 192 0
168 189 0
170 192 0
171 193 0
169 191 0
168 190 0
170 191 0
171 194 0
168 191 0
168 191 0
171 193 0
169 192 0
172 195 0
170 193 0
169 191 0
171 193 0
172 194 0
169 192 0
170 193 0
173 197 0
175 197 60
174 197 57
172 196 44
175 198 25
176 199 44
171 195 44
176 198 60
173 196 51
171 193 62
173 195 62
175 197 76
170 193 70
171 194 44
171 194 44
172 194 72
162 185 60
172 194 67
169 191 62
170 192 76
170 194 74
166 188 72
174 196 107
163 185 82
173 195 95
169 192 84
170 193 65
166 188 74
162 185 80
176 198 107
173 195 107
167 189 76
176 197 94
169 191 92
166 189 76
173 196 90
175 197 88
174 196 105
170 193 102
173 195 100
176 199 105
175 198 95
172 195 84
174 195 95
173 195 84
175 197 95
167 189 80
172 194 92
173 195 108
174 197 117
173 197 102
174 197 95
177 200 102
174 196 95
172 194 108
172 195 95
173 196 108
172 195 102
172 194 95
169 192 95
169 192 92
173 195 99
174 197 95
172 194 88
171 194 95
172 194 111
169 192 84
169 192 99
170 192 108
169 191 80
171 194 102
169 191 84
171 193 105
166 189 80
171 194 99
166 189 88
172 193 99
163 186 102
160 182 80
168 191 92
157 179 72
167 190 102
168 190 95
167 189 88
164 186 99
163 185 95
169 191 99
173 194 92
162 184 105
164 186 102
167 190 99
166 187 88
164 185 88
155 177 76
163 185 95
171 192 120
160 181 72
162 183 80
166 187 95
158 179 92
165 185 108
160 182 76
164 186 105
158 179 62
161 182 88
161 182 80
159 181 84
162 183 92
166 187 67
167 188 92
163 184 111
160 181 88
163 183 84
156 176 62
155 176 95
163 185 92
161 182 99
159 180 72
161 182 88
164 184 76
164 185 88
159 181 84
170 191 88
171 192 108
160 181 95
157 177 80
162 182 92
155 176 80
162 183 72
164 185 67
149 171 36
155 176 57
154 175 57
150 172 25
149 171 57
163 185 57
154 176 51
152 173 36
148 171 36
162 183 25
158 182 25
156 178 0
156 179 36
156 178 0
158 180 25
162 185 0
154 176 0
161 183 0
157 180 25
163 186 0
147 170 0
155 178 0
155 177 0
153 175 0
147 170 0
157 179 0
146 168 0
152 174 0
146 167 0
147 169 0
144 167 0
149 171 0
147 168 0
142 162 0
142 163 0
144 166 0
145 166 0
146 167 0
139 159 0
144 166 0
148 169 0
143 164 0
148 169 0
142 162 0
149 171 0
145 167 0
147 169 0
143 164 0
140 161 0
144 165 0
141 163 0
143 165 0
144 164 0
145 166 0
146 168 0
151 173 0
145 166 0
147 167 0
134 154 0
137 158 0
141 162 0
141 162 0
141 163 0
143 163 0
147 170 0
137 158 0
148 170 0
143 165 0
142 164 0
141 161 0
137 159 0
145 166 0
140 163 0
141 162 0
143 165 0
144 166 0
139 158 0
144 166 0
149 171 0
146 167 0
147 168 0
147 169 0
150 173 0
148 169 0
150 172 0
151 172 0
150 171 0
138 160 0
148 169 0
150 172 0
144 166 0
136 156 0
147 168 0
147 169 0
149 169 0
146 168 0
158 180 0
156 178 0
149 172 0
148 169 0
156 177 0
151 173 0
140 160 0
150 171 0
151 173 0
147 166 0
140 162 0
148 169 0
154 176 0
147 168 0
152 174 0
154 174 0
147 168 0
155 177 0
152 174 0
152 175 0
156 177 0
152 173 0
155 176 0
155 176 0
161 183 0
152 175 0
150 171 0
154 176 0
160 182 0
157 180 0
161 182 0
154 176 0
153 176 0
158 180 0
156 178 0
157 179 0
157 179 0
162 183 0
154 177 0
153 176 0
156 179 0
159 180 0
159 180 0
161 182 0
160 182 0
169 191 0
156 176 0
160 183 0
162 186 0
154 177 0
161 182 0
160 183 0
156 178 0
158 180 0
158 179 0
167 189 0
167 189 0
158 179 0
159 182 0
158 180 0
161 185 0
159 181 0
158 180 0
163 186 0
165 187 0
162 184 0
165 187 0
160 181 0
167 189 0
159 181 0
169 190 0
163 185 0
160 182 0
164 186 0
162 184 0
161 183 0
160 182 0
164 186 0
164 186 0
163 184 0
164 186 0
161 182 0
164 188 0
167 189 0
165 186 0
169 190 0
159 181 0
168 189 0
164 185 0
168 191 0
163 184 0
169 191 0
165 187 0
161 182 0
165 186 0
156 178 0
166 188 0
166 187 0
167 190 0
167 189 0
166 189 0
166 188 0
168 189 0
167 189 0
166 188 0
168 191 0
163 184 0
165 189 0
164 187 0
166 189 0
170 191 0
167 189 0
168 190 0
164 185 0
169 191 0
167 188 0
164 184 0
167 189 0
170 192 0
169 192 0
170 192 0
170 193 0
170 193 0
168 190 0
168 190 0
171 193 0
168 192 0
166 188 0
165 187 0
167 188 0
170 192 0
172 194 0
167 188 0
168 190 0
169 191 0
164 187 0
170 193 0
166 189 0
167 189 0
169 192 0
167 190 0
170 191 0
170 193 0
168 190 0
170 193 0
169 192 0
168 192 0
171 195 0
169 192 0
170 192 0
171 193 0
171 194 0
170 192 0
169 193 0
173 195 0
166 189 0
167 189 0
167 190 0
170 194 0
169 192 0
167 189 0
171 193 0
170 192 0
171 194 0
170 192 0
170 191 0
170 192 0
170 192 0
174 196 0
169 191 0
170 193 0
170 194 0
169 191 0
170 193 0
171 194 44
173 196 36
171 194 51
171 194 51
174 196 44
173 197 36
169 193 44
170 194 44
173 196 44
172 195 57
170 193 57
173 195 36
172 195 44
170 194 51
169 191 57
170 193 60
173 195 97
171 194 51
172 195 60
167 190 60
165 188 54
176 198 92
166 189 84
175 197 88
167 189 60
168 190 76
173 196 90
169 192 74
167 189 73
170 193 67
170 192 99
169 191 80
168 191 76
172 194 70
163 185 94
171 193 97
174 195 94
171 194 77
172 194 94
174 196 95
174 197 100
173 195 84
165 188 76
175 198 97
177 200 114
171 194 107
176 198 102
175 197 108
172 193 115
174 197 84
175 198 95
177 200 117
176 199 114
176 198 108
167 190 84
168 192 105
171 193 80
170 192 99
169 192 108
173 196 88
164 186 102
166 189 102
164 187 80
172 195 105
170 193 76
171 194 84
171 192 95
173 195 114
170 193 92
168 190 95
167 189 80
171 194 92
172 193 111
164 187 92
168 190 108
168 192 111
168 191 99
171 193 72
162 184 111
165 187 95
170 191 111
170 192 102
165 186 95
165 186 92
167 189 99
164 186 102
164 185 99
170 192 95
169 191 102
171 193 92
160 182 102
162 185 108
168 190 92
166 187 95
162 183 99
159 181 92
162 185 99
169 191 125
167 189 99
159 180 72
168 189 88
160 182 92
166 188 105
167 188 88
170 192 105
161 183 84
152 173 76
156 177 92
159 181 95
159 179 88
160 181 88
164 185 84
160 181 84
161 183 76
162 183 84
164 184 80
156 177 76
157 179 88
166 187 108
156 177 84
160 181 88
158 179 76
155 176 76
156 177 76
152 172 80
155 176 62
159 180 84
157 178 51
158 178 67
161 182 57
158 180 44
157 178 44
155 176 44
157 180 51
148 170 25
157 179 36
151 172 0
157 179 25
152 174 36
158 182 25
155 178 25
157 179 0
164 186 0
158 181 25
158 180 0
163 185 0
157 179 25
152 175 0
166 189 0
165 187 0
159 182 0
151 172 0
156 178 0
155 176 0
157 179 0
154 175 0
151 172 0
148 170 0
142 164 0
150 172 0
143 164 0
144 165 0
142 163 0
148 169 0
143 164 0
147 169 0
141 162 0
150 172 0
150 171 0
135 156 0
154 176 0
147 168 0
147 168 0
142 162 0
143 164 0
136 157 0
148 170 0
150 172 0
143 165 0
139 161 0
144 166 0
143 164 0
148 170 0
143 165 0
141 161 0
145 166 0
144 165 0
140 162 0
147 169 0
145 165 0
140 161 0
147 170 0
149 170 0
144 165 0
142 163 0
143 164 0
142 163 0
135 155 0
147 169 0
147 169 0
143 162 0
139 161 0
147 168 0
146 168 0
143 164 0
150 172 0
151 173 0
143 164 0
149 169 0
146 168 0
147 169 0
149 171 0
150 172 0
148 170 0
143 166 0
151 173 0
148 170 0
150 173 0
154 175 0
150 172 0
146 167 0
147 169 0
147 169 0
145 167 0
147 169 0
148 170 0
151 174 0
155 178 0
152 173 0
157 179 0
150 172 0
154 175 0
155 176 0
153 175 0
157 178 0
156 178 0
156 177 0
155 177 0
149 170 0
152 173 0
152 173 0
159 182 0
157 179 0
154 175 0
149 170 0
156 179 0
150 171 0
165 186 0
158 181 0
157 178 0
151 174 0
155 178 0
157 179 0
148 169 0
148 169 0
159 182 0
157 180 0
160 184 0
150 173 0
157 179 0
155 177 0
158 180 0
161 183 0
156 179 0
150 172 0
160 181 0
156 178 0
155 178 0
159 181 0
160 182 0
162 184 0
156 176 0
158 179 0
160 183 0
163 184 0
161 183 0
162 183 0
158 179 0
164 184 0
161 184 0
161 183 0
165 187 0
161 183 0
164 187 0
161 184 0
160 181 0
161 182 0
166 187 0
153 174 0
164 185 0
152 173 0
161 182 0
157 180 0
164 186 0
163 183 0
165 188 0
162 184 0
165 187 0
162 184 0
163 185 0
162 184 0
160 183 0
163 185 0
165 187 0
169 191 0
166 187 0
162 183 0
167 189 0
167 190 0
164 186 0
168 189 0
169 190 0
162 183 0
165 188 0
167 189 0
162 184 0
164 186 0
163 186 0
161 183 0
169 192 0
165 187 0
164 186 0
167 189 0
165 188 0
164 186 0
162 182 0
165 188 0
165 189 0
165 187 0
166 189 0
170 191 0
167 189 0
162 183 0
166 189 0
167 189 0
169 192 0
168 189 0
164 185 0
169 191 0
164 186 0
165 187 0
171 194 0
167 189 0
167 188 0
165 187 0
168 190 0
169 191 0
165 188 0
165 186 0
165 187 0
168 190 0
165 188 0
169 192 0
166 189 0
166 188 0
167 189 0
168 190 0
168 192 0
167 189 0
164 187 0
168 192 0
167 190 0
168 189 0
168 191 0
171 193 0
169 191 0
165 186 0
169 192 0
170 191 0
170 193 0
169 192 0
169 191 0
171 195 0
168 191 0
165 187 0
170 193 0
171 193 0
168 190 0
169 191 0
167 189 0
170 193 0
172 195 0
173 196 0
171 194 0
167 190 0
171 193 0
168 190 0
169 190 0
169 192 0
171 193 0
171 193 0
170 194 0
167 189 0
169 191 0
170 193 0
171 194 0
171 194 0
168 192 0
171 193 0
170 192 0
174 197 44
172 195 36
171 194 44
170 193 36
174 197 51
168 191 51
172 195 44
174 196 57
174 196 72
174 197 62
175 198 51
174 197 57
171 193 65
170 193 57
167 190 54
171 194 57
170 193 62
165 188 57
177 200 88
170 193 65
167 190 60
162 184 57
161 183 76
162 184 65
174 196 82
170 191 84
167 190 67
169 192 72
165 188 86
165 187 78
170 193 80
168 190 62
168 190 72
170 193 57
170 193 67
173 196 90
173 195 74
168 190 102
168 191 84
170 193 84
169 193 60
174 196 105
172 194 90
172 194 78
170 192 95
177 199 125
171 194 67
175 198 102
173 196 107
174 196 80
168 191 80
173 197 111
174 196 108
169 193 84
172 195 72
175 197 105
177 199 95
172 195 84
168 190 76
165 188 95
170 193 105
171 193 84
167 190 67
168 190 76
175 198 117
176 198 117
170 193 108
173 195 95
166 188 84
172 193 72
167 189 80
172 194 80
165 188 80
168 190 102
164 186 88
165 187 108
177 199 111
165 187 76
164 187 99
172 194 111
167 190 111
167 190 99
167 188 76
165 188 102
165 187 105
164 186 108
161 182 76
162 184 99
165 187 84
159 181 62
162 184 102
158 180 84
160 181 99
168 190 111
167 189 84
172 193 108
155 176 76
161 181 84
156 178 88
167 188 92
166 188 92
170 192 102
164 185 95
163 184 95
171 192 105
165 186 105
160 181 72
162 184 88
163 184 102
165 185 76
161 183 84
161 181 92
159 179 76
154 176 72
162 183 67
153 173 57
158 178 80
157 177 84
166 187 99
158 179 92
161 182 88
156 177 67
161 182 57
152 174 62
157 177 76
161 181 57
151 172 76
148 169 62
158 180 76
164 186 67
155 176 44
162 183 57
158 180 62
163 184 36
157 180 36
155 177 25
163 185 44
162 183 25
158 180 0
149 172 25
160 182 0
155 177 36
154 177 44
158 180 0
159 182 25
161 184 0
157 180 36
157 178 0
162 183 0
159 183 0
149 172 0
158 180 0
154 176 0
158 179 0
154 176 0
147 167 0
151 173 0
150 173 0
148 170 0
148 170 0
151 172 0
152 174 0
147 170 0
144 165 0
143 165 0
148 169 0
142 163 0
142 163 0
143 164 0
143 164 0
141 162 0
151 172 0
149 171 0
149 171 0
150 171 0
144 165 0
139 161 0
157 178 0
148 170 0
142 163 0
138 159 0
140 161 0
143 164 0
146 167 0
145 166 0
135 156 0
145 166 0
147 168 0
151 171 0
150 171 0
157 178 0
151 172 0
148 170 0
144 167 0
145 165 0
145 167 0
151 173 0
146 166 0
142 164 0
148 169 0
150 171 0
149 171 0
143 165 0
140 161 0
132 154 0
150 172 0
143 166 0
149 171 0
147 168 0
147 169 0
148 169 0
148 169 0
153 175 0
145 166 0
142 163 0
146 168 0
150 172 0
146 167 0
150 172 0
151 173 0
147 170 0
151 172 0
157 179 0
150 172 0
146 168 0
145 166 0
150 172 0
156 179 0
150 172 0
152 173 0
155 177 0
154 177 0
151 173 0
156 178 0
148 168 0
144 166 0
149 171 0
151 172 0
152 175 0
154 176 0
154 176 0
152 174 0
152 175 0
156 177 0
159 182 0
155 177 0
151 173 0
159 182 0
157 180 0
153 175 0
155 177 0
154 176 0
154 176 0
154 175 0
158 180 0
165 188 0
161 182 0
152 175 0
154 176 0
153 175 0
159 182 0
159 181 0
158 181 0
153 175 0
152 174 0
158 180 0
160 182 0
158 180 0
161 184 0
152 174 0
151 172 0
162 182 0
156 178 0
158 180 0
156 178 0
156 177 0
159 182 0
156 178 0
159 180 0
164 185 0
158 180 0
166 188 0
163 186 0
161 183 0
163 186 0
156 179 0
155 177 0
159 182 0
163 186 0
160 181 0
161 183 0
165 186 0
163 186 0
162 184 0
168 191 0
162 185 0
160 181 0
161 184 0
161 184 0
164 186 0
164 185 0
165 186 0
163 185 0
157 180 0
163 185 0
164 187 0
159 182 0
162 184 0
164 185 0
165 187 0
161 182 0
164 187 0
162 184 0
161 182 0
168 190 0
167 189 0
168 189 0
167 189 0
161 184 0
166 188 0
164 187 0
167 190 0
170 193 0
162 185 0
162 182 0
166 188 0
160 182 0
163 185 0
166 188 0
168 190 0
167 190 0
157 178 0
168 189 0
165 187 0
166 187 0
165 186 0
167 190 0
165 187 0
171 193 0
166 189 0
170 192 0
167 189 0
164 187 0
167 189 0
167 188 0
169 193 0
164 186 0
168 191 0
165 187 0
167 188 0
171 193 0
166 187 0
169 191 0
171 193 0
170 192 0
167 190 0
169 192 0
168 190 0
163 185 0
166 189 0
167 189 0
170 193 0
171 195 0
167 188 0
168 191 0
170 193 0
167 190 0
169 192 0
170 192 0
168 190 0
169 191 0
170 192 0
171 193 0
169 192 0
171 193 0
167 189 0
169 191 0
169 192 0
171 194 0
169 191 0
171 194 0
168 191 0
169 191 0
171 193 0
172 195 0
168 190 0
169 190 0
172 194 0
169 191 0
170 192 0
167 190 0
166 189 0
170 192 0
168 190 0
171 194 0
171 194 0
168 192 0
170 193 0
169 191 0
168 190 0
168 192 0
174 197 36
174 197 44
177 199 36
173 196 47
175 198 51
174 197 25
173 196 44
169 193 40
174 196 57
172 196 51
169 192 36
170 193 51
174 196 67
170 192 60
169 192 74
166 188 78
172 194 70
169 192 72
168 191 60
169 192 47
173 196 72
170 191 90
168 190 80
174 196 90
175 197 88
171 194 57
168 190 70
165 188 70
168 190 78
166 188 82
172 195 70
164 187 76
170 192 70
173 195 80
171 194 62
172 194 92
175 197 103
172 195 84
177 199 97
170 192 84
174 196 92
174 196 103
169 191 92
176 198 99
173 196 113
169 192 84
171 193 84
168 190 95
174 197 80
170 193 99
173 196 80
173 195 95
172 195 102
171 194 84
171 193 105
174 196 102
171 193 72
167 189 72
172 193 108
173 196 95
166 189 92
170 192 84
171 193 105
168 190 92
169 191 76
168 190 92
168 190 102
169 191 95
161 183 92
173 196 120
172 194 114
171 193 111
166 188 72
171 194 102
170 193 80
168 190 80
165 187 92
168 190 72
171 193 95
168 189 102
161 183 67
169 190 95
168 189 99
166 186 88
168 190 99
168 191 105
168 190 105
167 188 88
162 184 95
164 186 80
164 186 88
164 186 67
173 194 102
163 184 102
161 183 92
164 185 92
163 184 76
161 182 88
161 182 105
161 183 92
167 187 111
163 184 108
160 181 67
161 182 88
160 182 84
161 182 76
165 186 95
166 187 84
158 179 76
165 186 88
160 182 102
164 184 76
161 182 105
166 187 84
156 177 72
157 179 80
156 178 72
158 178 80
162 184 72
165 186 95
160 182 72
159 179 57
155 176 72
159 180 57
155 176 72
157 178 67
158 179 57
162 183 36
164 185 44
155 177 51
158 180 62
155 178 44
149 171 36
153 175 0
161 183 44
147 169 0
159 182 25
151 174 0
158 181 0
154 177 25
159 181 0
160 183 25
156 178 0
160 183 25
161 183 0
160 183 0
160 181 0
158 181 0
161 183 0
154 176 0
158 181 0
157 179 0
147 169 0
153 175 0
152 174 0
151 173 0
143 165 0
148 169 0
148 169 0
147 168 0
150 171 0
151 173 0
150 172 0
151 172 0
144 166 0
150 171 0
149 170 0
151 173 0
149 171 0
143 165 0
147 169 0
151 173 0
142 163 0
149 170 0
147 169 0
146 168 0
149 170 0
148 170 0
156 177 0
146 167 0
147 167 0
139 161 0
144 165 0
146 167 0
146 168 0
139 160 0
135 156 0
143 164 0
149 170 0
147 170 0
150 172 0
150 171 0
151 173 0
143 165 0
155 178 0
149 171 0
140 162 0
144 165 0
144 166 0
142 165 0
148 169 0
145 167 0
143 164 0
146 168 0
149 170 0
151 173 0
146 169 0
145 166 0
153 175 0
145 166 0
148 171 0
149 171 0
157 180 0
146 167 0
148 170 0
156 178 0
153 176 0
155 178 0
148 167 0
156 177 0
149 171 0
150 171 0
150 173 0
155 178 0
153 175 0
148 171 0
150 171 0
153 174 0
152 173 0
151 173 0
157 179 0
149 172 0
160 182 0
153 175 0
160 182 0
152 175 0
152 174 0
152 173 0
146 168 0
151 173 0
161 184 0
160 183 0
158 181 0
152 174 0
154 177 0
154 173 0
156 178 0
155 176 0
162 184 0
154 177 0
155 175 0
158 180 0
162 183 0
157 179 0
149 171 0
154 176 0
160 182 0
156 177 0
158 180 0
160 182 0
160 182 0
159 181 0
156 179 0
156 177 0
160 183 0
158 181 0
163 185 0
162 185 0
159 181 0
160 182 0
164 185 0
153 175 0
156 178 0
155 177 0
155 178 0
157 177 0
156 178 0
162 185 0
161 184 0
162 184 0
164 185 0
159 181 0
161 182 0
162 183 0
157 179 0
162 185 0
166 188 0
162 184 0
163 185 0
161 182 0
168 191 0
162 184 0
163 185 0
164 186 0
162 185 0
164 186 0
166 189 0
161 184 0
165 187 0
160 184 0
163 185 0
164 187 0
162 183 0
159 182 0
161 183 0
161 182 0
160 182 0
166 188 0
164 187 0
167 189 0
165 186 0
168 190 0
163 186 0
168 190 0
164 187 0
167 189 0
168 191 0
163 185 0
168 189 0
167 190 0
162 183 0
166 189 0
167 189 0
163 185 0
164 186 0
166 189 0
166 190 0
168 191 0
167 189 0
167 190 0
168 190 0
167 189 0
166 189 0
164 185 0
167 190 0
168 190 0
165 188 0
165 186 0
167 190 0
163 186 0
165 185 0
167 189 0
166 189 0
170 192 0
170 192 0
167 190 0
167 188 0
171 192 0
164 186 0
167 189 0
165 188 0
171 192 0
165 186 0
166 188 0
163 185 0
166 189 0
168 191 0
169 190 0
166 189 0
170 193 0
169 191 0
167 190 0
167 189 0
170 192 0
166 188 0
171 193 0
166 189 0
170 192 0
165 185 0
171 192 0
169 190 0
168 191 0
169 191 0
168 190 0
170 193 0
167 189 0
168 190 0
171 194 0
170 193 0
170 192 0
166 189 0
170 192 0
169 192 0
171 194 0
166 189 0
168 190 0
168 190 0
171 194 0
172 195 0
170 191 0
170 191 0
169 192 0
169 191 0
166 189 0
169 192 0
166 188 0
168 190 0
170 193 0
170 191 0
172 196 25
173 196 25
167 192 0
173 195 44
175 198 44
172 195 44
173 196 44
173 196 51
172 196 25
169 192 36
174 196 57
166 190 36
171 194 57
171 193 51
171 194 51
170 193 47
168 191 44
169 191 67
175 197 86
168 190 54
175 197 80
171 193 74
165 188 62
168 191 60
170 192 74
170 193 57
167 190 73
169 192 78
164 187 47
168 190 62
167 189 70
168 191 82
170 193 66
165 188 67
167 189 84
162 185 60
173 196 70
169 192 74
170 192 70
167 190 86
174 196 95
166 189 57
174 195 102
171 194 115
170 193 84
170 193 88
180 202 122
172 194 88
168 190 76
178 200 105
176 197 114
175 197 120
169 192 80
173 195 95
171 193 92
170 192 92
171 193 105
172 195 84
174 195 102
174 196 99
172 195 99
169 192 99
168 192 95
170 193 84
173 196 92
171 193 84
173 195 102
169 192 102
167 189 99
174 196 102
171 193 102
166 189 102
165 187 76
170 192 88
169 192 99
171 193 88
169 192 99
174 196 95
171 193 105
172 194 88
171 193 84
162 185 80
167 189 99
169 191 88
163 184 102
172 193 102
164 184 95
169 191 95
158 179 84
166 187 84
167 188 84
164 186 88
155 176 62
164 186 88
167 188 114
168 190 95
169 190 111
165 185 92
163 185 62
164 186 99
157 178 76
162 183 102
164 184 88
163 184 84
167 190 114
161 182 105
166 186 102
153 174 76
165 186 99
163 185 99
169 190 92
167 188 92
155 177 76
157 178 72
162 183 80
168 189 88
165 187 105
165 187 84
169 190 95
165 185 67
155 177 67
160 182 72
163 184 84
163 184 92
162 183 57
154 176 51
164 185 51
163 184 67
163 184 62
165 187 72
160 181 62
159 181 57
154 176 36
154 176 36
157 179 25
161 183 51
154 177 44
150 172 36
158 179 25
156 179 0
161 184 25
160 183 36
156 179 0
158 180 0
156 178 0
163 185 0
159 182 0
152 175 0
161 183 0
153 175 0
157 179 0
158 180 0
158 179 0
153 175 0
153 174 0
147 168 0
151 174 0
145 168 0
149 172 0
142 164 0
146 169 0
146 168 0
141 162 0
150 173 0
142 164 0
147 169 0
150 171 0
146 169 0
148 169 0
146 168 0
144 165 0
141 162 0
137 158 0
151 171 0
147 168 0
144 165 0
149 170 0
149 171 0
145 166 0
142 165 0
139 161 0
139 161 0
150 171 0
148 169 0
148 170 0
148 169 0
151 173 0
144 165 0
153 174 0
149 171 0
147 169 0
149 172 0
148 170 0
145 167 0
147 170 0
144 166 0
148 171 0
153 174 0
153 175 0
148 169 0
149 171 0
147 168 0
146 168 0
145 166 0
147 168 0
147 169 0
145 167 0
148 170 0
150 172 0
143 164 0
147 169 0
155 177 0
152 174 0
147 169 0
154 177 0
146 169 0
158 181 0
148 170 0
151 171 0
153 174 0
145 167 0
147 168 0
148 171 0
156 178 0
157 179 0
144 167 0
147 168 0
153 174 0
145 166 0
151 173 0
153 175 0
152 175 0
154 177 0
151 173 0
154 177 0
155 177 0
154 176 0
154 176 0
153 175 0
151 173 0
151 173 0
158 180 0
154 176 0
154 176 0
160 182 0
156 178 0
158 181 0
155 176 0
155 177 0
160 181 0
153 175 0
158 180 0
163 184 0
157 180 0
159 181 0
158 180 0
159 182 0
157 179 0
154 177 0
154 177 0
153 174 0
156 179 0
158 179 0
155 179 0
156 178 0
154 176 0
160 183 0
153 175 0
160 182 0
158 181 0
156 178 0
160 183 0
161 183 0
163 184 0
161 184 0
164 188 0
157 179 0
162 184 0
159 183 0
160 182 0
160 182 0
165 187 0
158 180 0
160 182 0
159 182 0
162 183 0
162 185 0
157 179 0
159 180 0
167 189 0
164 186 0
161 183 0
163 185 0
164 186 0
164 186 0
165 188 0
161 183 0
165 188 0
162 183 0
159 181 0
161 182 0
164 186 0
161 183 0
160 182 0
167 189 0
166 188 0
165 187 0
166 189 0
162 184 0
166 189 0
160 183 0
165 187 0
169 190 0
167 189 0
164 186 0
167 189 0
163 185 0
159 181 0
165 187 0
165 187 0
165 187 0
164 187 0
167 190 0
170 193 0
163 185 0
169 191 0
165 185 0
165 186 0
163 185 0
168 190 0
168 189 0
164 186 0
167 189 0
168 190 0
169 191 0
164 186 0
168 190 0
163 186 0
170 192 0
167 189 0
167 189 0
165 187 0
166 189 0
169 190 0
170 192 0
165 186 0
166 189 0
168 192 0
166 188 0
171 194 0
166 188 0
168 190 0
169 191 0
167 190 0
169 192 0
166 188 0
168 189 0
171 194 0
171 195 0
168 192 0
171 195 0
167 189 0
165 189 0
166 187 0
166 188 0
169 192 0
172 194 0
169 192 0
169 191 0
168 190 0
170 193 0
168 190 0
170 194 0
169 192 0
168 192 0
171 195 0
168 191 0
170 192 0
169 191 0
169 192 0
168 189 0
170 193 0
168 191 0
169 190 0
166 189 0
170 193 0
169 192 0
168 190 0
172 195 0
172 194 0
171 193 0
171 195 0
170 191 0
170 192 0
171 193 0
165 187 0
170 192 0
171 194 0
171 194 0
173 194 0
172 195 0
172 195 44
173 196 18
174 197 44
176 199 44
173 196 36
172 196 25
176 198 51
174 196 44
170 193 40
169 192 44
168 191 40
170 193 54
171 194 65
164 187 25
172 195 62
172 195 80
171 194 70
168 191 36
169 191 47
169 191 67
173 196 57
169 192 65
169 191 57
167 190 90
172 194 67
171 193 80
166 189 76
164 187 57
166 189 67
170 193 67
169 191 82
166 190 94
172 194 76
169 191 94
164 186 62
172 195 76
168 190 94
163 185 82
170 192 84
170 193 70
168 191 88
164 187 83
171 193 72
175 197 107
169 192 94
172 195 102
168 190 80
175 197 97
172 194 100
174 196 92
173 195 84
172 194 62
174 196 99
178 200 105
175 197 88
168 191 88
168 191 76
173 195 108
169 190 62
165 186 80
176 199 120
171 193 84
171 193 92
174 196 92
168 190 72
168 189 84
170 192 62
169 191 95
169 191 80
171 193 95
171 194 105
166 189 95
169 190 102
165 186 102
168 191 88
171 192 95
167 190 88
171 193 108
166 188 92
167 189 88
166 189 92
173 195 105
166 188 95
169 190 99
165 186 92
159 181 67
173 194 95
171 193 114
171 193 95
168 190 105
164 185 76
164 186 95
163 184 99
171 192 102
163 184 95
165 188 108
166 187 114
166 187 84
159 181 76
164 185 80
164 186 88
163 184 88
171 192 80
165 187 105
161 182 80
161 182 80
167 188 92
164 186 92
162 183 95
156 178 80
169 190 84
159 181 84
164 185 72
161 182 108
160 181 67
156 176 67
165 185 62
161 182 76
163 184 67
162 182 95
159 180 57
157 178 62
166 187 62
166 187 57
157 178 44
165 186 72
161 182 67
154 175 62
156 177 44
154 176 62
155 177 44
155 177 51
152 173 51
155 178 0
161 183 25
159 181 44
147 170 36
160 181 0
161 183 25
152 173 0
160 183 0
158 179 25
161 183 0
153 176 0
160 183 25
158 181 25
158 180 0
159 183 0
155 177 0
160 182 0
156 179 0
156 178 0
155 178 0
149 171 0
154 175 0
148 170 0
145 167 0
153 176 0
152 173 0
144 165 0
142 163 0
151 172 0
148 170 0
146 167 0
147 169 0
144 166 0
150 171 0
149 171 0
140 161 0
146 167 0
140 161 0
149 171 0
143 164 0
144 166 0
147 170 0
144 166 0
143 166 0
146 167 0
147 168 0
144 166 0
156 178 0
142 164 0
145 167 0
142 164 0
141 162 0
145 168 0
147 169 0
147 168 0
145 167 0
143 165 0
146 167 0
157 178 0
151 173 0
145 166 0
151 174 0
148 170 0
149 171 0
145 167 0
146 168 0
155 177 0
145 167 0
146 167 0
147 170 0
146 168 0
143 165 0
149 170 0
143 165 0
151 173 0
149 170 0
147 169 0
152 173 0
154 176 0
147 168 0
148 170 0
151 173 0
146 167 0
149 172 0
152 172 0
151 174 0
149 171 0
146 169 0
150 172 0
150 172 0
157 178 0
151 173 0
150 172 0
161 182 0
150 171 0
159 181 0
146 168 0
150 171 0
154 175 0
152 175 0
149 171 0
157 177 0
150 174 0
159 182 0
152 174 0
157 179 0
160 182 0
147 169 0
156 178 0
161 184 0
158 178 0
161 184 0
149 169 0
152 175 0
156 178 0
147 167 0
152 174 0
157 179 0
151 172 0
154 175 0
159 181 0
154 176 0
157 178 0
162 183 0
160 181 0
160 182 0
156 179 0
158 179 0
151 172 0
160 183 0
161 184 0
154 176 0
156 176 0
161 183 0
162 184 0
158 180 0
158 179 0
162 183 0
159 182 0
164 187 0
163 183 0
162 184 0
163 185 0
159 182 0
162 184 0
165 187 0
158 179 0
160 181 0
159 180 0
166 188 0
160 184 0
157 180 0
161 183 0
160 183 0
159 181 0
166 188 0
162 185 0
159 180 0
162 183 0
163 184 0
161 181 0
163 185 0
161 183 0
166 187 0
163 185 0
163 184 0
164 185 0
161 183 0
164 186 0
159 180 0
169 191 0
163 184 0
163 186 0
161 183 0
165 188 0
168 190 0
163 185 0
167 189 0
157 180 0
163 185 0
167 188 0
165 186 0
168 191 0
165 186 0
165 188 0
165 187 0
165 186 0
165 188 0
165 187 0
167 189 0
167 189 0
159 182 0
166 187 0
169 191 0
159 182 0
169 192 0
166 189 0
167 189 0
167 190 0
164 186 0
166 189 0
166 189 0
163 185 0
165 186 0
165 187 0
163 185 0
166 188 0
172 195 0
167 190 0
165 188 0
164 186 0
170 192 0
169 192 0
166 189 0
169 191 0
170 193 0
166 189 0
168 191 0
167 189 0
166 188 0
166 189 0
170 192 0
172 195 0
168 190 0
165 188 0
167 189 0
169 191 0
167 189 0
167 189 0
167 190 0
167 190 0
169 191 0
168 191 0
169 192 0
164 185 0
165 187 0
172 193 0
170 193 0
169 191 0
169 193 0
168 190 0
168 190 0
168 190 0
170 192 0
169 192 0
172 192 0
169 192 0
172 195 0
168 190 0
166 190 0
173 194 0
168 192 0
170 193 0
169 191 0
170 193 0
168 190 0
171 194 0
172 194 0
171 193 0
170 191 0
173 196 0
171 194 0
170 192 0
172 195 0
171 195 0
170 192 0
173 196 18
173 197 25
175 198 36
170 193 36
171 194 25
173 195 51
172 195 25
173 196 36
174 196 36
173 196 25
172 195 51
171 195 44
175 197 57
170 194 47
170 192 65
169 191 62
165 188 44
170 193 47
168 192 44
168 191 67
172 194 60
167 189 51
166 188 44
173 196 70
170 192 60
173 196 65
164 187 60
169 192 82
167 190 65
174 196 84
175 197 94
166 189 57
170 193 67
166 189 78
169 190 72
164 186 82
171 193 99
165 188 92
170 192 90
171 193 74
170 192 92
162 185 92
171 193 67
177 198 100
163 186 78
176 198 108
170 192 65
172 194 74
178 200 122
170 192 107
172 194 92
172 194 72
172 194 99
173 195 62
167 191 88
173 196 105
175 197 102
175 198 114
174 197 95
171 194 95
175 197 111
172 194 99
178 200 114
170 191 95
173 194 105
171 194 84
171 193 99
170 193 105
170 192 95
175 197 102
171 193 92
169 191 80
166 189 72
165 187 88
168 190 92
169 190 92
174 196 108
163 186 95
165 186 92
167 189 92
176 197 105
175 196 92
170 191 105
167 189 114
171 192 102
169 191 99
164 186 99
166 187 88
169 190 92
169 189 95
167 189 67
169 191 88
159 181 88
161 182 72
166 188 95
170 191 108
165 185 80
169 190 92
171 191 111
163 184 76
161 183 76
162 183 72
165 186 76
158 179 88
160 181 72
169 190 95
168 189 99
164 186 84
163 184 88
157 179 80
162 183 72
164 185 92
156 177 72
166 188 84
166 187 88
155 176 72
161 183 72
158 179 67
161 181 80
160 181 72
157 178 76
163 183 95
166 188 88
168 188 88
164 185 72
154 176 67
157 178 62
162 183 62
158 180 44
155 176 72
166 187 57
160 181 57
159 181 57
154 176 0
162 183 36
154 176 25
155 177 36
158 181 25
164 187 25
162 185 0
154 178 0
152 175 0
158 181 0
156 179 36
157 180 0
156 178 0
155 178 0
162 185 0
158 180 0
157 180 0
158 181 0
154 177 0
148 170 0
149 171 0
156 178 0
151 173 0
150 171 0
145 167 0
137 158 0
152 174 0
155 178 0
144 165 0
152 174 0
154 176 0
143 165 0
144 165 0
141 162 0
145 167 0
150 172 0
154 176 0
144 165 0
153 175 0
145 167 0
140 162 0
144 165 0
138 159 0
150 172 0
141 162 0
148 169 0
148 170 0
148 169 0
150 172 0
153 176 0
149 171 0
150 172 0
143 166 0
148 169 0
140 163 0
151 174 0
148 170 0
147 168 0
151 172 0
150 171 0
147 168 0
150 172 0
143 165 0
150 173 0
146 168 0
156 177 0
148 170 0
151 172 0
150 172 0
144 165 0
155 178 0
144 166 0
148 170 0
156 178 0
146 170 0
148 169 0
159 181 0
157 179 0
149 171 0
149 171 0
153 176 0
157 178 0
148 170 0
152 174 0
147 170 0
141 165 0
156 179 0
148 170 0
157 179 0
148 171 0
149 171 0
141 161 0
156 179 0
155 176 0
159 180 0
153 175 0
146 168 0
155 176 0
156 177 0
158 178 0
157 180 0
154 175 0
158 180 0
153 176 0
153 175 0
156 179 0
153 175 0
155 178 0
153 175 0
158 181 0
159 180 0
159 181 0
160 182 0
161 182 0
153 175 0
154 176 0
154 178 0
161 183 0
160 184 0
160 182 0
152 175 0
158 180 0
155 178 0
160 183 0
155 178 0
152 174 0
156 179 0
153 173 0
159 181 0
156 178 0
159 181 0
152 173 0
159 179 0
155 177 0
153 174 0
154 176 0
158 180 0
164 186 0
154 176 0
163 186 0
161 183 0
159 182 0
163 186 0
158 180 0
157 180 0
158 180 0
159 182 0
166 188 0
163 185 0
163 185 0
165 188 0
157 179 0
167 189 0
158 179 0
160 182 0
166 188 0
161 183 0
161 182 0
162 185 0
161 182 0
164 186 0
159 182 0
161 184 0
161 182 0
168 189 0
164 187 0
161 183 0
165 185 0
161 182 0
165 188 0
162 186 0
166 187 0
164 187 0
162 184 0
165 188 0
165 187 0
166 187 0
163 184 0
163 185 0
166 187 0
163 186 0
162 184 0
160 183 0
167 190 0
168 191 0
165 187 0
163 186 0
166 188 0
171 194 0
167 188 0
162 184 0
169 192 0
165 186 0
162 185 0
167 190 0
166 189 0
166 189 0
162 184 0
165 187 0
168 191 0
167 190 0
170 192 0
167 190 0
160 182 0
168 190 0
167 190 0
168 190 0
167 188 0
166 188 0
168 191 0
171 193 0
168 189 0
169 190 0
166 187 0
168 191 0
168 191 0
171 194 0
170 192 0
168 191 0
167 189 0
169 192 0
168 190 0
169 193 0
169 191 0
170 193 0
170 191 0
169 190 0
169 191 0
165 187 0
168 191 0
170 192 0
169 191 0
170 193 0
166 188 0
166 189 0
170 192 0
171 195 0
170 191 0
170 192 0
169 192 0
164 185 0
167 191 0
172 194 0
171 194 0
169 192 0
167 190 0
169 192 0
170 192 0
168 192 0
167 191 0
169 192 0
169 191 0
172 195 0
169 190 0
168 189 0
172 194 0
174 197 0
170 193 0
172 195 0
172 196 0
172 195 0
169 191 0
168 189 0
167 189 0
173 196 0
170 193 0
170 194 0
175 198 36
170 193 25
175 197 0
173 196 31
175 198 25
170 193 0
175 197 62
173 196 31
172 195 25
168 191 25
171 194 54
164 188 31
176 198 51
169 191 44
169 192 40
171 194 67
173 195 60
172 194 72
167 190 51
171 193 70
169 191 60
172 194 54
167 189 70
169 192 76
166 188 80
173 195 90
166 188 78
169 191 62
169 191 62
167 190 54
174 196 62
164 187 70
166 189 72
171 193 75
164 187 70
169 192 72
167 189 70
170 193 94
167 189 57
167 189 103
170 193 88
169 191 102
172 195 78
168 190 65
171 194 97
167 190 94
172 194 74
175 197 76
174 197 107
176 198 105
173 195 95
173 195 108
177 199 117
172 195 99
175 197 99
176 198 102
175 197 114
169 191 88
170 193 95
171 193 88
176 198 114
174 195 108
175 196 102
170 193 102
171 193 80
173 196 92
175 197 111
172 194 95
170 193 95
174 195 76
172 195 105
170 193 102
164 186 105
169 191 80
166 188 95
169 190 102
169 191 102
163 186 84
163 186 84
169 191 80
173 196 102
168 189 108
164 186 80
167 190 99
169 191 105
162 184 102
166 187 92
166 188 84
172 193 80
165 187 72
171 193 105
170 192 102
166 187 102
158 178 67
171 193 108
163 185 72
162 183 92
167 188 95
166 188 88
172 194 92
171 191 102
163 184 72
162 183 92
165 186 62
175 196 102
161 183 76
167 188 67
160 182 84
157 180 72
162 183 88
163 185 95
162 183 72
156 176 84
157 178 76
164 185 67
164 185 92
160 181 72
163 184 76
156 176 72
153 174 62
159 180 57
157 179 72
166 188 72
162 184 57
162 183 72
165 185 80
157 177 72
154 175 44
163 184 62
165 186 51
162 184 44
157 179 25
165 186 72
159 180 36
152 174 51
159 181 0
154 177 0
162 184 25
160 182 0
159 181 0
160 183 0
163 185 0
155 177 0
154 177 0
161 184 0
157 181 0
156 179 0
156 179 0
151 174 0
152 174 0
156 178 0
154 175 0
152 175 0
154 177 0
150 172 0
159 181 0
147 169 0
150 171 0
156 178 0
159 182 0
157 179 0
155 176 0
149 170 0
147 168 0
155 177 0
144 166 0
142 163 0
153 174 0
149 171 0
148 169 0
144 167 0
150 173 0
154 175 0
145 166 0
151 174 0
141 163 0
150 171 0
144 166 0
146 168 0
151 172 0
152 174 0
152 175 0
151 172 0
145 167 0
151 173 0
145 167 0
155 176 0
151 173 0
148 171 0
148 169 0
145 166 0
141 163 0
152 173 0
145 167 0
145 168 0
151 173 0
147 169 0
152 173 0
154 176 0
148 170 0
144 165 0
154 175 0
152 173 0
156 178 0
152 174 0
152 174 0
149 170 0
153 174 0
146 168 0
152 174 0
144 166 0
146 168 0
154 177 0
156 179 0
148 170 0
150 173 0
155 176 0
152 174 0
150 171 0
153 175 0
143 164 0
152 173 0
156 180 0
146 169 0
154 176 0
154 176 0
153 176 0
154 176 0
159 181 0
155 177 0
153 174 0
152 175 0
153 175 0
154 177 0
153 175 0
158 181 0
153 176 0
157 180 0
156 178 0
156 179 0
156 178 0
151 174 0
160 182 0
158 179 0
153 175 0
157 179 0
152 175 0
161 184 0
158 181 0
160 181 0
154 176 0
150 172 0
157 179 0
151 173 0
155 177 0
160 182 0
157 179 0
157 179 0
157 179 0
159 180 0
162 184 0
160 183 0
162 185 0
157 180 0
163 184 0
158 179 0
151 173 0
153 174 0
156 179 0
161 184 0
157 179 0
163 185 0
158 181 0
160 182 0
157 179 0
161 182 0
161 184 0
162 184 0
165 187 0
161 183 0
164 187 0
162 184 0
153 174 0
163 187 0
163 185 0
162 184 0
164 187 0
161 183 0
164 186 0
162 185 0
162 186 0
165 188 0
159 181 0
164 186 0
164 184 0
162 184 0
159 182 0
159 183 0
158 179 0
165 187 0
167 189 0
156 178 0
163 185 0
165 186 0
164 186 0
164 187 0
166 189 0
165 186 0
162 185 0
165 188 0
167 188 0
157 179 0
166 188 0
162 184 0
166 189 0
165 188 0
164 187 0
162 185 0
171 193 0
165 187 0
168 190 0
167 190 0
164 186 0
163 186 0
165 188 0
164 186 0
167 189 0
164 187 0
168 191 0
166 189 0
165 188 0
165 187 0
167 188 0
167 189 0
163 186 0
163 186 0
169 191 0
170 194 0
166 189 0
161 183 0
166 189 0
168 190 0
165 187 0
169 192 0
167 189 0
166 189 0
165 187 0
161 184 0
166 189 0
170 192 0
169 191 0
164 186 0
170 192 0
166 189 0
170 193 0
169 190 0
166 188 0
168 191 0
170 193 0
172 194 0
167 191 0
171 193 0
169 191 0
169 192 0
168 189 0
169 192 0
170 193 0
168 191 0
170 193 0
170 192 0
171 193 0
169 192 0
169 190 0
171 193 0
172 194 0
164 186 0
168 191 0
170 192 0
173 195 0
171 194 0
170 192 0
168 190 0
170 193 0
171 195 0
169 192 0
171 193 0
168 192 0
169 192 0
169 192 0
169 192 0
170 194 0
172 193 0
170 192 0
168 192 0
171 194 0
167 190 0
169 191 0
171 193 0
171 194 0
172 194 0
173 197 36
174 197 25
174 198 0
172 196 36
171 196 36
172 195 44
173 196 0
171 194 60
175 199 44
174 196 51
173 196 44
172 196 36
170 193 60
170 192 25
175 198 51
169 192 44
171 193 65
171 194 60
171 194 25
166 189 51
170 193 67
170 192 54
169 191 65
165 188 54
172 195 72
169 192 65
169 192 67
169 191 62
172 194 62
164 186 70
160 183 55
165 188 61
167 189 77
170 192 67
170 192 95
167 189 70
170 192 84
171 194 74
167 189 82
173 195 78
168 189 78
170 192 84
171 193 76
170 192 78
173 195 97
171 193 74
170 192 80
172 195 80
172 194 90
169 191 72
171 193 84
175 197 95
174 196 99
169 191 92
175 197 105
175 197 95
174 196 102
171 194 92
173 194 92
168 190 80
176 198 114
174 196 95
170 193 117
174 195 111
176 199 108
170 192 105
170 192 99
177 198 125
172 195 102
170 193 84
165 187 92
169 191 88
172 195 72
167 187 92
174 196 108
165 187 92
168 190 80
167 189 84
170 191 88
166 189 92
171 193 99
165 188 92
170 191 99
164 186 95
168 190 99
167 189 95
161 183 72
167 187 95
172 193 102
166 188 95
165 186 95
168 190 99
163 184 80
164 186 80
164 186 76
161 182 88
161 183 88
168 189 111
166 188 88
156 177 72
168 189 92
163 185 92
160 181 88
161 183 92
169 191 95
164 185 67
163 184 92
162 184 76
167 188 95
165 185 72
163 183 102
162 184 80
168 190 80
160 180 62
160 181 57
162 183 67
170 192 88
153 174 76
160 182 76
157 178 76
162 183 67
158 179 84
157 177 62
158 179 76
160 182 44
155 176 72
160 182 57
166 188 72
154 176 51
158 180 57
158 179 51
158 181 51
156 177 0
156 178 44
159 182 36
165 188 44
152 175 0
160 183 36
159 182 0
158 180 0
164 186 0
163 186 0
159 181 36
159 182 0
162 184 0
161 184 25
152 175 0
164 186 0
161 184 0
158 180 0
158 179 0
157 178 0
153 175 0
155 176 0
152 174 0
139 159 0
152 173 0
153 175 0
148 168 0
146 168 0
152 173 0
153 174 0
150 171 0
160 181 0
144 166 0
151 172 0
150 172 0
144 165 0
149 172 0
140 161 0
147 168 0
147 168 0
145 166 0
142 162 0
158 180 0
155 177 0
145 167 0
146 168 0
150 170 0
149 170 0
141 162 0
152 173 0
151 173 0
148 170 0
149 170 0
139 162 0
146 169 0
152 174 0
155 177 0
145 168 0
146 168 0
156 178 0
148 170 0
142 163 0
156 178 0
158 180 0
144 166 0
146 168 0
156 179 0
151 173 0
148 170 0
152 174 0
146 167 0
145 167 0
149 172 0
140 162 0
153 175 0
149 170 0
151 174 0
152 174 0
147 169 0
147 168 0
155 177 0
154 177 0
152 175 0
152 174 0
152 173 0
147 169 0
148 171 0
157 179 0
146 167 0
154 177 0
146 169 0
149 172 0
155 177 0
157 178 0
157 179 0
152 173 0
150 173 0
155 174 0
153 176 0
154 176 0
153 174 0
155 177 0
157 180 0
149 172 0
157 177 0
163 186 0
155 177 0
152 174 0
155 177 0
151 172 0
154 177 0
161 183 0
158 180 0
163 185 0
158 179 0
159 181 0
158 182 0
155 177 0
155 178 0
162 184 0
154 176 0
161 182 0
154 176 0
159 181 0
158 182 0
155 178 0
151 174 0
158 181 0
165 188 0
160 182 0
161 183 0
159 181 0
155 177 0
156 178 0
162 184 0
158 181 0
163 186 0
158 181 0
163 185 0
156 178 0
163 185 0
168 191 0
157 178 0
165 187 0
164 185 0
161 184 0
155 176 0
155 177 0
160 182 0
166 188 0
161 183 0
155 177 0
164 187 0
164 186 0
164 187 0
162 185 0
165 188 0
162 185 0
160 181 0
164 185 0
168 190 0
164 187 0
159 181 0
168 191 0
168 190 0
166 191 0
162 183 0
163 186 0
165 188 0
163 185 0
166 189 0
160 181 0
167 189 0
166 187 0
166 188 0
162 184 0
162 185 0
169 192 0
163 185 0
164 187 0
164 186 0
167 191 0
167 189 0
162 185 0
167 188 0
166 188 0
161 184 0
169 191 0
166 188 0
165 187 0
167 189 0
159 182 0
169 190 0
167 189 0
164 186 0
159 182 0
167 188 0
163 186 0
167 190 0
168 189 0
166 188 0
166 189 0
170 192 0
166 186 0
165 186 0
166 190 0
167 190 0
167 189 0
171 194 0
164 187 0
166 188 0
168 190 0
170 192 0
169 191 0
166 189 0
165 187 0
171 193 0
163 186 0
168 191 0
171 194 0
166 187 0
167 189 0
169 191 0
167 190 0
169 190 0
166 189 0
170 193 0
170 191 0
170 193 0
167 190 0
169 191 0
171 193 0
169 192 0
171 194 0
171 194 0
165 186 0
171 194 0
168 191 0
164 187 0
171 194 0
168 190 0
171 194 0
168 190 0
169 191 0
165 188 0
165 188 0
168 190 0
170 192 0
170 192 0
169 191 0
165 189 0
166 189 0
168 191 0
169 192 0
168 191 0
171 195 0
168 191 0
173 196 0
169 193 0
169 192 0
170 192 0
168 191 0
169 192 0
171 194 0
171 194 0
168 191 0
169 191 0
168 190 0
175 198 25
171 195 40
172 196 36
174 198 25
172 195 0
174 197 36
170 193 25
170 193 31
167 190 0
174 197 44
174 197 57
170 193 36
178 199 57
169 192 51
170 193 47
174 196 67
173 196 62
171 193 60
168 191 51
166 189 36
168 191 57
161 185 18
167 190 65
170 193 36
170 193 76
167 189 65
167 189 80
168 190 72
167 190 57
172 195 86
165 187 70
168 190 74
168 189 72
171 194 70
171 193 104
166 188 82
169 192 62
172 194 80
164 187 62
170 193 99
167 189 82
169 191 80
172 195 84
170 193 86
173 195 92
170 193 76
173 196 95
173 196 94
173 196 95
170 192 78
174 196 86
169 191 102
174 196 111
175 197 76
178 200 102
173 195 72
178 199 105
175 196 99
179 201 95
174 196 88
174 196 95
178 200 92
172 194 88
167 189 88
174 196 99
173 195 95
172 194 99
171 194 67
171 193 92
170 191 88
170 192 76
172 193 111
172 194 76
174 196 114
169 191 95
172 194 102
166 187 88
172 193 88
174 196 108
164 185 84
167 189 95
172 193 99
167 188 95
175 196 99
162 184 72
169 191 102
167 189 88
168 190 95
174 194 105
165 187 92
163 184 80
165 188 62
167 189 117
166 188 92
167 189 95
163 185 62
159 180 84
161 184 99
164 185 80
165 186 99
161 184 95
168 189 95
167 187 105
157 179 80
170 191 76
166 187 72
160 181 72
169 190 102
162 182 84
160 182 67
161 183 67
159 180 72
164 185 84
159 181 80
169 190 92
166 187 72
162 183 67
166 186 92
159 180 84
163 183 92
160 181 80
162 182 76
167 188 72
166 186 76
163 184 44
160 183 44
159 181 57
159 179 44
164 185 62
154 176 44
156 176 44
157 179 44
161 182 25
156 178 44
155 177 51
159 182 25
164 186 25
160 182 36
163 186 0
163 186 0
161 183 36
162 185 0
154 177 0
163 186 0
160 183 0
155 178 0
157 181 25
162 184 0
156 179 0
162 184 0
152 175 0
159 181 0
167 189 0
153 177 0
155 175 0
153 175 0
154 177 0
146 168 0
149 171 0
149 170 0
150 172 0
150 172 0
157 179 0
146 167 0
150 172 0
139 160 0
153 174 0
152 173 0
148 170 0
148 170 0
154 177 0
145 166 0
149 171 0
150 171 0
151 172 0
145 168 0
153 174 0
146 168 0
151 173 0
149 171 0
140 161 0
158 180 0
143 165 0
151 173 0
142 164 0
145 167 0
153 175 0
149 171 0
152 174 0
147 168 0
150 173 0
150 171 0
163 184 0
152 174 0
147 169 0
154 176 0
149 170 0
145 169 0
151 173 0
152 175 0
146 168 0
153 175 0
146 168 0
154 177 0
151 173 0
158 181 0
150 171 0
151 173 0
151 174 0
150 172 0
149 171 0
156 178 0
150 172 0
147 168 0
151 174 0
145 166 0
153 175 0
146 167 0
145 166 0
152 173 0
160 182 0
156 178 0
151 174 0
159 181 0
157 180 0
155 176 0
147 170 0
155 177 0
152 175 0
147 170 0
156 177 0
152 175 0
159 181 0
150 173 0
152 174 0
157 179 0
157 180 0
157 180 0
158 181 0
152 173 0
159 182 0
161 184 0
161 183 0
160 183 0
156 178 0
158 180 0
158 179 0
157 179 0
157 180 0
156 178 0
159 182 0
158 179 0
164 188 0
161 183 0
157 178 0
163 186 0
157 178 0
156 177 0
152 174 0
160 182 0
161 184 0
158 181 0
154 177 0
154 176 0
156 179 0
154 177 0
160 183 0
155 178 0
155 177 0
162 184 0
164 187 0
161 183 0
165 188 0
162 185 0
153 175 0
161 182 0
154 175 0
158 181 0
161 184 0
165 188 0
161 182 0
158 180 0
164 185 0
160 183 0
165 187 0
165 188 0
165 186 0
162 185 0
157 180 0
162 184 0
167 190 0
161 185 0
159 182 0
164 185 0
164 187 0
162 184 0
163 185 0
160 182 0
166 188 0
166 188 0
160 182 0
162 184 0
161 185 0
164 188 0
167 189 0
171 193 0
164 185 0
162 182 0
161 183 0
162 184 0
165 187 0
166 188 0
167 189 0
163 187 0
166 188 0
163 187 0
167 190 0
167 190 0
161 184 0
168 192 0
167 189 0
166 189 0
168 190 0
165 187 0
167 189 0
166 189 0
169 191 0
166 188 0
169 193 0
168 191 0
165 187 0
167 189 0
162 184 0
166 189 0
169 191 0
169 191 0
167 191 0
172 195 0
167 190 0
169 191 0
163 185 0
170 192 0
165 186 0
171 193 0
165 187 0
168 189 0
168 191 0
167 190 0
166 189 0
168 192 0
169 191 0
168 191 0
168 191 0
170 192 0
168 190 0
167 189 0
169 191 0
169 190 0
168 191 0
168 190 0
169 190 0
167 190 0
165 188 0
169 192 0
170 192 0
167 190 0
172 195 0
172 194 0
169 193 0
170 192 0
167 190 0
167 190 0
166 189 0
168 191 0
170 193 0
168 189 0
170 192 0
171 192 0
170 193 0
168 191 0
170 191 0
169 191 0
168 190 0
171 194 0
165 188 0
171 193 0
168 191 0
170 192 0
172 194 0
167 190 0
170 193 0
168 191 0
165 188 0
172 195 0
173 196 0
170 193 0
172 194 0
168 191 0
172 196 0
171 193 0
175 198 0
173 197 25
168 191 0
174 197 25
172 195 25
173 196 25
172 195 25
173 196 44
173 195 36
172 195 40
168 192 44
171 194 44
169 192 25
170 194 18
171 195 44
171 195 51
173 196 67
168 191 47
174 197 44
169 192 44
167 189 57
171 194 51
167 191 36
168 191 60
162 185 57
173 195 57
164 186 68
168 190 80
165 187 57
167 190 60
168 190 66
170 192 57
163 185 62
165 188 76
169 190 62
172 195 80
169 191 70
168 191 70
170 192 78
163 185 74
171 193 76
168 190 74
165 188 70
171 193 114
169 191 86
172 193 90
173 194 70
175 197 84
174 195 90
170 192 84
166 188 60
170 192 70
171 192 102
175 196 94
171 192 92
176 198 95
177 199 88
175 198 114
168 191 76
170 192 95
172 194 95
166 188 80
174 196 95
170 191 95
177 199 117
171 192 72
175 197 88
171 193 95
164 186 92
171 193 102
168 190 88
163 185 80
174 197 105
174 195 99
177 198 105
169 192 99
173 194 92
170 192 108
169 190 76
167 189 76
170 192 92
169 189 92
178 200 108
167 188 102
173 193 105
167 188 84
166 187 88
172 193 95
163 184 76
167 188 72
173 194 99
169 191 88
170 191 92
165 186 88
168 191 84
166 187 102
167 189 92
166 188 92
169 190 72
164 185 95
160 182 88
167 188 88
164 185 80
158 180 84
167 187 72
165 185 95
161 182 62
165 185 67
161 182 76
162 183 84
161 182 67
159 180 62
166 187 92
165 185 84
161 182 76
160 181 51
158 180 67
167 188 80
163 184 92
164 185 72
163 185 72
163 184 72
166 187 80
162 182 76
158 180 72
163 185 67
157 178 36
157 178 51
156 178 44
160 182 36
159 182 36
160 183 51
164 186 36
158 179 36
155 177 25
162 184 36
162 185 36
166 187 44
161 183 0
163 186 0
165 187 25
153 176 0
160 182 25
165 188 0
153 175 0
159 181 25
164 187 0
160 182 0
163 185 0
155 178 0
153 176 0
158 181 0
155 178 0
159 181 0
161 184 0
152 173 0
154 176 0
147 170 0
157 179 0
155 176 0
152 174 0
146 168 0
155 177 0
154 177 0
155 177 0
149 171 0
143 164 0
150 171 0
144 166 0
152 173 0
153 175 0
155 177 0
144 166 0
151 174 0
150 172 0
146 168 0
147 169 0
154 176 0
148 169 0
148 170 0
151 173 0
152 174 0
151 173 0
155 177 0
155 177 0
153 176 0
150 172 0
158 180 0
153 176 0
153 175 0
152 174 0
152 173 0
151 173 0
149 171 0
150 172 0
148 169 0
153 175 0
144 165 0
141 165 0
150 173 0
154 178 0
147 169 0
148 170 0
153 175 0
148 170 0
150 173 0
150 172 0
150 172 0
150 172 0
148 171 0
159 182 0
152 174 0
145 167 0
151 172 0
156 178 0
152 173 0
152 175 0
161 184 0
152 176 0
149 173 0
158 181 0
152 174 0
159 181 0
143 164 0
152 175 0
157 179 0
154 177 0
152 174 0
154 177 0
157 180 0
158 179 0
158 180 0
159 180 0
159 182 0
158 182 0
162 184 0
155 177 0
155 177 0
168 191 0
156 178 0
160 182 0
157 178 0
160 181 0
155 177 0
161 183 0
154 176 0
165 188 0
154 176 0
158 181 0
155 177 0
156 178 0
159 180 0
160 182 0
154 176 0
157 179 0
156 179 0
157 180 0
157 179 0
163 183 0
159 182 0
151 174 0
153 176 0
158 180 0
157 180 0
158 181 0
160 182 0
161 184 0
155 177 0
157 180 0
157 179 0
157 179 0
158 180 0
159 181 0
163 186 0
164 186 0
167 187 0
163 184 0
158 179 0
164 186 0
166 189 0
160 183 0
161 184 0
163 186 0
163 185 0
161 184 0
162 184 0
161 183 0
157 181 0
166 190 0
161 183 0
166 189 0
167 188 0
166 189 0
159 182 0
162 183 0
168 191 0
163 186 0
163 186 0
165 188 0
158 181 0
166 189 0
162 185 0
162 184 0
165 188 0
167 190 0
163 185 0
164 186 0
166 188 0
161 183 0
163 185 0
160 183 0
167 191 0
161 184 0
160 182 0
162 183 0
164 186 0
159 182 0
171 193 0
165 187 0
161 183 0
165 188 0
166 188 0
170 193 0
164 188 0
169 192 0
167 189 0
164 187 0
165 188 0
167 188 0
164 186 0
167 189 0
167 188 0
166 189 0
168 191 0
167 189 0
170 193 0
172 194 0
166 189 0
166 188 0
167 188 0
168 190 0
168 190 0
172 196 0
169 192 0
172 194 0
169 192 0
170 193 0
169 191 0
171 194 0
170 193 0
170 193 0
168 192 0
170 193 0
170 193 0
165 188 0
169 192 0
170 193 0
172 195 0
170 193 0
170 192 0
169 191 0
166 190 0
171 193 0
171 194 0
167 190 0
167 188 0
166 189 0
167 187 0
170 192 0
166 189 0
170 193 0
168 191 0
167 190 0
171 193 0
168 190 0
171 193 0
167 188 0
173 195 0
167 188 0
169 191 0
173 193 0
170 193 0
169 193 0
172 195 0
169 193 0
166 189 0
172 195 0
171 193 0
171 195 0
171 194 0
168 190 0
167 190 0
169 191 0
171 193 0
171 195 0
172 195 0
171 192 0
171 195 0
170 192 0
168 191 0
172 196 25
176 198 25
173 197 40
173 197 36
174 197 44
171 194 0
172 196 0
170 193 25
174 197 25
173 197 54
167 191 31
173 196 51
172 195 44
169 192 47
172 195 25
171 194 36
166 190 36
171 195 36
174 196 72
168 190 62
169 192 44
172 195 67
169 192 80
168 192 54
169 191 74
171 193 62
171 193 80
167 190 76
167 190 51
162 185 57
171 194 70
162 186 57
165 187 57
172 196 74
163 186 65
166 188 74
167 189 58
165 187 85
175 196 88
167 191 57
167 189 72
169 191 65
172 194 92
173 194 92
173 195 86
174 196 88
170 193 72
168 190 74
176 197 90
168 191 72
175 197 111
176 199 108
171 192 94
171 193 76
176 197 120
176 198 99
174 197 102
173 194 84
172 195 95
174 195 88
176 198 99
174 196 84
177 199 102
172 194 105
174 196 84
169 191 92
173 196 88
175 196 108
172 194 108
170 192 92
166 188 102
172 195 108
172 194 80
167 189 99
171 192 51
167 188 62
166 188 88
168 190 117
171 193 92
170 192 99
173 194 102
167 189 111
168 190 92
167 189 105
164 185 84
164 186 88
168 189 95
169 190 95
166 188 105
161 183 76
170 191 80
169 191 88
157 178 67
164 185 80
167 189 84
164 186 92
168 189 80
158 179 67
166 188 84
164 186 92
163 185 62
163 184 76
165 187 92
163 184 72
163 184 72
162 184 84
169 190 88
164 186 95
164 186 88
163 185 84
163 184 57
159 180 62
160 180 67
166 186 80
162 183 102
162 183 76
166 186 67
161 183 57
164 186 84
163 184 72
157 178 44
161 182 67
159 180 76
164 186 72
162 184 44
169 190 62
153 174 67
165 187 62
164 185 51
148 170 25
156 178 51
165 186 44
158 180 36
157 179 25
166 188 25
158 181 0
157 179 25
161 183 25
165 187 0
161 183 0
166 189 0
167 191 0
157 180 0
163 187 25
164 187 36
157 179 0
161 184 0
162 185 0
165 187 0
150 173 0
150 173 0
160 182 0
148 170 0
151 173 0
154 176 0
153 175 0
156 178 0
158 180 0
147 169 0
151 173 0
147 170 0
153 176 0
153 175 0
144 166 0
149 171 0
155 176 0
153 175 0
151 172 0
158 179 0
155 177 0
146 167 0
151 173 0
151 173 0
157 179 0
151 173 0
155 177 0
151 173 0
148 170 0
156 179 0
152 174 0
147 170 0
145 167 0
148 170 0
151 172 0
146 168 0
148 170 0
153 174 0
154 176 0
151 172 0
155 177 0
154 175 0
159 181 0
149 171 0
158 180 0
152 174 0
148 170 0
143 164 0
148 170 0
144 165 0
152 174 0
142 163 0
150 172 0
152 173 0
157 179 0
142 164 0
155 176 0
155 176 0
148 171 0
152 174 0
150 173 0
155 178 0
158 181 0
146 168 0
154 176 0
153 176 0
154 175 0
150 172 0
152 174 0
154 176 0
149 171 0
156 177 0
156 179 0
156 179 0
151 173 0
153 174 0
147 169 0
153 176 0
155 178 0
150 172 0
156 178 0
152 175 0
166 188 0
153 174 0
159 180 0
160 182 0
157 181 0
155 176 0
155 177 0
158 179 0
155 178 0
161 184 0
161 183 0
160 182 0
157 178 0
157 180 0
160 183 0
163 186 0
158 182 0
148 170 0
159 182 0
151 173 0
160 182 0
157 179 0
158 181 0
160 182 0
151 174 0
154 177 0
160 183 0
164 186 0
157 180 0
159 182 0
162 183 0
159 181 0
161 183 0
157 178 0
156 180 0
151 173 0
156 178 0
161 182 0
159 180 0
161 185 0
156 178 0
158 180 0
158 179 0
157 179 0
161 183 0
162 185 0
159 182 0
161 184 0
161 183 0
167 188 0
160 182 0
165 188 0
163 185 0
158 181 0
159 181 0
164 186 0
164 184 0
158 182 0
162 185 0
160 183 0
166 188 0
164 186 0
165 189 0
164 185 0
167 188 0
157 179 0
166 189 0
160 184 0
161 185 0
163 184 0
166 190 0
161 184 0
162 185 0
165 187 0
167 189 0
165 188 0
164 186 0
164 187 0
165 187 0
162 185 0
166 188 0
163 185 0
168 189 0
166 190 0
167 191 0
167 189 0
161 183 0
166 188 0
168 190 0
158 181 0
166 187 0
165 187 0
166 188 0
166 189 0
164 188 0
166 188 0
168 190 0
169 191 0
168 191 0
170 192 0
167 191 0
169 191 0
166 189 0
170 192 0
170 193 0
168 191 0
166 189 0
166 190 0
165 186 0
168 192 0
168 191 0
170 194 0
165 187 0
164 187 0
170 192 0
169 191 0
168 189 0
170 192 0
170 193 0
166 189 0
167 191 0
170 193 0
170 193 0
169 193 0
169 192 0
165 188 0
169 192 0
169 191 0
168 190 0
167 190 0
169 191 0
168 190 0
170 193 0
171 193 0
167 191 0
172 195 0
170 192 0
170 193 0
168 191 0
171 193 0
166 188 0
172 194 0
166 188 0
170 192 0
172 194 0
170 192 0
166 189 0
171 194 0
169 192 0
171 194 0
170 193 0
169 192 0
172 194 0
169 192 0
169 191 0
172 195 0
170 193 0
169 192 0
172 195 0
173 195 0
172 194 0
171 194 0
169 191 0
168 190 0
174 195 0
171 194 0
167 190 0
169 193 0
168 190 0
173 197 0
170 194 0
172 195 25
174 197 0
171 195 36
172 195 0
170 193 0
176 199 51
174 197 36
172 196 25
172 195 25
170 193 18
174 197 25
171 194 40
173 196 36
174 196 57
173 195 57
169 191 54
166 189 25
171 194 47
163 187 31
168 191 44
161 183 25
171 194 74
164 188 60
175 197 60
173 195 60
172 194 54
166 189 47
161 183 60
164 186 62
172 195 60
164 187 40
166 187 67
169 191 72
168 189 74
172 193 76
166 189 78
162 185 68
174 196 90
171 192 90
173 194 88
168 191 74
173 195 84
175 196 90
170 192 70
176 197 97
166 188 61
177 198 88
173 194 80
165 187 76
176 197 80
174 195 95
173 195 90
176 197 103
172 194 95
174 197 99
175 197 114
171 192 88
173 194 84
173 195 99
176 197 117
173 195 80
175 197 99
175 197 99
172 193 92
172 193 76
173 195 105
176 199 99
173 194 108
174 196 105
169 190 88
174 195 92
170 192 88
165 187 72
173 195 92
169 191 111
169 190 105
173 193 99
170 192 88
167 189 92
173 193 92
172 194 114
172 194 72
171 192 72
165 186 88
163 184 99
172 192 99
172 193 105
168 189 72
163 183 84
175 196 102
167 189 72
170 190 80
165 187 105
163 184 67
163 185 111
164 186 80
169 191 102
164 185 88
161 182 72
158 180 51
167 188 88
163 185 80
157 178 67
165 185 80
164 185 92
172 194 76
165 187 80
166 188 67
161 182 62
167 187 92
166 188 84
157 180 76
162 182 76
166 187 62
162 184 67
163 184 67
161 182 62
167 188 92
169 191 88
162 183 57
163 185 67
163 185 44
155 178 57
156 178 36
170 192 62
159 182 57
163 184 44
166 188 67
153 175 25
163 185 57
152 175 44
162 182 51
165 187 51
166 189 0
162 185 0
164 185 0
160 183 0
159 182 25
162 184 25
162 185 0
160 182 25
161 185 0
165 188 0
157 181 0
160 183 0
164 187 0
155 177 0
155 179 0
153 176 0
153 176 0
161 183 0
151 173 0
147 169 0
160 181 0
155 177 0
148 170 0
149 172 0
151 172 0
159 182 0
153 175 0
145 166 0
149 171 0
157 179 0
153 174 0
146 168 0
148 169 0
153 175 0
151 173 0
153 175 0
155 177 0
157 179 0
157 179 0
146 168 0
144 165 0
149 172 0
154 176 0
155 177 0
143 165 0
147 169 0
150 171 0
155 176 0
150 172 0
150 172 0
145 167 0
152 174 0
149 171 0
153 175 0
151 174 0
155 177 0
150 171 0
150 171 0
157 180 0
154 176 0
146 167 0
146 167 0
151 173 0
144 167 0
152 175 0
148 170 0
150 171 0
154 175 0
158 181 0
153 175 0
149 171 0
147 169 0
152 175 0
149 171 0
150 172 0
158 180 0
159 181 0
150 172 0
150 172 0
158 179 0
154 176 0
159 182 0
156 178 0
159 181 0
153 175 0
150 173 0
149 172 0
158 181 0
156 178 0
155 177 0
158 180 0
148 171 0
155 177 0
157 179 0
159 181 0
164 186 0
156 179 0
157 179 0
161 183 0
160 183 0
151 174 0
157 179 0
153 174 0
162 182 0
159 183 0
165 188 0
159 182 0
163 184 0
159 180 0
159 182 0
157 179 0
165 188 0
159 181 0
159 181 0
157 179 0
157 181 0
155 178 0
157 179 0
157 179 0
167 190 0
146 168 0
159 183 0
161 183 0
164 186 0
157 180 0
156 179 0
164 186 0
164 188 0
162 185 0
157 178 0
159 182 0
161 185 0
159 182 0
156 178 0
163 185 0
163 186 0
165 189 0
156 179 0
163 185 0
160 181 0
163 186 0
160 182 0
161 182 0
164 186 0
165 188 0
162 184 0
164 186 0
166 189 0
163 185 0
163 186 0
163 186 0
164 187 0
159 181 0
164 187 0
167 189 0
159 182 0
171 194 0
159 180 0
163 185 0
160 183 0
163 186 0
159 181 0
166 188 0
167 188 0
165 187 0
164 187 0
165 187 0
164 185 0
161 183 0
164 188 0
163 184 0
164 186 0
165 187 0
166 189 0
163 184 0
162 185 0
165 187 0
158 181 0
161 184 0
164 188 0
164 186 0
165 188 0
168 189 0
164 187 0
164 186 0
162 185 0
161 184 0
165 187 0
166 188 0
166 189 0
167 189 0
170 191 0
168 191 0
169 191 0
161 183 0
165 188 0
167 188 0
166 189 0
168 191 0
169 192 0
169 191 0
171 192 0
165 186 0
169 191 0
165 187 0
169 191 0
161 182 0
169 191 0
166 189 0
168 191 0
167 190 0
169 191 0
166 187 0
170 192 0
168 190 0
169 192 0
167 189 0
170 191 0
165 188 0
170 193 0
166 187 0
171 193 0
168 191 0
172 195 0
169 191 0
171 193 0
168 190 0
167 189 0
169 192 0
171 193 0
171 195 0
169 192 0
169 190 0
165 187 0
167 190 0
170 192 0
172 195 0
169 193 0
172 195 0
170 194 0
167 189 0
168 190 0
170 193 0
167 189 0
173 195 0
168 190 0
172 194 0
173 197 0
172 196 0
173 196 0
170 193 0
169 190 0
170 193 0
172 195 0
173 196 0
169 192 0
170 193 0
169 192 0
170 192 0
168 191 0
170 193 0
170 193 0
167 190 0
168 191 0
170 193 0
171 195 0
171 195 0
173 197 18
173 196 25
171 195 0
174 197 25
170 193 18
172 196 0
175 197 0
174 197 25
171 195 0
173 197 25
172 194 36
172 196 0
169 193 25
172 194 31
172 194 25
171 194 36
170 193 51
168 191 40
166 189 40
169 190 60
172 195 60
168 190 57
165 188 51
166 188 62
166 188 72
174 196 62
162 186 44
169 191 70
174 197 74
173 196 67
167 188 65
169 191 70
163 186 60
167 190 54
168 190 47
164 187 42
175 196 86
166 189 62
168 191 47
165 188 42
167 189 92
165 187 65
171 193 80
170 191 92
172 193 88
172 194 78
169 192 62
172 194 83
173 195 90
176 198 80
177 199 94
170 192 76
177 197 100
172 194 82
173 195 84
177 199 95
172 194 92
173 196 95
171 194 80
180 201 117
170 192 99
169 191 62
173 194 88
174 196 105
178 199 108
173 194 95
176 197 84
169 191 88
175 197 102
169 190 102
175 197 92
174 195 105
168 190 84
175 196 92
172 193 102
166 188 84
172 192 62
166 188 92
166 187 76
176 197 105
172 193 84
168 191 105
174 195 92
170 191 95
165 187 80
167 189 67
168 190 88
165 187 99
159 179 80
162 184 72
163 185 84
168 189 92
168 190 84
167 189 108
163 184 72
173 193 99
165 186 76
164 185 99
161 182 76
164 186 80
167 188 88
157 179 72
168 188 62
165 187 76
170 192 80
163 184 80
158 179 76
163 184 80
159 180 84
167 188 80
163 185 57
164 185 67
164 185 76
160 181 62
161 182 51
164 184 84
155 177 67
160 181 72
160 181 80
166 187 76
162 183 62
162 184 51
169 190 84
159 181 57
158 181 36
161 184 44
158 180 44
161 183 25
161 183 51
159 182 25
159 180 44
161 183 25
159 181 0
164 187 51
161 184 25
162 184 36
164 186 36
162 184 25
161 183 25
157 179 25
168 190 0
160 184 0
155 178 0
160 182 0
165 187 0
163 186 0
155 177 0
161 183 0
160 182 0
156 179 0
147 169 0
155 178 0
162 185 0
150 172 0
146 168 0
159 181 0
158 179 0
155 176 0
145 167 0
150 173 0
156 179 0
151 173 0
149 171 0
148 171 0
155 177 0
157 179 0
146 167 0
150 172 0
148 169 0
150 172 0
153 174 0
145 167 0
157 179 0
148 170 0
157 178 0
144 165 0
147 169 0
147 168 0
156 177 0
143 165 0
153 175 0
146 168 0
155 177 0
152 174 0
150 171 0
142 164 0
152 174 0
146 169 0
149 171 0
155 177 0
156 178 0
156 178 0
151 173 0
152 175 0
150 172 0
153 175 0
148 171 0
157 180 0
157 180 0
159 182 0
155 177 0
144 167 0
150 172 0
160 181 0
151 173 0
154 176 0
152 175 0
151 173 0
149 173 0
153 175 0
155 178 0
159 180 0
150 172 0
162 183 0
148 169 0
157 179 0
160 182 0
155 177 0
153 176 0
152 174 0
155 177 0
155 177 0
150 172 0
156 180 0
153 176 0
163 187 0
149 172 0
151 172 0
153 175 0
153 176 0
153 174 0
155 178 0
161 184 0
156 178 0
161 185 0
160 182 0
154 176 0
154 178 0
157 180 0
153 175 0
157 179 0
155 179 0
158 181 0
155 178 0
161 183 0
154 175 0
158 181 0
152 175 0
160 181 0
157 179 0
159 182 0
156 179 0
161 183 0
155 176 0
152 173 0
161 183 0
160 183 0
163 185 0
159 183 0
159 181 0
162 184 0
159 182 0
160 183 0
159 182 0
166 189 0
160 182 0
161 183 0
156 178 0
163 187 0
165 188 0
163 184 0
161 183 0
164 187 0
160 183 0
161 185 0
163 186 0
159 181 0
163 187 0
162 184 0
166 189 0
165 186 0
163 185 0
166 188 0
159 181 0
159 181 0
164 186 0
159 181 0
161 183 0
158 180 0
165 188 0
158 180 0
163 186 0
166 189 0
160 183 0
166 189 0
166 187 0
166 188 0
165 186 0
161 183 0
161 183 0
165 188 0
161 184 0
162 185 0
167 190 0
166 189 0
165 188 0
167 190 0
165 187 0
167 190 0
169 192 0
161 182 0
164 186 0
171 194 0
164 188 0
167 190 0
170 193 0
168 190 0
165 187 0
162 185 0
167 189 0
166 189 0
164 187 0
165 189 0
167 188 0
169 190 0
167 189 0
169 190 0
167 189 0
167 189 0
166 189 0
168 191 0
164 187 0
166 188 0
169 192 0
167 189 0
164 186 0
165 186 0
171 194 0
170 193 0
169 192 0
165 187 0
171 194 0
166 188 0
164 187 0
169 191 0
164 187 0
167 190 0
169 193 0
165 188 0
168 190 0
166 188 0
170 192 0
172 194 0
167 190 0
168 190 0
167 189 0
170 192 0
168 191 0
167 190 0
168 192 0
169 192 0
166 188 0
170 192 0
171 194 0
167 191 0
168 192 0
166 190 0
169 193 0
167 189 0
168 191 0
169 193 0
170 192 0
171 194 0
169 192 0
170 193 0
172 195 0
166 188 0
171 194 0
170 192 0
168 190 0
174 196 0
169 191 0
169 191 0
173 195 0
170 192 0
170 192 0
167 190 0
172 194 0
170 192 0
168 192 0
170 193 0
170 193 0
169 192 0
170 194 0
168 190 0
171 194 0
166 189 0
168 189 0
173 196 0
172 195 31
169 192 0
173 196 0
174 197 0
171 196 25
175 198 0
170 194 25
172 195 36
172 195 0
168 191 0
169 193 40
170 194 40
170 193 25
171 193 54
172 195 36
174 197 25
166 190 25
172 193 42
165 187 51
165 188 25
173 197 51
168 192 44
162 185 25
175 197 76
166 190 54
170 191 72
171 192 60
170 194 54
164 185 51
166 189 54
168 190 76
169 191 70
165 187 44
160 183 57
170 192 54
172 193 88
166 188 74
171 192 76
168 190 67
171 193 57
172 194 86
166 187 70
165 188 65
173 194 78
174 196 94
177 198 88
171 192 70
174 195 103
171 194 95
172 194 74
174 196 97
175 197 80
172 194 74
170 193 90
177 198 82
177 198 94
169 191 80
173 195 92
175 196 102
172 194 92
176 198 67
173 195 92
175 196 88
167 189 80
174 197 102
173 195 80
172 193 99
177 198 99
173 194 80
174 196 84
172 194 95
170 192 99
172 193 95
170 191 72
170 192 117
174 196 102
170 192 80
169 191 95
167 189 84
170 191 80
167 190 95
165 187 84
169 191 80
173 194 76
172 194 95
164 185 84
163 184 80
164 186 92
166 187 76
166 188 80
168 189 80
165 186 88
170 191 95
169 190 88
166 187 76
165 187 72
158 179 72
165 186 92
164 185 57
163 184 72
170 190 92
164 186 92
162 184 67
159 181 84
157 178 51
163 184 76
157 179 67
163 184 80
162 183 84
169 190 72
167 189 67
165 186 76
165 186 67
166 187 84
159 180 72
157 179 62
164 186 72
160 181 36
165 185 72
163 184 44
162 184 44
161 183 76
169 190 67
162 184 51
158 180 44
163 185 36
163 184 44
159 181 25
160 182 44
155 178 44
160 182 36
159 181 25
162 185 51
156 179 25
162 184 36
165 187 36
163 185 0
157 181 0
164 185 0
157 179 0
157 180 25
162 185 0
164 187 0
162 185 0
164 187 0
162 184 0
156 180 0
157 180 0
156 179 0
158 181 0
158 182 0
153 176 0
156 177 0
153 175 0
153 176 0
154 176 0
151 173 0
152 174 0
155 176 0
154 176 0
156 178 0
150 172 0
151 173 0
154 176 0
143 165 0
157 179 0
150 171 0
158 180 0
148 170 0
158 180 0
155 177 0
149 171 0
149 171 0
157 179 0
151 173 0
154 176 0
150 171 0
155 177 0
146 168 0
155 176 0
148 171 0
150 172 0
158 180 0
151 173 0
142 165 0
153 176 0
150 171 0
147 168 0
153 175 0
154 177 0
152 175 0
152 173 0
152 173 0
151 173 0
162 184 0
155 177 0
148 171 0
152 173 0
152 175 0
158 181 0
149 171 0
154 176 0
152 173 0
158 180 0
149 170 0
156 177 0
150 173 0
148 171 0
158 180 0
153 176 0
157 179 0
156 178 0
158 179 0
154 175 0
153 176 0
156 179 0
157 181 0
153 175 0
156 177 0
158 180 0
150 173 0
148 171 0
161 183 0
155 178 0
152 175 0
154 175 0
154 177 0
156 179 0
152 175 0
158 181 0
159 182 0
161 183 0
155 177 0
159 181 0
161 184 0
157 179 0
156 179 0
163 185 0
148 170 0
158 181 0
160 183 0
154 176 0
148 171 0
161 185 0
161 183 0
158 180 0
160 182 0
158 181 0
154 177 0
159 182 0
161 183 0
158 181 0
165 187 0
156 180 0
159 182 0
157 180 0
162 185 0
161 185 0
165 188 0
164 187 0
158 182 0
158 179 0
165 187 0
157 180 0
159 182 0
161 184 0
156 178 0
161 183 0
160 183 0
163 185 0
159 181 0
165 186 0
162 184 0
160 182 0
161 181 0
161 183 0
161 183 0
162 185 0
160 182 0
166 188 0
165 188 0
166 189 0
164 186 0
162 185 0
163 185 0
165 188 0
157 178 0
166 188 0
165 187 0
161 184 0
165 189 0
165 188 0
162 184 0
163 185 0
163 185 0
169 191 0
160 183 0
165 186 0
165 187 0
168 188 0
164 187 0
170 192 0
162 185 0
162 184 0
164 188 0
162 185 0
160 182 0
166 188 0
162 186 0
166 188 0
163 186 0
168 190 0
168 191 0
160 181 0
164 188 0
166 189 0
168 191 0
167 189 0
170 193 0
170 193 0
167 188 0
165 188 0
165 187 0
167 189 0
167 188 0
164 188 0
166 188 0
167 190 0
167 189 0
168 191 0
163 185 0
166 188 0
167 189 0
165 187 0
170 192 0
168 192 0
172 195 0
167 188 0
171 193 0
168 189 0
170 193 0
166 188 0
171 194 0
168 191 0
166 189 0
169 191 0
169 192 0
165 188 0
167 189 0
169 192 0
168 190 0
164 186 0
169 191 0
170 193 0
167 189 0
170 192 0
167 189 0
168 190 0
167 190 0
167 189 0
171 194 0
169 192 0
167 189 0
168 191 0
169 192 0
167 191 0
172 194 0
168 191 0
167 190 0
167 191 0
170 190 0
165 187 0
168 191 0
169 192 0
171 193 0
172 195 0
172 194 0
170 191 0
169 191 0
167 190 0
172 193 0
167 189 0
171 194 0
169 191 0
172 194 0
172 195 0
171 194 0
170 193 0
172 195 0
171 194 0
169 192 0
169 192 0
170 193 0
172 194 0
168 192 0
169 191 0
169 190 0
172 195 0
170 194 0
171 194 0
174 197 0
172 196 0
172 196 0
171 194 0
172 196 31
173 196 0
170 194 18
172 195 25
172 195 40
175 198 57
167 191 25
172 196 36
174 196 44
167 190 25
175 197 25
168 191 40
166 190 51
173 196 0
171 194 36
176 199 57
170 192 44
171 194 44
168 190 25
166 188 54
167 190 40
162 186 44
169 191 57
166 189 74
170 192 47
167 190 31
171 194 65
174 196 67
168 190 40
167 189 40
172 194 74
167 189 72
164 187 60
170 192 82
165 188 36
162 184 76
163 185 47
175 197 86
174 195 62
170 191 62
170 192 78
171 194 107
170 192 80
171 192 95
172 194 76
170 192 107
172 195 97
174 195 99
171 193 77
175 197 86
169 191 76
180 201 118
174 196 60
177 198 95
170 192 88
173 194 67
174 196 84
178 199 95
178 199 92
171 193 92
166 187 76
171 194 99
171 193 76
169 190 84
168 189 76
174 195 95
174 195 88
173 195 76
176 197 88
174 195 95
169 191 88
172 193 99
170 191 84
161 184 67
169 191 88
170 191 76
172 193 92
173 194 108
167 189 72
168 189 88
169 190 67
169 190 102
168 190 99
163 185 80
164 184 84
167 189 92
167 189 92
169 191 67
171 193 105
164 186 95
172 192 80
164 185 76
162 183 67
168 189 72
164 187 84
167 188 57
169 190 84
166 187 62
162 182 62
168 189 76
163 184 99
170 191 72
166 188 84
163 185 72
162 183 76
164 184 76
167 188 62
163 185 80
160 181 44
170 191 57
161 182 84
163 184 67
162 183 44
165 186 44
162 184 62
161 182 51
158 180 51
167 189 67
157 178 44
156 178 44
165 187 57
167 189 62
163 186 51
159 181 51
163 185 44
163 186 36
163 185 44
161 183 44
165 187 0
157 179 0
162 184 0
157 180 0
157 179 25
161 183 25
164 188 0
161 184 36
162 184 25
155 177 0
163 186 0
156 178 0
156 178 0
157 180 0
153 177 0
160 183 0
158 180 0
159 181 0
156 178 0
156 178 0
151 173 0
158 180 0
153 175 0
161 183 0
154 176 0
158 179 0
152 174 0
154 175 0
149 170 0
156 178 0
149 171 0
155 177 0
162 183 0
155 177 0
151 172 0
151 172 0
154 176 0
153 176 0
157 179 0
146 169 0
156 178 0
145 167 0
150 173 0
153 175 0
157 179 0
150 172 0
159 181 0
149 171 0
149 172 0
148 170 0
152 173 0
152 174 0
151 173 0
151 173 0
149 171 0
154 176 0
145 166 0
156 180 0
155 178 0
154 176 0
151 173 0
160 182 0
158 180 0
152 174 0
155 178 0
149 171 0
152 176 0
154 175 0
160 182 0
153 174 0
153 176 0
149 171 0
151 174 0
155 178 0
156 178 0
158 180 0
155 178 0
155 179 0
157 180 0
148 171 0
147 169 0
158 180 0
158 181 0
153 176 0
151 173 0
153 175 0
153 175 0
152 175 0
152 175 0
156 179 0
153 177 0
157 180 0
157 179 0
152 174 0
159 182 0
155 176 0
162 186 0
156 178 0
160 183 0
156 178 0
160 182 0
157 181 0
159 181 0
155 179 0
158 180 0
162 185 0
152 174 0
152 176 0
160 183 0
158 181 0
162 184 0
155 177 0
159 181 0
155 178 0
158 181 0
162 184 0
158 180 0
153 175 0
156 179 0
165 187 0
166 189 0
162 185 0
159 181 0
163 186 0
164 186 0
158 181 0
162 183 0
163 185 0
160 183 0
163 185 0
163 186 0
164 186 0
160 183 0
150 172 0
162 183 0
164 188 0
159 182 0
165 188 0
165 188 0
160 183 0
165 187 0
160 181 0
164 186 0
161 183 0
161 183 0
164 186 0
162 184 0
162 184 0
161 184 0
163 187 0
163 186 0
160 182 0
159 182 0
161 184 0
162 184 0
165 188 0
163 184 0
165 188 0
168 191 0
158 180 0
165 188 0
162 185 0
161 183 0
158 180 0
160 182 0
164 186 0
166 190 0
164 186 0
162 184 0
166 188 0
171 195 0
162 183 0
169 191 0
162 185 0
167 189 0
163 186 0
165 186 0
168 190 0
161 184 0
169 192 0
160 182 0
166 190 0
166 189 0
168 190 0
168 191 0
170 192 0
164 185 0
161 183 0
165 189 0
165 189 0
165 187 0
166 189 0
166 188 0
166 189 0
168 191 0
166 188 0
168 191 0
167 189 0
163 185 0
167 191 0
169 192 0
170 192 0
173 195 0
167 188 0
168 190 0
166 189 0
169 191 0
169 191 0
168 191 0
165 188 0
165 188 0
170 193 0
170 191 0
168 191 0
166 189 0
169 193 0
163 184 0
171 194 0
167 189 0
168 192 0
170 193 0
167 189 0
170 193 0
167 189 0
168 191 0
169 191 0
170 192 0
170 194 0
171 193 0
168 189 0
171 194 0
168 190 0
171 192 0
171 194 0
168 191 0
172 193 0
174 197 0
169 191 0
169 191 0
168 191 0
169 191 0
171 195 0
167 191 0
169 192 0
168 189 0
173 195 0
169 192 0
171 192 0
170 193 0
170 193 0
171 194 0
169 191 0
170 193 0
171 193 0
172 194 0
171 194 0
171 193 0
171 194 0
170 192 0
171 193 0
169 192 0
167 189 0
171 193 0
170 194 0
167 190 0
172 196 0
175 196 0
172 196 0
169 193 0
175 198 0
170 194 25
172 196 0
171 194 0
173 196 0
172 195 18
170 193 0
170 193 25
169 193 0
171 195 25
170 194 0
172 195 40
173 195 40
171 194 44
174 197 31
169 191 44
172 195 25
167 191 36
172 195 25
166 189 31
163 186 44
168 190 60
167 190 31
169 191 40
168 191 44
164 186 47
169 192 57
170 192 54
175 197 54
165 187 57
166 189 54
166 190 57
172 194 54
166 187 70
171 193 78
166 188 60
172 194 70
170 192 67
173 195 62
171 193 72
165 188 80
177 199 78
169 192 47
167 189 74
167 189 65
171 193 60
171 193 86
172 193 76
176 197 86
170 192 80
172 194 78
176 198 88
174 195 78
178 199 92
173 194 95
176 198 115
173 195 84
175 197 80
175 197 95
175 197 102
170 192 92
176 197 92
174 196 105
171 192 80
177 198 102
172 194 80
173 195 102
172 193 80
170 191 72
169 191 84
165 187 80
167 188 76
174 195 84
165 187 80
175 195 102
164 185 92
169 191 84
170 191 95
163 185 95
170 193 105
165 187 95
168 190 88
165 186 76
169 190 95
170 190 80
166 188 84
174 195 105
166 188 102
159 182 76
165 186 76
170 191 88
158 179 72
170 191 80
165 186 67
166 187 67
165 186 88
163 184 62
163 185 62
163 184 57
171 192 102
164 185 76
160 182 67
165 186 67
163 185 67
166 187 76
164 186 72
171 192 99
155 176 44
162 183 84
166 188 72
165 185 67
164 186 62
168 188 99
161 182 62
161 182 51
161 182 62
161 182 51
169 190 76
165 186 57
162 184 62
162 183 67
161 182 57
160 182 72
165 187 51
164 186 62
165 187 76
158 179 44
158 180 25
157 178 0
161 184 36
157 179 25
160 182 0
158 179 0
162 184 36
159 182 44
162 184 36
159 182 44
163 186 0
166 189 0
162 185 0
165 187 0
160 183 0
164 187 0
161 184 0
159 182 0
162 185 0
161 184 0
155 176 0
163 186 0
163 184 0
162 185 0
151 172 0
156 178 0
149 172 0
147 169 0
153 176 0
157 178 0
153 176 0
156 178 0
155 177 0
151 173 0
161 183 0
159 181 0
155 177 0
154 176 0
154 176 0
157 178 0
152 174 0
150 172 0
152 174 0
153 174 0
157 179 0
159 181 0
155 176 0
149 172 0
147 169 0
157 179 0
151 174 0
151 173 0
156 178 0
153 175 0
155 177 0
155 177 0
152 174 0
155 176 0
162 184 0
161 184 0
161 183 0
152 175 0
153 174 0
155 177 0
161 184 0
149 171 0
152 175 0
154 176 0
154 176 0
145 167 0
156 179 0
151 174 0
150 172 0
148 170 0
158 180 0
162 185 0
153 175 0
156 178 0
157 179 0
152 175 0
156 178 0
153 174 0
149 171 0
152 173 0
154 177 0
158 181 0
153 175 0
160 184 0
161 185 0
150 173 0
152 175 0
161 183 0
159 182 0
163 186 0
161 184 0
156 178 0
151 173 0
163 186 0
168 190 0
150 173 0
155 177 0
159 182 0
164 187 0
163 185 0
160 182 0
153 177 0
162 184 0
154 177 0
155 179 0
157 180 0
156 178 0
157 179 0
158 180 0
160 184 0
161 183 0
162 185 0
161 185 0
160 181 0
155 176 0
161 183 0
162 184 0
162 186 0
162 184 0
164 187 0
156 178 0
163 186 0
164 185 0
157 179 0
161 183 0
157 178 0
158 180 0
159 182 0
163 185 0
162 184 0
158 180 0
164 186 0
162 185 0
164 187 0
160 183 0
158 180 0
156 177 0
155 177 0
160 182 0
162 185 0
162 185 0
160 181 0
160 183 0
161 183 0
159 182 0
159 182 0
169 192 0
165 188 0
165 188 0
163 185 0
164 187 0
166 190 0
164 186 0
163 187 0
164 187 0
163 185 0
162 185 0
161 184 0
165 188 0
158 181 0
164 187 0
166 189 0
162 185 0
163 185 0
167 189 0
163 185 0
161 183 0
165 188 0
166 188 0
166 188 0
164 185 0
163 186 0
164 186 0
163 186 0
167 190 0
163 186 0
163 185 0
164 186 0
165 185 0
171 194 0
168 191 0
166 188 0
169 192 0
163 185 0
167 190 0
167 189 0
164 185 0
170 192 0
164 187 0
163 187 0
164 187 0
169 192 0
167 190 0
165 188 0
169 192 0
161 183 0
164 186 0
164 188 0
160 182 0
168 190 0
168 190 0
167 190 0
165 186 0
162 184 0
168 191 0
169 192 0
167 190 0
170 192 0
165 188 0
166 189 0
168 191 0
167 190 0
168 191 0
169 191 0
167 190 0
169 191 0
169 193 0
170 191 0
169 191 0
171 193 0
159 182 0
167 190 0
166 188 0
171 193 0
172 194 0
173 196 0
168 190 0
171 193 0
170 193 0
171 194 0
170 194 0
168 189 0
169 190 0
166 187 0
173 195 0
169 192 0
167 190 0
169 191 0
168 191 0
168 190 0
169 192 0
170 192 0
166 188 0
170 192 0
171 194 0
169 192 0
170 193 0
171 193 0
171 194 0
170 193 0
169 192 0
172 195 0
174 196 0
169 192 0
171 193 0
165 187 0
171 194 0
172 195 0
170 192 0
171 194 0
172 195 0
172 195 0
167 191 0
171 193 0
168 191 0
170 193 0
168 191 0
173 196 0
173 197 25
170 193 0
173 197 0
175 198 0
171 194 0
173 197 0
174 197 25
172 196 25
173 196 0
170 193 0
172 195 0
173 196 25
174 197 44
174 197 25
167 190 0
169 192 36
166 190 0
170 193 31
171 194 25
171 194 40
170 193 44
172 195 25
172 194 62
171 192 70
167 191 31
170 192 67
165 187 57
169 192 36
172 194 60
171 194 54
167 189 62
165 187 67
173 195 78
168 190 51
168 191 84
167 189 60
171 193 72
172 194 51
167 190 44
167 190 54
161 184 51
172 194 57
171 194 70
164 185 51
172 194 78
168 190 51
175 196 60
170 191 74
172 194 65
169 191 51
169 190 77
170 193 65
168 189 86
169 191 60
173 194 90
176 197 94
175 197 88
175 197 99
172 194 86
173 195 88
173 195 95
175 197 88
174 196 114
174 196 67
178 199 102
172 193 88
173 194 84
175 196 92
173 195 92
177 198 99
172 194 80
167 189 67
167 190 102
174 196 95
175 195 95
172 194 84
173 193 88
174 195 92
168 189 84
170 191 88
169 190 76
172 193 92
173 195 92
169 190 72
167 189 95
171 192 72
171 193 80
165 186 88
165 186 76
168 190 99
165 187 67
169 190 84
167 188 57
164 186 67
166 188 84
165 186 57
164 186 57
167 188 84
170 191 84
165 186 92
166 188 80
167 187 62
166 187 80
171 191 92
166 187 72
161 183 62
164 185 84
172 194 84
168 190 62
174 195 95
165 186 57
163 184 67
166 187 80
161 181 67
164 185 84
165 186 84
163 184 67
161 182 44
165 187 80
167 188 76
159 181 57
159 181 57
163 184 51
166 187 67
171 192 62
165 187 76
167 189 0
165 188 0
165 187 51
160 182 44
161 183 0
159 181 0
165 188 0
162 185 36
162 185 51
167 190 0
161 183 51
163 185 0
165 188 0
167 190 36
163 184 25
167 190 0
159 182 0
156 179 0
164 186 0
157 179 0
156 179 0
162 184 0
158 180 0
152 175 0
162 183 0
154 176 0
159 181 0
157 180 0
154 176 0
161 181 0
148 170 0
160 181 0
150 172 0
154 176 0
152 174 0
156 177 0
150 171 0
147 170 0
162 184 0
155 177 0
145 168 0
149 172 0
159 182 0
158 179 0
156 178 0
154 175 0
144 166 0
154 177 0
158 180 0
153 175 0
157 179 0
146 168 0
150 172 0
150 173 0
159 182 0
153 175 0
156 178 0
148 171 0
157 179 0
152 175 0
160 183 0
157 179 0
163 185 0
148 171 0
152 174 0
151 173 0
150 172 0
148 170 0
160 183 0
160 181 0
156 178 0
158 180 0
162 184 0
156 178 0
148 171 0
159 181 0
161 182 0
145 167 0
161 183 0
155 176 0
156 179 0
157 179 0
152 174 0
159 181 0
151 174 0
148 170 0
160 182 0
161 183 0
149 170 0
157 180 0
154 177 0
158 182 0
161 183 0
155 177 0
151 173 0
158 181 0
155 176 0
151 173 0
159 180 0
159 182 0
158 181 0
155 178 0
156 178 0
158 181 0
155 178 0
154 176 0
154 175 0
158 181 0
159 182 0
168 190 0
155 178 0
154 176 0
160 184 0
157 179 0
161 184 0
162 185 0
162 185 0
167 191 0
155 178 0
162 184 0
162 184 0
161 184 0
156 179 0
161 185 0
160 183 0
162 186 0
164 186 0
159 181 0
163 185 0
163 185 0
159 182 0
159 182 0
163 185 0
158 180 0
167 189 0
167 189 0
154 176 0
160 183 0
167 190 0
164 186 0
160 181 0
164 186 0
165 187 0
162 185 0
158 180 0
162 185 0
169 193 0
161 184 0
163 184 0
160 182 0
169 191 0
161 184 0
162 186 0
165 189 0
163 185 0
161 184 0
160 183 0
167 187 0
162 184 0
167 190 0
161 184 0
158 181 0
164 185 0
166 189 0
165 186 0
164 186 0
169 191 0
165 187 0
158 180 0
163 186 0
165 188 0
165 188 0
168 190 0
171 194 0
162 184 0
166 188 0
167 190 0
163 185 0
161 184 0
166 189 0
163 185 0
166 188 0
161 184 0
163 185 0
167 190 0
168 190 0
166 189 0
164 185 0
168 191 0
169 192 0
167 189 0
170 191 0
165 187 0
167 188 0
163 186 0
167 189 0
168 191 0
167 190 0
167 190 0
166 189 0
167 190 0
169 192 0
169 193 0
166 188 0
165 188 0
168 190 0
166 189 0
169 192 0
164 187 0
165 187 0
172 195 0
168 191 0
169 191 0
163 185 0
168 190 0
169 191 0
169 192 0
172 193 0
168 190 0
169 192 0
168 192 0
166 190 0
166 189 0
168 190 0
173 196 0
169 191 0
168 191 0
171 194 0
171 194 0
168 190 0
170 192 0
170 192 0
164 187 0
164 186 0
164 187 0
168 191 0
170 192 0
170 191 0
165 189 0
168 191 0
169 192 0
169 190 0
169 192 0
165 188 0
169 192 0
171 192 0
167 191 0
168 191 0
168 192 0
171 193 0
171 193 0
169 193 0
171 194 0
167 189 0
169 193 0
171 194 0
168 191 0
169 192 0
169 191 0
170 194 0
171 193 0
171 193 0
170 191 0
171 194 0
169 192 0
171 195 0
172 195 0
168 190 0
170 193 0
169 191 0
171 193 0
171 194 0
173 196 0
174 197 0
174 198 0
171 194 0
175 198 25
174 198 0
171 195 0
173 196 25
173 196 0
170 195 0
168 191 36
169 193 0
168 192 25
174 197 25
173 196 25
172 194 0
173 197 44
169 193 36
173 196 44
170 193 44
169 192 40
167 191 25
170 192 25
169 192 25
176 198 67
169 192 36
168 192 47
170 193 51
170 193 54
170 192 60
169 192 51
171 194 54
169 192 70
170 193 47
169 192 51
174 196 67
164 187 47
164 187 80
168 191 47
167 189 60
162 184 67
165 187 70
167 189 78
165 187 70
169 191 44
171 192 67
167 189 70
170 192 72
166 189 70
171 193 88
169 192 76
169 191 65
175 197 74
172 193 74
170 191 65
167 190 80
173 194 76
171 192 88
174 195 88
172 195 86
170 192 67
167 189 57
175 195 84
172 194 72
173 196 80
171 193 80
178 199 102
173 193 62
170 192 62
169 191 72
171 192 72
172 194 84
169 191 72
175 196 92
172 192 76
170 191 80
176 197 84
167 189 88
170 191 67
173 194 67
167 188 57
166 188 80
171 193 92
164 184 72
167 189 92
161 183 57
171 192 80
163 183 72
170 192 92
166 187 57
165 186 72
173 193 84
165 185 84
161 182 57
172 193 67
166 188 99
173 194 120
170 190 72
162 183 62
171 193 67
170 191 72
163 185 76
162 183 88
170 192 51
166 187 72
164 185 62
166 187 76
166 188 102
170 191 80
161 182 62
168 189 76
165 186 76
168 190 62
171 193 84
165 186 62
167 188 76
162 183 62
166 187 51
160 181 67
165 187 67
162 183 57
163 186 36
170 192 62
166 187 51
168 189 62
162 184 36
155 177 44
160 182 67
158 180 44
160 181 0
159 181 25
163 186 36
157 179 0
164 186 0
164 186 36
163 186 0
159 182 0
162 184 25
166 189 25
160 183 0
162 185 0
161 185 0
159 181 25
163 185 25
161 183 0
164 186 0
161 184 0
151 174 0
160 182 0
161 183 0
158 180 0
157 178 0
161 184 0
154 176 0
161 182 0
160 182 0
155 177 0
154 175 0
153 175 0
162 184 0
155 177 0
150 171 0
146 167 0
148 170 0
152 175 0
158 181 0
156 177 0
155 177 0
146 167 0
155 176 0
149 172 0
153 175 0
154 177 0
154 176 0
148 171 0
157 179 0
155 179 0
155 178 0
158 181 0
155 177 0
159 181 0
155 177 0
151 174 0
154 176 0
162 184 0
155 178 0
146 168 0
154 176 0
149 171 0
155 176 0
158 181 0
161 183 0
159 182 0
162 184 0
156 178 0
151 173 0
162 183 0
158 180 0
153 175 0
157 180 0
156 178 0
151 174 0
151 173 0
155 177 0
159 183 0
158 181 0
152 174 0
157 180 0
155 178 0
156 179 0
160 184 0
159 181 0
160 182 0
159 180 0
156 179 0
156 179 0
152 175 0
165 187 0
157 180 0
159 182 0
152 174 0
156 178 0
161 183 0
156 179 0
155 178 0
164 187 0
153 175 0
155 178 0
156 177 0
154 177 0
157 180 0
156 178 0
162 184 0
158 180 0
158 179 0
148 170 0
157 181 0
155 177 0
159 182 0
154 177 0
158 181 0
159 182 0
153 175 0
153 175 0
155 178 0
152 175 0
152 174 0
163 186 0
155 178 0
158 180 0
158 182 0
152 174 0
162 184 0
158 181 0
163 186 0
160 182 0
164 188 0
160 180 0
161 182 0
158 182 0
160 182 0
159 181 0
162 186 0
159 181 0
161 182 0
165 189 0
159 182 0
162 184 0
163 186 0
160 183 0
165 188 0
159 182 0
161 184 0
158 181 0
163 185 0
166 189 0
165 188 0
168 190 0
166 188 0
159 182 0
157 178 0
166 189 0
161 182 0
161 183 0
163 185 0
161 184 0
166 188 0
165 187 0
161 183 0
167 191 0
167 190 0
163 185 0
158 181 0
160 182 0
166 189 0
164 186 0
162 185 0
168 190 0
161 184 0
170 192 0
166 188 0
167 190 0
164 188 0
166 189 0
166 189 0
167 188 0
166 188 0
168 191 0
167 190 0
162 184 0
159 181 0
161 183 0
164 187 0
168 191 0
163 186 0
166 189 0
167 190 0
162 184 0
168 191 0
166 189 0
165 188 0
168 191 0
166 190 0
168 190 0
163 186 0
166 189 0
167 190 0
165 188 0
168 190 0
171 192 0
169 193 0
169 191 0
167 190 0
168 191 0
166 190 0
171 194 0
171 193 0
168 191 0
167 189 0
166 189 0
166 189 0
169 192 0
171 194 0
167 189 0
170 191 0
170 192 0
168 192 0
170 193 0
171 193 0
167 191 0
168 189 0
171 194 0
170 193 0
168 190 0
173 196 0
169 192 0
171 194 0
168 191 0
166 188 0
168 190 0
170 193 0
171 193 0
171 193 0
169 191 0
171 194 0
172 195 0
173 195 0
169 193 0
172 195 0
172 195 0
172 195 0
167 189 0
171 194 0
172 195 0
170 195 0
171 195 0
172 195 0
168 190 0
171 193 0
169 192 0
169 192 0
171 193 0
167 190 0
169 192 0
169 192 0
169 191 0
170 193 0
167 189 0
166 190 0
168 191 0
170 193 0
170 192 0
170 194 0
171 194 0
170 193 0
168 191 0
170 193 0
171 194 0
170 192 0
168 192 0
168 192 0
172 196 0
169 193 0
171 195 0
172 196 0
170 194 0
170 194 18
174 197 0
173 196 0
174 197 25
174 196 0
171 194 31
171 196 0
170 193 0
173 196 36
174 197 36
171 194 25
171 195 36
167 191 18
171 195 36
173 196 44
169 192 25
169 192 31
167 190 31
171 194 40
171 194 62
172 195 47
170 193 0
170 193 44
170 192 51
167 189 25
169 193 40
171 193 54
169 192 62
169 192 36
173 195 54
166 189 44
168 189 51
167 189 62
162 185 62
167 189 62
165 188 57
170 193 44
172 194 54
169 190 42
166 187 60
169 190 65
164 187 72
172 194 52
167 189 80
174 195 67
169 191 62
172 194 74
177 199 84
173 195 74
173 194 70
175 197 90
174 195 78
173 195 84
172 194 97
172 194 76
171 192 88
174 195 67
177 198 92
178 199 92
171 193 78
172 193 67
178 199 102
170 191 88
176 197 72
174 196 76
174 195 72
174 195 88
174 195 92
175 197 62
174 195 102
167 189 76
172 193 67
166 186 36
176 197 102
170 192 88
167 188 62
171 192 88
170 191 84
169 191 92
169 190 76
167 188 57
167 190 88
167 188 57
174 194 72
159 180 84
167 189 51
170 190 84
170 191 80
166 187 102
163 185 76
165 187 62
160 181 51
172 192 84
173 193 88
163 185 76
164 187 80
167 188 88
166 189 80
167 187 76
163 184 76
165 186 57
168 188 62
170 191 76
164 185 57
163 185 62
162 183 62
168 189 80
169 190 62
156 177 62
170 191 57
161 183 80
174 195 88
165 187 51
167 188 57
167 188 84
160 180 72
162 184 57
162 185 51
161 183 44
164 186 44
157 179 62
168 190 67
160 182 51
162 184 25
165 187 25
158 181 25
166 188 36
163 186 36
160 183 0
165 188 0
164 187 0
166 189 25
164 186 36
161 184 36
163 186 0
162 184 0
161 185 0
157 180 0
158 180 0
161 183 0
160 183 0
163 186 0
161 183 0
154 177 0
154 177 0
161 183 0
161 184 0
159 181 0
162 184 0
149 171 0
156 179 0
160 182 0
154 175 0
161 183 0
156 179 0
160 183 0
154 176 0
151 173 0
154 176 0
160 182 0
158 181 0
154 176 0
152 174 0
155 177 0
148 169 0
156 177 0
155 178 0
154 175 0
159 182 0
151 174 0
147 169 0
157 179 0
151 174 0
154 176 0
159 181 0
154 177 0
159 182 0
145 168 0
159 182 0
152 174 0
151 172 0
149 172 0
150 172 0
156 178 0
153 174 0
156 179 0
153 175 0
151 174 0
165 188 0
156 179 0
156 179 0
156 178 0
158 180 0
158 180 0
157 180 0
148 171 0
155 178 0
161 182 0
156 179 0
153 176 0
159 182 0
157 179 0
152 175 0
155 179 0
152 175 0
160 182 0
150 171 0
151 174 0
160 184 0
156 179 0
151 174 0
149 171 0
161 183 0
154 176 0
155 178 0
159 182 0
153 176 0
160 183 0
153 175 0
159 181 0
160 182 0
157 180 0
160 182 0
161 183 0
162 184 0
159 183 0
153 176 0
164 187 0
162 184 0
160 183 0
155 178 0
157 179 0
161 184 0
160 183 0
158 181 0
151 173 0
159 181 0
158 181 0
161 183 0
159 182 0
157 180 0
160 183 0
157 181 0
156 179 0
161 184 0
162 185 0
157 180 0
162 185 0
157 181 0
162 185 0
158 180 0
159 181 0
162 184 0
162 184 0
157 181 0
161 182 0
163 186 0
156 179 0
162 185 0
163 185 0
161 184 0
154 177 0
162 184 0
164 187 0
162 183 0
162 185 0
165 189 0
161 184 0
167 189 0
160 183 0
165 188 0
159 182 0
160 182 0
165 187 0
163 187 0
165 188 0
163 185 0
160 182 0
166 188 0
165 189 0
168 191 0
157 180 0
162 183 0
160 182 0
162 185 0
166 189 0
170 194 0
165 189 0
162 185 0
158 181 0
163 185 0
164 186 0
163 186 0
165 189 0
166 189 0
162 185 0
163 186 0
164 186 0
163 186 0
166 189 0
163 186 0
164 187 0
167 189 0
158 181 0
167 189 0
165 188 0
168 191 0
165 187 0
169 192 0
167 189 0
164 186 0
162 185 0
168 191 0
165 187 0
165 188 0
170 192 0
163 186 0
166 188 0
168 190 0
168 191 0
162 186 0
165 188 0
167 190 0
169 191 0
167 190 0
170 193 0
165 187 0
166 189 0
167 190 0
168 191 0
165 188 0
169 193 0
170 193 0
167 189 0
165 188 0
166 189 0
170 192 0
168 190 0
165 188 0
170 193 0
166 189 0
163 186 0
167 190 0
170 193 0
169 192 0
168 191 0
170 193 0
164 186 0
169 192 0
170 192 0
166 188 0
162 184 0
173 195 0
169 191 0
172 194 0
169 191 0
170 193 0
171 193 0
169 191 0
169 190 0
171 193 0
167 188 0
171 194 0
171 193 0
170 193 0
168 191 0
165 189 0
171 194 0
169 193 0
170 193 0
169 191 0
167 190 0
165 189 0
171 194 0
171 194 0
168 191 0
173 196 0
173 196 0
169 192 0
169 190 0
170 192 0
171 195 0
171 194 0
170 193 0
171 194 0
170 194 0
169 191 0
171 194 0
172 194 0
172 195 0
170 192 0
171 193 0
168 191 0
169 192 0
169 192 0
173 196 0
173 197 0
171 194 0
171 195 0
171 195 0
173 196 0
172 195 0
170 193 0
171 194 0
172 195 0
172 195 0
174 197 25
172 195 36
172 195 25
168 191 31
172 194 18
169 192 51
168 191 47
169 192 36
170 193 12
168 191 0
169 192 0
173 196 60
171 194 25
167 190 25
171 195 36
174 197 60
169 193 31
170 192 65
170 194 51
168 190 31
168 190 40
170 193 36
165 189 51
171 193 57
168 190 47
168 191 57
165 187 62
166 188 40
164 186 25
165 188 51
170 192 36
174 196 67
165 188 74
173 195 76
165 187 60
167 189 67
170 192 51
167 189 54
169 190 67
172 193 54
171 193 67
176 197 80
175 197 65
170 193 72
171 192 78
174 195 80
169 191 67
172 195 74
171 193 84
172 194 95
173 195 84
172 193 84
174 196 99
173 194 92
173 194 54
178 198 80
176 197 84
175 195 92
171 193 62
170 191 84
172 193 76
170 192 62
174 195 76
172 194 84
169 189 67
170 192 76
170 192 92
171 192 80
162 182 57
175 197 67
165 187 67
170 192 67
172 195 102
170 192 88
167 189 88
168 190 99
167 190 92
167 189 80
159 181 36
166 187 88
175 195 72
165 186 72
168 189 76
169 191 95
161 182 72
168 189 57
166 188 92
166 188 76
167 189 80
166 187 84
167 188 95
168 189 80
167 188 62
171 192 72
164 186 76
163 185 76
168 189 72
169 189 76
168 189 72
165 186 62
165 186 57
168 189 76
169 190 72
162 184 57
168 189 57
166 188 62
159 180 0
159 181 57
166 188 57
162 184 72
163 184 67
163 185 25
167 189 51
159 181 44
167 189 44
164 185 57
159 181 25
166 188 25
168 190 25
164 186 44
164 187 0
168 190 25
165 187 0
165 188 25
156 179 36
164 187 25
164 186 0
160 182 36
163 186 0
157 179 25
162 184 25
164 187 0
163 186 0
166 188 0
159 181 0
164 187 0
158 181 0
158 181 0
153 175 0
154 177 0
162 185 0
152 175 0
156 177 0
158 181 0
156 178 0
162 184 0
162 184 0
153 175 0
155 177 0
153 174 0
152 174 0
153 174 0
155 177 0
159 181 0
153 176 0
155 176 0
157 180 0
154 176 0
153 174 0
153 174 0
157 179 0
157 179 0
159 182 0
161 183 0
155 178 0
155 178 0
153 176 0
160 182 0
159 181 0
150 173 0
156 178 0
157 179 0
159 181 0
148 171 0
158 180 0
156 178 0
152 174 0
157 179 0
158 182 0
158 181 0
156 179 0
158 181 0
153 176 0
152 175 0
150 172 0
154 177 0
160 182 0
154 176 0
153 175 0
156 178 0
157 179 0
159 181 0
156 179 0
154 176 0
161 183 0
154 176 0
159 181 0
158 181 0
160 183 0
157 180 0
154 176 0
162 184 0
158 181 0
160 183 0
155 176 0
153 176 0
154 178 0
158 182 0
154 175 0
161 183 0
159 181 0
156 179 0
158 182 0
158 179 0
160 183 0
157 178 0
156 178 0
163 186 0
156 177 0
157 181 0
160 183 0
162 184 0
163 186 0
158 181 0
162 185 0
160 182 0
160 183 0
164 186 0
157 180 0
160 182 0
156 180 0
152 174 0
158 181 0
159 182 0
157 180 0
162 185 0
161 184 0
158 181 0
155 177 0
162 184 0
165 188 0
160 183 0
156 178 0
159 182 0
157 179 0
165 188 0
165 187 0
160 183 0
164 188 0
165 187 0
152 175 0
162 184 0
161 184 0
160 181 0
159 179 0
158 180 0
168 191 0
165 187 0
156 179 0
167 190 0
163 186 0
162 184 0
167 189 0
163 185 0
164 186 0
164 186 0
164 187 0
162 184 0
162 184 0
164 187 0
165 187 0
165 188 0
162 185 0
164 187 0
164 186 0
160 182 0
167 191 0
164 187 0
166 188 0
165 187 0
165 189 0
164 187 0
165 188 0
164 186 0
162 185 0
163 187 0
167 190 0
163 186 0
166 188 0
166 189 0
165 187 0
162 183 0
162 184 0
166 189 0
166 188 0
165 186 0
166 189 0
165 188 0
167 189 0
165 188 0
166 188 0
162 185 0
168 191 0
165 188 0
169 191 0
167 190 0
163 183 0
168 191 0
168 191 0
170 193 0
169 191 0
163 187 0
164 187 0
169 193 0
168 191 0
168 191 0
168 190 0
167 190 0
169 193 0
168 191 0
161 184 0
164 187 0
166 189 0
164 187 0
166 189 0
167 190 0
166 188 0
171 193 0
169 192 0
169 192 0
169 191 0
168 192 0
170 192 0
169 193 0
170 193 0
168 191 0
167 188 0
166 189 0
167 189 0
167 189 0
166 189 0
167 190 0
166 189 0
168 190 0
167 189 0
173 195 0
170 193 0
170 192 0
172 194 0
169 193 0
168 190 0
171 194 0
167 189 0
171 193 0
164 188 0
170 192 0
169 192 0
169 192 0
169 191 0
171 192 0
172 195 0
172 195 0
171 193 0
168 191 0
171 194 0
170 193 0
170 193 0
172 195 0
171 195 0
170 192 0
168 189 0
171 193 0
173 195 0
170 191 0
169 192 0
170 193 0
172 195 0
171 193 0
168 191 0
172 194 0
171 194 0
170 193 0
173 196 0
172 194 0
170 192 0
168 190 0
170 192 0
173 195 0
169 193 0
172 196 0
171 194 0
172 196 0
173 196 25
173 197 0
172 196 0
172 195 0
173 196 25
172 196 0
173 196 25
174 197 0
173 196 0
173 197 25
170 194 0
171 195 18
173 197 25
170 193 0
172 196 31
173 196 0
167 190 40
170 193 25
169 193 18
172 195 40
170 192 44
167 190 40
174 196 31
168 191 47
170 192 40
165 188 44
167 189 44
172 195 25
172 195 25
169 191 25
168 191 36
167 189 51
171 194 47
167 189 47
165 187 47
171 193 31
165 188 57
166 188 54
165 187 36
167 189 57
167 189 54
169 190 66
169 191 62
168 191 65
171 192 47
169 191 78
165 187 94
172 193 72
168 190 65
173 194 94
168 190 57
176 198 67
173 194 72
173 195 72
175 196 76
171 193 78
170 192 67
178 200 92
175 196 80
175 196 80
172 193 72
171 193 62
169 190 76
176 197 88
178 200 105
175 197 95
170 191 88
174 195 80
174 196 88
177 197 92
168 190 57
171 192 99
171 193 84
168 189 62
174 195 67
170 192 80
169 190 62
175 196 80
168 190 84
169 189 72
170 192 92
165 187 72
171 192 88
171 192 84
172 193 67
163 185 57
166 188 88
164 184 84
170 192 72
169 191 76
168 190 76
163 184 57
166 188 76
173 194 67
166 187 76
168 190 76
164 185 57
167 190 62
168 190 62
168 189 92
167 188 67
169 190 72
162 184 67
169 190 76
163 184 76
168 189 88
162 182 80
162 182 76
169 190 88
163 184 80
167 189 57
168 188 88
159 180 51
163 184 51
159 180 44
167 188 67
164 185 62
160 181 51
165 186 67
157 178 57
162 184 44
162 183 44
171 194 57
161 183 36
163 185 44
170 191 0
160 183 44
160 183 0
164 187 25
164 186 0
167 190 0
165 188 0
157 180 0
165 188 25
167 189 0
161 184 0
161 183 0
161 183 0
158 181 0
159 182 0
161 183 0
164 188 0
160 182 0
158 182 0
164 186 0
156 179 0
156 178 0
163 185 0
161 183 0
155 178 0
155 177 0
155 177 0
158 181 0
158 179 0
155 177 0
157 179 0
152 174 0
158 181 0
155 177 0
159 182 0
152 174 0
150 172 0
141 163 0
157 179 0
151 172 0
154 176 0
156 178 0
159 181 0
153 176 0
158 180 0
157 180 0
153 176 0
157 179 0
161 183 0
157 179 0
161 183 0
155 177 0
153 176 0
151 174 0
159 181 0
158 181 0
159 181 0
161 184 0
164 187 0
155 177 0
157 181 0
156 179 0
155 178 0
154 177 0
151 173 0
156 179 0
159 183 0
161 183 0
159 181 0
146 169 0
158 180 0
155 178 0
159 182 0
161 182 0
155 176 0
155 176 0
158 180 0
154 177 0
158 181 0
153 175 0
153 176 0
157 179 0
156 178 0
155 179 0
161 184 0
161 183 0
159 182 0
161 182 0
162 185 0
157 181 0
158 180 0
157 180 0
155 177 0
158 180 0
155 178 0
156 180 0
160 182 0
161 184 0
165 187 0
164 187 0
156 180 0
159 182 0
160 183 0
161 184 0
165 188 0
157 179 0
154 176 0
159 181 0
157 180 0
156 178 0
159 181 0
155 178 0
158 180 0
160 185 0
162 185 0
155 177 0
161 183 0
157 180 0
158 179 0
159 181 0
159 182 0
162 184 0
162 185 0
159 181 0
168 192 0
158 182 0
159 181 0
164 187 0
159 181 0
159 181 0
162 185 0
166 187 0
161 184 0
162 185 0
162 184 0
160 182 0
166 189 0
154 176 0
162 186 0
165 188 0
165 187 0
168 190 0
162 185 0
162 185 0
160 181 0
163 184 0
163 186 0
160 183 0
159 181 0
163 185 0
162 185 0
167 190 0
161 183 0
170 192 0
164 187 0
163 185 0
165 188 0
162 185 0
163 186 0
165 187 0
162 185 0
162 185 0
166 189 0
168 192 0
158 180 0
168 189 0
166 188 0
166 190 0
167 191 0
165 187 0
166 189 0
164 187 0
164 187 0
165 189 0
166 189 0
163 186 0
161 184 0
166 188 0
168 191 0
165 189 0
167 190 0
168 190 0
164 186 0
170 192 0
160 184 0
167 190 0
167 190 0
169 192 0
171 192 0
171 192 0
171 194 0
163 185 0
166 189 0
172 194 0
168 192 0
166 188 0
160 184 0
170 193 0
167 191 0
168 191 0
169 192 0
166 190 0
165 187 0
171 193 0
166 189 0
167 189 0
168 191 0
166 188 0
172 193 0
166 188 0
168 190 0
165 188 0
169 192 0
170 193 0
170 194 0
170 193 0
167 190 0
172 195 0
167 188 0
168 190 0
167 188 0
165 189 0
171 193 0
169 192 0
168 190 0
169 191 0
169 192 0
165 186 0
170 193 0
171 194 0
167 190 0
168 191 0
171 193 0
172 195 0
171 193 0
172 195 0
166 191 0
172 195 0
171 195 0
170 191 0
168 190 0
168 191 0
169 191 0
170 192 0
172 194 0
170 193 0
167 190 0
168 192 0
169 192 0
170 191 0
172 194 0
168 190 0
172 194 0
168 190 0
165 188 0
171 193 0
173 196 0
168 192 0
167 190 0
173 196 0
167 190 0
170 193 0
171 193 0
166 189 0
170 193 0
171 193 0
169 192 0
172 195 0
170 192 0
172 195 0
171 194 0
165 188 0
