P3
400 225
255
202 225 255
202 225 255
202 225 255
202 225 255
202 225 255
202 225 255
202 225 255
202 225 255
202 225 255
202 225 255
202 225 255
202 225 255
202 225 255
201 225 255
201 225 255
201 225 255
201 225 255
201 224 255
201 224 255
201 224 255
201 224 255
201 224 255
201 224 255
201 224 255
201 224 255
200 224 255
200 224 255
200 224 255
200 224 255
200 224 255
200 224 255
200 224 255
200 224 255
200 224 255
200 224 255
200 224 255
199 224 255
199 224 255
199 223 255
199 223 255
199 223 255
199 223 255
199 223 255
199 223 255
199 223 255
199 223 255
199 223 255
198 223 255
198 223 255
198 223 255
198 223 255
198 223 255
198 223 255
198 223 255
198 223 255
198 223 255
198 223 255
197 222 255
197 222 255
197 222 255
197 222 255
197 222 255
197 222 255
197 222 255
197 222 255
197 222 255
196 222 255
196 222 255
196 222 255
196 222 255
196 222 255
196 222 255
196 222 255
196 222 255
195 221 255
195 221 255
195 221 255
195 221 255
195 221 255
195 221 255
195 221 255
195 221 255
195 221 255
194 221 255
194 221 255
194 221 255
194 221 255
194 221 255
194 221 255
194 220 255
194 220 255
193 220 255
193 220 255
193 220 255
193 220 255
193 220 255
193 220 255
193 220 255
192 220 255
192 220 255
192 220 255
192 220 255
192 220 255
192 220 255
192 219 255
192 219 255
191 219 255
191 219 255
191 219 255
191 219 255
191 219 255
191 219 255
191 219 255
190 219 255
190 219 255
190 219 255
190 219 255
190 219 255
190 218 255
190 218 255
190 218 255
189 218 255
189 218 255
189 218 255
189 218 255
189 218 255
189 218 255
189 218 255
188 218 255
188 218 255
188 218 255
188 218 255
188 217 255
188 217 255
188 217 255
187 217 255
187 217 255
187 217 255
187 217 255
187 217 255
187 217 255
187 217 255
187 217 255
186 217 255
186 217 255
186 217 255
186 216 255
186 216 255
186 216 255
186 216 255
186 216 255
185 216 255
185 216 255
185 216 255
185 216 255
185 216 255
185 216 255
185 216 255
185 216 255
184 216 255
184 216 255
184 216 255
184 216 255
184 215 255
184 215 255
184 215 255
184 215 255
184 215 255
184 215 255
183 215 255
183 215 255
183 215 255
183 215 255
183 215 255
183 215 255
183 215 255
183 215 255
183 215 255
183 215 255
183 215 255
183 215 255
183 215 255
183 215 255
182 215 255
182 215 255
182 215 255
182 215 255
182 215 255
182 215 255
182 215 255
182 215 255
182 215 255
182 215 255
182 215 255
182 214 255
182 214 255
182 214 255
182 214 255
182 214 255
182 214 255
182 214 255
182 214 255
182 214 255
182 214 255
182 214 255
182 214 255
182 215 255
182 215 255
182 215 255
182 215 255
182 215 255
182 215 255
182 215 255
182 215 255
182 215 255
182 215 255
182 215 255
183 215 255
183 215 255
183 215 255
183 215 255
183 215 255
183 215 255
183 215 255
183 215 255
183 215 255
183 215 255
183 215 255
183 215 255
183 215 255
183 215 255
184 215 255
184 215 255
184 215 255
184 215 255
184 215 255
184 215 255
184 216 255
184 216 255
184 216 255
184 216 255
185 216 255
185 216 255
185 216 255
185 216 255
185 216 255
185 216 255
185 216 255
185 216 255
186 216 255
186 216 255
186 216 255
186 216 255
186 216 255
186 217 255
186 217 255
186 217 255
187 217 255
187 217 255
187 217 255
187 217 255
187 217 255
187 217 255
187 217 255
187 217 255
188 217 255
188 217 255
188 217 255
188 218 255
188 218 255
188 218 255
188 218 255
189 218 255
189 218 255
189 218 255
189 218 255
189 218 255
189 218 255
189 218 255
190 218 255
190 218 255
190 218 255
190 219 255
190 219 255
190 219 255
190 219 255
190 219 255
191 219 255
191 219 255
191 219 255
191 219 255
191 219 255
191 219 255
191 219 255
192 219 255
192 219 255
192 220 255
192 220 255
192 220 255
192 220 255
192 220 255
192 220 255
193 220 255
193 220 255
193 220 255
193 220 255
193 220 255
193 220 255
193 220 255
194 220 255
194 220 255
194 221 255
194 221 255
194 221 255
194 221 255
194 221 255
194 221 255
195 221 255
195 221 255
195 221 255
195 221 255
195 221 255
195 221 255
195 221 255
195 221 255
195 221 255
196 222 255
196 222 255
196 222 255
196 222 255
196 222 255
196 222 255
196 222 255
196 222 255
197 222 255
197 222 255
197 222 255
197 222 255
197 222 255
197 222 255
197 222 255
197 222 255
197 222 255
198 223 255
198 223 255
198 223 255
198 223 255
198 223 255
198 223 255
198 223 255
198 223 255
198 223 255
198 223 255
199 223 255
199 223 255
199 223 255
199 223 255
199 223 255
199 223 255
199 223 255
199 223 255
199 223 255
199 224 255
199 224 255
200 224 255
200 224 255
200 224 255
200 224 255
200 224 255
200 224 255
200 224 255
200 224 255
200 224 255
200 224 255
200 224 255
201 224 255
201 224 255
201 224 255
201 224 255
201 224 255
201 224 255
201 224 255
201 224 255
201 225 255
201 225 255
201 225 255
201 225 255
202 225 255
202 225 255
202 225 255
202 225 255
202 225 255
202 225 255
202 225 255
202 225 255
202 225 255
202 225 255
202 225 255
202 225 255
202 225 255
203 225 255
203 225 255
202 225 255
202 225 255
202 225 255
202 225 255
202 225 255
202 225 255
202 225 255
202 225 255
202 225 255
202 225 255
202 225 255
202 225 255
202 225 255
201 225 255
201 225 255
201 225 255
201 225 255
201 224 255
201 224 255
201 224 255
201 224 255
201 224 255
201 224 255
201 224 255
201 224 255
200 224 255
200 224 255
200 224 255
200 224 255
200 224 255
200 224 255
200 224 255
200 224 255
200 224 255
200 224 255
200 224 255
199 224 255
199 224 255
199 223 255
199 223 255
199 223 255
199 223 255
199 223 255
199 223 255
199 223 255
199 223 255
198 223 255
198 223 255
198 223 255
198 223 255
198 223 255
198 223 255
198 223 255
198 223 255
198 223 255
198 223 255
197 222 255
197 222 255
197 222 255
197 222 255
197 222 255
197 222 255
197 222 255
197 222 255
197 222 255
196 222 255
196 222 255
196 222 255
196 222 255
196 222 255
196 222 255
196 222 255
196 222 255
196 221 255
195 221 255
195 221 255
195 221 255
195 221 255
195 221 255
195 221 255
195 221 255
195 221 255
194 221 255
194 221 255
194 221 255
194 221 255
194 221 255
194 221 255
194 220 255
194 220 255
193 220 255
193 220 255
193 220 255
193 220 255
193 220 255
193 220 255
193 220 255
192 220 255
192 220 255
192 220 255
192 220 255
192 220 255
192 220 255
192 219 255
192 219 255
191 219 255
191 219 255
191 219 255
191 219 255
191 219 255
191 219 255
191 219 255
190 219 255
190 219 255
190 219 255
190 219 255
190 219 255
190 218 255
190 218 255
189 218 255
189 218 255
189 218 255
189 218 255
189 218 255
189 218 255
189 218 255
189 218 255
188 218 255
188 218 255
188 218 255
188 217 255
188 217 255
188 217 255
188 217 255
187 217 255
187 217 255
187 217 255
187 217 255
187 217 255
187 217 255
187 217 255
186 217 255
186 217 255
186 217 255
186 217 255
186 216 255
186 216 255
186 216 255
186 216 255
185 216 255
185 216 255
185 216 255
185 216 255
185 216 255
185 216 255
185 216 255
185 216 255
185 216 255
184 216 255
184 216 255
184 216 255
184 216 255
184 215 255
184 215 255
184 215 255
184 215 255
184 215 255
184 215 255
183 215 255
183 215 255
183 215 255
183 215 255
183 215 255
183 215 255
183 215 255
183 215 255
183 215 255
183 215 255
183 215 255
183 215 255
183 215 255
183 215 255
182 215 255
182 215 255
182 215 255
182 215 255
182 215 255
182 215 255
182 215 255
182 215 255
182 215 255
182 215 255
182 215 255
182 215 255
182 214 255
182 214 255
182 214 255
182 214 255
182 214 255
182 214 255
182 214 255
182 214 255
182 215 255
182 215 255
182 215 255
182 215 255
182 215 255
182 215 255
182 215 255
182 215 255
182 215 255
182 215 255
182 215 255
182 215 255
183 215 255
183 215 255
183 215 255
183 215 255
183 215 255
183 215 255
183 215 255
183 215 255
183 215 255
183 215 255
183 215 255
183 215 255
183 215 255
183 215 255
184 215 255
184 215 255
184 215 255
184 215 255
184 215 255
184 215 255
184 216 255
184 216 255
184 216 255
184 216 255
185 216 255
185 216 255
185 216 255
185 216 255
185 216 255
185 216 255
185 216 255
185 216 255
185 216 255
186 216 255
186 216 255
186 216 255
186 216 255
186 217 255
186 217 255
186 217 255
186 217 255
187 217 255
187 217 255
187 217 255
187 217 255
187 217 255
187 217 255
187 217 255
188 217 255
188 217 255
188 217 255
188 217 255
188 218 255
188 218 255
188 218 255
189 218 255
189 218 255
189 218 255
189 218 255
189 218 255
189 218 255
189 218 255
189 218 255
190 218 255
190 218 255
190 219 255
190 219 255
190 219 255
190 219 255
190 219 255
191 219 255
191 219 255
191 219 255
191 219 255
191 219 255
191 219 255
191 219 255
192 219 255
192 219 255
192 220 255
192 220 255
192 220 255
192 220 255
192 220 255
192 220 255
193 220 255
193 220 255
193 220 255
193 220 255
193 220 255
193 220 255
193 220 255
194 220 255
194 220 255
194 221 255
194 221 255
194 221 255
194 221 255
194 221 255
194 221 255
195 221 255
195 221 255
195 221 255
195 221 255
195 221 255
195 221 255
195 221 255
195 221 255
196 221 255
196 222 255
196 222 255
196 222 255
196 222 255
196 222 255
196 222 255
196 222 255
196 222 255
197 222 255
197 222 255
197 222 255
197 222 255
197 222 255
197 222 255
197 222 255
197 222 255
197 222 255
198 223 255
198 223 255
198 223 255
198 223 255
198 223 255
198 223 255
198 223 255
198 223 255
198 223 255
198 223 255
199 223 255
199 223 255
199 223 255
199 223 255
199 223 255
199 223 255
199 223 255
199 223 255
199 224 255
199 224 255
200 224 255
200 224 255
200 224 255
200 224 255
200 224 255
200 224 255
200 224 255
200 224 255
200 224 255
200 224 255
200 224 255
201 224 255
201 224 255
201 224 255
201 224 255
201 224 255
201 224 255
201 224 255
201 224 255
201 225 255
201 225 255
201 225 255
201 225 255
202 225 255
202 225 255
202 225 255
202 225 255
202 225 255
202 225 255
202 225 255
202 225 255
202 225 255
202 225 255
202 225 255
202 225 255
202 225 255
203 225 255
203 225 255
203 225 255
203 225 255
203 225 255
203 225 255
202 225 255
202 225 255
202 225 255
202 225 255
202 225 255
202 225 255
202 225 255
202 225 255
202 225 255
202 225 255
202 225 255
202 225 255
202 225 255
201 225 255
201 225 255
201 225 255
201 224 255
201 224 255
201 224 255
201 224 255
201 224 255
201 224 255
201 224 255
201 224 255
200 224 255
200 224 255
200 224 255
200 224 255
200 224 255
200 224 255
200 224 255
200 224 255
200 224 255
200 224 255
200 224 255
200 224 255
199 224 255
199 223 255
199 223 255
199 223 255
199 223 255
199 223 255
199 223 255
199 223 255
199 223 255
199 223 255
198 223 255
198 223 255
198 223 255
198 223 255
198 223 255
198 223 255
198 223 255
198 223 255
198 223 255
197 223 255
197 222 255
197 222 255
197 222 255
197 222 255
197 222 255
197 222 255
197 222 255
197 222 255
196 222 255
196 222 255
196 222 255
196 222 255
196 222 255
196 222 255
196 222 255
196 222 255
196 221 255
195 221 255
195 221 255
195 221 255
195 221 255
195 221 255
195 221 255
195 221 255
195 221 255
194 221 255
194 221 255
194 221 255
194 221 255
194 221 255
194 221 255
194 220 255
194 220 255
193 220 255
193 220 255
193 220 255
193 220 255
193 220 255
193 220 255
193 220 255
192 220 255
192 220 255
192 220 255
192 220 255
192 220 255
192 220 255
192 219 255
192 219 255
191 219 255
191 219 255
191 219 255
191 219 255
191 219 255
191 219 255
191 219 255
190 219 255
190 219 255
190 219 255
190 219 255
190 218 255
190 218 255
190 218 255
189 218 255
189 218 255
189 218 255
189 218 255
189 218 255
189 218 255
189 218 255
188 218 255
188 218 255
188 218 255
188 218 255
188 217 255
188 217 255
188 217 255
188 217 255
187 217 255
187 217 255
187 217 255
187 217 255
187 217 255
187 217 255
187 217 255
186 217 255
186 217 255
186 217 255
186 217 255
186 216 255
186 216 255
186 216 255
186 216 255
185 216 255
185 216 255
185 216 255
185 216 255
185 216 255
185 216 255
185 216 255
185 216 255
184 216 255
184 216 255
184 216 255
184 216 255
184 215 255
184 215 255
184 215 255
184 215 255
184 215 255
184 215 255
183 215 255
183 215 255
183 215 255
183 215 255
183 215 255
183 215 255
183 215 255
183 215 255
183 215 255
183 215 255
183 215 255
183 215 255
183 215 255
183 215 255
183 215 255
182 215 255
182 215 255
182 215 255
182 215 255
182 215 255
182 215 255
182 215 255
182 215 255
182 215 255
182 215 255
182 215 255
182 215 255
182 215 255
182 215 255
182 214 255
182 215 255
182 215 255
182 215 255
182 215 255
182 215 255
182 215 255
182 215 255
182 215 255
182 215 255
182 215 255
182 215 255
182 215 255
182 215 255
182 215 255
182 215 255
183 215 255
183 215 255
183 215 255
183 215 255
183 215 255
183 215 255
183 215 255
183 215 255
183 215 255
183 215 255
183 215 255
183 215 255
183 215 255
183 215 255
183 215 255
184 215 255
184 215 255
184 215 255
184 215 255
184 215 255
184 215 255
184 216 255
184 216 255
184 216 255
184 216 255
185 216 255
185 216 255
185 216 255
185 216 255
185 216 255
185 216 255
185 216 255
185 216 255
186 216 255
186 216 255
186 216 255
186 216 255
186 217 255
186 217 255
186 217 255
186 217 255
187 217 255
187 217 255
187 217 255
187 217 255
187 217 255
187 217 255
187 217 255
188 217 255
188 217 255
188 217 255
188 217 255
188 218 255
188 218 255
188 218 255
188 218 255
189 218 255
189 218 255
189 218 255
189 218 255
189 218 255
189 218 255
189 218 255
190 218 255
190 218 255
190 218 255
190 219 255
190 219 255
190 219 255
190 219 255
191 219 255
191 219 255
191 219 255
191 219 255
191 219 255
191 219 255
191 219 255
192 219 255
192 219 255
192 220 255
192 220 255
192 220 255
192 220 255
192 220 255
192 220 255
193 220 255
193 220 255
193 220 255
193 220 255
193 220 255
193 220 255
193 220 255
194 220 255
194 220 255
194 221 255
194 221 255
194 221 255
194 221 255
194 221 255
194 221 255
195 221 255
195 221 255
195 221 255
195 221 255
195 221 255
195 221 255
195 221 255
195 221 255
196 221 255
196 222 255
196 222 255
196 222 255
196 222 255
196 222 255
196 222 255
196 222 255
196 222 255
197 222 255
197 222 255
197 222 255
197 222 255
197 222 255
197 222 255
197 222 255
197 222 255
197 223 255
198 223 255
198 223 255
198 223 255
198 223 255
198 223 255
198 223 255
198 223 255
198 223 255
198 223 255
199 223 255
199 223 255
199 223 255
199 223 255
199 223 255
199 223 255
199 223 255
199 223 255
199 223 255
199 224 255
199 224 255
200 224 255
200 224 255
200 224 255
200 224 255
200 224 255
200 224 255
200 224 255
200 224 255
200 224 255
200 224 255
201 224 255
201 224 255
201 224 255
201 224 255
201 224 255
201 224 255
201 224 255
201 224 255
201 224 255
201 225 255
201 225 255
201 225 255
202 225 255
202 225 255
202 225 255
202 225 255
202 225 255
202 225 255
202 225 255
202 225 255
202 225 255
202 225 255
202 225 255
202 225 255
202 225 255
203 225 255
203 225 255
203 225 255
203 225 255
203 225 255
203 225 255
203 225 255
203 225 255
203 225 255
203 225 255
202 225 255
202 225 255
202 225 255
202 225 255
202 225 255
202 225 255
202 225 255
202 225 255
202 225 255
202 225 255
202 225 255
202 225 255
201 225 255
201 225 255
201 225 255
201 225 255
201 224 255
201 224 255
201 224 255
201 224 255
201 224 255
201 224 255
201 224 255
201 224 255
200 224 255
200 224 255
200 224 255
200 224 255
200 224 255
200 224 255
200 224 255
200 224 255
200 224 255
200 224 255
200 224 255
199 224 255
199 224 255
199 223 255
199 223 255
199 223 255
199 223 255
199 223 255
199 223 255
199 223 255
199 223 255
198 223 255
198 223 255
198 223 255
198 223 255
198 223 255
198 223 255
198 223 255
198 223 255
198 223 255
198 223 255
197 222 255
197 222 255
197 222 255
197 222 255
197 222 255
197 222 255
197 222 255
197 222 255
197 222 255
196 222 255
196 222 255
196 222 255
196 222 255
196 222 255
196 222 255
196 222 255
196 221 255
195 221 255
195 221 255
195 221 255
195 221 255
195 221 255
195 221 255
195 221 255
195 221 255
194 221 255
194 221 255
194 221 255
194 221 255
194 221 255
194 221 255
194 221 255
194 220 255
193 220 255
193 220 255
193 220 255
193 220 255
193 220 255
193 220 255
193 220 255
192 220 255
192 220 255
192 220 255
192 220 255
192 220 255
192 220 255
192 219 255
192 219 255
191 219 255
191 219 255
191 219 255
191 219 255
191 219 255
191 219 255
191 219 255
190 219 255
190 219 255
190 219 255
190 219 255
190 218 255
190 218 255
190 218 255
189 218 255
189 218 255
189 218 255
189 218 255
189 218 255
189 218 255
189 218 255
188 218 255
188 218 255
188 218 255
188 218 255
188 217 255
188 217 255
188 217 255
187 217 255
187 217 255
187 217 255
187 217 255
187 217 255
187 217 255
187 217 255
187 217 255
186 217 255
186 217 255
186 217 255
186 216 255
186 216 255
186 216 255
186 216 255
185 216 255
185 216 255
185 216 255
185 216 255
185 216 255
185 216 255
185 216 255
185 216 255
185 216 255
184 216 255
184 216 255
184 216 255
184 216 255
184 215 255
184 215 255
184 215 255
184 215 255
184 215 255
184 215 255
183 215 255
183 215 255
183 215 255
183 215 255
183 215 255
183 215 255
183 215 255
183 215 255
183 215 255
183 215 255
183 215 255
183 215 255
183 215 255
183 215 255
183 215 255
182 215 255
182 215 255
182 215 255
182 215 255
182 215 255
182 215 255
182 215 255
182 215 255
182 215 255
182 215 255
182 215 255
182 215 255
182 215 255
182 215 255
182 215 255
182 215 255
182 215 255
182 215 255
182 215 255
182 215 255
182 215 255
182 215 255
182 215 255
182 215 255
182 215 255
182 215 255
182 215 255
182 215 255
182 215 255
183 215 255
183 215 255
183 215 255
183 215 255
183 215 255
183 215 255
183 215 255
183 215 255
183 215 255
183 215 255
183 215 255
183 215 255
183 215 255
183 215 255
184 215 255
184 215 255
184 215 255
184 215 255
184 215 255
184 215 255
184 216 255
184 216 255
184 216 255
184 216 255
185 216 255
185 216 255
185 216 255
185 216 255
185 216 255
185 216 255
185 216 255
185 216 255
185 216 255
186 216 255
186 216 255
186 216 255
186 216 255
186 217 255
186 217 255
186 217 255
187 217 255
187 217 255
187 217 255
187 217 255
187 217 255
187 217 255
187 217 255
187 217 255
188 217 255
188 217 255
188 217 255
188 218 255
188 218 255
188 218 255
188 218 255
189 218 255
189 218 255
189 218 255
189 218 255
189 218 255
189 218 255
189 218 255
190 218 255
190 218 255
190 218 255
190 219 255
190 219 255
190 219 255
190 219 255
191 219 255
191 219 255
191 219 255
191 219 255
191 219 255
191 219 255
191 219 255
192 219 255
192 219 255
192 220 255
192 220 255
192 220 255
192 220 255
192 220 255
192 220 255
193 220 255
193 220 255
193 220 255
193 220 255
193 220 255
193 220 255
193 220 255
194 220 255
194 220 255
194 221 255
194 221 255
194 221 255
194 221 255
194 221 255
194 221 255
195 221 255
195 221 255
195 221 255
195 221 255
195 221 255
195 221 255
195 221 255
195 221 255
196 221 255
196 222 255
196 222 255
196 222 255
196 222 255
196 222 255
196 222 255
196 222 255
197 222 255
197 222 255
197 222 255
197 222 255
197 222 255
197 222 255
197 222 255
197 222 255
197 222 255
198 223 255
198 223 255
198 223 255
198 223 255
198 223 255
198 223 255
198 223 255
198 223 255
198 223 255
198 223 255
199 223 255
199 223 255
199 223 255
199 223 255
199 223 255
199 223 255
199 223 255
199 223 255
199 224 255
199 224 255
200 224 255
200 224 255
200 224 255
200 224 255
200 224 255
200 224 255
200 224 255
200 224 255
200 224 255
200 224 255
200 224 255
201 224 255
201 224 255
201 224 255
201 224 255
201 224 255
201 224 255
201 224 255
201 224 255
201 225 255
201 225 255
201 225 255
201 225 255
202 225 255
202 225 255
202 225 255
202 225 255
202 225 255
202 225 255
202 225 255
202 225 255
202 225 255
202 225 255
202 225 255
202 225 255
203 225 255
203 225 255
203 225 255
203 225 255
203 225 255
203 225 255
203 225 255
203 225 255
203 225 255
203 225 255
203 225 255
203 225 255
203 225 255
202 225 255
202 225 255
202 225 255
202 225 255
202 225 255
202 225 255
202 225 255
202 225 255
202 225 255
202 225 255
202 225 255
202 225 255
202 225 255
201 225 255
201 225 255
201 225 255
201 225 255
201 224 255
201 224 255
201 224 255
201 224 255
201 224 255
201 224 255
201 224 255
201 224 255
200 224 255
200 224 255
200 224 255
200 224 255
200 224 255
200 224 255
200 224 255
200 224 255
200 224 255
200 224 255
199 224 255
199 224 255
199 223 255
199 223 255
199 223 255
199 223 255
199 223 255
199 223 255
199 223 255
199 223 255
199 223 255
198 223 255
198 223 255
198 223 255
198 223 255
198 223 255
198 223 255
198 223 255
198 223 255
198 223 255
197 222 255
197 222 255
197 222 255
197 222 255
197 222 255
197 222 255
197 222 255
197 222 255
197 222 255
196 222 255
196 222 255
196 222 255
196 222 255
196 222 255
196 222 255
196 222 255
196 222 255
195 221 255
195 221 255
195 221 255
195 221 255
195 221 255
195 221 255
195 221 255
195 221 255
194 221 255
194 221 255
194 221 255
194 221 255
194 221 255
194 221 255
194 220 255
194 220 255
193 220 255
193 220 255
193 220 255
193 220 255
193 220 255
193 220 255
193 220 255
192 220 255
192 220 255
192 220 255
192 220 255
192 220 255
192 220 255
192 219 255
192 219 255
191 219 255
191 219 255
191 219 255
191 219 255
191 219 255
191 219 255
191 219 255
190 219 255
190 219 255
190 219 255
190 219 255
190 218 255
190 218 255
190 218 255
189 218 255
189 218 255
189 218 255
189 218 255
189 218 255
189 218 255
189 218 255
188 218 255
188 218 255
188 218 255
188 218 255
188 217 255
188 217 255
188 217 255
187 217 255
187 217 255
187 217 255
187 217 255
187 217 255
187 217 255
187 217 255
186 217 255
186 217 255
186 217 255
186 217 255
186 216 255
186 216 255
186 216 255
186 216 255
185 216 255
185 216 255
185 216 255
185 216 255
185 216 255
185 216 255
185 216 255
185 216 255
185 216 255
184 216 255
184 216 255
184 216 255
184 216 255
184 215 255
184 215 255
184 215 255
184 215 255
184 215 255
184 215 255
183 215 255
183 215 255
183 215 255
183 215 255
183 215 255
183 215 255
183 215 255
183 215 255
183 215 255
183 215 255
183 215 255
183 215 255
183 215 255
183 215 255
182 215 255
182 215 255
182 215 255
182 215 255
182 215 255
182 215 255
182 215 255
182 215 255
182 215 255
182 215 255
182 215 255
182 215 255
182 215 255
182 215 255
182 215 255
182 215 255
182 215 255
182 215 255
182 215 255
182 215 255
182 215 255
182 215 255
182 215 255
182 215 255
182 215 255
182 215 255
182 215 255
182 215 255
183 215 255
183 215 255
183 215 255
183 215 255
183 215 255
183 215 255
183 215 255
183 215 255
183 215 255
183 215 255
183 215 255
183 215 255
183 215 255
183 215 255
184 215 255
184 215 255
184 215 255
184 215 255
184 215 255
184 215 255
184 215 255
184 216 255
184 216 255
184 216 255
185 216 255
185 216 255
185 216 255
185 216 255
185 216 255
185 216 255
185 216 255
185 216 255
185 216 255
186 216 255
186 216 255
186 216 255
186 216 255
186 217 255
186 217 255
186 217 255
186 217 255
187 217 255
187 217 255
187 217 255
187 217 255
187 217 255
187 217 255
187 217 255
188 217 255
188 217 255
188 217 255
188 218 255
188 218 255
188 218 255
188 218 255
189 218 255
189 218 255
189 218 255
189 218 255
189 218 255
189 218 255
189 218 255
190 218 255
190 218 255
190 218 255
190 219 255
190 219 255
190 219 255
190 219 255
191 219 255
191 219 255
191 219 255
191 219 255
191 219 255
191 219 255
191 219 255
192 219 255
192 219 255
192 220 255
192 220 255
192 220 255
192 220 255
192 220 255
192 220 255
193 220 255
193 220 255
193 220 255
193 220 255
193 220 255
193 220 255
193 220 255
194 220 255
194 220 255
194 221 255
194 221 255
194 221 255
194 221 255
194 221 255
194 221 255
195 221 255
195 221 255
195 221 255
195 221 255
195 221 255
195 221 255
195 221 255
195 221 255
196 221 255
196 222 255
196 222 255
196 222 255
196 222 255
196 222 255
196 222 255
196 222 255
197 222 255
197 222 255
197 222 255
197 222 255
197 222 255
197 222 255
197 222 255
197 222 255
197 222 255
198 223 255
198 223 255
198 223 255
198 223 255
198 223 255
198 223 255
198 223 255
198 223 255
198 223 255
199 223 255
199 223 255
199 223 255
199 223 255
199 223 255
199 223 255
199 223 255
199 223 255
199 223 255
199 224 255
199 224 255
200 224 255
200 224 255
200 224 255
200 224 255
200 224 255
200 224 255
200 224 255
200 224 255
200 224 255
200 224 255
201 224 255
201 224 255
201 224 255
201 224 255
201 224 255
201 224 255
201 224 255
201 224 255
201 225 255
201 225 255
201 225 255
201 225 255
202 225 255
202 225 255
202 225 255
202 225 255
202 225 255
202 225 255
202 225 255
202 225 255
202 225 255
202 225 255
202 225 255
202 225 255
202 225 255
203 225 255
203 225 255
203 225 255
203 225 255
203 225 255
203 225 255
203 225 255
203 226 255
203 226 255
203 225 255
203 225 255
203 225 255
203 225 255
203 225 255
203 225 255
203 225 255
202 225 255
202 225 255
202 225 255
202 225 255
202 225 255
202 225 255
202 225 255
202 225 255
202 225 255
202 225 255
202 225 255
202 225 255
202 225 255
201 225 255
201 225 255
201 225 255
201 224 255
201 224 255
201 224 255
201 224 255
201 224 255
201 224 255
201 224 255
201 224 255
200 224 255
200 224 255
200 224 255
200 224 255
200 224 255
200 224 255
200 224 255
200 224 255
200 224 255
200 224 255
200 224 255
199 224 255
199 224 255
199 223 255
199 223 255
199 223 255
199 223 255
199 223 255
199 223 255
199 223 255
199 223 255
198 223 255
198 223 255
198 223 255
198 223 255
198 223 255
198 223 255
198 223 255
198 223 255
198 223 255
197 223 255
197 222 255
197 222 255
197 222 255
197 222 255
197 222 255
197 222 255
197 222 255
197 222 255
196 222 255
196 222 255
196 222 255
196 222 255
196 222 255
196 222 255
196 222 255
196 222 255
195 221 255
195 221 255
195 221 255
195 221 255
195 221 255
195 221 255
195 221 255
195 221 255
194 221 255
194 221 255
194 221 255
194 221 255
194 221 255
194 221 255
194 221 255
194 220 255
193 220 255
193 220 255
193 220 255
193 220 255
193 220 255
193 220 255
193 220 255
192 220 255
192 220 255
192 220 255
192 220 255
192 220 255
192 220 255
192 219 255
192 219 255
191 219 255
191 219 255
191 219 255
191 219 255
191 219 255
191 219 255
191 219 255
190 219 255
190 219 255
190 219 255
190 219 255
190 218 255
190 218 255
190 218 255
189 218 255
189 218 255
189 218 255
189 218 255
189 218 255
189 218 255
189 218 255
188 218 255
188 218 255
188 218 255
188 217 255
188 217 255
188 217 255
188 217 255
187 217 255
187 217 255
187 217 255
187 217 255
187 217 255
187 217 255
187 217 255
186 217 255
186 217 255
186 217 255
186 217 255
186 216 255
186 216 255
186 216 255
186 216 255
185 216 255
185 216 255
185 216 255
185 216 255
185 216 255
185 216 255
185 216 255
185 216 255
184 216 255
184 216 255
184 216 255
184 216 255
184 215 255
184 215 255
184 215 255
184 215 255
184 215 255
184 215 255
183 215 255
183 215 255
183 215 255
183 215 255
183 215 255
183 215 255
183 215 255
183 215 255
183 215 255
183 215 255
183 215 255
183 215 255
183 215 255
183 215 255
183 215 255
182 215 255
182 215 255
182 215 255
182 215 255
182 215 255
182 215 255
182 215 255
182 215 255
182 215 255
182 215 255
182 215 255
182 215 255
182 215 255
182 215 255
182 215 255
182 215 255
182 215 255
182 215 255
182 215 255
182 215 255
182 215 255
182 215 255
182 215 255
182 215 255
182 215 255
182 215 255
183 215 255
183 215 255
183 215 255
183 215 255
183 215 255
183 215 255
183 215 255
183 215 255
183 215 255
183 215 255
183 215 255
183 215 255
183 215 255
183 215 255
183 215 255
184 215 255
184 215 255
184 215 255
184 215 255
184 215 255
184 215 255
184 216 255
184 216 255
184 216 255
184 216 255
185 216 255
185 216 255
185 216 255
185 216 255
185 216 255
185 216 255
185 216 255
185 216 255
186 216 255
186 216 255
186 216 255
186 216 255
186 217 255
186 217 255
186 217 255
186 217 255
187 217 255
187 217 255
187 217 255
187 217 255
187 217 255
187 217 255
187 217 255
188 217 255
188 217 255
188 217 255
188 217 255
188 218 255
188 218 255
188 218 255
189 218 255
189 218 255
189 218 255
189 218 255
189 218 255
189 218 255
189 218 255
190 218 255
190 218 255
190 218 255
190 219 255
190 219 255
190 219 255
190 219 255
191 219 255
191 219 255
191 219 255
191 219 255
191 219 255
191 219 255
191 219 255
192 219 255
192 219 255
192 219 255
192 220 255
192 220 255
192 220 255
192 220 255
192 220 255
193 220 255
193 220 255
193 220 255
193 220 255
193 220 255
193 220 255
193 220 255
194 220 255
194 221 255
194 221 255
194 221 255
194 221 255
194 221 255
194 221 255
194 221 255
195 221 255
195 221 255
195 221 255
195 221 255
195 221 255
195 221 255
195 221 255
195 221 255
196 222 255
196 222 255
196 222 255
196 222 255
196 222 255
196 222 255
196 222 255
196 222 255
197 222 255
197 222 255
197 222 255
197 222 255
197 222 255
197 222 255
197 222 255
197 222 255
197 223 255
198 223 255
198 223 255
198 223 255
198 223 255
198 223 255
198 223 255
198 223 255
198 223 255
198 223 255
199 223 255
199 223 255
199 223 255
199 223 255
199 223 255
199 223 255
199 223 255
199 223 255
199 224 255
199 224 255
200 224 255
200 224 255
200 224 255
200 224 255
200 224 255
200 224 255
200 224 255
200 224 255
200 224 255
200 224 255
200 224 255
201 224 255
201 224 255
201 224 255
201 224 255
201 224 255
201 224 255
201 224 255
201 224 255
201 225 255
201 225 255
201 225 255
202 225 255
202 225 255
202 225 255
202 225 255
202 225 255
202 225 255
202 225 255
202 225 255
202 225 255
202 225 255
202 225 255
202 225 255
202 225 255
203 225 255
203 225 255
203 225 255
203 225 255
203 225 255
203 225 255
203 225 255
203 226 255
203 226 255
203 226 255
203 226 255
203 226 255
203 226 255
203 225 255
203 225 255
203 225 255
203 225 255
203 225 255
203 225 255
203 225 255
202 225 255
202 225 255
202 225 255
202 225 255
202 225 255
202 225 255
202 225 255
202 225 255
202 225 255
202 225 255
202 225 255
202 225 255
202 225 255
201 225 255
201 225 255
201 225 255
201 224 255
201 224 255
201 224 255
201 224 255
201 224 255
201 224 255
201 224 255
201 224 255
200 224 255
200 224 255
200 224 255
200 224 255
200 224 255
200 224 255
200 224 255
200 224 255
200 224 255
200 224 255
200 224 255
199 224 255
199 223 255
199 223 255
199 223 255
199 223 255
199 223 255
199 223 255
199 223 255
199 223 255
198 223 255
198 223 255
198 223 255
198 223 255
198 223 255
198 223 255
198 223 255
198 223 255
198 223 255
198 223 255
197 222 255
197 222 255
197 222 255
197 222 255
197 222 255
197 222 255
197 222 255
197 222 255
196 222 255
196 222 255
196 222 255
196 222 255
196 222 255
196 222 255
196 222 255
196 222 255
196 221 255
195 221 255
195 221 255
195 221 255
195 221 255
195 221 255
195 221 255
195 221 255
194 221 255
194 221 255
194 221 255
194 221 255
194 221 255
194 221 255
194 221 255
194 220 255
193 220 255
193 220 255
193 220 255
193 220 255
193 220 255
193 220 255
193 220 255
192 220 255
192 220 255
192 220 255
192 220 255
192 220 255
192 220 255
192 219 255
192 219 255
191 219 255
191 219 255
191 219 255
191 219 255
191 219 255
191 219 255
191 219 255
190 219 255
190 219 255
190 219 255
190 219 255
190 218 255
190 218 255
189 218 255
189 218 255
189 218 255
189 218 255
189 218 255
189 218 255
189 218 255
188 218 255
188 218 255
188 218 255
188 218 255
188 217 255
188 217 255
188 217 255
187 217 255
187 217 255
187 217 255
187 217 255
187 217 255
187 217 255
187 217 255
187 217 255
186 217 255
186 217 255
186 217 255
186 216 255
186 216 255
186 216 255
186 216 255
185 216 255
185 216 255
185 216 255
185 216 255
185 216 255
185 216 255
185 216 255
185 216 255
185 216 255
184 216 255
184 216 255
184 216 255
184 216 255
184 215 255
184 215 255
184 215 255
184 215 255
184 215 255
184 215 255
183 215 255
183 215 255
183 215 255
183 215 255
183 215 255
183 215 255
183 215 255
183 215 255
183 215 255
183 215 255
183 215 255
183 215 255
183 215 255
183 215 255
183 215 255
182 215 255
182 215 255
182 215 255
182 215 255
182 215 255
182 215 255
182 215 255
182 215 255
182 215 255
182 215 255
182 215 255
182 215 255
182 215 255
182 215 255
182 215 255
182 215 255
182 215 255
182 215 255
182 215 255
182 215 255
182 215 255
182 215 255
182 215 255
182 215 255
183 215 255
183 215 255
183 215 255
183 215 255
183 215 255
183 215 255
183 215 255
183 215 255
183 215 255
183 215 255
183 215 255
183 215 255
183 215 255
183 215 255
183 215 255
184 215 255
184 215 255
184 215 255
184 215 255
184 215 255
184 215 255
184 216 255
184 216 255
184 216 255
184 216 255
185 216 255
185 216 255
185 216 255
185 216 255
185 216 255
185 216 255
185 216 255
185 216 255
185 216 255
186 216 255
186 216 255
186 216 255
186 216 255
186 217 255
186 217 255
186 217 255
187 217 255
187 217 255
187 217 255
187 217 255
187 217 255
187 217 255
187 217 255
187 217 255
188 217 255
188 217 255
188 217 255
188 218 255
188 218 255
188 218 255
188 218 255
189 218 255
189 218 255
189 218 255
189 218 255
189 218 255
189 218 255
189 218 255
190 218 255
190 218 255
190 219 255
190 219 255
190 219 255
190 219 255
191 219 255
191 219 255
191 219 255
191 219 255
191 219 255
191 219 255
191 219 255
191 219 255
192 219 255
192 219 255
192 220 255
192 220 255
192 220 255
192 220 255
192 220 255
193 220 255
193 220 255
193 220 255
193 220 255
193 220 255
193 220 255
193 220 255
194 220 255
194 221 255
194 221 255
194 221 255
194 221 255
194 221 255
194 221 255
195 221 255
195 221 255
195 221 255
195 221 255
195 221 255
195 221 255
195 221 255
195 221 255
196 221 255
196 222 255
196 222 255
196 222 255
196 222 255
196 222 255
196 222 255
196 222 255
196 222 255
197 222 255
197 222 255
197 222 255
197 222 255
197 222 255
197 222 255
197 222 255
197 222 255
198 223 255
198 223 255
198 223 255
198 223 255
198 223 255
198 223 255
198 223 255
198 223 255
198 223 255
198 223 255
199 223 255
199 223 255
199 223 255
199 223 255
199 223 255
199 223 255
199 223 255
199 223 255
199 224 255
199 224 255
200 224 255
200 224 255
200 224 255
200 224 255
200 224 255
200 224 255
200 224 255
200 224 255
200 224 255
200 224 255
201 224 255
201 224 255
201 224 255
201 224 255
201 224 255
201 224 255
201 224 255
201 224 255
201 225 255
201 225 255
201 225 255
202 225 255
202 225 255
202 225 255
202 225 255
202 225 255
202 225 255
202 225 255
202 225 255
202 225 255
202 225 255
202 225 255
202 225 255
202 225 255
203 225 255
203 225 255
203 225 255
203 225 255
203 225 255
203 225 255
203 225 255
203 226 255
203 226 255
203 226 255
203 226 255
203 226 255
203 226 255
203 226 255
203 226 255
203 226 255
203 226 255
203 225 255
203 225 255
203 225 255
203 225 255
203 225 255
203 225 255
203 225 255
202 225 255
202 225 255
202 225 255
202 225 255
202 225 255
202 225 255
202 225 255
202 225 255
202 225 255
202 225 255
202 225 255
202 225 255
201 225 255
201 225 255
201 225 255
201 225 255
201 224 255
201 224 255
201 224 255
201 224 255
201 224 255
201 224 255
201 224 255
200 224 255
200 224 255
200 224 255
200 224 255
200 224 255
200 224 255
200 224 255
200 224 255
200 224 255
200 224 255
200 224 255
199 224 255
199 224 255
199 223 255
199 223 255
199 223 255
199 223 255
199 223 255
199 223 255
199 223 255
199 223 255
198 223 255
198 223 255
198 223 255
198 223 255
198 223 255
198 223 255
198 223 255
198 223 255
198 223 255
197 222 255
197 222 255
197 222 255
197 222 255
197 222 255
197 222 255
197 222 255
197 222 255
197 222 255
196 222 255
196 222 255
196 222 255
196 222 255
196 222 255
196 222 255
196 222 255
196 221 255
195 221 255
195 221 255
195 221 255
195 221 255
195 221 255
195 221 255
195 221 255
194 221 255
194 221 255
194 221 255
194 221 255
194 221 255
194 221 255
194 221 255
194 220 255
193 220 255
193 220 255
193 220 255
193 220 255
193 220 255
193 220 255
193 220 255
192 220 255
192 220 255
192 220 255
192 220 255
192 220 255
192 219 255
192 219 255
191 219 255
191 219 255
191 219 255
191 219 255
191 219 255
191 219 255
191 219 255
190 219 255
190 219 255
190 219 255
190 219 255
190 219 255
190 218 255
190 218 255
189 218 255
189 218 255
189 218 255
189 218 255
189 218 255
189 218 255
189 218 255
188 218 255
188 218 255
188 218 255
188 218 255
188 217 255
188 217 255
188 217 255
187 217 255
187 217 255
187 217 255
187 217 255
187 217 255
187 217 255
187 217 255
186 217 255
186 217 255
186 217 255
186 217 255
186 216 255
186 216 255
186 216 255
186 216 255
185 216 255
185 216 255
185 216 255
185 216 255
185 216 255
185 216 255
185 216 255
185 216 255
184 216 255
184 216 255
184 216 255
184 216 255
184 215 255
184 215 255
184 215 255
184 215 255
184 215 255
184 215 255
183 215 255
183 215 255
183 215 255
183 215 255
183 215 255
183 215 255
183 215 255
183 215 255
183 215 255
183 215 255
183 215 255
183 215 255
183 215 255
183 215 255
183 215 255
183 215 255
182 215 255
182 215 255
182 215 255
182 215 255
182 215 255
182 215 255
182 215 255
182 215 255
182 215 255
182 215 255
182 215 255
182 215 255
182 215 255
182 215 255
182 215 255
182 215 255
182 215 255
182 215 255
182 215 255
182 215 255
182 215 255
182 215 255
183 215 255
183 215 255
183 215 255
183 215 255
183 215 255
183 215 255
183 215 255
183 215 255
183 215 255
183 215 255
183 215 255
183 215 255
183 215 255
183 215 255
183 215 255
183 215 255
184 215 255
184 215 255
184 215 255
184 215 255
184 215 255
184 215 255
184 216 255
184 216 255
184 216 255
184 216 255
185 216 255
185 216 255
185 216 255
185 216 255
185 216 255
185 216 255
185 216 255
185 216 255
186 216 255
186 216 255
186 216 255
186 216 255
186 217 255
186 217 255
186 217 255
186 217 255
187 217 255
187 217 255
187 217 255
187 217 255
187 217 255
187 217 255
187 217 255
188 217 255
188 217 255
188 217 255
188 218 255
188 218 255
188 218 255
188 218 255
189 218 255
189 218 255
189 218 255
189 218 255
189 218 255
189 218 255
189 218 255
190 218 255
190 218 255
190 219 255
190 219 255
190 219 255
190 219 255
190 219 255
191 219 255
191 219 255
191 219 255
191 219 255
191 219 255
191 219 255
191 219 255
192 219 255
192 219 255
192 220 255
192 220 255
192 220 255
192 220 255
192 220 255
193 220 255
193 220 255
193 220 255
193 220 255
193 220 255
193 220 255
193 220 255
194 220 255
194 221 255
194 221 255
194 221 255
194 221 255
194 221 255
194 221 255
195 221 255
195 221 255
195 221 255
195 221 255
195 221 255
195 221 255
195 221 255
195 221 255
196 221 255
196 222 255
196 222 255
196 222 255
196 222 255
196 222 255
196 222 255
196 222 255
197 222 255
197 222 255
197 222 255
197 222 255
197 222 255
197 222 255
197 222 255
197 222 255
197 222 255
198 223 255
198 223 255
198 223 255
198 223 255
198 223 255
198 223 255
198 223 255
198 223 255
198 223 255
199 223 255
199 223 255
199 223 255
199 223 255
199 223 255
199 223 255
199 223 255
199 223 255
199 224 255
199 224 255
200 224 255
200 224 255
200 224 255
200 224 255
200 224 255
200 224 255
200 224 255
200 224 255
200 224 255
200 224 255
201 224 255
201 224 255
201 224 255
201 224 255
201 224 255
201 224 255
201 224 255
201 224 255
201 225 255
201 225 255
201 225 255
201 225 255
202 225 255
202 225 255
202 225 255
202 225 255
202 225 255
202 225 255
202 225 255
202 225 255
202 225 255
202 225 255
202 225 255
202 225 255
203 225 255
203 225 255
203 225 255
203 225 255
203 225 255
203 225 255
203 225 255
203 226 255
203 226 255
203 226 255
203 226 255
203 226 255
203 226 255
204 226 255
203 226 255
203 226 255
203 226 255
203 226 255
203 226 255
203 226 255
203 225 255
203 225 255
203 225 255
203 225 255
203 225 255
203 225 255
203 225 255
203 225 255
202 225 255
202 225 255
202 225 255
202 225 255
202 225 255
202 225 255
202 225 255
202 225 255
202 225 255
202 225 255
202 225 255
202 225 255
201 225 255
201 225 255
201 225 255
201 225 255
201 224 255
201 224 255
201 224 255
201 224 255
201 224 255
201 224 255
201 224 255
200 224 255
200 224 255
200 224 255
200 224 255
200 224 255
200 224 255
200 224 255
200 224 255
200 224 255
200 224 255
200 224 255
199 224 255
199 223 255
199 223 255
199 223 255
199 223 255
199 223 255
199 223 255
199 223 255
199 223 255
198 223 255
198 223 255
198 223 255
198 223 255
198 223 255
198 223 255
198 223 255
198 223 255
198 223 255
197 223 255
197 222 255
197 222 255
197 222 255
197 222 255
197 222 255
197 222 255
197 222 255
197 222 255
196 222 255
196 222 255
196 222 255
196 222 255
196 222 255
196 222 255
196 222 255
196 221 255
195 221 255
195 221 255
195 221 255
195 221 255
195 221 255
195 221 255
195 221 255
195 221 255
194 221 255
194 221 255
194 221 255
194 221 255
194 221 255
194 221 255
194 220 255
193 220 255
193 220 255
193 220 255
193 220 255
193 220 255
193 220 255
193 220 255
192 220 255
192 220 255
192 220 255
192 220 255
192 220 255
192 219 255
192 219 255
191 219 255
191 219 255
191 219 255
191 219 255
191 219 255
191 219 255
191 219 255
190 219 255
190 219 255
190 219 255
190 219 255
190 219 255
190 218 255
190 218 255
189 218 255
189 218 255
189 218 255
189 218 255
189 218 255
189 218 255
189 218 255
188 218 255
188 218 255
188 218 255
188 218 255
188 217 255
188 217 255
188 217 255
187 217 255
187 217 255
187 217 255
187 217 255
187 217 255
187 217 255
187 217 255
186 217 255
186 217 255
186 217 255
186 216 255
186 216 255
186 216 255
186 216 255
186 216 255
185 216 255
185 216 255
185 216 255
185 216 255
185 216 255
185 216 255
185 216 255
185 216 255
184 216 255
184 216 255
184 216 255
184 216 255
184 215 255
184 215 255
184 215 255
184 215 255
184 215 255
184 215 255
183 215 255
183 215 255
183 215 255
183 215 255
183 215 255
183 215 255
183 215 255
183 215 255
183 215 255
183 215 255
183 215 255
183 215 255
183 215 255
183 215 255
183 215 255
182 215 255
182 215 255
182 215 255
182 215 255
182 215 255
182 215 255
182 215 255
182 215 255
182 215 255
182 215 255
182 215 255
182 215 255
182 215 255
182 215 255
182 215 255
182 215 255
182 215 255
182 215 255
182 215 255
182 215 255
182 215 255
183 215 255
183 215 255
183 215 255
183 215 255
183 215 255
183 215 255
183 215 255
183 215 255
183 215 255
183 215 255
183 215 255
183 215 255
183 215 255
183 215 255
183 215 255
183 215 255
184 215 255
184 215 255
184 215 255
184 215 255
184 215 255
184 215 255
184 216 255
184 216 255
184 216 255
184 216 255
185 216 255
185 216 255
185 216 255
185 216 255
185 216 255
185 216 255
185 216 255
185 216 255
185 216 255
186 216 255
186 216 255
186 216 255
186 216 255
186 217 255
186 217 255
186 217 255
187 217 255
187 217 255
187 217 255
187 217 255
187 217 255
187 217 255
187 217 255
188 217 255
188 217 255
188 217 255
188 218 255
188 218 255
188 218 255
188 218 255
189 218 255
189 218 255
189 218 255
189 218 255
189 218 255
189 218 255
189 218 255
190 218 255
190 218 255
190 218 255
190 219 255
190 219 255
190 219 255
190 219 255
191 219 255
191 219 255
191 219 255
191 219 255
191 219 255
191 219 255
191 219 255
192 219 255
192 219 255
192 220 255
192 220 255
192 220 255
192 220 255
192 220 255
193 220 255
193 220 255
193 220 255
193 220 255
193 220 255
193 220 255
193 220 255
194 220 255
194 221 255
194 221 255
194 221 255
194 221 255
194 221 255
194 221 255
195 221 255
195 221 255
195 221 255
195 221 255
195 221 255
195 221 255
195 221 255
195 221 255
196 221 255
196 222 255
196 222 255
196 222 255
196 222 255
196 222 255
196 222 255
196 222 255
197 222 255
197 222 255
197 222 255
197 222 255
197 222 255
197 222 255
197 222 255
197 222 255
197 223 255
198 223 255
198 223 255
198 223 255
198 223 255
198 223 255
198 223 255
198 223 255
198 223 255
198 223 255
199 223 255
199 223 255
199 223 255
199 223 255
199 223 255
199 223 255
199 223 255
199 223 255
199 224 255
200 224 255
200 224 255
200 224 255
200 224 255
200 224 255
200 224 255
200 224 255
200 224 255
200 224 255
200 224 255
200 224 255
201 224 255
201 224 255
201 224 255
201 224 255
201 224 255
201 224 255
201 224 255
201 224 255
201 225 255
201 225 255
201 225 255
202 225 255
202 225 255
202 225 255
202 225 255
202 225 255
202 225 255
202 225 255
202 225 255
202 225 255
202 225 255
202 225 255
202 225 255
203 225 255
203 225 255
203 225 255
203 225 255
203 225 255
203 225 255
203 225 255
203 226 255
203 226 255
203 226 255
203 226 255
203 226 255
203 226 255
203 226 255
204 226 255
204 226 255
204 226 255
204 226 255
203 226 255
203 226 255
203 226 255
203 226 255
203 226 255
203 226 255
203 225 255
203 225 255
203 225 255
203 225 255
203 225 255
203 225 255
203 225 255
203 225 255
202 225 255
202 225 255
202 225 255
202 225 255
202 225 255
202 225 255
202 225 255
202 225 255
202 225 255
202 225 255
202 225 255
202 225 255
201 225 255
201 225 255
201 225 255
201 224 255
201 224 255
201 224 255
201 224 255
201 224 255
201 224 255
201 224 255
201 224 255
200 224 255
200 224 255
200 224 255
200 224 255
200 224 255
200 224 255
200 224 255
200 224 255
200 224 255
200 224 255
199 224 255
199 224 255
199 223 255
199 223 255
199 223 255
199 223 255
199 223 255
199 223 255
199 223 255
199 223 255
198 223 255
198 223 255
198 223 255
198 223 255
198 223 255
198 223 255
198 223 255
198 223 255
198 223 255
197 222 255
197 222 255
197 222 255
197 222 255
197 222 255
197 222 255
197 222 255
197 222 255
196 222 255
196 222 255
196 222 255
196 222 255
196 222 255
196 222 255
196 222 255
196 222 255
195 221 255
195 221 255
195 221 255
195 221 255
195 221 255
195 221 255
195 221 255
195 221 255
194 221 255
194 221 255
194 221 255
194 221 255
194 221 255
194 221 255
194 220 255
193 220 255
193 220 255
193 220 255
193 220 255
193 220 255
193 220 255
193 220 255
192 220 255
192 220 255
192 220 255
192 220 255
192 220 255
192 219 255
192 219 255
191 219 255
191 219 255
191 219 255
191 219 255
191 219 255
191 219 255
191 219 255
190 219 255
190 219 255
190 219 255
190 219 255
190 218 255
190 218 255
190 218 255
189 218 255
189 218 255
189 218 255
189 218 255
189 218 255
189 218 255
189 218 255
188 218 255
188 218 255
188 218 255
188 217 255
188 217 255
188 217 255
188 217 255
187 217 255
187 217 255
187 217 255
187 217 255
187 217 255
187 217 255
187 217 255
186 217 255
186 217 255
186 217 255
186 216 255
186 216 255
186 216 255
186 216 255
185 216 255
185 216 255
185 216 255
185 216 255
185 216 255
185 216 255
185 216 255
185 216 255
184 216 255
184 216 255
184 216 255
184 216 255
184 215 255
184 215 255
184 215 255
184 215 255
184 215 255
184 215 255
183 215 255
183 215 255
183 215 255
183 215 255
183 215 255
183 215 255
183 215 255
183 215 255
183 215 255
183 215 255
183 215 255
183 215 255
183 215 255
183 215 255
183 215 255
183 215 255
182 215 255
182 215 255
182 215 255
182 215 255
182 215 255
182 215 255
182 215 255
182 215 255
182 215 255
182 215 255
182 215 255
182 215 255
182 215 255
182 215 255
182 215 255
182 215 255
182 215 255
182 215 255
182 215 255
183 215 255
183 215 255
183 215 255
183 215 255
183 215 255
183 215 255
183 215 255
183 215 255
183 215 255
183 215 255
183 215 255
183 215 255
183 215 255
183 215 255
183 215 255
183 215 255
183 215 255
184 215 255
184 215 255
184 215 255
184 215 255
184 215 255
184 215 255
184 216 255
184 216 255
184 216 255
185 216 255
185 216 255
185 216 255
185 216 255
185 216 255
185 216 255
185 216 255
185 216 255
185 216 255
186 216 255
186 216 255
186 216 255
186 216 255
186 217 255
186 217 255
186 217 255
187 217 255
187 217 255
187 217 255
187 217 255
187 217 255
187 217 255
187 217 255
187 217 255
188 217 255
188 217 255
188 217 255
188 218 255
188 218 255
188 218 255
189 218 255
189 218 255
189 218 255
189 218 255
189 218 255
189 218 255
189 218 255
190 218 255
190 218 255
190 218 255
190 219 255
190 219 255
190 219 255
190 219 255
191 219 255
191 219 255
191 219 255
191 219 255
191 219 255
191 219 255
191 219 255
192 219 255
192 219 255
192 220 255
192 220 255
192 220 255
192 220 255
192 220 255
193 220 255
193 220 255
193 220 255
193 220 255
193 220 255
193 220 255
193 220 255
194 220 255
194 221 255
194 221 255
194 221 255
194 221 255
194 221 255
194 221 255
195 221 255
195 221 255
195 221 255
195 221 255
195 221 255
195 221 255
195 221 255
195 221 255
196 221 255
196 222 255
196 222 255
196 222 255
196 222 255
196 222 255
196 222 255
196 222 255
197 222 255
197 222 255
197 222 255
197 222 255
197 222 255
197 222 255
197 222 255
197 222 255
198 223 255
198 223 255
198 223 255
198 223 255
198 223 255
198 223 255
198 223 255
198 223 255
198 223 255
199 223 255
199 223 255
199 223 255
199 223 255
199 223 255
199 223 255
199 223 255
199 223 255
199 224 255
199 224 255
200 224 255
200 224 255
200 224 255
200 224 255
200 224 255
200 224 255
200 224 255
200 224 255
200 224 255
200 224 255
201 224 255
201 224 255
201 224 255
201 224 255
201 224 255
201 224 255
201 224 255
201 224 255
201 225 255
201 225 255
201 225 255
202 225 255
202 225 255
202 225 255
202 225 255
202 225 255
202 225 255
202 225 255
202 225 255
202 225 255
202 225 255
202 225 255
202 225 255
203 225 255
203 225 255
203 225 255
203 225 255
203 225 255
203 225 255
203 225 255
203 225 255
203 226 255
203 226 255
203 226 255
203 226 255
203 226 255
203 226 255
204 226 255
204 226 255
204 226 255
204 226 255
204 226 255
204 226 255
204 226 255
204 226 255
203 226 255
203 226 255
203 226 255
203 226 255
203 226 255
203 226 255
203 225 255
203 225 255
203 225 255
203 225 255
203 225 255
203 225 255
203 225 255
202 225 255
202 225 255
202 225 255
202 225 255
202 225 255
202 225 255
202 225 255
202 225 255
202 225 255
202 225 255
202 225 255
202 225 255
201 225 255
201 225 255
201 225 255
201 225 255
201 224 255
201 224 255
201 224 255
201 224 255
201 224 255
201 224 255
201 224 255
200 224 255
200 224 255
200 224 255
200 224 255
200 224 255
200 224 255
200 224 255
200 224 255
200 224 255
200 224 255
200 224 255
199 224 255
199 223 255
199 223 255
199 223 255
199 223 255
199 223 255
199 223 255
199 223 255
199 223 255
198 223 255
198 223 255
198 223 255
198 223 255
198 223 255
198 223 255
198 223 255
198 223 255
198 223 255
197 222 255
197 222 255
197 222 255
197 222 255
197 222 255
197 222 255
197 222 255
197 222 255
196 222 255
196 222 255
196 222 255
196 222 255
196 222 255
196 222 255
196 222 255
196 222 255
195 221 255
195 221 255
195 221 255
195 221 255
195 221 255
195 221 255
195 221 255
195 221 255
194 221 255
194 221 255
194 221 255
194 221 255
194 221 255
194 221 255
194 220 255
193 220 255
193 220 255
193 220 255
193 220 255
193 220 255
193 220 255
193 220 255
192 220 255
192 220 255
192 220 255
192 220 255
192 220 255
192 219 255
192 219 255
191 219 255
191 219 255
191 219 255
191 219 255
191 219 255
191 219 255
191 219 255
190 219 255
190 219 255
190 219 255
190 219 255
190 218 255
190 218 255
190 218 255
189 218 255
189 218 255
189 218 255
189 218 255
189 218 255
189 218 255
188 218 255
188 218 255
188 218 255
188 218 255
188 217 255
188 217 255
188 217 255
187 217 255
187 217 255
187 217 255
187 217 255
187 217 255
187 217 255
187 217 255
186 217 255
186 217 255
186 217 255
186 217 255
186 216 255
186 216 255
186 216 255
186 216 255
185 216 255
185 216 255
185 216 255
185 216 255
185 216 255
185 216 255
185 216 255
185 216 255
184 216 255
184 216 255
184 216 255
184 216 255
184 215 255
184 215 255
184 215 255
184 215 255
184 215 255
184 215 255
183 215 255
183 215 255
183 215 255
183 215 255
183 215 255
183 215 255
183 215 255
183 215 255
183 215 255
183 215 255
183 215 255
183 215 255
183 215 255
183 215 255
183 215 255
183 215 255
183 215 255
182 215 255
182 215 255
182 215 255
182 215 255
182 215 255
182 215 255
182 215 255
182 215 255
182 215 255
182 215 255
182 215 255
182 215 255
182 215 255
182 215 255
182 215 255
182 215 255
183 215 255
183 215 255
183 215 255
183 215 255
183 215 255
183 215 255
183 215 255
183 215 255
183 215 255
183 215 255
183 215 255
183 215 255
183 215 255
183 215 255
183 215 255
183 215 255
183 215 255
184 215 255
184 215 255
184 215 255
184 215 255
184 215 255
184 215 255
184 216 255
184 216 255
184 216 255
184 216 255
185 216 255
185 216 255
185 216 255
185 216 255
185 216 255
185 216 255
185 216 255
185 216 255
186 216 255
186 216 255
186 216 255
186 216 255
186 217 255
186 217 255
186 217 255
186 217 255
187 217 255
187 217 255
187 217 255
187 217 255
187 217 255
187 217 255
187 217 255
188 217 255
188 217 255
188 217 255
188 218 255
188 218 255
188 218 255
188 218 255
189 218 255
189 218 255
189 218 255
189 218 255
189 218 255
189 218 255
190 218 255
190 218 255
190 218 255
190 219 255
190 219 255
190 219 255
190 219 255
191 219 255
191 219 255
191 219 255
191 219 255
191 219 255
191 219 255
191 219 255
192 219 255
192 219 255
192 220 255
192 220 255
192 220 255
192 220 255
192 220 255
193 220 255
193 220 255
193 220 255
193 220 255
193 220 255
193 220 255
193 220 255
194 220 255
194 221 255
194 221 255
194 221 255
194 221 255
194 221 255
194 221 255
195 221 255
195 221 255
195 221 255
195 221 255
195 221 255
195 221 255
195 221 255
195 221 255
196 222 255
196 222 255
196 222 255
196 222 255
196 222 255
196 222 255
196 222 255
196 222 255
197 222 255
197 222 255
197 222 255
197 222 255
197 222 255
197 222 255
197 222 255
197 222 255
198 223 255
198 223 255
198 223 255
198 223 255
198 223 255
198 223 255
198 223 255
198 223 255
198 223 255
199 223 255
199 223 255
199 223 255
199 223 255
199 223 255
199 223 255
199 223 255
199 223 255
199 224 255
200 224 255
200 224 255
200 224 255
200 224 255
200 224 255
200 224 255
200 224 255
200 224 255
200 224 255
200 224 255
200 224 255
201 224 255
201 224 255
201 224 255
201 224 255
201 224 255
201 224 255
201 224 255
201 225 255
201 225 255
201 225 255
201 225 255
202 225 255
202 225 255
202 225 255
202 225 255
202 225 255
202 225 255
202 225 255
202 225 255
202 225 255
202 225 255
202 225 255
202 225 255
203 225 255
203 225 255
203 225 255
203 225 255
203 225 255
203 225 255
203 225 255
203 226 255
203 226 255
203 226 255
203 226 255
203 226 255
203 226 255
204 226 255
204 226 255
204 226 255
204 226 255
204 226 255
204 226 255
204 226 255
204 226 255
204 226 255
204 226 255
204 226 255
204 226 255
203 226 255
203 226 255
203 226 255
203 226 255
203 226 255
203 226 255
203 225 255
203 225 255
203 225 255
203 225 255
203 225 255
203 225 255
203 225 255
202 225 255
202 225 255
202 225 255
202 225 255
202 225 255
202 225 255
202 225 255
202 225 255
202 225 255
202 225 255
202 225 255
202 225 255
201 225 255
201 225 255
201 225 255
201 224 255
201 224 255
201 224 255
201 224 255
201 224 255
201 224 255
201 224 255
201 224 255
200 224 255
200 224 255
200 224 255
200 224 255
200 224 255
200 224 255
200 224 255
200 224 255
200 224 255
200 224 255
199 224 255
199 224 255
199 223 255
199 223 255
199 223 255
199 223 255
199 223 255
199 223 255
199 223 255
198 223 255
198 223 255
198 223 255
198 223 255
198 223 255
198 223 255
198 223 255
198 223 255
198 223 255
197 223 255
197 222 255
197 222 255
197 222 255
197 222 255
197 222 255
197 222 255
197 222 255
197 222 255
196 222 255
196 222 255
196 222 255
196 222 255
196 222 255
196 222 255
196 222 255
195 221 255
195 221 255
195 221 255
195 221 255
195 221 255
195 221 255
195 221 255
195 221 255
194 221 255
194 221 255
194 221 255
194 221 255
194 221 255
194 221 255
194 220 255
193 220 255
193 220 255
193 220 255
193 220 255
193 220 255
193 220 255
193 220 255
192 220 255
192 220 255
192 220 255
192 220 255
192 220 255
192 219 255
192 219 255
191 219 255
191 219 255
191 219 255
191 219 255
191 219 255
191 219 255
191 219 255
190 219 255
190 219 255
190 219 255
190 219 255
190 218 255
190 218 255
190 218 255
189 218 255
189 218 255
189 218 255
189 218 255
189 218 255
189 218 255
188 218 255
188 218 255
188 218 255
188 218 255
188 217 255
188 217 255
188 217 255
187 217 255
187 217 255
187 217 255
187 217 255
187 217 255
187 217 255
187 217 255
186 217 255
186 217 255
186 217 255
186 216 255
186 216 255
186 216 255
186 216 255
185 216 255
185 216 255
185 216 255
185 216 255
185 216 255
185 216 255
185 216 255
185 216 255
185 216 255
184 216 255
184 216 255
184 216 255
184 216 255
184 215 255
184 215 255
184 215 255
184 215 255
184 215 255
184 215 255
183 215 255
183 215 255
183 215 255
183 215 255
183 215 255
183 215 255
183 215 255
183 215 255
183 215 255
183 215 255
183 215 255
183 215 255
183 215 255
183 215 255
183 215 255
183 215 255
183 215 255
182 215 255
182 215 255
182 215 255
182 215 255
182 215 255
182 215 255
182 215 255
182 215 255
182 215 255
182 215 255
182 215 255
182 215 255
182 215 255
182 215 255
183 215 255
183 215 255
183 215 255
183 215 255
183 215 255
183 215 255
183 215 255
183 215 255
183 215 255
183 215 255
183 215 255
183 215 255
183 215 255
183 215 255
183 215 255
183 215 255
183 215 255
184 215 255
184 215 255
184 215 255
184 215 255
184 215 255
184 215 255
184 215 255
184 216 255
184 216 255
184 216 255
185 216 255
185 216 255
185 216 255
185 216 255
185 216 255
185 216 255
185 216 255
185 216 255
185 216 255
186 216 255
186 216 255
186 216 255
186 216 255
186 217 255
186 217 255
186 217 255
187 217 255
187 217 255
187 217 255
187 217 255
187 217 255
187 217 255
187 217 255
188 217 255
188 217 255
188 217 255
188 218 255
188 218 255
188 218 255
188 218 255
189 218 255
189 218 255
189 218 255
189 218 255
189 218 255
189 218 255
190 218 255
190 218 255
190 218 255
190 219 255
190 219 255
190 219 255
190 219 255
191 219 255
191 219 255
191 219 255
191 219 255
191 219 255
191 219 255
191 219 255
192 219 255
192 219 255
192 220 255
192 220 255
192 220 255
192 220 255
192 220 255
193 220 255
193 220 255
193 220 255
193 220 255
193 220 255
193 220 255
193 220 255
194 220 255
194 221 255
194 221 255
194 221 255
194 221 255
194 221 255
194 221 255
195 221 255
195 221 255
195 221 255
195 221 255
195 221 255
195 221 255
195 221 255
195 221 255
196 222 255
196 222 255
196 222 255
196 222 255
196 222 255
196 222 255
196 222 255
197 222 255
197 222 255
197 222 255
197 222 255
197 222 255
197 222 255
197 222 255
197 222 255
197 223 255
198 223 255
198 223 255
198 223 255
198 223 255
198 223 255
198 223 255
198 223 255
198 223 255
199 223 255
199 223 255
199 223 255
199 223 255
199 223 255
199 223 255
199 223 255
199 223 255
199 224 255
199 224 255
200 224 255
200 224 255
200 224 255
200 224 255
200 224 255
200 224 255
200 224 255
200 224 255
200 224 255
200 224 255
201 224 255
201 224 255
201 224 255
201 224 255
201 224 255
201 224 255
201 224 255
201 224 255
201 225 255
201 225 255
201 225 255
202 225 255
202 225 255
202 225 255
202 225 255
202 225 255
202 225 255
202 225 255
202 225 255
202 225 255
202 225 255
202 225 255
202 225 255
203 225 255
203 225 255
203 225 255
203 225 255
203 225 255
203 225 255
203 225 255
203 226 255
203 226 255
203 226 255
203 226 255
203 226 255
203 226 255
204 226 255
204 226 255
204 226 255
204 226 255
204 226 255
204 226 255
204 226 255
204 226 255
204 226 255
204 226 255
204 226 255
204 226 255
204 226 255
204 226 255
204 226 255
204 226 255
203 226 255
203 226 255
203 226 255
203 226 255
203 226 255
203 226 255
203 225 255
203 225 255
203 225 255
203 225 255
203 225 255
203 225 255
203 225 255
202 225 255
202 225 255
202 225 255
202 225 255
202 225 255
202 225 255
202 225 255
202 225 255
202 225 255
202 225 255
202 225 255
202 225 255
201 225 255
201 225 255
201 225 255
201 224 255
201 224 255
201 224 255
201 224 255
201 224 255
201 224 255
201 224 255
201 224 255
200 224 255
200 224 255
200 224 255
200 224 255
200 224 255
200 224 255
200 224 255
200 224 255
200 224 255
200 224 255
199 224 255
199 223 255
199 223 255
199 223 255
199 223 255
199 223 255
199 223 255
199 223 255
199 223 255
198 223 255
198 223 255
198 223 255
198 223 255
198 223 255
198 223 255
198 223 255
198 223 255
198 223 255
197 222 255
197 222 255
197 222 255
197 222 255
197 222 255
197 222 255
197 222 255
197 222 255
196 222 255
196 222 255
196 222 255
196 222 255
196 222 255
196 222 255
196 222 255
196 221 255
195 221 255
195 221 255
195 221 255
195 221 255
195 221 255
195 221 255
195 221 255
194 221 255
194 221 255
194 221 255
194 221 255
194 221 255
194 221 255
194 220 255
193 220 255
193 220 255
193 220 255
193 220 255
193 220 255
193 220 255
193 220 255
192 220 255
192 220 255
192 220 255
192 220 255
192 220 255
192 219 255
192 219 255
191 219 255
191 219 255
191 219 255
191 219 255
191 219 255
191 219 255
191 219 255
190 219 255
190 219 255
190 219 255
190 219 255
190 218 255
190 218 255
189 218 255
189 218 255
189 218 255
189 218 255
189 218 255
189 218 255
189 218 255
188 218 255
188 218 255
188 218 255
188 218 255
188 217 255
188 217 255
188 217 255
187 217 255
187 217 255
187 217 255
187 217 255
187 217 255
187 217 255
187 217 255
186 217 255
186 217 255
186 217 255
186 216 255
186 216 255
186 216 255
186 216 255
185 216 255
185 216 255
185 216 255
185 216 255
185 216 255
185 216 255
185 216 255
185 216 255
184 216 255
184 216 255
184 216 255
184 216 255
184 215 255
184 215 255
184 215 255
184 215 255
184 215 255
184 215 255
183 215 255
183 215 255
183 215 255
183 215 255
183 215 255
183 215 255
183 215 255
183 215 255
183 215 255
183 215 255
183 215 255
183 215 255
183 215 255
183 215 255
183 215 255
183 215 255
183 215 255
183 215 255
182 215 255
182 215 255
182 215 255
182 215 255
182 215 255
182 215 255
182 215 255
182 215 255
182 215 255
182 215 255
182 215 255
182 215 255
183 215 255
183 215 255
183 215 255
183 215 255
183 215 255
183 215 255
183 215 255
183 215 255
183 215 255
183 215 255
183 215 255
183 215 255
183 215 255
183 215 255
183 215 255
183 215 255
183 215 255
183 215 255
184 215 255
184 215 255
184 215 255
184 215 255
184 215 255
184 215 255
184 216 255
184 216 255
184 216 255
184 216 255
185 216 255
185 216 255
185 216 255
185 216 255
185 216 255
185 216 255
185 216 255
185 216 255
186 216 255
186 216 255
186 216 255
186 216 255
186 217 255
186 217 255
186 217 255
187 217 255
187 217 255
187 217 255
187 217 255
187 217 255
187 217 255
187 217 255
188 217 255
188 217 255
188 217 255
188 218 255
188 218 255
188 218 255
188 218 255
189 218 255
189 218 255
189 218 255
189 218 255
189 218 255
189 218 255
189 218 255
190 218 255
190 218 255
190 219 255
190 219 255
190 219 255
190 219 255
191 219 255
191 219 255
191 219 255
191 219 255
191 219 255
191 219 255
191 219 255
192 219 255
192 219 255
192 220 255
192 220 255
192 220 255
192 220 255
192 220 255
193 220 255
193 220 255
193 220 255
193 220 255
193 220 255
193 220 255
193 220 255
194 220 255
194 221 255
194 221 255
194 221 255
194 221 255
194 221 255
194 221 255
195 221 255
195 221 255
195 221 255
195 221 255
195 221 255
195 221 255
195 221 255
196 221 255
196 222 255
196 222 255
196 222 255
196 222 255
196 222 255
196 222 255
196 222 255
197 222 255
197 222 255
197 222 255
197 222 255
197 222 255
197 222 255
197 222 255
197 222 255
198 223 255
198 223 255
198 223 255
198 223 255
198 223 255
198 223 255
198 223 255
198 223 255
198 223 255
199 223 255
199 223 255
199 223 255
199 223 255
199 223 255
199 223 255
199 223 255
199 223 255
199 224 255
200 224 255
200 224 255
200 224 255
200 224 255
200 224 255
200 224 255
200 224 255
200 224 255
200 224 255
200 224 255
201 224 255
201 224 255
201 224 255
201 224 255
201 224 255
201 224 255
201 224 255
201 224 255
201 225 255
201 225 255
201 225 255
202 225 255
202 225 255
202 225 255
202 225 255
202 225 255
202 225 255
202 225 255
202 225 255
202 225 255
202 225 255
202 225 255
202 225 255
203 225 255
203 225 255
203 225 255
203 225 255
203 225 255
203 225 255
203 225 255
203 226 255
203 226 255
203 226 255
203 226 255
203 226 255
203 226 255
204 226 255
204 226 255
204 226 255
204 226 255
204 226 255
204 226 255
204 226 255
204 226 255
204 226 255
204 226 255
204 226 255
204 226 255
204 226 255
204 226 255
204 226 255
204 226 255
204 226 255
204 226 255
204 226 255
204 226 255
203 226 255
203 226 255
203 226 255
203 226 255
203 226 255
203 226 255
203 225 255
203 225 255
203 225 255
203 225 255
203 225 255
203 225 255
203 225 255
202 225 255
202 225 255
202 225 255
202 225 255
202 225 255
202 225 255
202 225 255
202 225 255
202 225 255
202 225 255
202 225 255
202 225 255
201 225 255
201 225 255
201 225 255
201 224 255
201 224 255
201 224 255
201 224 255
201 224 255
201 224 255
201 224 255
200 224 255
200 224 255
200 224 255
200 224 255
200 224 255
200 224 255
200 224 255
200 224 255
200 224 255
200 224 255
199 224 255
199 224 255
199 223 255
199 223 255
199 223 255
199 223 255
199 223 255
199 223 255
199 223 255
198 223 255
198 223 255
198 223 255
198 223 255
198 223 255
198 223 255
198 223 255
198 223 255
198 223 255
197 222 255
197 222 255
197 222 255
197 222 255
197 222 255
197 222 255
197 222 255
197 222 255
196 222 255
196 222 255
196 222 255
196 222 255
196 222 255
196 222 255
196 222 255
196 221 255
195 221 255
195 221 255
195 221 255
195 221 255
195 221 255
195 221 255
195 221 255
194 221 255
194 221 255
194 221 255
194 221 255
194 221 255
194 221 255
194 220 255
193 220 255
193 220 255
193 220 255
193 220 255
193 220 255
193 220 255
193 220 255
192 220 255
192 220 255
192 220 255
192 220 255
192 220 255
192 219 255
192 219 255
191 219 255
191 219 255
191 219 255
191 219 255
191 219 255
191 219 255
191 219 255
190 219 255
190 219 255
190 219 255
190 219 255
190 218 255
190 218 255
189 218 255
189 218 255
189 218 255
189 218 255
189 218 255
189 218 255
189 218 255
188 218 255
188 218 255
188 218 255
188 217 255
188 217 255
188 217 255
187 217 255
187 217 255
187 217 255
187 217 255
187 217 255
187 217 255
187 217 255
186 217 255
186 217 255
186 217 255
186 217 255
186 216 255
186 216 255
186 216 255
186 216 255
185 216 255
185 216 255
185 216 255
185 216 255
185 216 255
185 216 255
185 216 255
185 216 255
184 216 255
184 216 255
184 216 255
184 216 255
184 215 255
184 215 255
184 215 255
184 215 255
184 215 255
184 215 255
183 215 255
183 215 255
183 215 255
183 215 255
183 215 255
183 215 255
183 215 255
183 215 255
183 215 255
183 215 255
183 215 255
183 215 255
183 215 255
183 215 255
183 215 255
183 215 255
183 215 255
183 215 255
183 215 255
182 215 255
182 215 255
182 215 255
182 215 255
182 215 255
182 215 255
182 215 255
182 215 255
183 215 255
183 215 255
183 215 255
183 215 255
183 215 255
183 215 255
183 215 255
183 215 255
183 215 255
183 215 255
183 215 255
183 215 255
183 215 255
183 215 255
183 215 255
183 215 255
183 215 255
183 215 255
183 215 255
184 215 255
184 215 255
184 215 255
184 215 255
184 215 255
184 215 255
184 216 255
184 216 255
184 216 255
184 216 255
185 216 255
185 216 255
185 216 255
185 216 255
185 216 255
185 216 255
185 216 255
185 216 255
186 216 255
186 216 255
186 216 255
186 216 255
186 217 255
186 217 255
186 217 255
186 217 255
187 217 255
187 217 255
187 217 255
187 217 255
187 217 255
187 217 255
187 217 255
188 217 255
188 217 255
188 217 255
188 218 255
188 218 255
188 218 255
189 218 255
189 218 255
189 218 255
189 218 255
189 218 255
189 218 255
189 218 255
190 218 255
190 218 255
190 219 255
190 219 255
190 219 255
190 219 255
191 219 255
191 219 255
191 219 255
191 219 255
191 219 255
191 219 255
191 219 255
192 219 255
192 219 255
192 220 255
192 220 255
192 220 255
192 220 255
192 220 255
193 220 255
193 220 255
193 220 255
193 220 255
193 220 255
193 220 255
193 220 255
194 220 255
194 221 255
194 221 255
194 221 255
194 221 255
194 221 255
194 221 255
195 221 255
195 221 255
195 221 255
195 221 255
195 221 255
195 221 255
195 221 255
196 221 255
196 222 255
196 222 255
196 222 255
196 222 255
196 222 255
196 222 255
196 222 255
197 222 255
197 222 255
197 222 255
197 222 255
197 222 255
197 222 255
197 222 255
197 222 255
198 223 255
198 223 255
198 223 255
198 223 255
198 223 255
198 223 255
198 223 255
198 223 255
198 223 255
199 223 255
199 223 255
199 223 255
199 223 255
199 223 255
199 223 255
199 223 255
199 224 255
199 224 255
200 224 255
200 224 255
200 224 255
200 224 255
200 224 255
200 224 255
200 224 255
200 224 255
200 224 255
200 224 255
201 224 255
201 224 255
201 224 255
201 224 255
201 224 255
201 224 255
201 224 255
201 225 255
201 225 255
201 225 255
202 225 255
202 225 255
202 225 255
202 225 255
202 225 255
202 225 255
202 225 255
202 225 255
202 225 255
202 225 255
202 225 255
202 225 255
203 225 255
203 225 255
203 225 255
203 225 255
203 225 255
203 225 255
203 225 255
203 226 255
203 226 255
203 226 255
203 226 255
203 226 255
203 226 255
204 226 255
204 226 255
204 226 255
204 226 255
204 226 255
204 226 255
204 226 255
204 226 255
204 226 255
204 226 255
204 226 255
204 226 255
204 226 255
204 226 255
204 226 255
204 226 255
204 226 255
204 226 255
204 226 255
204 226 255
204 226 255
204 226 255
204 226 255
204 226 255
203 226 255
203 226 255
203 226 255
203 226 255
203 226 255
203 226 255
203 225 255
203 225 255
203 225 255
203 225 255
203 225 255
203 225 255
203 225 255
202 225 255
202 225 255
202 225 255
202 225 255
202 225 255
202 225 255
202 225 255
202 225 255
202 225 255
202 225 255
202 225 255
201 225 255
201 225 255
201 225 255
201 224 255
201 224 255
201 224 255
201 224 255
201 224 255
201 224 255
201 224 255
201 224 255
200 224 255
200 224 255
200 224 255
200 224 255
200 224 255
200 224 255
200 224 255
200 224 255
200 224 255
200 224 255
199 224 255
199 223 255
199 223 255
199 223 255
199 223 255
199 223 255
199 223 255
199 223 255
199 223 255
198 223 255
198 223 255
198 223 255
198 223 255
198 223 255
198 223 255
198 223 255
198 223 255
197 223 255
197 222 255
197 222 255
197 222 255
197 222 255
197 222 255
197 222 255
197 222 255
196 222 255
196 222 255
196 222 255
196 222 255
196 222 255
196 222 255
196 222 255
196 221 255
195 221 255
195 221 255
195 221 255
195 221 255
195 221 255
195 221 255
195 221 255
195 221 255
194 221 255
194 221 255
194 221 255
194 221 255
194 221 255
194 220 255
194 220 255
193 220 255
193 220 255
193 220 255
193 220 255
193 220 255
193 220 255
192 220 255
192 220 255
192 220 255
192 220 255
192 220 255
192 219 255
192 219 255
191 219 255
191 219 255
191 219 255
191 219 255
191 219 255
191 219 255
191 219 255
190 219 255
190 219 255
190 219 255
190 219 255
190 218 255
190 218 255
189 218 255
189 218 255
189 218 255
189 218 255
189 218 255
189 218 255
188 218 255
188 218 255
188 218 255
188 218 255
188 217 255
188 217 255
188 217 255
187 217 255
187 217 255
187 217 255
187 217 255
187 217 255
187 217 255
187 217 255
186 217 255
186 217 255
186 217 255
186 216 255
186 216 255
186 216 255
186 216 255
185 216 255
185 216 255
185 216 255
185 216 255
185 216 255
185 216 255
185 216 255
185 216 255
184 216 255
184 216 255
184 216 255
184 216 255
184 215 255
184 215 255
184 215 255
184 215 255
184 215 255
184 215 255
184 215 255
183 215 255
183 215 255
183 215 255
183 215 255
183 215 255
183 215 255
183 215 255
183 215 255
183 215 255
183 215 255
183 215 255
183 215 255
183 215 255
183 215 255
183 215 255
183 215 255
183 215 255
183 215 255
183 215 255
183 215 255
183 215 255
183 215 255
183 215 255
183 215 255
183 215 255
183 215 255
183 215 255
183 215 255
183 215 255
183 215 255
183 215 255
183 215 255
183 215 255
183 215 255
183 215 255
183 215 255
183 215 255
183 215 255
183 215 255
183 215 255
183 215 255
183 215 255
183 215 255
183 215 255
184 215 255
184 215 255
184 215 255
184 215 255
184 215 255
184 215 255
184 215 255
184 216 255
184 216 255
184 216 255
184 216 255
185 216 255
185 216 255
185 216 255
185 216 255
185 216 255
185 216 255
185 216 255
185 216 255
186 216 255
186 216 255
186 216 255
186 216 255
186 217 255
186 217 255
186 217 255
187 217 255
187 217 255
187 217 255
187 217 255
187 217 255
187 217 255
187 217 255
188 217 255
188 217 255
188 217 255
188 218 255
188 218 255
188 218 255
189 218 255
189 218 255
189 218 255
189 218 255
189 218 255
189 218 255
189 218 255
190 218 255
190 218 255
190 219 255
190 219 255
190 219 255
190 219 255
191 219 255
191 219 255
191 219 255
191 219 255
191 219 255
191 219 255
191 219 255
192 219 255
192 219 255
192 220 255
192 220 255
192 220 255
192 220 255
192 220 255
193 220 255
193 220 255
193 220 255
193 220 255
193 220 255
193 220 255
193 220 255
194 220 255
194 221 255
194 221 255
194 221 255
194 221 255
194 221 255
194 221 255
195 221 255
195 221 255
195 221 255
195 221 255
195 221 255
195 221 255
195 221 255
196 222 255
196 222 255
196 222 255
196 222 255
196 222 255
196 222 255
196 222 255
196 222 255
197 222 255
197 222 255
197 222 255
197 222 255
197 222 255
197 222 255
197 222 255
197 223 255
198 223 255
198 223 255
198 223 255
198 223 255
198 223 255
198 223 255
198 223 255
198 223 255
199 223 255
199 223 255
199 223 255
199 223 255
199 223 255
199 223 255
199 223 255
199 223 255
199 224 255
200 224 255
200 224 255
200 224 255
200 224 255
200 224 255
200 224 255
200 224 255
200 224 255
200 224 255
200 224 255
201 224 255
201 224 255
201 224 255
201 224 255
201 224 255
201 224 255
201 224 255
201 225 255
201 225 255
201 225 255
201 225 255
202 225 255
202 225 255
202 225 255
202 225 255
202 225 255
202 225 255
202 225 255
202 225 255
202 225 255
202 225 255
202 225 255
203 225 255
203 225 255
203 225 255
203 225 255
203 225 255
203 225 255
203 225 255
203 226 255
203 226 255
203 226 255
203 226 255
203 226 255
203 226 255
204 226 255
204 226 255
204 226 255
204 226 255
204 226 255
204 226 255
204 226 255
204 226 255
204 226 255
204 226 255
204 226 255
204 226 255
204 226 255
205 226 255
204 226 255
204 226 255
204 226 255
204 226 255
204 226 255
204 226 255
204 226 255
204 226 255
204 226 255
204 226 255
204 226 255
204 226 255
204 226 255
204 226 255
203 226 255
203 226 255
203 226 255
203 226 255
203 226 255
203 226 255
203 225 255
203 225 255
203 225 255
203 225 255
203 225 255
203 225 255
203 225 255
202 225 255
202 225 255
202 225 255
202 225 255
202 225 255
202 225 255
202 225 255
202 225 255
202 225 255
202 225 255
202 225 255
201 225 255
201 225 255
201 225 255
201 224 255
201 224 255
201 224 255
201 224 255
201 224 255
201 224 255
201 224 255
200 224 255
200 224 255
200 224 255
200 224 255
200 224 255
200 224 255
200 224 255
200 224 255
200 224 255
200 224 255
199 224 255
199 224 255
199 223 255
199 223 255
199 223 255
199 223 255
199 223 255
199 223 255
199 223 255
198 223 255
198 223 255
198 223 255
198 223 255
198 223 255
198 223 255
198 223 255
198 223 255
198 223 255
197 222 255
197 222 255
197 222 255
197 222 255
197 222 255
197 222 255
197 222 255
197 222 255
196 222 255
196 222 255
196 222 255
196 222 255
196 222 255
196 222 255
196 222 255
195 221 255
195 221 255
195 221 255
195 221 255
195 221 255
195 221 255
195 221 255
195 221 255
194 221 255
194 221 255
194 221 255
194 221 255
194 221 255
194 220 255
194 220 255
193 220 255
193 220 255
193 220 255
193 220 255
193 220 255
193 220 255
192 220 255
192 220 255
192 220 255
192 220 255
192 220 255
192 219 255
192 219 255
191 219 255
191 219 255
191 219 255
191 219 255
191 219 255
191 219 255
190 219 255
190 219 255
190 219 255
190 219 255
190 218 255
190 218 255
190 218 255
189 218 255
189 218 255
189 218 255
189 218 255
189 218 255
189 218 255
188 218 255
188 218 255
188 218 255
188 218 255
188 217 255
188 217 255
188 217 255
187 217 255
187 217 255
187 217 255
187 217 255
187 217 255
187 217 255
187 217 255
186 217 255
186 217 255
186 217 255
186 216 255
186 216 255
186 216 255
186 216 255
185 216 255
185 216 255
185 216 255
185 216 255
185 216 255
185 216 255
185 216 255
185 216 255
184 216 255
184 216 255
184 216 255
184 216 255
184 215 255
184 215 255
184 215 255
184 215 255
184 215 255
184 215 255
183 215 255
183 215 255
183 215 255
183 215 255
183 215 255
183 215 255
183 215 255
183 215 255
183 215 255
183 215 255
183 215 255
183 215 255
183 215 255
183 215 255
183 215 255
183 215 255
183 215 255
183 215 255
183 215 255
183 215 255
183 215 255
183 215 255
183 215 255
183 215 255
183 215 255
183 215 255
183 215 255
183 215 255
183 215 255
183 215 255
183 215 255
183 215 255
183 215 255
183 215 255
183 215 255
183 215 255
183 215 255
183 215 255
183 215 255
183 215 255
183 215 255
183 215 255
183 215 255
183 215 255
184 215 255
184 215 255
184 215 255
184 215 255
184 215 255
184 215 255
184 216 255
184 216 255
184 216 255
184 216 255
185 216 255
185 216 255
185 216 255
185 216 255
185 216 255
185 216 255
185 216 255
185 216 255
186 216 255
186 216 255
186 216 255
186 216 255
186 217 255
186 217 255
186 217 255
187 217 255
187 217 255
187 217 255
187 217 255
187 217 255
187 217 255
187 217 255
188 217 255
188 217 255
188 217 255
188 218 255
188 218 255
188 218 255
188 218 255
189 218 255
189 218 255
189 218 255
189 218 255
189 218 255
189 218 255
190 218 255
190 218 255
190 218 255
190 219 255
190 219 255
190 219 255
190 219 255
191 219 255
191 219 255
191 219 255
191 219 255
191 219 255
191 219 255
192 219 255
192 219 255
192 220 255
192 220 255
192 220 255
192 220 255
192 220 255
193 220 255
193 220 255
193 220 255
193 220 255
193 220 255
193 220 255
194 220 255
194 220 255
194 221 255
194 221 255
194 221 255
194 221 255
194 221 255
195 221 255
195 221 255
195 221 255
195 221 255
195 221 255
195 221 255
195 221 255
195 221 255
196 222 255
196 222 255
196 222 255
196 222 255
196 222 255
196 222 255
196 222 255
197 222 255
197 222 255
197 222 255
197 222 255
197 222 255
197 222 255
197 222 255
197 222 255
198 223 255
198 223 255
198 223 255
198 223 255
198 223 255
198 223 255
198 223 255
198 223 255
198 223 255
199 223 255
199 223 255
199 223 255
199 223 255
199 223 255
199 223 255
199 223 255
199 224 255
199 224 255
200 224 255
200 224 255
200 224 255
200 224 255
200 224 255
200 224 255
200 224 255
200 224 255
200 224 255
200 224 255
201 224 255
201 224 255
201 224 255
201 224 255
201 224 255
201 224 255
201 224 255
201 225 255
201 225 255
201 225 255
202 225 255
202 225 255
202 225 255
202 225 255
202 225 255
202 225 255
202 225 255
202 225 255
202 225 255
202 225 255
202 225 255
203 225 255
203 225 255
203 225 255
203 225 255
203 225 255
203 225 255
203 225 255
203 226 255
203 226 255
203 226 255
203 226 255
203 226 255
203 226 255
204 226 255
204 226 255
204 226 255
204 226 255
204 226 255
204 226 255
204 226 255
204 226 255
204 226 255
204 226 255
204 226 255
204 226 255
204 226 255
204 226 255
205 226 255
205 226 255
205 226 255
205 226 255
205 226 255
204 226 255
204 226 255
204 226 255
204 226 255
204 226 255
204 226 255
204 226 255
204 226 255
204 226 255
204 226 255
204 226 255
204 226 255
204 226 255
203 226 255
203 226 255
203 226 255
203 226 255
203 226 255
203 226 255
203 225 255
203 225 255
203 225 255
203 225 255
203 225 255
203 225 255
203 225 255
202 225 255
202 225 255
202 225 255
202 225 255
202 225 255
202 225 255
202 225 255
202 225 255
202 225 255
202 225 255
202 225 255
201 225 255
201 225 255
201 225 255
201 224 255
201 224 255
201 224 255
201 224 255
201 224 255
201 224 255
201 224 255
200 224 255
200 224 255
200 224 255
200 224 255
200 224 255
200 224 255
200 224 255
200 224 255
200 224 255
200 224 255
199 224 255
199 223 255
199 223 255
199 223 255
199 223 255
199 223 255
199 223 255
199 223 255
199 223 255
198 223 255
198 223 255
198 223 255
198 223 255
198 223 255
198 223 255
198 223 255
198 223 255
197 222 255
197 222 255
197 222 255
197 222 255
197 222 255
197 222 255
197 222 255
197 222 255
196 222 255
196 222 255
196 222 255
196 222 255
196 222 255
196 222 255
196 222 255
195 221 255
195 221 255
195 221 255
195 221 255
195 221 255
195 221 255
195 221 255
195 221 255
194 221 255
194 221 255
194 221 255
194 221 255
194 221 255
194 220 255
194 220 255
193 220 255
193 220 255
193 220 255
193 220 255
193 220 255
193 220 255
192 220 255
192 220 255
192 220 255
192 220 255
192 220 255
192 219 255
192 219 255
191 219 255
191 219 255
191 219 255
191 219 255
191 219 255
191 219 255
190 219 255
190 219 255
190 219 255
190 219 255
190 218 255
190 218 255
190 218 255
189 218 255
189 218 255
189 218 255
189 218 255
189 218 255
189 218 255
188 218 255
188 218 255
188 218 255
188 218 255
188 217 255
188 217 255
188 217 255
187 217 255
187 217 255
187 217 255
187 217 255
187 217 255
187 217 255
186 217 255
186 217 255
186 217 255
186 217 255
186 216 255
186 216 255
186 216 255
186 216 255
185 216 255
185 216 255
185 216 255
185 216 255
185 216 255
185 216 255
185 216 255
185 216 255
184 216 255
184 216 255
184 216 255
184 216 255
184 215 255
184 215 255
184 215 255
184 215 255
184 215 255
184 215 255
183 215 255
183 215 255
183 215 255
183 215 255
183 215 255
183 215 255
183 215 255
183 215 255
183 215 255
183 215 255
183 215 255
183 215 255
183 215 255
183 215 255
183 215 255
183 215 255
183 215 255
183 215 255
183 215 255
183 215 255
183 215 255
183 215 255
183 215 255
183 215 255
183 215 255
183 215 255
183 215 255
183 215 255
183 215 255
183 215 255
183 215 255
183 215 255
183 215 255
183 215 255
183 215 255
183 215 255
183 215 255
183 215 255
183 215 255
183 215 255
183 215 255
183 215 255
184 215 255
184 215 255
184 215 255
184 215 255
184 215 255
184 215 255
184 216 255
184 216 255
184 216 255
184 216 255
185 216 255
185 216 255
185 216 255
185 216 255
185 216 255
185 216 255
185 216 255
185 216 255
186 216 255
186 216 255
186 216 255
186 216 255
186 217 255
186 217 255
186 217 255
186 217 255
187 217 255
187 217 255
187 217 255
187 217 255
187 217 255
187 217 255
188 217 255
188 217 255
188 217 255
188 218 255
188 218 255
188 218 255
188 218 255
189 218 255
189 218 255
189 218 255
189 218 255
189 218 255
189 218 255
190 218 255
190 218 255
190 218 255
190 219 255
190 219 255
190 219 255
190 219 255
191 219 255
191 219 255
191 219 255
191 219 255
191 219 255
191 219 255
192 219 255
192 219 255
192 220 255
192 220 255
192 220 255
192 220 255
192 220 255
193 220 255
193 220 255
193 220 255
193 220 255
193 220 255
193 220 255
194 220 255
194 220 255
194 221 255
194 221 255
194 221 255
194 221 255
194 221 255
195 221 255
195 221 255
195 221 255
195 221 255
195 221 255
195 221 255
195 221 255
196 221 255
196 222 255
196 222 255
196 222 255
196 222 255
196 222 255
196 222 255
196 222 255
197 222 255
197 222 255
197 222 255
197 222 255
197 222 255
197 222 255
197 222 255
197 222 255
198 223 255
198 223 255
198 223 255
198 223 255
198 223 255
198 223 255
198 223 255
198 223 255
199 223 255
199 223 255
199 223 255
199 223 255
199 223 255
199 223 255
199 223 255
199 223 255
199 224 255
200 224 255
200 224 255
200 224 255
200 224 255
200 224 255
200 224 255
200 224 255
200 224 255
200 224 255
200 224 255
201 224 255
201 224 255
201 224 255
201 224 255
201 224 255
201 224 255
201 224 255
201 225 255
201 225 255
201 225 255
202 225 255
202 225 255
202 225 255
202 225 255
202 225 255
202 225 255
202 225 255
202 225 255
202 225 255
202 225 255
202 225 255
203 225 255
203 225 255
203 225 255
203 225 255
203 225 255
203 225 255
203 225 255
203 226 255
203 226 255
203 226 255
203 226 255
203 226 255
203 226 255
204 226 255
204 226 255
204 226 255
204 226 255
204 226 255
204 226 255
204 226 255
204 226 255
204 226 255
204 226 255
204 226 255
204 226 255
204 226 255
205 226 255
205 226 255
205 226 255
205 226 255
205 226 255
205 226 255
205 226 255
205 226 255
205 226 255
205 226 255
204 226 255
204 226 255
204 226 255
204 226 255
204 226 255
204 226 255
204 226 255
204 226 255
204 226 255
204 226 255
204 226 255
204 226 255
204 226 255
203 226 255
203 226 255
203 226 255
203 226 255
203 226 255
203 226 255
203 225 255
203 225 255
203 225 255
203 225 255
203 225 255
203 225 255
202 225 255
202 225 255
202 225 255
202 225 255
202 225 255
202 225 255
202 225 255
202 225 255
202 225 255
202 225 255
202 225 255
201 225 255
201 225 255
201 225 255
201 225 255
201 224 255
201 224 255
201 224 255
201 224 255
201 224 255
201 224 255
201 224 255
200 224 255
200 224 255
200 224 255
200 224 255
200 224 255
200 224 255
200 224 255
200 224 255
200 224 255
199 224 255
199 224 255
199 223 255
199 223 255
199 223 255
199 223 255
199 223 255
199 223 255
199 223 255
198 223 255
198 223 255
198 223 255
198 223 255
198 223 255
198 223 255
198 223 255
198 223 255
197 223 255
197 222 255
197 222 255
197 222 255
197 222 255
197 222 255
197 222 255
197 222 255
196 222 255
196 222 255
196 222 255
196 222 255
196 222 255
196 222 255
196 222 255
196 221 255
195 221 255
195 221 255
195 221 255
195 221 255
195 221 255
195 221 255
195 221 255
194 221 255
194 221 255
194 221 255
194 221 255
194 221 255
194 220 255
194 220 255
193 220 255
193 220 255
193 220 255
193 220 255
193 220 255
193 220 255
192 220 255
192 220 255
192 220 255
192 220 255
192 220 255
192 219 255
192 219 255
191 219 255
191 219 255
191 219 255
191 219 255
191 219 255
191 219 255
190 219 255
190 219 255
190 219 255
190 219 255
190 218 255
190 218 255
190 218 255
189 218 255
189 218 255
189 218 255
189 218 255
189 218 255
189 218 255
188 218 255
188 218 255
188 218 255
188 217 255
188 217 255
188 217 255
187 217 255
187 217 255
187 217 255
187 217 255
187 217 255
187 217 255
187 217 255
186 217 255
186 217 255
186 217 255
186 216 255
186 216 255
186 216 255
186 216 255
185 216 255
185 216 255
185 216 255
185 216 255
185 216 255
185 216 255
185 216 255
185 216 255
184 216 255
184 216 255
184 216 255
184 216 255
184 215 255
184 215 255
184 215 255
184 215 255
184 215 255
184 215 255
184 215 255
183 215 255
183 215 255
183 215 255
183 215 255
183 215 255
183 215 255
183 215 255
183 215 255
183 215 255
183 215 255
183 215 255
183 215 255
183 215 255
183 215 255
183 215 255
183 215 255
183 215 255
183 215 255
183 215 255
183 215 255
183 215 255
183 215 255
183 215 255
183 215 255
183 215 255
183 215 255
183 215 255
183 215 255
183 215 255
183 215 255
183 215 255
183 215 255
183 215 255
183 215 255
183 215 255
183 215 255
183 215 255
183 215 255
183 215 255
183 215 255
184 215 255
184 215 255
184 215 255
184 215 255
184 215 255
184 215 255
184 215 255
184 216 255
184 216 255
184 216 255
184 216 255
185 216 255
185 216 255
185 216 255
185 216 255
185 216 255
185 216 255
185 216 255
185 216 255
186 216 255
186 216 255
186 216 255
186 216 255
186 217 255
186 217 255
186 217 255
187 217 255
187 217 255
187 217 255
187 217 255
187 217 255
187 217 255
187 217 255
188 217 255
188 217 255
188 217 255
188 218 255
188 218 255
188 218 255
189 218 255
189 218 255
189 218 255
189 218 255
189 218 255
189 218 255
190 218 255
190 218 255
190 218 255
190 219 255
190 219 255
190 219 255
190 219 255
191 219 255
191 219 255
191 219 255
191 219 255
191 219 255
191 219 255
192 219 255
192 219 255
192 220 255
192 220 255
192 220 255
192 220 255
192 220 255
193 220 255
193 220 255
193 220 255
193 220 255
193 220 255
193 220 255
194 220 255
194 220 255
194 221 255
194 221 255
194 221 255
194 221 255
194 221 255
195 221 255
195 221 255
195 221 255
195 221 255
195 221 255
195 221 255
195 221 255
196 221 255
196 222 255
196 222 255
196 222 255
196 222 255
196 222 255
196 222 255
196 222 255
197 222 255
197 222 255
197 222 255
197 222 255
197 222 255
197 222 255
197 222 255
197 223 255
198 223 255
198 223 255
198 223 255
198 223 255
198 223 255
198 223 255
198 223 255
198 223 255
199 223 255
199 223 255
199 223 255
199 223 255
199 223 255
199 223 255
199 223 255
199 224 255
199 224 255
200 224 255
200 224 255
200 224 255
200 224 255
200 224 255
200 224 255
200 224 255
200 224 255
200 224 255
201 224 255
201 224 255
201 224 255
201 224 255
201 224 255
201 224 255
201 224 255
201 225 255
201 225 255
201 225 255
201 225 255
202 225 255
202 225 255
202 225 255
202 225 255
202 225 255
202 225 255
202 225 255
202 225 255
202 225 255
202 225 255
202 225 255
203 225 255
203 225 255
203 225 255
203 225 255
203 225 255
203 225 255
203 226 255
203 226 255
203 226 255
203 226 255
203 226 255
203 226 255
204 226 255
204 226 255
204 226 255
204 226 255
204 226 255
204 226 255
204 226 255
204 226 255
204 226 255
204 226 255
204 226 255
204 226 255
204 226 255
205 226 255
205 226 255
205 226 255
205 226 255
205 226 255
205 226 255
205 227 255
205 227 255
205 226 255
205 226 255
205 226 255
205 226 255
205 226 255
205 226 255
204 226 255
204 226 255
204 226 255
204 226 255
204 226 255
204 226 255
204 226 255
204 226 255
204 226 255
204 226 255
204 226 255
204 226 255
204 226 255
203 226 255
203 226 255
203 226 255
203 226 255
203 226 255
203 225 255
203 225 255
203 225 255
203 225 255
203 225 255
203 225 255
203 225 255
202 225 255
202 225 255
202 225 255
202 225 255
202 225 255
202 225 255
202 225 255
202 225 255
202 225 255
202 225 255
202 225 255
201 225 255
201 225 255
201 225 255
201 224 255
201 224 255
201 224 255
201 224 255
201 224 255
201 224 255
201 224 255
200 224 255
200 224 255
200 224 255
200 224 255
200 224 255
200 224 255
200 224 255
200 224 255
200 224 255
200 224 255
199 224 255
199 223 255
199 223 255
199 223 255
199 223 255
199 223 255
199 223 255
199 223 255
198 223 255
198 223 255
198 223 255
198 223 255
198 223 255
198 223 255
198 223 255
198 223 255
198 223 255
197 222 255
197 222 255
197 222 255
197 222 255
197 222 255
197 222 255
197 222 255
196 222 255
196 222 255
196 222 255
196 222 255
196 222 255
196 222 255
196 222 255
196 221 255
195 221 255
195 221 255
195 221 255
195 221 255
195 221 255
195 221 255
195 221 255
194 221 255
194 221 255
194 221 255
194 221 255
194 221 255
194 220 255
194 220 255
193 220 255
193 220 255
193 220 255
193 220 255
193 220 255
193 220 255
192 220 255
192 220 255
192 220 255
192 220 255
192 220 255
192 219 255
192 219 255
191 219 255
191 219 255
191 219 255
191 219 255
191 219 255
191 219 255
190 219 255
190 219 255
190 219 255
190 219 255
190 218 255
190 218 255
189 218 255
189 218 255
189 218 255
189 218 255
189 218 255
189 218 255
189 218 255
188 218 255
188 218 255
188 218 255
188 217 255
188 217 255
188 217 255
187 217 255
187 217 255
187 217 255
187 217 255
187 217 255
187 217 255
187 217 255
186 217 255
186 217 255
186 217 255
186 216 255
186 216 255
186 216 255
186 216 255
185 216 255
185 216 255
185 216 255
185 216 255
185 216 255
185 216 255
185 216 255
185 216 255
184 216 255
184 216 255
184 216 255
184 216 255
184 215 255
184 215 255
184 215 255
184 215 255
184 215 255
184 215 255
183 215 255
183 215 255
183 215 255
183 215 255
183 215 255
183 215 255
183 215 255
183 215 255
183 215 255
183 215 255
183 215 255
183 215 255
183 215 255
183 215 255
183 215 255
183 215 255
183 215 255
183 215 255
183 215 255
183 215 255
183 215 255
183 215 255
183 215 255
183 215 255
183 215 255
183 215 255
183 215 255
183 215 255
183 215 255
183 215 255
183 215 255
183 215 255
183 215 255
183 215 255
183 215 255
183 215 255
183 215 255
183 215 255
183 215 255
183 215 255
184 215 255
184 215 255
184 215 255
184 215 255
184 215 255
184 215 255
184 216 255
184 216 255
184 216 255
184 216 255
185 216 255
185 216 255
185 216 255
185 216 255
185 216 255
185 216 255
185 216 255
185 216 255
186 216 255
186 216 255
186 216 255
186 216 255
186 217 255
186 217 255
186 217 255
187 217 255
187 217 255
187 217 255
187 217 255
187 217 255
187 217 255
187 217 255
188 217 255
188 217 255
188 217 255
188 218 255
188 218 255
188 218 255
189 218 255
189 218 255
189 218 255
189 218 255
189 218 255
189 218 255
189 218 255
190 218 255
190 218 255
190 219 255
190 219 255
190 219 255
190 219 255
191 219 255
191 219 255
191 219 255
191 219 255
191 219 255
191 219 255
192 219 255
192 219 255
192 220 255
192 220 255
192 220 255
192 220 255
192 220 255
193 220 255
193 220 255
193 220 255
193 220 255
193 220 255
193 220 255
194 220 255
194 220 255
194 221 255
194 221 255
194 221 255
194 221 255
194 221 255
195 221 255
195 221 255
195 221 255
195 221 255
195 221 255
195 221 255
195 221 255
196 221 255
196 222 255
196 222 255
196 222 255
196 222 255
196 222 255
196 222 255
196 222 255
197 222 255
197 222 255
197 222 255
197 222 255
197 222 255
197 222 255
197 222 255
198 223 255
198 223 255
198 223 255
198 223 255
198 223 255
198 223 255
198 223 255
198 223 255
198 223 255
199 223 255
199 223 255
199 223 255
199 223 255
199 223 255
199 223 255
199 223 255
199 224 255
200 224 255
200 224 255
200 224 255
200 224 255
200 224 255
200 224 255
200 224 255
200 224 255
200 224 255
200 224 255
201 224 255
201 224 255
201 224 255
201 224 255
201 224 255
201 224 255
201 224 255
201 225 255
201 225 255
201 225 255
202 225 255
202 225 255
202 225 255
202 225 255
202 225 255
202 225 255
202 225 255
202 225 255
202 225 255
202 225 255
202 225 255
203 225 255
203 225 255
203 225 255
203 225 255
203 225 255
203 225 255
203 226 255
203 226 255
203 226 255
203 226 255
203 226 255
203 226 255
204 226 255
204 226 255
204 226 255
204 226 255
204 226 255
204 226 255
204 226 255
204 226 255
204 226 255
204 226 255
204 226 255
204 226 255
204 226 255
205 226 255
205 226 255
205 226 255
205 226 255
205 226 255
205 226 255
205 227 255
205 227 255
205 227 255
205 227 255
205 227 255
205 227 255
205 226 255
205 226 255
205 226 255
205 226 255
205 226 255
205 226 255
204 226 255
204 226 255
204 226 255
204 226 255
204 226 255
204 226 255
204 226 255
204 226 255
204 226 255
204 226 255
204 226 255
204 226 255
204 226 255
203 226 255
203 226 255
203 226 255
203 226 255
203 226 255
203 225 255
203 225 255
203 225 255
203 225 255
203 225 255
203 225 255
203 225 255
202 225 255
202 225 255
202 225 255
202 225 255
202 225 255
202 225 255
202 225 255
202 225 255
202 225 255
202 225 255
202 225 255
201 225 255
201 225 255
201 225 255
201 224 255
201 224 255
201 224 255
201 224 255
201 224 255
201 224 255
201 224 255
200 224 255
200 224 255
200 224 255
200 224 255
200 224 255
200 224 255
200 224 255
200 224 255
200 224 255
199 224 255
199 224 255
199 223 255
199 223 255
199 223 255
199 223 255
199 223 255
199 223 255
199 223 255
198 223 255
198 223 255
198 223 255
198 223 255
198 223 255
198 223 255
198 223 255
198 223 255
197 222 255
197 222 255
197 222 255
197 222 255
197 222 255
197 222 255
197 222 255
197 222 255
196 222 255
196 222 255
196 222 255
196 222 255
196 222 255
196 222 255
196 221 255
195 221 255
195 221 255
195 221 255
195 221 255
195 221 255
195 221 255
195 221 255
194 221 255
194 221 255
194 221 255
194 221 255
194 221 255
194 221 255
194 220 255
193 220 255
193 220 255
193 220 255
193 220 255
193 220 255
193 220 255
192 220 255
192 220 255
192 220 255
192 220 255
192 220 255
192 219 255
192 219 255
191 219 255
191 219 255
191 219 255
191 219 255
191 219 255
191 219 255
190 219 255
190 219 255
190 219 255
190 219 255
190 218 255
190 218 255
189 218 255
189 218 255
189 218 255
189 218 255
189 218 255
189 218 255
188 218 255
188 218 255
188 218 255
188 218 255
188 217 255
188 217 255
188 217 255
187 217 255
187 217 255
187 217 255
187 217 255
187 217 255
187 217 255
186 217 255
186 217 255
186 217 255
186 217 255
186 216 255
186 216 255
186 216 255
186 216 255
185 216 255
185 216 255
185 216 255
185 216 255
185 216 255
185 216 255
185 216 255
185 216 255
184 216 255
184 216 255
184 216 255
184 215 255
184 215 255
184 215 255
184 215 255
184 215 255
184 215 255
184 215 255
183 215 255
183 215 255
183 215 255
183 215 255
183 215 255
183 215 255
183 215 255
183 215 255
183 215 255
183 215 255
183 215 255
183 215 255
183 215 255
183 215 255
183 215 255
183 215 255
183 215 255
183 215 255
183 215 255
183 215 255
183 215 255
183 215 255
183 215 255
183 215 255
183 215 255
183 215 255
183 215 255
183 215 255
183 215 255
183 215 255
183 215 255
183 215 255
183 215 255
183 215 255
183 215 255
183 215 255
183 215 255
183 215 255
184 215 255
184 215 255
184 215 255
184 215 255
184 215 255
184 215 255
184 216 255
184 216 255
184 216 255
184 216 255
185 216 255
185 216 255
185 216 255
185 216 255
185 216 255
185 216 255
185 216 255
185 216 255
186 216 255
186 216 255
186 216 255
186 216 255
186 217 255
186 217 255
186 217 255
187 217 255
187 217 255
187 217 255
187 217 255
187 217 255
187 217 255
187 217 255
188 217 255
188 217 255
188 217 255
188 218 255
188 218 255
188 218 255
188 218 255
189 218 255
189 218 255
189 218 255
189 218 255
189 218 255
189 218 255
190 218 255
190 218 255
190 219 255
190 219 255
190 219 255
190 219 255
191 219 255
191 219 255
191 219 255
191 219 255
191 219 255
191 219 255
192 219 255
192 219 255
192 220 255
192 220 255
192 220 255
192 220 255
192 220 255
193 220 255
193 220 255
193 220 255
193 220 255
193 220 255
193 220 255
194 220 255
194 220 255
194 221 255
194 221 255
194 221 255
194 221 255
194 221 255
195 221 255
195 221 255
195 221 255
195 221 255
195 221 255
195 221 255
195 221 255
196 222 255
196 222 255
196 222 255
196 222 255
196 222 255
196 222 255
196 222 255
197 222 255
197 222 255
197 222 255
197 222 255
197 222 255
197 222 255
197 222 255
197 222 255
198 223 255
198 223 255
198 223 255
198 223 255
198 223 255
198 223 255
198 223 255
198 223 255
199 223 255
199 223 255
199 223 255
199 223 255
199 223 255
199 223 255
199 223 255
199 224 255
199 224 255
200 224 255
200 224 255
200 224 255
200 224 255
200 224 255
200 224 255
200 224 255
200 224 255
200 224 255
201 224 255
201 224 255
201 224 255
201 224 255
201 224 255
201 224 255
201 224 255
201 225 255
201 225 255
201 225 255
202 225 255
202 225 255
202 225 255
202 225 255
202 225 255
202 225 255
202 225 255
202 225 255
202 225 255
202 225 255
202 225 255
203 225 255
203 225 255
203 225 255
203 225 255
203 225 255
203 225 255
203 226 255
203 226 255
203 226 255
203 226 255
203 226 255
203 226 255
204 226 255
204 226 255
204 226 255
204 226 255
204 226 255
204 226 255
204 226 255
204 226 255
204 226 255
204 226 255
204 226 255
204 226 255
204 226 255
205 226 255
205 226 255
205 226 255
205 226 255
205 226 255
205 226 255
205 227 255
205 227 255
205 227 255
205 227 255
205 227 255
205 227 255
205 227 255
205 227 255
205 227 255
205 227 255
205 226 255
205 226 255
205 226 255
205 226 255
205 226 255
205 226 255
204 226 255
204 226 255
204 226 255
204 226 255
204 226 255
204 226 255
204 226 255
204 226 255
204 226 255
204 226 255
204 226 255
204 226 255
204 226 255
203 226 255
203 226 255
203 226 255
203 226 255
203 226 255
203 225 255
203 225 255
203 225 255
203 225 255
203 225 255
203 225 255
203 225 255
202 225 255
202 225 255
202 225 255
202 225 255
202 225 255
202 225 255
202 225 255
202 225 255
202 225 255
202 225 255
202 225 255
201 225 255
201 225 255
201 225 255
201 224 255
201 224 255
201 224 255
201 224 255
201 224 255
201 224 255
201 224 255
200 224 255
200 224 255
200 224 255
200 224 255
200 224 255
200 224 255
200 224 255
200 224 255
200 224 255
199 224 255
199 223 255
199 223 255
199 223 255
199 223 255
199 223 255
199 223 255
199 223 255
198 223 255
198 223 255
198 223 255
198 223 255
198 223 255
198 223 255
198 223 255
198 223 255
197 223 255
197 222 255
197 222 255
197 222 255
197 222 255
197 222 255
197 222 255
197 222 255
196 222 255
196 222 255
196 222 255
196 222 255
196 222 255
196 222 255
196 222 255
195 221 255
195 221 255
195 221 255
195 221 255
195 221 255
195 221 255
195 221 255
194 221 255
194 221 255
194 221 255
194 221 255
194 221 255
194 221 255
194 220 255
193 220 255
193 220 255
193 220 255
193 220 255
193 220 255
193 220 255
192 220 255
192 220 255
192 220 255
192 220 255
192 220 255
192 219 255
192 219 255
191 219 255
191 219 255
191 219 255
191 219 255
191 219 255
191 219 255
190 219 255
190 219 255
190 219 255
190 219 255
190 218 255
190 218 255
189 218 255
189 218 255
189 218 255
189 218 255
189 218 255
189 218 255
188 218 255
188 218 255
188 218 255
188 218 255
188 217 255
188 217 255
188 217 255
187 217 255
187 217 255
187 217 255
187 217 255
187 217 255
187 217 255
186 217 255
186 217 255
186 217 255
186 216 255
186 216 255
186 216 255
186 216 255
185 216 255
185 216 255
185 216 255
185 216 255
185 216 255
185 216 255
185 216 255
185 216 255
184 216 255
184 216 255
184 216 255
184 216 255
184 215 255
184 215 255
184 215 255
184 215 255
184 215 255
184 215 255
184 215 255
183 215 255
183 215 255
183 215 255
183 215 255
183 215 255
183 215 255
183 215 255
183 215 255
183 215 255
183 215 255
183 215 255
183 215 255
183 215 255
183 215 255
183 215 255
183 215 255
183 215 255
183 215 255
183 215 255
183 215 255
183 215 255
183 215 255
183 215 255
183 215 255
183 215 255
183 215 255
183 215 255
183 215 255
183 215 255
183 215 255
183 215 255
183 215 255
183 215 255
183 215 255
183 215 255
183 215 255
184 215 255
184 215 255
184 215 255
184 215 255
184 215 255
184 215 255
184 215 255
184 216 255
184 216 255
184 216 255
184 216 255
185 216 255
185 216 255
185 216 255
185 216 255
185 216 255
185 216 255
185 216 255
185 216 255
186 216 255
186 216 255
186 216 255
186 216 255
186 217 255
186 217 255
186 217 255
187 217 255
187 217 255
187 217 255
187 217 255
187 217 255
187 217 255
188 217 255
188 217 255
188 217 255
188 218 255
188 218 255
188 218 255
188 218 255
189 218 255
189 218 255
189 218 255
189 218 255
189 218 255
189 218 255
190 218 255
190 218 255
190 219 255
190 219 255
190 219 255
190 219 255
191 219 255
191 219 255
191 219 255
191 219 255
191 219 255
191 219 255
192 219 255
192 219 255
192 220 255
192 220 255
192 220 255
192 220 255
192 220 255
193 220 255
193 220 255
193 220 255
193 220 255
193 220 255
193 220 255
194 220 255
194 221 255
194 221 255
194 221 255
194 221 255
194 221 255
194 221 255
195 221 255
195 221 255
195 221 255
195 221 255
195 221 255
195 221 255
195 221 255
196 222 255
196 222 255
196 222 255
196 222 255
196 222 255
196 222 255
196 222 255
197 222 255
197 222 255
197 222 255
197 222 255
197 222 255
197 222 255
197 222 255
197 223 255
198 223 255
198 223 255
198 223 255
198 223 255
198 223 255
198 223 255
198 223 255
198 223 255
199 223 255
199 223 255
199 223 255
199 223 255
199 223 255
199 223 255
199 223 255
199 224 255
200 224 255
200 224 255
200 224 255
200 224 255
200 224 255
200 224 255
200 224 255
200 224 255
200 224 255
200 224 255
201 224 255
201 224 255
201 224 255
201 224 255
201 224 255
201 224 255
201 225 255
201 225 255
201 225 255
202 225 255
202 225 255
202 225 255
202 225 255
202 225 255
202 225 255
202 225 255
202 225 255
202 225 255
202 225 255
202 225 255
203 225 255
203 225 255
203 225 255
203 225 255
203 225 255
203 225 255
203 225 255
203 226 255
203 226 255
203 226 255
203 226 255
203 226 255
204 226 255
204 226 255
204 226 255
204 226 255
204 226 255
204 226 255
204 226 255
204 226 255
204 226 255
204 226 255
204 226 255
204 226 255
204 226 255
205 226 255
205 226 255
205 226 255
205 226 255
205 226 255
205 226 255
205 227 255
205 227 255
205 227 255
205 227 255
205 227 255
205 227 255
205 227 255
205 227 255
205 227 255
205 227 255
205 227 255
205 227 255
205 227 255
205 227 255
205 226 255
205 226 255
205 226 255
205 226 255
205 226 255
205 226 255
204 226 255
204 226 255
204 226 255
204 226 255
204 226 255
204 226 255
204 226 255
204 226 255
204 226 255
204 226 255
204 226 255
204 226 255
204 226 255
203 226 255
203 226 255
203 226 255
203 226 255
203 226 255
203 225 255
203 225 255
203 225 255
203 225 255
203 225 255
203 225 255
203 225 255
202 225 255
202 225 255
202 225 255
202 225 255
202 225 255
202 225 255
202 225 255
202 225 255
202 225 255
202 225 255
201 225 255
201 225 255
201 225 255
201 224 255
201 224 255
201 224 255
201 224 255
201 224 255
201 224 255
201 224 255
200 224 255
200 224 255
200 224 255
200 224 255
200 224 255
200 224 255
200 224 255
200 224 255
200 224 255
199 224 255
199 224 255
199 223 255
199 223 255
199 223 255
199 223 255
199 223 255
199 223 255
199 223 255
198 223 255
198 223 255
198 223 255
198 223 255
198 223 255
198 223 255
198 223 255
198 223 255
197 222 255
197 222 255
197 222 255
197 222 255
197 222 255
197 222 255
197 222 255
196 222 255
196 222 255
196 222 255
196 222 255
196 222 255
196 222 255
196 222 255
196 221 255
195 221 255
195 221 255
195 221 255
195 221 255
195 221 255
195 221 255
194 221 255
194 221 255
194 221 255
194 221 255
194 221 255
194 221 255
194 220 255
193 220 255
193 220 255
193 220 255
193 220 255
193 220 255
193 220 255
192 220 255
192 220 255
192 220 255
192 220 255
192 220 255
192 219 255
192 219 255
191 219 255
191 219 255
191 219 255
191 219 255
191 219 255
191 219 255
190 219 255
190 219 255
190 219 255
190 219 255
190 218 255
190 218 255
189 218 255
189 218 255
189 218 255
189 218 255
189 218 255
189 218 255
188 218 255
188 218 255
188 218 255
188 217 255
188 217 255
188 217 255
187 217 255
187 217 255
187 217 255
187 217 255
187 217 255
187 217 255
187 217 255
186 217 255
186 217 255
186 217 255
186 216 255
186 216 255
186 216 255
186 216 255
185 216 255
185 216 255
185 216 255
185 216 255
185 216 255
185 216 255
185 216 255
185 216 255
184 216 255
184 216 255
184 216 255
184 216 255
184 215 255
184 215 255
184 215 255
184 215 255
184 215 255
184 215 255
183 215 255
183 215 255
183 215 255
183 215 255
183 215 255
183 215 255
183 215 255
183 215 255
183 215 255
183 215 255
183 215 255
183 215 255
183 215 255
183 215 255
183 215 255
183 215 255
183 215 255
183 215 255
183 215 255
183 215 255
183 215 255
183 215 255
183 215 255
183 215 255
183 215 255
183 215 255
183 215 255
183 215 255
183 215 255
183 215 255
183 215 255
183 215 255
183 215 255
183 215 255
183 215 255
183 215 255
184 215 255
184 215 255
184 215 255
184 215 255
184 215 255
184 215 255
184 216 255
184 216 255
184 216 255
184 216 255
185 216 255
185 216 255
185 216 255
185 216 255
185 216 255
185 216 255
185 216 255
185 216 255
186 216 255
186 216 255
186 216 255
186 216 255
186 217 255
186 217 255
186 217 255
187 217 255
187 217 255
187 217 255
187 217 255
187 217 255
187 217 255
187 217 255
188 217 255
188 217 255
188 217 255
188 218 255
188 218 255
188 218 255
189 218 255
189 218 255
189 218 255
189 218 255
189 218 255
189 218 255
190 218 255
190 218 255
190 219 255
190 219 255
190 219 255
190 219 255
191 219 255
191 219 255
191 219 255
191 219 255
191 219 255
191 219 255
192 219 255
192 219 255
192 220 255
192 220 255
192 220 255
192 220 255
192 220 255
193 220 255
193 220 255
193 220 255
193 220 255
193 220 255
193 220 255
194 220 255
194 221 255
194 221 255
194 221 255
194 221 255
194 221 255
194 221 255
195 221 255
195 221 255
195 221 255
195 221 255
195 221 255
195 221 255
196 221 255
196 222 255
196 222 255
196 222 255
196 222 255
196 222 255
196 222 255
196 222 255
197 222 255
197 222 255
197 222 255
197 222 255
197 222 255
197 222 255
197 222 255
198 223 255
198 223 255
198 223 255
198 223 255
198 223 255
198 223 255
198 223 255
198 223 255
199 223 255
199 223 255
199 223 255
199 223 255
199 223 255
199 223 255
199 223 255
199 224 255
199 224 255
200 224 255
200 224 255
200 224 255
200 224 255
200 224 255
200 224 255
200 224 255
200 224 255
200 224 255
201 224 255
201 224 255
201 224 255
201 224 255
201 224 255
201 224 255
201 224 255
201 225 255
201 225 255
201 225 255
202 225 255
202 225 255
202 225 255
202 225 255
202 225 255
202 225 255
202 225 255
202 225 255
202 225 255
202 225 255
203 225 255
203 225 255
203 225 255
203 225 255
203 225 255
203 225 255
203 225 255
203 226 255
203 226 255
203 226 255
203 226 255
203 226 255
204 226 255
204 226 255
204 226 255
204 226 255
204 226 255
204 226 255
204 226 255
204 226 255
204 226 255
204 226 255
204 226 255
204 226 255
204 226 255
205 226 255
205 226 255
205 226 255
205 226 255
205 226 255
205 226 255
205 227 255
205 227 255
205 227 255
205 227 255
205 227 255
205 227 255
205 227 255
205 227 255
206 227 255
206 227 255
205 227 255
205 227 255
205 227 255
205 227 255
205 227 255
205 227 255
205 227 255
205 227 255
205 227 255
205 226 255
205 226 255
205 226 255
205 226 255
205 226 255
204 226 255
204 226 255
204 226 255
204 226 255
204 226 255
204 226 255
204 226 255
204 226 255
204 226 255
204 226 255
204 226 255
204 226 255
204 226 255
203 226 255
203 226 255
203 226 255
203 226 255
203 226 255
203 225 255
203 225 255
203 225 255
203 225 255
203 225 255
203 225 255
203 225 255
202 225 255
202 225 255
202 225 255
202 225 255
202 225 255
202 225 255
202 225 255
202 225 255
202 225 255
202 225 255
201 225 255
201 225 255
201 225 255
201 224 255
201 224 255
201 224 255
201 224 255
201 224 255
201 224 255
201 224 255
200 224 255
200 224 255
200 224 255
200 224 255
200 224 255
200 224 255
200 224 255
200 224 255
200 224 255
199 224 255
199 223 255
199 223 255
199 223 255
199 223 255
199 223 255
199 223 255
199 223 255
198 223 255
198 223 255
198 223 255
198 223 255
198 223 255
198 223 255
198 223 255
198 223 255
197 222 255
197 222 255
197 222 255
197 222 255
197 222 255
197 222 255
197 222 255
197 222 255
196 222 255
196 222 255
196 222 255
196 222 255
196 222 255
196 222 255
196 221 255
195 221 255
195 221 255
195 221 255
195 221 255
195 221 255
195 221 255
195 221 255
194 221 255
194 221 255
194 221 255
194 221 255
194 221 255
194 220 255
193 220 255
193 220 255
193 220 255
193 220 255
193 220 255
193 220 255
192 220 255
192 220 255
192 220 255
192 220 255
192 220 255
192 219 255
192 219 255
191 219 255
191 219 255
191 219 255
191 219 255
191 219 255
191 219 255
190 219 255
190 219 255
190 219 255
190 218 255
190 218 255
190 218 255
189 218 255
189 218 255
189 218 255
189 218 255
189 218 255
189 218 255
188 218 255
188 218 255
188 218 255
188 217 255
188 217 255
188 217 255
187 217 255
187 217 255
187 217 255
187 217 255
187 217 255
187 217 255
187 217 255
186 217 255
186 217 255
186 217 255
186 216 255
186 216 255
186 216 255
186 216 255
185 216 255
185 216 255
185 216 255
185 216 255
185 216 255
185 216 255
185 216 255
185 216 255
184 216 255
184 216 255
184 216 255
184 216 255
184 215 255
184 215 255
184 215 255
184 215 255
184 215 255
184 215 255
183 215 255
183 215 255
183 215 255
183 215 255
183 215 255
183 215 255
183 215 255
183 215 255
183 215 255
183 215 255
183 215 255
183 215 255
183 215 255
183 215 255
183 215 255
183 215 255
183 215 255
183 215 255
183 215 255
183 215 255
183 215 255
183 215 255
183 215 255
183 215 255
183 215 255
183 215 255
183 215 255
183 215 255
183 215 255
183 215 255
183 215 255
183 215 255
183 215 255
183 215 255
184 215 255
184 215 255
184 215 255
184 215 255
184 215 255
184 215 255
184 216 255
184 216 255
184 216 255
184 216 255
185 216 255
185 216 255
185 216 255
185 216 255
185 216 255
185 216 255
185 216 255
185 216 255
186 216 255
186 216 255
186 216 255
186 216 255
186 217 255
186 217 255
186 217 255
187 217 255
187 217 255
187 217 255
187 217 255
187 217 255
187 217 255
187 217 255
188 217 255
188 217 255
188 217 255
188 218 255
188 218 255
188 218 255
189 218 255
189 218 255
189 218 255
189 218 255
189 218 255
189 218 255
190 218 255
190 218 255
190 218 255
190 219 255
190 219 255
190 219 255
191 219 255
191 219 255
191 219 255
191 219 255
191 219 255
191 219 255
192 219 255
192 219 255
192 220 255
192 220 255
192 220 255
192 220 255
192 220 255
193 220 255
193 220 255
193 220 255
193 220 255
193 220 255
193 220 255
194 220 255
194 221 255
194 221 255
194 221 255
194 221 255
194 221 255
194 221 255
195 221 255
195 221 255
195 221 255
195 221 255
195 221 255
195 221 255
196 221 255
196 222 255
196 222 255
196 222 255
196 222 255
196 222 255
196 222 255
197 222 255
197 222 255
197 222 255
197 222 255
197 222 255
197 222 255
197 222 255
197 222 255
198 223 255
198 223 255
198 223 255
198 223 255
198 223 255
198 223 255
198 223 255
198 223 255
199 223 255
199 223 255
199 223 255
199 223 255
199 223 255
199 223 255
199 223 255
199 224 255
200 224 255
200 224 255
200 224 255
200 224 255
200 224 255
200 224 255
200 224 255
200 224 255
200 224 255
201 224 255
201 224 255
201 224 255
201 224 255
201 224 255
201 224 255
201 224 255
201 225 255
201 225 255
201 225 255
202 225 255
202 225 255
202 225 255
202 225 255
202 225 255
202 225 255
202 225 255
202 225 255
202 225 255
202 225 255
203 225 255
203 225 255
203 225 255
203 225 255
203 225 255
203 225 255
203 225 255
203 226 255
203 226 255
203 226 255
203 226 255
203 226 255
204 226 255
204 226 255
204 226 255
204 226 255
204 226 255
204 226 255
204 226 255
204 226 255
204 226 255
204 226 255
204 226 255
204 226 255
204 226 255
205 226 255
205 226 255
205 226 255
205 226 255
205 226 255
205 227 255
205 227 255
205 227 255
205 227 255
205 227 255
205 227 255
205 227 255
205 227 255
205 227 255
206 227 255
206 227 255
206 227 255
206 227 255
206 227 255
206 227 255
205 227 255
205 227 255
205 227 255
205 227 255
205 227 255
205 227 255
205 227 255
205 227 255
205 227 255
205 226 255
205 226 255
205 226 255
205 226 255
205 226 255
204 226 255
204 226 255
204 226 255
204 226 255
204 226 255
204 226 255
204 226 255
204 226 255
204 226 255
204 226 255
204 226 255
204 226 255
204 226 255
203 226 255
203 226 255
203 226 255
203 226 255
203 226 255
203 225 255
203 225 255
203 225 255
203 225 255
203 225 255
203 225 255
202 225 255
202 225 255
202 225 255
202 225 255
202 225 255
202 225 255
202 225 255
202 225 255
202 225 255
202 225 255
202 225 255
201 225 255
201 225 255
201 225 255
201 224 255
201 224 255
201 224 255
201 224 255
201 224 255
201 224 255
200 224 255
200 224 255
200 224 255
200 224 255
200 224 255
200 224 255
200 224 255
200 224 255
200 224 255
199 224 255
199 224 255
199 223 255
199 223 255
199 223 255
199 223 255
199 223 255
199 223 255
199 223 255
198 223 255
198 223 255
198 223 255
198 223 255
198 223 255
198 223 255
198 223 255
198 223 255
197 222 255
197 222 255
197 222 255
197 222 255
197 222 255
197 222 255
197 222 255
196 222 255
196 222 255
196 222 255
196 222 255
196 222 255
196 222 255
196 221 255
195 221 255
195 221 255
195 221 255
195 221 255
195 221 255
195 221 255
195 221 255
194 221 255
194 221 255
194 221 255
194 221 255
194 221 255
194 220 255
193 220 255
193 220 255
193 220 255
193 220 255
193 220 255
193 220 255
192 220 255
192 220 255
192 220 255
192 220 255
192 220 255
192 219 255
192 219 255
191 219 255
191 219 255
191 219 255
191 219 255
191 219 255
191 219 255
190 219 255
190 219 255
190 219 255
190 218 255
190 218 255
190 218 255
189 218 255
189 218 255
189 218 255
189 218 255
189 218 255
189 218 255
188 218 255
188 218 255
188 218 255
188 217 255
188 217 255
188 217 255
187 217 255
187 217 255
187 217 255
187 217 255
187 217 255
187 217 255
186 217 255
186 217 255
186 217 255
186 217 255
186 216 255
186 216 255
186 216 255
185 216 255
185 216 255
185 216 255
185 216 255
185 216 255
185 216 255
185 216 255
185 216 255
184 216 255
184 216 255
184 216 255
184 216 255
184 215 255
184 215 255
184 215 255
184 215 255
184 215 255
184 215 255
184 215 255
183 215 255
183 215 255
183 215 255
183 215 255
183 215 255
183 215 255
183 215 255
183 215 255
183 215 255
183 215 255
183 215 255
183 215 255
183 215 255
183 215 255
183 215 255
183 215 255
183 215 255
183 215 255
183 215 255
183 215 255
183 215 255
183 215 255
183 215 255
183 215 255
183 215 255
183 215 255
183 215 255
183 215 255
183 215 255
183 215 255
183 215 255
183 215 255
184 215 255
184 215 255
184 215 255
184 215 255
184 215 255
184 215 255
184 215 255
184 216 255
184 216 255
184 216 255
184 216 255
185 216 255
185 216 255
185 216 255
185 216 255
185 216 255
185 216 255
185 216 255
185 216 255
186 216 255
186 216 255
186 216 255
186 217 255
186 217 255
186 217 255
186 217 255
187 217 255
187 217 255
187 217 255
187 217 255
187 217 255
187 217 255
188 217 255
188 217 255
188 217 255
188 218 255
188 218 255
188 218 255
189 218 255
189 218 255
189 218 255
189 218 255
189 218 255
189 218 255
190 218 255
190 218 255
190 218 255
190 219 255
190 219 255
190 219 255
191 219 255
191 219 255
191 219 255
191 219 255
191 219 255
191 219 255
191 219 255
192 219 255
192 220 255
192 220 255
192 220 255
192 220 255
192 220 255
193 220 255
193 220 255
193 220 255
193 220 255
193 220 255
193 220 255
194 220 255
194 221 255
194 221 255
194 221 255
194 221 255
194 221 255
195 221 255
195 221 255
195 221 255
195 221 255
195 221 255
195 221 255
195 221 255
196 221 255
196 222 255
196 222 255
196 222 255
196 222 255
196 222 255
196 222 255
197 222 255
197 222 255
197 222 255
197 222 255
197 222 255
197 222 255
197 222 255
198 223 255
198 223 255
198 223 255
198 223 255
198 223 255
198 223 255
198 223 255
198 223 255
199 223 255
199 223 255
199 223 255
199 223 255
199 223 255
199 223 255
199 223 255
199 224 255
199 224 255
200 224 255
200 224 255
200 224 255
200 224 255
200 224 255
200 224 255
200 224 255
200 224 255
200 224 255
201 224 255
201 224 255
201 224 255
201 224 255
201 224 255
201 224 255
201 225 255
201 225 255
201 225 255
202 225 255
202 225 255
202 225 255
202 225 255
202 225 255
202 225 255
202 225 255
202 225 255
202 225 255
202 225 255
202 225 255
203 225 255
203 225 255
203 225 255
203 225 255
203 225 255
203 225 255
203 226 255
203 226 255
203 226 255
203 226 255
203 226 255
204 226 255
204 226 255
204 226 255
204 226 255
204 226 255
204 226 255
204 226 255
204 226 255
204 226 255
204 226 255
204 226 255
204 226 255
204 226 255
205 226 255
205 226 255
205 226 255
205 226 255
205 226 255
205 227 255
205 227 255
205 227 255
205 227 255
205 227 255
205 227 255
205 227 255
205 227 255
205 227 255
206 227 255
206 227 255
206 227 255
206 227 255
206 227 255
206 227 255
206 227 255
206 227 255
206 227 255
206 227 255
206 227 255
205 227 255
205 227 255
205 227 255
205 227 255
205 227 255
205 227 255
205 227 255
205 227 255
205 226 255
205 226 255
205 226 255
205 226 255
205 226 255
204 226 255
204 226 255
204 226 255
204 226 255
204 226 255
204 226 255
204 226 255
204 226 255
204 226 255
204 226 255
204 226 255
204 226 255
204 226 255
203 226 255
203 226 255
203 226 255
203 226 255
203 226 255
203 225 255
203 225 255
203 225 255
203 225 255
203 225 255
203 225 255
202 225 255
202 225 255
202 225 255
202 225 255
202 225 255
202 225 255
202 225 255
202 225 255
202 225 255
202 225 255
201 225 255
201 225 255
201 225 255
201 224 255
201 224 255
201 224 255
201 224 255
201 224 255
201 224 255
201 224 255
200 224 255
200 224 255
200 224 255
200 224 255
200 224 255
200 224 255
200 224 255
200 224 255
200 224 255
199 224 255
199 223 255
199 223 255
199 223 255
199 223 255
199 223 255
199 223 255
199 223 255
198 223 255
198 223 255
198 223 255
198 223 255
198 223 255
198 223 255
198 223 255
198 223 255
197 222 255
197 222 255
197 222 255
197 222 255
197 222 255
197 222 255
197 222 255
196 222 255
196 222 255
196 222 255
196 222 255
196 222 255
196 222 255
196 222 255
195 221 255
195 221 255
195 221 255
195 221 255
195 221 255
195 221 255
195 221 255
194 221 255
194 221 255
194 221 255
194 221 255
194 221 255
194 220 255
193 220 255
193 220 255
193 220 255
193 220 255
193 220 255
193 220 255
192 220 255
192 220 255
192 220 255
192 220 255
192 220 255
192 219 255
191 219 255
191 219 255
191 219 255
191 219 255
191 219 255
191 219 255
191 219 255
190 219 255
190 219 255
190 219 255
190 218 255
190 218 255
189 218 255
189 218 255
189 218 255
189 218 255
189 218 255
189 218 255
188 218 255
188 218 255
188 218 255
188 218 255
188 217 255
188 217 255
188 217 255
187 217 255
187 217 255
187 217 255
187 217 255
187 217 255
187 217 255
186 217 255
186 217 255
186 217 255
186 216 255
186 216 255
186 216 255
186 216 255
185 216 255
185 216 255
185 216 255
185 216 255
185 216 255
185 216 255
185 216 255
185 216 255
184 216 255
184 216 255
184 216 255
184 216 255
184 215 255
184 215 255
184 215 255
184 215 255
184 215 255
184 215 255
184 215 255
183 215 255
183 215 255
183 215 255
183 215 255
183 215 255
183 215 255
183 215 255
183 215 255
183 215 255
183 215 255
183 215 255
183 215 255
183 215 255
183 215 255
183 215 255
183 215 255
183 215 255
183 215 255
183 215 255
183 215 255
183 215 255
183 215 255
183 215 255
183 215 255
183 215 255
183 215 255
183 215 255
183 215 255
183 215 255
183 215 255
184 215 255
184 215 255
184 215 255
184 215 255
184 215 255
184 215 255
184 215 255
184 216 255
184 216 255
184 216 255
184 216 255
185 216 255
185 216 255
185 216 255
185 216 255
185 216 255
185 216 255
185 216 255
185 216 255
186 216 255
186 216 255
186 216 255
186 216 255
186 217 255
186 217 255
186 217 255
187 217 255
187 217 255
187 217 255
187 217 255
187 217 255
187 217 255
188 217 255
188 217 255
188 217 255
188 218 255
188 218 255
188 218 255
188 218 255
189 218 255
189 218 255
189 218 255
189 218 255
189 218 255
189 218 255
190 218 255
190 218 255
190 219 255
190 219 255
190 219 255
190 219 255
191 219 255
191 219 255
191 219 255
191 219 255
191 219 255
192 219 255
192 219 255
192 220 255
192 220 255
192 220 255
192 220 255
192 220 255
193 220 255
193 220 255
193 220 255
193 220 255
193 220 255
193 220 255
194 220 255
194 221 255
194 221 255
194 221 255
194 221 255
194 221 255
195 221 255
195 221 255
195 221 255
195 221 255
195 221 255
195 221 255
195 221 255
196 222 255
196 222 255
196 222 255
196 222 255
196 222 255
196 222 255
196 222 255
197 222 255
197 222 255
197 222 255
197 222 255
197 222 255
197 222 255
197 222 255
198 223 255
198 223 255
198 223 255
198 223 255
198 223 255
198 223 255
198 223 255
198 223 255
199 223 255
199 223 255
199 223 255
199 223 255
199 223 255
199 223 255
199 223 255
199 224 255
200 224 255
200 224 255
200 224 255
200 224 255
200 224 255
200 224 255
200 224 255
200 224 255
200 224 255
201 224 255
201 224 255
201 224 255
201 224 255
201 224 255
201 224 255
201 224 255
201 225 255
201 225 255
201 225 255
202 225 255
202 225 255
202 225 255
202 225 255
202 225 255
202 225 255
202 225 255
202 225 255
202 225 255
202 225 255
203 225 255
203 225 255
203 225 255
203 225 255
203 225 255
203 225 255
203 226 255
203 226 255
203 226 255
203 226 255
203 226 255
204 226 255
204 226 255
204 226 255
204 226 255
204 226 255
204 226 255
204 226 255
204 226 255
204 226 255
204 226 255
204 226 255
204 226 255
204 226 255
205 226 255
205 226 255
205 226 255
205 226 255
205 226 255
205 227 255
205 227 255
205 227 255
205 227 255
205 227 255
205 227 255
205 227 255
205 227 255
206 227 255
206 227 255
206 227 255
206 227 255
206 227 255
206 227 255
206 227 255
206 227 255
206 227 255
206 227 255
206 227 255
206 227 255
206 227 255
206 227 255
206 227 255
206 227 255
205 227 255
205 227 255
205 227 255
205 227 255
205 227 255
205 227 255
205 227 255
205 227 255
205 226 255
205 226 255
205 226 255
205 226 255
205 226 255
205 226 255
204 226 255
204 226 255
204 226 255
204 226 255
204 226 255
204 226 255
204 226 255
204 226 255
204 226 255
204 226 255
204 226 255
204 226 255
203 226 255
203 226 255
203 226 255
203 226 255
203 226 255
203 225 255
203 225 255
203 225 255
203 225 255
203 225 255
203 225 255
202 225 255
202 225 255
202 225 255
202 225 255
202 225 255
202 225 255
202 225 255
202 225 255
202 225 255
202 225 255
201 225 255
201 225 255
201 225 255
201 224 255
201 224 255
201 224 255
201 224 255
201 224 255
201 224 255
201 224 255
200 224 255
200 224 255
200 224 255
200 224 255
200 224 255
200 224 255
200 224 255
200 224 255
199 224 255
199 224 255
199 223 255
199 223 255
199 223 255
199 223 255
199 223 255
199 223 255
198 223 255
198 223 255
198 223 255
198 223 255
198 223 255
198 223 255
198 223 255
198 223 255
197 222 255
197 222 255
197 222 255
197 222 255
197 222 255
197 222 255
197 222 255
197 222 255
196 222 255
196 222 255
196 222 255
196 222 255
196 222 255
196 222 255
195 221 255
195 221 255
195 221 255
195 221 255
195 221 255
195 221 255
195 221 255
194 221 255
194 221 255
194 221 255
194 221 255
194 221 255
194 220 255
193 220 255
193 220 255
193 220 255
193 220 255
193 220 255
193 220 255
192 220 255
192 220 255
192 220 255
192 220 255
192 220 255
192 219 255
191 219 255
191 219 255
191 219 255
191 219 255
191 219 255
191 219 255
190 219 255
190 219 255
190 219 255
190 219 255
190 218 255
190 218 255
189 218 255
189 218 255
189 218 255
189 218 255
189 218 255
189 218 255
188 218 255
188 218 255
188 218 255
188 218 255
188 217 255
188 217 255
187 217 255
187 217 255
187 217 255
187 217 255
187 217 255
187 217 255
187 217 255
186 217 255
186 217 255
186 217 255
186 216 255
186 216 255
186 216 255
186 216 255
185 216 255
185 216 255
185 216 255
185 216 255
185 216 255
185 216 255
185 216 255
185 216 255
184 216 255
184 216 255
184 216 255
184 216 255
184 215 255
184 215 255
184 215 255
184 215 255
184 215 255
184 215 255
184 215 255
183 215 255
183 215 255
183 215 255
183 215 255
183 215 255
183 215 255
183 215 255
183 215 255
183 215 255
183 215 255
183 215 255
183 215 255
183 215 255
183 215 255
183 215 255
183 215 255
183 215 255
183 215 255
183 215 255
183 215 255
183 215 255
183 215 255
183 215 255
183 215 255
183 215 255
183 215 255
183 215 255
183 215 255
184 215 255
184 215 255
184 215 255
184 215 255
184 215 255
184 215 255
184 215 255
184 216 255
184 216 255
184 216 255
184 216 255
185 216 255
185 216 255
185 216 255
185 216 255
185 216 255
185 216 255
185 216 255
185 216 255
186 216 255
186 216 255
186 216 255
186 216 255
186 217 255
186 217 255
186 217 255
187 217 255
187 217 255
187 217 255
187 217 255
187 217 255
187 217 255
187 217 255
188 217 255
188 217 255
188 217 255
188 218 255
188 218 255
188 218 255
189 218 255
189 218 255
189 218 255
189 218 255
189 218 255
189 218 255
190 218 255
190 218 255
190 219 255
190 219 255
190 219 255
190 219 255
191 219 255
191 219 255
191 219 255
191 219 255
191 219 255
191 219 255
192 219 255
192 220 255
192 220 255
192 220 255
192 220 255
192 220 255
193 220 255
193 220 255
193 220 255
193 220 255
193 220 255
193 220 255
194 220 255
194 221 255
194 221 255
194 221 255
194 221 255
194 221 255
195 221 255
195 221 255
195 221 255
195 221 255
195 221 255
195 221 255
195 221 255
196 222 255
196 222 255
196 222 255
196 222 255
196 222 255
196 222 255
196 222 255
197 222 255
197 222 255
197 222 255
197 222 255
197 222 255
197 222 255
197 222 255
198 223 255
198 223 255
198 223 255
198 223 255
198 223 255
198 223 255
198 223 255
199 223 255
199 223 255
199 223 255
199 223 255
199 223 255
199 223 255
199 223 255
199 224 255
199 224 255
200 224 255
200 224 255
200 224 255
200 224 255
200 224 255
200 224 255
200 224 255
200 224 255
201 224 255
201 224 255
201 224 255
201 224 255
201 224 255
201 224 255
201 224 255
201 225 255
201 225 255
201 225 255
202 225 255
202 225 255
202 225 255
202 225 255
202 225 255
202 225 255
202 225 255
202 225 255
202 225 255
202 225 255
203 225 255
203 225 255
203 225 255
203 225 255
203 225 255
203 225 255
203 226 255
203 226 255
203 226 255
203 226 255
203 226 255
204 226 255
204 226 255
204 226 255
204 226 255
204 226 255
204 226 255
204 226 255
204 226 255
204 226 255
204 226 255
204 226 255
204 226 255
204 226 255
205 226 255
205 226 255
205 226 255
205 226 255
205 226 255
205 227 255
205 227 255
205 227 255
205 227 255
205 227 255
205 227 255
205 227 255
205 227 255
206 227 255
206 227 255
206 227 255
206 227 255
206 227 255
206 227 255
206 227 255
206 227 255
206 227 255
206 227 255
206 227 255
206 227 255
206 227 255
206 227 255
206 227 255
206 227 255
206 227 255
206 227 255
206 227 255
206 227 255
205 227 255
205 227 255
205 227 255
205 227 255
205 227 255
205 227 255
205 227 255
205 227 255
205 226 255
205 226 255
205 226 255
205 226 255
205 226 255
205 226 255
204 226 255
204 226 255
204 226 255
204 226 255
204 226 255
204 226 255
204 226 255
204 226 255
204 226 255
204 226 255
204 226 255
204 226 255
203 226 255
203 226 255
203 226 255
203 226 255
203 226 255
203 225 255
203 225 255
203 225 255
203 225 255
203 225 255
203 225 255
202 225 255
202 225 255
202 225 255
202 225 255
202 225 255
202 225 255
202 225 255
202 225 255
202 225 255
202 225 255
201 225 255
201 225 255
201 225 255
201 224 255
201 224 255
201 224 255
201 224 255
201 224 255
201 224 255
200 224 255
200 224 255
200 224 255
200 224 255
200 224 255
200 224 255
200 224 255
200 224 255
200 224 255
199 224 255
199 223 255
199 223 255
199 223 255
199 223 255
199 223 255
199 223 255
199 223 255
198 223 255
198 223 255
198 223 255
198 223 255
198 223 255
198 223 255
198 223 255
198 223 255
197 222 255
197 222 255
197 222 255
197 222 255
197 222 255
197 222 255
197 222 255
196 222 255
196 222 255
196 222 255
196 222 255
196 222 255
196 222 255
196 221 255
195 221 255
195 221 255
195 221 255
195 221 255
195 221 255
195 221 255
194 221 255
194 221 255
194 221 255
194 221 255
194 221 255
194 220 255
193 220 255
193 220 255
193 220 255
193 220 255
193 220 255
193 220 255
192 220 255
192 220 255
192 220 255
192 220 255
192 220 255
192 219 255
191 219 255
191 219 255
191 219 255
191 219 255
191 219 255
191 219 255
190 219 255
190 219 255
190 219 255
190 219 255
190 218 255
190 218 255
189 218 255
189 218 255
189 218 255
189 218 255
189 218 255
189 218 255
188 218 255
188 218 255
188 218 255
188 217 255
188 217 255
188 217 255
187 217 255
187 217 255
187 217 255
187 217 255
187 217 255
187 217 255
186 217 255
186 217 255
186 217 255
186 217 255
186 216 255
186 216 255
186 216 255
185 216 255
185 216 255
185 216 255
185 216 255
185 216 255
185 216 255
185 216 255
185 216 255
184 216 255
184 216 255
184 216 255
184 216 255
184 215 255
184 215 255
184 215 255
184 215 255
184 215 255
184 215 255
184 215 255
184 215 255
183 215 255
183 215 255
183 215 255
183 215 255
183 215 255
183 215 255
183 215 255
183 215 255
183 215 255
183 215 255
183 215 255
183 215 255
183 215 255
183 215 255
183 215 255
183 215 255
183 215 255
183 215 255
183 215 255
183 215 255
183 215 255
183 215 255
183 215 255
183 215 255
183 215 255
183 215 255
184 215 255
184 215 255
184 215 255
184 215 255
184 215 255
184 215 255
184 215 255
184 215 255
184 216 255
184 216 255
184 216 255
184 216 255
185 216 255
185 216 255
185 216 255
185 216 255
185 216 255
185 216 255
185 216 255
185 216 255
186 216 255
186 216 255
186 216 255
186 217 255
186 217 255
186 217 255
186 217 255
187 217 255
187 217 255
187 217 255
187 217 255
187 217 255
187 217 255
188 217 255
188 217 255
188 217 255
188 218 255
188 218 255
188 218 255
189 218 255
189 218 255
189 218 255
189 218 255
189 218 255
189 218 255
190 218 255
190 218 255
190 219 255
190 219 255
190 219 255
190 219 255
191 219 255
191 219 255
191 219 255
191 219 255
191 219 255
191 219 255
192 219 255
192 220 255
192 220 255
192 220 255
192 220 255
192 220 255
193 220 255
193 220 255
193 220 255
193 220 255
193 220 255
193 220 255
194 220 255
194 221 255
194 221 255
194 221 255
194 221 255
194 221 255
195 221 255
195 221 255
195 221 255
195 221 255
195 221 255
195 221 255
196 221 255
196 222 255
196 222 255
196 222 255
196 222 255
196 222 255
196 222 255
197 222 255
197 222 255
197 222 255
197 222 255
197 222 255
197 222 255
197 222 255
198 223 255
198 223 255
198 223 255
198 223 255
198 223 255
198 223 255
198 223 255
198 223 255
199 223 255
199 223 255
199 223 255
199 223 255
199 223 255
199 223 255
199 223 255
199 224 255
200 224 255
200 224 255
200 224 255
200 224 255
200 224 255
200 224 255
200 224 255
200 224 255
200 224 255
201 224 255
201 224 255
201 224 255
201 224 255
201 224 255
201 224 255
201 225 255
201 225 255
201 225 255
202 225 255
202 225 255
202 225 255
202 225 255
202 225 255
202 225 255
202 225 255
202 225 255
202 225 255
202 225 255
203 225 255
203 225 255
203 225 255
203 225 255
203 225 255
203 225 255
203 226 255
203 226 255
203 226 255
203 226 255
203 226 255
204 226 255
204 226 255
204 226 255
204 226 255
204 226 255
204 226 255
204 226 255
204 226 255
204 226 255
204 226 255
204 226 255
204 226 255
205 226 255
205 226 255
205 226 255
205 226 255
205 226 255
205 226 255
205 227 255
205 227 255
205 227 255
205 227 255
205 227 255
205 227 255
205 227 255
205 227 255
206 227 255
206 227 255
206 227 255
206 227 255
206 227 255
206 227 255
206 227 255
206 227 255
206 227 255
206 227 255
206 227 255
206 227 255
206 227 255
206 227 255
206 227 255
206 227 255
206 227 255
206 227 255
206 227 255
206 227 255
206 227 255
206 227 255
206 227 255
206 227 255
205 227 255
205 227 255
205 227 255
205 227 255
205 227 255
205 227 255
205 227 255
205 227 255
205 226 255
205 226 255
205 226 255
205 226 255
205 226 255
205 226 255
204 226 255
204 226 255
204 226 255
204 226 255
204 226 255
204 226 255
204 226 255
204 226 255
204 226 255
204 226 255
204 226 255
204 226 255
203 226 255
203 226 255
203 226 255
203 226 255
203 226 255
203 225 255
203 225 255
203 225 255
203 225 255
203 225 255
203 225 255
202 225 255
202 225 255
202 225 255
202 225 255
202 225 255
202 225 255
202 225 255
202 225 255
202 225 255
202 225 255
201 225 255
201 225 255
201 225 255
201 224 255
201 224 255
201 224 255
201 224 255
201 224 255
201 224 255
200 224 255
200 224 255
200 224 255
200 224 255
200 224 255
200 224 255
200 224 255
200 224 255
199 224 255
199 224 255
199 223 255
199 223 255
199 223 255
199 223 255
199 223 255
199 223 255
198 223 255
198 223 255
198 223 255
198 223 255
198 223 255
198 223 255
198 223 255
198 223 255
197 222 255
197 222 255
197 222 255
197 222 255
197 222 255
197 222 255
197 222 255
196 222 255
196 222 255
196 222 255
196 222 255
196 222 255
196 222 255
196 221 255
195 221 255
195 221 255
195 221 255
195 221 255
195 221 255
195 221 255
194 221 255
194 221 255
194 221 255
194 221 255
194 221 255
194 220 255
193 220 255
193 220 255
193 220 255
193 220 255
193 220 255
193 220 255
192 220 255
192 220 255
192 220 255
192 220 255
192 220 255
192 219 255
191 219 255
191 219 255
191 219 255
191 219 255
191 219 255
191 219 255
190 219 255
190 219 255
190 219 255
190 219 255
190 218 255
190 218 255
189 218 255
189 218 255
189 218 255
189 218 255
189 218 255
189 218 255
188 218 255
188 218 255
188 218 255
188 217 255
188 217 255
188 217 255
187 217 255
187 217 255
187 217 255
187 217 255
187 217 255
187 217 255
186 217 255
186 217 255
186 217 255
186 216 255
186 216 255
186 216 255
186 216 255
185 216 255
185 216 255
185 216 255
185 216 255
185 216 255
185 216 255
185 216 255
185 216 255
184 216 255
184 216 255
184 216 255
184 216 255
184 215 255
184 215 255
184 215 255
184 215 255
184 215 255
184 215 255
184 215 255
184 215 255
183 215 255
183 215 255
183 215 255
183 215 255
183 215 255
183 215 255
183 215 255
183 215 255
183 215 255
183 215 255
183 215 255
183 215 255
183 215 255
183 215 255
183 215 255
183 215 255
183 215 255
183 215 255
183 215 255
183 215 255
183 215 255
183 215 255
183 215 255
183 215 255
183 215 255
184 215 255
184 215 255
184 215 255
184 215 255
184 215 255
184 215 255
184 215 255
184 216 255
184 216 255
184 216 255
184 216 255
185 216 255
185 216 255
185 216 255
185 216 255
185 216 255
185 216 255
185 216 255
185 216 255
186 216 255
186 216 255
186 216 255
186 216 255
186 217 255
186 217 255
186 217 255
187 217 255
187 217 255
187 217 255
187 217 255
187 217 255
187 217 255
188 217 255
188 217 255
188 217 255
188 218 255
188 218 255
188 218 255
189 218 255
189 218 255
189 218 255
189 218 255
189 218 255
189 218 255
190 218 255
190 218 255
190 219 255
190 219 255
190 219 255
190 219 255
191 219 255
191 219 255
191 219 255
191 219 255
191 219 255
191 219 255
192 219 255
192 220 255
192 220 255
192 220 255
192 220 255
192 220 255
193 220 255
193 220 255
193 220 255
193 220 255
193 220 255
193 220 255
194 220 255
194 221 255
194 221 255
194 221 255
194 221 255
194 221 255
195 221 255
195 221 255
195 221 255
195 221 255
195 221 255
195 221 255
196 221 255
196 222 255
196 222 255
196 222 255
196 222 255
196 222 255
196 222 255
197 222 255
197 222 255
197 222 255
197 222 255
197 222 255
197 222 255
197 222 255
198 223 255
198 223 255
198 223 255
198 223 255
198 223 255
198 223 255
198 223 255
198 223 255
199 223 255
199 223 255
199 223 255
199 223 255
199 223 255
199 223 255
199 224 255
199 224 255
200 224 255
200 224 255
200 224 255
200 224 255
200 224 255
200 224 255
200 224 255
200 224 255
201 224 255
201 224 255
201 224 255
201 224 255
201 224 255
201 224 255
201 224 255
201 225 255
201 225 255
202 225 255
202 225 255
202 225 255
202 225 255
202 225 255
202 225 255
202 225 255
202 225 255
202 225 255
202 225 255
203 225 255
203 225 255
203 225 255
203 225 255
203 225 255
203 225 255
203 226 255
203 226 255
203 226 255
203 226 255
203 226 255
204 226 255
204 226 255
204 226 255
204 226 255
204 226 255
204 226 255
204 226 255
204 226 255
204 226 255
204 226 255
204 226 255
204 226 255
205 226 255
205 226 255
205 226 255
205 226 255
205 226 255
205 226 255
205 227 255
205 227 255
205 227 255
205 227 255
205 227 255
205 227 255
205 227 255
205 227 255
206 227 255
206 227 255
206 227 255
206 227 255
206 227 255
206 227 255
206 227 255
206 227 255
206 227 255
206 227 255
206 227 255
206 227 255
206 227 255
207 227 255
206 227 255
206 227 255
206 227 255
206 227 255
206 227 255
206 227 255
206 227 255
206 227 255
206 227 255
206 227 255
206 227 255
206 227 255
206 227 255
206 227 255
205 227 255
205 227 255
205 227 255
205 227 255
205 227 255
205 227 255
205 227 255
205 227 255
205 227 255
205 226 255
205 226 255
205 226 255
205 226 255
205 226 255
204 226 255
204 226 255
204 226 255
204 226 255
204 226 255
204 226 255
204 226 255
204 226 255
204 226 255
204 226 255
204 226 255
204 226 255
203 226 255
203 226 255
203 226 255
203 226 255
203 225 255
203 225 255
203 225 255
203 225 255
203 225 255
203 225 255
202 225 255
202 225 255
202 225 255
202 225 255
202 225 255
202 225 255
202 225 255
202 225 255
202 225 255
202 225 255
201 225 255
201 225 255
201 225 255
201 224 255
201 224 255
201 224 255
201 224 255
201 224 255
201 224 255
201 224 255
200 224 255
200 224 255
200 224 255
200 224 255
200 224 255
200 224 255
200 224 255
200 224 255
199 224 255
199 223 255
199 223 255
199 223 255
199 223 255
199 223 255
199 223 255
199 223 255
198 223 255
198 223 255
198 223 255
198 223 255
198 223 255
198 223 255
198 223 255
197 222 255
197 222 255
197 222 255
197 222 255
197 222 255
197 222 255
197 222 255
196 222 255
196 222 255
196 222 255
196 222 255
196 222 255
196 222 255
196 221 255
195 221 255
195 221 255
195 221 255
195 221 255
195 221 255
195 221 255
194 221 255
194 221 255
194 221 255
194 221 255
194 221 255
194 220 255
193 220 255
193 220 255
193 220 255
193 220 255
193 220 255
193 220 255
193 220 255
192 220 255
192 220 255
192 220 255
192 220 255
192 219 255
191 219 255
191 219 255
191 219 255
191 219 255
191 219 255
191 219 255
190 219 255
190 219 255
190 219 255
190 219 255
190 218 255
190 218 255
189 218 255
189 218 255
189 218 255
189 218 255
189 218 255
189 218 255
188 218 255
188 218 255
188 218 255
188 217 255
188 217 255
188 217 255
187 217 255
187 217 255
187 217 255
187 217 255
187 217 255
187 217 255
186 217 255
186 217 255
186 217 255
186 216 255
186 216 255
186 216 255
186 216 255
185 216 255
185 216 255
185 216 255
185 216 255
185 216 255
185 216 255
185 216 255
185 216 255
184 216 255
184 216 255
184 216 255
184 216 255
184 215 255
184 215 255
184 215 255
184 215 255
184 215 255
184 215 255
184 215 255
184 215 255
183 215 255
183 215 255
183 215 255
183 215 255
183 215 255
183 215 255
183 215 255
183 215 255
183 215 255
183 215 255
183 215 255
183 215 255
183 215 255
183 215 255
183 215 255
183 215 255
183 215 255
183 215 255
183 215 255
183 215 255
183 215 255
183 215 255
184 215 255
184 215 255
184 215 255
184 215 255
184 215 255
184 215 255
184 215 255
184 215 255
184 216 255
184 216 255
184 216 255
184 216 255
185 216 255
185 216 255
185 216 255
185 216 255
185 216 255
185 216 255
185 216 255
185 216 255
186 216 255
186 216 255
186 216 255
186 216 255
186 217 255
186 217 255
186 217 255
187 217 255
187 217 255
187 217 255
187 217 255
187 217 255
187 217 255
188 217 255
188 217 255
188 217 255
188 218 255
188 218 255
188 218 255
189 218 255
189 218 255
189 218 255
189 218 255
189 218 255
189 218 255
190 218 255
190 218 255
190 219 255
190 219 255
190 219 255
190 219 255
191 219 255
191 219 255
191 219 255
191 219 255
191 219 255
191 219 255
192 219 255
192 220 255
192 220 255
192 220 255
192 220 255
193 220 255
193 220 255
193 220 255
193 220 255
193 220 255
193 220 255
193 220 255
194 220 255
194 221 255
194 221 255
194 221 255
194 221 255
194 221 255
195 221 255
195 221 255
195 221 255
195 221 255
195 221 255
195 221 255
196 221 255
196 222 255
196 222 255
196 222 255
196 222 255
196 222 255
196 222 255
197 222 255
197 222 255
197 222 255
197 222 255
197 222 255
197 222 255
197 222 255
198 223 255
198 223 255
198 223 255
198 223 255
198 223 255
198 223 255
198 223 255
199 223 255
199 223 255
199 223 255
199 223 255
199 223 255
199 223 255
199 223 255
199 224 255
200 224 255
200 224 255
200 224 255
200 224 255
200 224 255
200 224 255
200 224 255
200 224 255
201 224 255
201 224 255
201 224 255
201 224 255
201 224 255
201 224 255
201 224 255
201 225 255
201 225 255
201 225 255
202 225 255
202 225 255
202 225 255
202 225 255
202 225 255
202 225 255
202 225 255
202 225 255
202 225 255
202 225 255
203 225 255
203 225 255
203 225 255
203 225 255
203 225 255
203 225 255
203 226 255
203 226 255
203 226 255
203 226 255
204 226 255
204 226 255
204 226 255
204 226 255
204 226 255
204 226 255
204 226 255
204 226 255
204 226 255
204 226 255
204 226 255
204 226 255
205 226 255
205 226 255
205 226 255
205 226 255
205 226 255
205 227 255
205 227 255
205 227 255
205 227 255
205 227 255
205 227 255
205 227 255
205 227 255
206 227 255
206 227 255
206 227 255
206 227 255
206 227 255
206 227 255
206 227 255
206 227 255
206 227 255
206 227 255
206 227 255
206 227 255
206 227 255
206 227 255
206 227 255
207 227 255
207 227 255
207 227 255
207 227 255
206 227 255
206 227 255
206 227 255
206 227 255
206 227 255
206 227 255
206 227 255
206 227 255
206 227 255
206 227 255
206 227 255
206 227 255
206 227 255
206 227 255
206 227 255
205 227 255
205 227 255
205 227 255
205 227 255
205 227 255
205 227 255
205 227 255
205 227 255
205 226 255
205 226 255
205 226 255
205 226 255
205 226 255
204 226 255
204 226 255
204 226 255
204 226 255
204 226 255
204 226 255
204 226 255
204 226 255
204 226 255
204 226 255
204 226 255
204 226 255
203 226 255
203 226 255
203 226 255
203 226 255
203 225 255
203 225 255
203 225 255
203 225 255
203 225 255
203 225 255
202 225 255
202 225 255
202 225 255
202 225 255
202 225 255
202 225 255
202 225 255
202 225 255
202 225 255
202 225 255
201 225 255
201 225 255
201 225 255
201 224 255
201 224 255
201 224 255
201 224 255
201 224 255
201 224 255
200 224 255
200 224 255
200 224 255
200 224 255
200 224 255
200 224 255
200 224 255
200 224 255
199 224 255
199 224 255
199 223 255
199 223 255
199 223 255
199 223 255
199 223 255
199 223 255
198 223 255
198 223 255
198 223 255
198 223 255
198 223 255
198 223 255
198 223 255
198 223 255
197 222 255
197 222 255
197 222 255
197 222 255
197 222 255
197 222 255
197 222 255
196 222 255
196 222 255
196 222 255
196 222 255
196 222 255
196 222 255
195 221 255
195 221 255
195 221 255
195 221 255
195 221 255
195 221 255
194 221 255
194 221 255
194 221 255
194 221 255
194 221 255
194 220 255
194 220 255
193 220 255
193 220 255
193 220 255
193 220 255
193 220 255
192 220 255
192 220 255
192 220 255
192 220 255
192 220 255
192 219 255
191 219 255
191 219 255
191 219 255
191 219 255
191 219 255
191 219 255
190 219 255
190 219 255
190 219 255
190 219 255
190 218 255
190 218 255
189 218 255
189 218 255
189 218 255
189 218 255
189 218 255
188 218 255
188 218 255
188 218 255
188 218 255
188 217 255
188 217 255
187 217 255
187 217 255
187 217 255
187 217 255
187 217 255
187 217 255
187 217 255
186 217 255
186 217 255
186 217 255
186 216 255
186 216 255
186 216 255
185 216 255
185 216 255
185 216 255
185 216 255
185 216 255
185 216 255
185 216 255
185 216 255
185 216 255
184 216 255
184 216 255
184 216 255
184 216 255
184 215 255
184 215 255
184 215 255
184 215 255
184 215 255
184 215 255
184 215 255
184 215 255
183 215 255
183 215 255
183 215 255
183 215 255
183 215 255
183 215 255
183 215 255
183 215 255
183 215 255
183 215 255
183 215 255
183 215 255
183 215 255
183 215 255
183 215 255
183 215 255
183 215 255
183 215 255
183 215 255
183 215 255
184 215 255
184 215 255
184 215 255
184 215 255
184 215 255
184 215 255
184 215 255
184 215 255
184 216 255
184 216 255
184 216 255
184 216 255
185 216 255
185 216 255
185 216 255
185 216 255
185 216 255
185 216 255
185 216 255
185 216 255
186 216 255
186 216 255
186 216 255
186 216 255
186 217 255
186 217 255
186 217 255
187 217 255
187 217 255
187 217 255
187 217 255
187 217 255
187 217 255
187 217 255
188 217 255
188 217 255
188 218 255
188 218 255
188 218 255
188 218 255
189 218 255
189 218 255
189 218 255
189 218 255
189 218 255
190 218 255
190 218 255
190 219 255
190 219 255
190 219 255
190 219 255
191 219 255
191 219 255
191 219 255
191 219 255
191 219 255
191 219 255
192 219 255
192 220 255
192 220 255
192 220 255
192 220 255
193 220 255
193 220 255
193 220 255
193 220 255
193 220 255
193 220 255
194 220 255
194 220 255
194 221 255
194 221 255
194 221 255
194 221 255
194 221 255
195 221 255
195 221 255
195 221 255
195 221 255
195 221 255
195 221 255
196 222 255
196 222 255
196 222 255
196 222 255
196 222 255
196 222 255
197 222 255
197 222 255
197 222 255
197 222 255
197 222 255
197 222 255
197 222 255
198 223 255
198 223 255
198 223 255
198 223 255
198 223 255
198 223 255
198 223 255
198 223 255
199 223 255
199 223 255
199 223 255
199 223 255
199 223 255
199 223 255
199 224 255
200 224 255
200 224 255
200 224 255
200 224 255
200 224 255
200 224 255
200 224 255
200 224 255
200 224 255
201 224 255
201 224 255
201 224 255
201 224 255
201 224 255
201 224 255
201 225 255
201 225 255
201 225 255
202 225 255
202 225 255
202 225 255
202 225 255
202 225 255
202 225 255
202 225 255
202 225 255
202 225 255
202 225 255
203 225 255
203 225 255
203 225 255
203 225 255
203 225 255
203 225 255
203 226 255
203 226 255
203 226 255
203 226 255
204 226 255
204 226 255
204 226 255
204 226 255
204 226 255
204 226 255
204 226 255
204 226 255
204 226 255
204 226 255
204 226 255
204 226 255
205 226 255
205 226 255
205 226 255
205 226 255
205 226 255
205 227 255
205 227 255
205 227 255
205 227 255
205 227 255
205 227 255
205 227 255
205 227 255
206 227 255
206 227 255
206 227 255
206 227 255
206 227 255
206 227 255
206 227 255
206 227 255
206 227 255
206 227 255
206 227 255
206 227 255
206 227 255
206 227 255
206 227 255
207 227 255
207 227 255
207 227 255
207 228 255
207 228 255
207 227 255
207 227 255
207 227 255
207 227 255
206 227 255
206 227 255
206 227 255
206 227 255
206 227 255
206 227 255
206 227 255
206 227 255
206 227 255
206 227 255
206 227 255
206 227 255
206 227 255
206 227 255
205 227 255
205 227 255
205 227 255
205 227 255
205 227 255
205 227 255
205 227 255
205 227 255
205 226 255
205 226 255
205 226 255
205 226 255
205 226 255
204 226 255
204 226 255
204 226 255
204 226 255
204 226 255
204 226 255
204 226 255
204 226 255
204 226 255
204 226 255
204 226 255
204 226 255
203 226 255
203 226 255
203 226 255
203 226 255
203 225 255
203 225 255
203 225 255
203 225 255
203 225 255
203 225 255
202 225 255
202 225 255
202 225 255
202 225 255
202 225 255
202 225 255
202 225 255
202 225 255
202 225 255
202 225 255
201 225 255
201 225 255
201 225 255
201 224 255
201 224 255
201 224 255
201 224 255
201 224 255
201 224 255
200 224 255
200 224 255
200 224 255
200 224 255
200 224 255
200 224 255
200 224 255
200 224 255
199 224 255
199 223 255
199 223 255
199 223 255
199 223 255
199 223 255
199 223 255
199 223 255
198 223 255
198 223 255
198 223 255
198 223 255
198 223 255
198 223 255
198 223 255
197 222 255
197 222 255
197 222 255
197 222 255
197 222 255
197 222 255
197 222 255
196 222 255
196 222 255
196 222 255
196 222 255
196 222 255
196 222 255
195 221 255
195 221 255
195 221 255
195 221 255
195 221 255
195 221 255
195 221 255
194 221 255
194 221 255
194 221 255
194 221 255
194 221 255
194 220 255
193 220 255
193 220 255
193 220 255
193 220 255
193 220 255
192 220 255
192 220 255
192 220 255
192 220 255
192 220 255
192 219 255
191 219 255
191 219 255
191 219 255
191 219 255
191 219 255
191 219 255
190 219 255
190 219 255
190 219 255
190 218 255
190 218 255
190 218 255
189 218 255
189 218 255
189 218 255
189 218 255
189 218 255
188 218 255
188 218 255
188 218 255
188 217 255
188 217 255
188 217 255
187 217 255
187 217 255
187 217 255
187 217 255
187 217 255
187 217 255
186 217 255
186 217 255
186 217 255
186 217 255
186 216 255
186 216 255
186 216 255
185 216 255
185 216 255
185 216 255
185 216 255
185 216 255
185 216 255
185 216 255
185 216 255
184 216 255
184 216 255
184 216 255
184 216 255
184 216 255
184 215 255
184 215 255
184 215 255
184 215 255
184 215 255
184 215 255
184 215 255
184 215 255
183 215 255
183 215 255
183 215 255
183 215 255
183 215 255
183 215 255
183 215 255
183 215 255
183 215 255
183 215 255
183 215 255
183 215 255
183 215 255
183 215 255
183 215 255
183 215 255
183 215 255
183 215 255
184 215 255
184 215 255
184 215 255
184 215 255
184 215 255
184 215 255
184 215 255
184 215 255
184 216 255
184 216 255
184 216 255
184 216 255
184 216 255
185 216 255
185 216 255
185 216 255
185 216 255
185 216 255
185 216 255
185 216 255
185 216 255
186 216 255
186 216 255
186 216 255
186 217 255
186 217 255
186 217 255
186 217 255
187 217 255
187 217 255
187 217 255
187 217 255
187 217 255
187 217 255
188 217 255
188 217 255
188 217 255
188 218 255
188 218 255
188 218 255
189 218 255
189 218 255
189 218 255
189 218 255
189 218 255
190 218 255
190 218 255
190 218 255
190 219 255
190 219 255
190 219 255
191 219 255
191 219 255
191 219 255
191 219 255
191 219 255
191 219 255
192 219 255
192 220 255
192 220 255
192 220 255
192 220 255
193 220 255
193 220 255
193 220 255
193 220 255
193 220 255
193 220 255
194 220 255
194 221 255
194 221 255
194 221 255
194 221 255
194 221 255
195 221 255
195 221 255
195 221 255
195 221 255
195 221 255
195 221 255
195 221 255
196 222 255
196 222 255
196 222 255
196 222 255
196 222 255
196 222 255
197 222 255
197 222 255
197 222 255
197 222 255
197 222 255
197 222 255
197 222 255
198 223 255
198 223 255
198 223 255
198 223 255
198 223 255
198 223 255
198 223 255
199 223 255
199 223 255
199 223 255
199 223 255
199 223 255
199 223 255
199 223 255
199 224 255
200 224 255
200 224 255
200 224 255
200 224 255
200 224 255
200 224 255
200 224 255
200 224 255
201 224 255
201 224 255
201 224 255
201 224 255
201 224 255
201 224 255
201 225 255
201 225 255
201 225 255
202 225 255
202 225 255
202 225 255
202 225 255
202 225 255
202 225 255
202 225 255
202 225 255
202 225 255
202 225 255
203 225 255
203 225 255
203 225 255
203 225 255
203 225 255
203 225 255
203 226 255
203 226 255
203 226 255
203 226 255
204 226 255
204 226 255
204 226 255
204 226 255
204 226 255
204 226 255
204 226 255
204 226 255
204 226 255
204 226 255
204 226 255
204 226 255
205 226 255
205 226 255
205 226 255
205 226 255
205 226 255
205 227 255
205 227 255
205 227 255
205 227 255
205 227 255
205 227 255
205 227 255
205 227 255
206 227 255
206 227 255
206 227 255
206 227 255
206 227 255
206 227 255
206 227 255
206 227 255
206 227 255
206 227 255
206 227 255
206 227 255
206 227 255
206 227 255
206 227 255
207 227 255
207 227 255
207 227 255
207 228 255
207 228 255
207 228 255
207 228 255
207 228 255
207 228 255
207 227 255
207 227 255
207 227 255
207 227 255
206 227 255
206 227 255
206 227 255
206 227 255
206 227 255
206 227 255
206 227 255
206 227 255
206 227 255
206 227 255
206 227 255
206 227 255
206 227 255
206 227 255
205 227 255
205 227 255
205 227 255
205 227 255
205 227 255
205 227 255
205 227 255
205 227 255
205 226 255
205 226 255
205 226 255
205 226 255
205 226 255
204 226 255
204 226 255
204 226 255
204 226 255
204 226 255
204 226 255
204 226 255
204 226 255
204 226 255
204 226 255
204 226 255
204 226 255
203 226 255
203 226 255
203 226 255
203 226 255
203 225 255
203 225 255
203 225 255
203 225 255
203 225 255
203 225 255
202 225 255
202 225 255
202 225 255
202 225 255
202 225 255
202 225 255
202 225 255
202 225 255
202 225 255
202 225 255
201 225 255
201 225 255
201 224 255
201 224 255
201 224 255
201 224 255
201 224 255
201 224 255
200 224 255
200 224 255
200 224 255
200 224 255
200 224 255
200 224 255
200 224 255
200 224 255
200 224 255
199 224 255
199 223 255
199 223 255
199 223 255
199 223 255
199 223 255
199 223 255
198 223 255
198 223 255
198 223 255
198 223 255
198 223 255
198 223 255
198 223 255
197 223 255
197 222 255
197 222 255
197 222 255
197 222 255
197 222 255
197 222 255
196 222 255
196 222 255
196 222 255
196 222 255
196 222 255
196 222 255
196 221 255
195 221 255
195 221 255
195 221 255
195 221 255
195 221 255
195 221 255
194 221 255
194 221 255
194 221 255
194 221 255
194 221 255
194 220 255
193 220 255
193 220 255
193 220 255
193 220 255
193 220 255
193 220 255
192 220 255
192 220 255
192 220 255
192 220 255
192 219 255
191 219 255
191 219 255
191 219 255
191 219 255
191 219 255
191 219 255
190 219 255
190 219 255
190 219 255
190 218 255
190 218 255
189 218 255
189 218 255
189 218 255
189 218 255
189 218 255
189 218 255
188 218 255
188 218 255
188 218 255
188 217 255
188 217 255
188 217 255
187 217 255
187 217 255
187 217 255
187 217 255
187 217 255
187 217 255
186 217 255
186 217 255
186 217 255
186 216 255
186 216 255
186 216 255
186 216 255
185 216 255
185 216 255
185 216 255
185 216 255
185 216 255
185 216 255
185 216 255
185 216 255
184 216 255
184 216 255
184 216 255
184 216 255
184 215 255
184 215 255
184 215 255
184 215 255
184 215 255
184 215 255
184 215 255
184 215 255
184 215 255
183 215 255
183 215 255
183 215 255
183 215 255
183 215 255
183 215 255
183 215 255
183 215 255
183 215 255
183 215 255
183 215 255
183 215 255
183 215 255
183 215 255
183 215 255
183 215 255
184 215 255
184 215 255
184 215 255
184 215 255
184 215 255
184 215 255
184 215 255
184 215 255
184 216 255
184 216 255
184 216 255
184 216 255
184 216 255
185 216 255
185 216 255
185 216 255
185 216 255
185 216 255
185 216 255
185 216 255
185 216 255
186 216 255
186 216 255
186 216 255
186 216 255
186 217 255
186 217 255
186 217 255
187 217 255
187 217 255
187 217 255
187 217 255
187 217 255
187 217 255
188 217 255
188 217 255
188 217 255
188 218 255
188 218 255
188 218 255
189 218 255
189 218 255
189 218 255
189 218 255
189 218 255
189 218 255
190 218 255
190 218 255
190 219 255
190 219 255
190 219 255
191 219 255
191 219 255
191 219 255
191 219 255
191 219 255
191 219 255
192 219 255
192 220 255
192 220 255
192 220 255
192 220 255
192 220 255
193 220 255
193 220 255
193 220 255
193 220 255
193 220 255
194 220 255
194 221 255
194 221 255
194 221 255
194 221 255
194 221 255
195 221 255
195 221 255
195 221 255
195 221 255
195 221 255
195 221 255
196 221 255
196 222 255
196 222 255
196 222 255
196 222 255
196 222 255
196 222 255
197 222 255
197 222 255
197 222 255
197 222 255
197 222 255
197 222 255
197 223 255
198 223 255
198 223 255
198 223 255
198 223 255
198 223 255
198 223 255
198 223 255
199 223 255
199 223 255
199 223 255
199 223 255
199 223 255
199 223 255
199 224 255
200 224 255
200 224 255
200 224 255
200 224 255
200 224 255
200 224 255
200 224 255
200 224 255
200 224 255
201 224 255
201 224 255
201 224 255
201 224 255
201 224 255
201 224 255
201 225 255
201 225 255
202 225 255
202 225 255
202 225 255
202 225 255
202 225 255
202 225 255
202 225 255
202 225 255
202 225 255
202 225 255
203 225 255
203 225 255
203 225 255
203 225 255
203 225 255
203 225 255
203 226 255
203 226 255
203 226 255
203 226 255
204 226 255
204 226 255
204 226 255
204 226 255
204 226 255
204 226 255
204 226 255
204 226 255
204 226 255
204 226 255
204 226 255
204 226 255
205 226 255
205 226 255
205 226 255
205 226 255
205 226 255
205 227 255
205 227 255
205 227 255
205 227 255
205 227 255
205 227 255
205 227 255
205 227 255
206 227 255
206 227 255
206 227 255
206 227 255
206 227 255
206 227 255
206 227 255
206 227 255
206 227 255
206 227 255
206 227 255
206 227 255
206 227 255
206 227 255
207 227 255
207 227 255
207 227 255
207 227 255
207 228 255
207 228 255
207 228 255
207 228 255
207 228 255
207 228 255
207 228 255
207 228 255
207 228 255
207 228 255
207 228 255
207 227 255
207 227 255
207 227 255
206 227 255
206 227 255
206 227 255
206 227 255
206 227 255
206 227 255
206 227 255
206 227 255
206 227 255
206 227 255
206 227 255
206 227 255
206 227 255
206 227 255
206 227 255
205 227 255
205 227 255
205 227 255
205 227 255
205 227 255
205 227 255
205 227 255
205 226 255
205 226 255
205 226 255
205 226 255
205 226 255
204 226 255
204 226 255
204 226 255
204 226 255
204 226 255
204 226 255
204 226 255
204 226 255
204 226 255
204 226 255
204 226 255
204 226 255
203 226 255
203 226 255
203 226 255
203 226 255
203 225 255
203 225 255
203 225 255
203 225 255
203 225 255
203 225 255
202 225 255
202 225 255
202 225 255
202 225 255
202 225 255
202 225 255
202 225 255
202 225 255
202 225 255
201 225 255
201 225 255
201 225 255
201 224 255
201 224 255
201 224 255
201 224 255
201 224 255
201 224 255
200 224 255
200 224 255
200 224 255
200 224 255
200 224 255
200 224 255
200 224 255
200 224 255
199 224 255
199 223 255
199 223 255
199 223 255
199 223 255
199 223 255
199 223 255
199 223 255
198 223 255
198 223 255
198 223 255
198 223 255
198 223 255
198 223 255
198 223 255
197 222 255
197 222 255
197 222 255
197 222 255
197 222 255
197 222 255
196 222 255
196 222 255
196 222 255
196 222 255
196 222 255
196 222 255
196 221 255
195 221 255
195 221 255
195 221 255
195 221 255
195 221 255
195 221 255
194 221 255
194 221 255
194 221 255
194 221 255
194 221 255
194 220 255
193 220 255
193 220 255
193 220 255
193 220 255
193 220 255
193 220 255
192 220 255
192 220 255
192 220 255
192 220 255
192 219 255
191 219 255
191 219 255
191 219 255
191 219 255
191 219 255
191 219 255
190 219 255
190 219 255
190 219 255
190 218 255
190 218 255
189 218 255
189 218 255
189 218 255
189 218 255
189 218 255
189 218 255
188 218 255
188 218 255
188 218 255
188 217 255
188 217 255
188 217 255
187 217 255
187 217 255
187 217 255
187 217 255
187 217 255
187 217 255
186 217 255
186 217 255
186 217 255
186 216 255
186 216 255
186 216 255
186 216 255
185 216 255
185 216 255
185 216 255
185 216 255
185 216 255
185 216 255
185 216 255
185 216 255
184 216 255
184 216 255
184 216 255
184 216 255
184 215 255
184 215 255
184 215 255
184 215 255
184 215 255
184 215 255
184 215 255
184 215 255
184 215 255
184 215 255
183 215 255
183 215 255
183 215 255
183 215 255
183 215 255
183 215 255
183 215 255
183 215 255
183 215 255
183 215 255
183 215 255
183 215 255
184 215 255
184 215 255
184 215 255
184 215 255
184 215 255
184 215 255
184 215 255
184 215 255
184 215 255
184 215 255
184 216 255
184 216 255
184 216 255
184 216 255
185 216 255
185 216 255
185 216 255
185 216 255
185 216 255
185 216 255
185 216 255
185 216 255
186 216 255
186 216 255
186 216 255
186 216 255
186 217 255
186 217 255
186 217 255
187 217 255
187 217 255
187 217 255
187 217 255
187 217 255
187 217 255
188 217 255
188 217 255
188 217 255
188 218 255
188 218 255
188 218 255
189 218 255
189 218 255
189 218 255
189 218 255
189 218 255
189 218 255
190 218 255
190 218 255
190 219 255
190 219 255
190 219 255
191 219 255
191 219 255
191 219 255
191 219 255
191 219 255
191 219 255
192 219 255
192 219 255
192 220 255
192 220 255
192 220 255
193 220 255
193 220 255
193 220 255
193 220 255
193 220 255
193 220 255
194 220 255
194 221 255
194 221 255
194 221 255
194 221 255
194 221 255
195 221 255
195 221 255
195 221 255
195 221 255
195 221 255
195 221 255
196 221 255
196 222 255
196 222 255
196 222 255
196 222 255
196 222 255
196 222 255
197 222 255
197 222 255
197 222 255
197 222 255
197 222 255
197 222 255
198 223 255
198 223 255
198 223 255
198 223 255
198 223 255
198 223 255
198 223 255
199 223 255
199 223 255
199 223 255
199 223 255
199 223 255
199 223 255
199 223 255
199 224 255
200 224 255
200 224 255
200 224 255
200 224 255
200 224 255
200 224 255
200 224 255
200 224 255
201 224 255
201 224 255
201 224 255
201 224 255
201 224 255
201 224 255
201 225 255
201 225 255
201 225 255
202 225 255
202 225 255
202 225 255
202 225 255
202 225 255
202 225 255
202 225 255
202 225 255
202 225 255
203 225 255
203 225 255
203 225 255
203 225 255
203 225 255
203 225 255
203 226 255
203 226 255
203 226 255
203 226 255
204 226 255
204 226 255
204 226 255
204 226 255
204 226 255
204 226 255
204 226 255
204 226 255
204 226 255
204 226 255
204 226 255
204 226 255
205 226 255
205 226 255
205 226 255
205 226 255
205 226 255
205 227 255
205 227 255
205 227 255
205 227 255
205 227 255
205 227 255
205 227 255
206 227 255
206 227 255
206 227 255
206 227 255
206 227 255
206 227 255
206 227 255
206 227 255
206 227 255
206 227 255
206 227 255
206 227 255
206 227 255
206 227 255
206 227 255
207 227 255
207 227 255
207 227 255
207 228 255
207 228 255
207 228 255
207 228 255
207 228 255
207 228 255
207 228 255
207 228 255
207 228 255
207 228 255
207 228 255
207 228 255
207 228 255
207 228 255
207 228 255
207 228 255
207 227 255
207 227 255
207 227 255
207 227 255
206 227 255
206 227 255
206 227 255
206 227 255
206 227 255
206 227 255
206 227 255
206 227 255
206 227 255
206 227 255
206 227 255
206 227 255
206 227 255
206 227 255
205 227 255
205 227 255
205 227 255
205 227 255
205 227 255
205 227 255
205 227 255
205 226 255
205 226 255
205 226 255
205 226 255
205 226 255
204 226 255
204 226 255
204 226 255
204 226 255
204 226 255
204 226 255
204 226 255
204 226 255
204 226 255
204 226 255
204 226 255
203 226 255
203 226 255
203 226 255
203 226 255
203 226 255
203 225 255
203 225 255
203 225 255
203 225 255
203 225 255
203 225 255
202 225 255
202 225 255
202 225 255
202 225 255
202 225 255
202 225 255
202 225 255
202 225 255
202 225 255
201 225 255
201 225 255
201 225 255
201 224 255
201 224 255
201 224 255
201 224 255
201 224 255
201 224 255
200 224 255
200 224 255
200 224 255
200 224 255
200 224 255
200 224 255
200 224 255
200 224 255
199 224 255
199 223 255
199 223 255
199 223 255
199 223 255
199 223 255
199 223 255
198 223 255
198 223 255
198 223 255
198 223 255
198 223 255
198 223 255
198 223 255
197 222 255
197 222 255
197 222 255
197 222 255
197 222 255
197 222 255
197 222 255
196 222 255
196 222 255
196 222 255
196 222 255
196 222 255
196 222 255
195 221 255
195 221 255
195 221 255
195 221 255
195 221 255
195 221 255
194 221 255
194 221 255
194 221 255
194 221 255
194 221 255
194 220 255
193 220 255
193 220 255
193 220 255
193 220 255
193 220 255
193 220 255
192 220 255
192 220 255
192 220 255
192 220 255
192 219 255
191 219 255
191 219 255
191 219 255
191 219 255
191 219 255
191 219 255
190 219 255
190 219 255
190 219 255
190 218 255
190 218 255
189 218 255
189 218 255
189 218 255
189 218 255
189 218 255
189 218 255
188 218 255
188 218 255
188 218 255
188 217 255
188 217 255
188 217 255
187 217 255
187 217 255
187 217 255
187 217 255
187 217 255
187 217 255
186 217 255
186 217 255
186 217 255
186 216 255
186 216 255
186 216 255
185 216 255
185 216 255
185 216 255
185 216 255
185 216 255
185 216 255
185 216 255
185 216 255
185 216 255
184 216 255
184 216 255
184 216 255
184 216 255
184 215 255
184 215 255
184 215 255
184 215 255
184 215 255
184 215 255
184 215 255
184 215 255
184 215 255
184 215 255
184 215 255
184 215 255
183 215 255
183 215 255
183 215 255
183 215 255
183 215 255
183 215 255
184 215 255
184 215 255
184 215 255
184 215 255
184 215 255
184 215 255
184 215 255
184 215 255
184 215 255
184 215 255
184 215 255
184 215 255
184 216 255
184 216 255
184 216 255
184 216 255
185 216 255
185 216 255
185 216 255
185 216 255
185 216 255
185 216 255
185 216 255
185 216 255
186 216 255
186 216 255
186 216 255
186 216 255
186 217 255
186 217 255
186 217 255
187 217 255
187 217 255
187 217 255
187 217 255
187 217 255
187 217 255
187 217 255
188 217 255
188 217 255
188 218 255
188 218 255
188 218 255
189 218 255
189 218 255
189 218 255
189 218 255
189 218 255
189 218 255
190 218 255
190 218 255
190 219 255
190 219 255
190 219 255
191 219 255
191 219 255
191 219 255
191 219 255
191 219 255
191 219 255
192 219 255
192 220 255
192 220 255
192 220 255
192 220 255
193 220 255
193 220 255
193 220 255
193 220 255
193 220 255
193 220 255
194 220 255
194 221 255
194 221 255
194 221 255
194 221 255
194 221 255
195 221 255
195 221 255
195 221 255
195 221 255
195 221 255
195 221 255
196 222 255
196 222 255
196 222 255
196 222 255
196 222 255
196 222 255
197 222 255
197 222 255
197 222 255
197 222 255
197 222 255
197 222 255
197 222 255
198 223 255
198 223 255
198 223 255
198 223 255
198 223 255
198 223 255
198 223 255
199 223 255
199 223 255
199 223 255
199 223 255
199 223 255
199 223 255
199 224 255
200 224 255
200 224 255
200 224 255
200 224 255
200 224 255
200 224 255
200 224 255
200 224 255
201 224 255
201 224 255
201 224 255
201 224 255
201 224 255
201 224 255
201 225 255
201 225 255
201 225 255
202 225 255
202 225 255
202 225 255
202 225 255
202 225 255
202 225 255
202 225 255
202 225 255
202 225 255
203 225 255
203 225 255
203 225 255
203 225 255
203 225 255
203 225 255
203 226 255
203 226 255
203 226 255
203 226 255
203 226 255
204 226 255
204 226 255
204 226 255
204 226 255
204 226 255
204 226 255
204 226 255
204 226 255
204 226 255
204 226 255
204 226 255
205 226 255
205 226 255
205 226 255
205 226 255
205 226 255
205 227 255
205 227 255
205 227 255
205 227 255
205 227 255
205 227 255
205 227 255
206 227 255
206 227 255
206 227 255
206 227 255
206 227 255
206 227 255
206 227 255
206 227 255
206 227 255
206 227 255
206 227 255
206 227 255
206 227 255
206 227 255
207 227 255
207 227 255
207 227 255
207 227 255
207 228 255
207 228 255
207 228 255
207 228 255
207 228 255
207 228 255
207 228 255
207 228 255
207 228 255
207 228 255
207 228 255
207 228 255
207 228 255
207 228 255
207 228 255
207 228 255
207 228 255
207 228 255
207 228 255
207 228 255
207 228 255
207 227 255
207 227 255
207 227 255
206 227 255
206 227 255
206 227 255
206 227 255
206 227 255
206 227 255
206 227 255
206 227 255
206 227 255
206 227 255
206 227 255
206 227 255
206 227 255
206 227 255
205 227 255
205 227 255
205 227 255
205 227 255
205 227 255
205 227 255
205 227 255
205 227 255
205 226 255
205 226 255
205 226 255
205 226 255
204 226 255
204 226 255
204 226 255
204 226 255
204 226 255
204 226 255
204 226 255
204 226 255
204 226 255
204 226 255
204 226 255
203 226 255
203 226 255
203 226 255
203 226 255
203 226 255
203 225 255
203 225 255
203 225 255
203 225 255
203 225 255
203 225 255
202 225 255
202 225 255
202 225 255
202 225 255
202 225 255
202 225 255
202 225 255
202 225 255
202 225 255
201 225 255
201 225 255
201 224 255
201 224 255
201 224 255
201 224 255
201 224 255
201 224 255
200 224 255
200 224 255
200 224 255
200 224 255
200 224 255
200 224 255
200 224 255
200 224 255
199 224 255
199 223 255
199 223 255
199 223 255
199 223 255
199 223 255
199 223 255
199 223 255
198 223 255
198 223 255
198 223 255
198 223 255
198 223 255
198 223 255
197 223 255
197 222 255
197 222 255
197 222 255
197 222 255
197 222 255
197 222 255
196 222 255
196 222 255
196 222 255
196 222 255
196 222 255
196 222 255
195 221 255
195 221 255
195 221 255
195 221 255
195 221 255
195 221 255
194 221 255
194 221 255
194 221 255
194 221 255
194 221 255
194 220 255
193 220 255
193 220 255
193 220 255
193 220 255
193 220 255
193 220 255
192 220 255
192 220 255
192 220 255
192 220 255
192 219 255
191 219 255
191 219 255
191 219 255
191 219 255
191 219 255
191 219 255
190 219 255
190 219 255
190 219 255
190 218 255
190 218 255
189 218 255
189 218 255
189 218 255
189 218 255
189 218 255
189 218 255
188 218 255
188 218 255
188 218 255
188 217 255
188 217 255
187 217 255
187 217 255
187 217 255
187 217 255
187 217 255
187 217 255
186 217 255
186 217 255
186 217 255
186 217 255
186 216 255
186 216 255
186 216 255
185 216 255
185 216 255
185 216 255
185 216 255
185 216 255
185 216 255
185 216 255
185 216 255
185 216 255
184 216 255
184 216 255
184 216 255
184 216 255
184 215 255
184 215 255
184 215 255
184 215 255
184 215 255
184 215 255
184 215 255
184 215 255
184 215 255
184 215 255
184 215 255
184 215 255
184 215 255
184 215 255
184 215 255
184 215 255
184 215 255
184 215 255
184 215 255
184 215 255
184 215 255
184 215 255
184 215 255
184 215 255
184 215 255
184 215 255
184 215 255
184 215 255
184 216 255
184 216 255
184 216 255
184 216 255
185 216 255
185 216 255
185 216 255
185 216 255
185 216 255
185 216 255
185 216 255
185 216 255
185 216 255
186 216 255
186 216 255
186 216 255
186 217 255
186 217 255
186 217 255
186 217 255
187 217 255
187 217 255
187 217 255
187 217 255
187 217 255
187 217 255
188 217 255
188 217 255
188 218 255
188 218 255
188 218 255
189 218 255
189 218 255
189 218 255
189 218 255
189 218 255
189 218 255
190 218 255
190 218 255
190 219 255
190 219 255
190 219 255
191 219 255
191 219 255
191 219 255
191 219 255
191 219 255
191 219 255
192 219 255
192 220 255
192 220 255
192 220 255
192 220 255
193 220 255
193 220 255
193 220 255
193 220 255
193 220 255
193 220 255
194 220 255
194 221 255
194 221 255
194 221 255
194 221 255
194 221 255
195 221 255
195 221 255
195 221 255
195 221 255
195 221 255
195 221 255
196 222 255
196 222 255
196 222 255
196 222 255
196 222 255
196 222 255
197 222 255
197 222 255
197 222 255
197 222 255
197 222 255
197 222 255
198 223 255
198 223 255
198 223 255
198 223 255
198 223 255
198 223 255
198 223 255
199 223 255
199 223 255
199 223 255
199 223 255
199 223 255
199 223 255
199 223 255
199 224 255
200 224 255
200 224 255
200 224 255
200 224 255
200 224 255
200 224 255
200 224 255
200 224 255
201 224 255
201 224 255
201 224 255
201 224 255
201 224 255
201 224 255
201 225 255
201 225 255
202 225 255
202 225 255
202 225 255
202 225 255
202 225 255
202 225 255
202 225 255
202 225 255
202 225 255
203 225 255
203 225 255
203 225 255
203 225 255
203 225 255
203 225 255
203 226 255
203 226 255
203 226 255
203 226 255
203 226 255
204 226 255
204 226 255
204 226 255
204 226 255
204 226 255
204 226 255
204 226 255
204 226 255
204 226 255
204 226 255
204 226 255
205 226 255
205 226 255
205 226 255
205 226 255
205 226 255
205 227 255
205 227 255
205 227 255
205 227 255
205 227 255
205 227 255
205 227 255
206 227 255
206 227 255
206 227 255
206 227 255
206 227 255
206 227 255
206 227 255
206 227 255
206 227 255
206 227 255
206 227 255
206 227 255
206 227 255
206 227 255
207 227 255
207 227 255
207 227 255
207 228 255
207 228 255
207 228 255
207 228 255
207 228 255
207 228 255
207 228 255
207 228 255
207 228 255
207 228 255
207 228 255
207 228 255
208 228 255
208 228 255
207 228 255
207 228 255
207 228 255
207 228 255
207 228 255
207 228 255
207 228 255
207 228 255
207 228 255
207 228 255
207 228 255
207 228 255
207 227 255
207 227 255
207 227 255
207 227 255
206 227 255
206 227 255
206 227 255
206 227 255
206 227 255
206 227 255
206 227 255
206 227 255
206 227 255
206 227 255
206 227 255
206 227 255
206 227 255
205 227 255
205 227 255
205 227 255
205 227 255
205 227 255
205 227 255
205 227 255
205 227 255
205 226 255
205 226 255
205 226 255
205 226 255
205 226 255
204 226 255
204 226 255
204 226 255
204 226 255
204 226 255
204 226 255
204 226 255
204 226 255
204 226 255
204 226 255
203 226 255
203 226 255
203 226 255
203 226 255
203 226 255
203 225 255
203 225 255
203 225 255
203 225 255
203 225 255
202 225 255
202 225 255
202 225 255
202 225 255
202 225 255
202 225 255
202 225 255
202 225 255
202 225 255
201 225 255
201 225 255
201 225 255
201 224 255
201 224 255
201 224 255
201 224 255
201 224 255
201 224 255
200 224 255
200 224 255
200 224 255
200 224 255
200 224 255
200 224 255
200 224 255
200 224 255
199 224 255
199 223 255
199 223 255
199 223 255
199 223 255
199 223 255
199 223 255
198 223 255
198 223 255
198 223 255
198 223 255
198 223 255
198 223 255
198 223 255
197 222 255
197 222 255
197 222 255
197 222 255
197 222 255
197 222 255
196 222 255
196 222 255
196 222 255
196 222 255
196 222 255
196 222 255
196 221 255
195 221 255
195 221 255
195 221 255
195 221 255
195 221 255
194 221 255
194 221 255
194 221 255
194 221 255
194 221 255
194 220 255
193 220 255
193 220 255
193 220 255
193 220 255
193 220 255
193 220 255
192 220 255
192 220 255
192 220 255
192 220 255
192 219 255
191 219 255
191 219 255
191 219 255
191 219 255
191 219 255
190 219 255
190 219 255
190 219 255
190 219 255
190 218 255
190 218 255
189 218 255
189 218 255
189 218 255
189 218 255
189 218 255
188 218 255
188 218 255
188 218 255
188 218 255
188 217 255
188 217 255
187 217 255
187 217 255
187 217 255
187 217 255
187 217 255
187 217 255
186 217 255
186 217 255
186 217 255
186 216 255
186 216 255
186 216 255
186 216 255
185 216 255
185 216 255
185 216 255
185 216 255
185 216 255
185 216 255
185 216 255
185 216 255
184 216 255
184 216 255
184 216 255
184 216 255
184 216 255
184 215 255
184 215 255
184 215 255
184 215 255
184 215 255
184 215 255
184 215 255
184 215 255
184 215 255
184 215 255
184 215 255
184 215 255
184 215 255
184 215 255
184 215 255
184 215 255
184 215 255
184 215 255
184 215 255
184 215 255
184 215 255
184 215 255
184 215 255
184 215 255
184 215 255
184 215 255
184 216 255
184 216 255
184 216 255
184 216 255
185 216 255
185 216 255
185 216 255
185 216 255
185 216 255
185 216 255
185 216 255
185 216 255
185 216 255
186 216 255
186 216 255
186 216 255
186 216 255
186 217 255
186 217 255
186 217 255
187 217 255
187 217 255
187 217 255
187 217 255
187 217 255
187 217 255
188 217 255
188 217 255
188 217 255
188 218 255
188 218 255
188 218 255
189 218 255
189 218 255
189 218 255
189 218 255
189 218 255
190 218 255
190 218 255
190 219 255
190 219 255
190 219 255
191 219 255
191 219 255
191 219 255
191 219 255
191 219 255
191 219 255
192 219 255
192 220 255
192 220 255
192 220 255
192 220 255
193 220 255
193 220 255
193 220 255
193 220 255
193 220 255
193 220 255
194 220 255
194 221 255
194 221 255
194 221 255
194 221 255
194 221 255
195 221 255
195 221 255
195 221 255
195 221 255
195 221 255
195 221 255
196 222 255
196 222 255
196 222 255
196 222 255
196 222 255
196 222 255
197 222 255
197 222 255
197 222 255
197 222 255
197 222 255
197 222 255
198 223 255
198 223 255
198 223 255
198 223 255
198 223 255
198 223 255
198 223 255
199 223 255
199 223 255
199 223 255
199 223 255
199 223 255
199 223 255
199 224 255
200 224 255
200 224 255
200 224 255
200 224 255
200 224 255
200 224 255
200 224 255
200 224 255
201 224 255
201 224 255
201 224 255
201 224 255
201 224 255
201 224 255
201 225 255
201 225 255
201 225 255
202 225 255
202 225 255
202 225 255
202 225 255
202 225 255
202 225 255
202 225 255
202 225 255
202 225 255
203 225 255
203 225 255
203 225 255
203 225 255
203 225 255
203 226 255
203 226 255
203 226 255
203 226 255
203 226 255
204 226 255
204 226 255
204 226 255
204 226 255
204 226 255
204 226 255
204 226 255
204 226 255
204 226 255
204 226 255
204 226 255
205 226 255
205 226 255
205 226 255
205 226 255
205 227 255
205 227 255
205 227 255
205 227 255
205 227 255
205 227 255
205 227 255
205 227 255
206 227 255
206 227 255
206 227 255
206 227 255
206 227 255
206 227 255
206 227 255
206 227 255
206 227 255
206 227 255
206 227 255
206 227 255
206 227 255
207 227 255
207 227 255
207 227 255
207 227 255
207 228 255
207 228 255
207 228 255
207 228 255
207 228 255
207 228 255
207 228 255
207 228 255
207 228 255
207 228 255
207 228 255
207 228 255
208 228 255
208 228 255
208 228 255
208 228 255
208 228 255
208 228 255
208 228 255
207 228 255
207 228 255
207 228 255
207 228 255
207 228 255
207 228 255
207 228 255
207 228 255
207 228 255
207 228 255
207 228 255
207 228 255
207 227 255
207 227 255
207 227 255
206 227 255
206 227 255
206 227 255
206 227 255
206 227 255
206 227 255
206 227 255
206 227 255
206 227 255
206 227 255
206 227 255
206 227 255
206 227 255
206 227 255
205 227 255
205 227 255
205 227 255
205 227 255
205 227 255
205 227 255
205 227 255
205 226 255
205 226 255
205 226 255
205 226 255
205 226 255
204 226 255
204 226 255
204 226 255
204 226 255
204 226 255
204 226 255
204 226 255
204 226 255
204 226 255
204 226 255
203 226 255
203 226 255
203 226 255
203 226 255
203 226 255
203 225 255
203 225 255
203 225 255
203 225 255
203 225 255
202 225 255
202 225 255
202 225 255
202 225 255
202 225 255
202 225 255
202 225 255
202 225 255
202 225 255
201 225 255
201 225 255
201 225 255
201 224 255
201 224 255
201 224 255
201 224 255
201 224 255
201 224 255
200 224 255
200 224 255
200 224 255
200 224 255
200 224 255
200 224 255
200 224 255
199 224 255
199 223 255
199 223 255
199 223 255
199 223 255
199 223 255
199 223 255
199 223 255
198 223 255
198 223 255
198 223 255
198 223 255
198 223 255
198 223 255
197 222 255
197 222 255
197 222 255
197 222 255
197 222 255
197 222 255
197 222 255
196 222 255
196 222 255
196 222 255
196 222 255
196 222 255
196 221 255
195 221 255
195 221 255
195 221 255
195 221 255
195 221 255
195 221 255
194 221 255
194 221 255
194 221 255
194 221 255
194 220 255
193 220 255
193 220 255
193 220 255
193 220 255
193 220 255
193 220 255
192 220 255
192 220 255
192 220 255
192 220 255
192 219 255
191 219 255
191 219 255
191 219 255
191 219 255
191 219 255
190 219 255
190 219 255
190 219 255
190 219 255
190 218 255
190 218 255
189 218 255
189 218 255
189 218 255
189 218 255
189 218 255
188 218 255
188 218 255
188 218 255
188 217 255
188 217 255
188 217 255
187 217 255
187 217 255
187 217 255
187 217 255
187 217 255
187 217 255
186 217 255
186 217 255
186 217 255
186 216 255
186 216 255
186 216 255
186 216 255
185 216 255
185 216 255
185 216 255
185 216 255
185 216 255
185 216 255
185 216 255
185 216 255
185 216 255
184 216 255
184 216 255
184 216 255
184 216 255
184 216 255
184 215 255
184 215 255
184 215 255
184 215 255
184 215 255
184 215 255
184 215 255
184 215 255
184 215 255
184 215 255
184 215 255
184 215 255
184 215 255
184 215 255
184 215 255
184 215 255
184 215 255
184 215 255
184 215 255
184 215 255
184 215 255
184 215 255
184 216 255
184 216 255
184 216 255
184 216 255
184 216 255
184 216 255
185 216 255
185 216 255
185 216 255
185 216 255
185 216 255
185 216 255
185 216 255
185 216 255
186 216 255
186 216 255
186 216 255
186 216 255
186 217 255
186 217 255
186 217 255
187 217 255
187 217 255
187 217 255
187 217 255
187 217 255
187 217 255
188 217 255
188 217 255
188 217 255
188 218 255
188 218 255
188 218 255
189 218 255
189 218 255
189 218 255
189 218 255
189 218 255
190 218 255
190 218 255
190 219 255
190 219 255
190 219 255
190 219 255
191 219 255
191 219 255
191 219 255
191 219 255
191 219 255
192 219 255
192 220 255
192 220 255
192 220 255
192 220 255
193 220 255
193 220 255
193 220 255
193 220 255
193 220 255
193 220 255
194 220 255
194 221 255
194 221 255
194 221 255
194 221 255
195 221 255
195 221 255
195 221 255
195 221 255
195 221 255
195 221 255
196 221 255
196 222 255
196 222 255
196 222 255
196 222 255
196 222 255
197 222 255
197 222 255
197 222 255
197 222 255
197 222 255
197 222 255
197 222 255
198 223 255
198 223 255
198 223 255
198 223 255
198 223 255
198 223 255
198 223 255
199 223 255
199 223 255
199 223 255
199 223 255
199 223 255
199 223 255
199 224 255
200 224 255
200 224 255
200 224 255
200 224 255
200 224 255
200 224 255
200 224 255
201 224 255
201 224 255
201 224 255
201 224 255
201 224 255
201 224 255
201 225 255
201 225 255
201 225 255
202 225 255
202 225 255
202 225 255
202 225 255
202 225 255
202 225 255
202 225 255
202 225 255
202 225 255
203 225 255
203 225 255
203 225 255
203 225 255
203 225 255
203 226 255
203 226 255
203 226 255
203 226 255
203 226 255
204 226 255
204 226 255
204 226 255
204 226 255
204 226 255
204 226 255
204 226 255
204 226 255
204 226 255
204 226 255
205 226 255
205 226 255
205 226 255
205 226 255
205 226 255
205 227 255
205 227 255
205 227 255
205 227 255
205 227 255
205 227 255
205 227 255
206 227 255
206 227 255
206 227 255
206 227 255
206 227 255
206 227 255
206 227 255
206 227 255
206 227 255
206 227 255
206 227 255
206 227 255
206 227 255
206 227 255
207 227 255
207 227 255
207 227 255
207 228 255
207 228 255
207 228 255
207 228 255
207 228 255
207 228 255
207 228 255
207 228 255
207 228 255
207 228 255
207 228 255
207 228 255
208 228 255
208 228 255
208 228 255
208 228 255
208 228 255
208 228 255
208 228 255
208 228 255
208 228 255
208 228 255
208 228 255
208 228 255
208 228 255
207 228 255
207 228 255
207 228 255
207 228 255
207 228 255
207 228 255
207 228 255
207 228 255
207 228 255
207 228 255
207 228 255
207 227 255
207 227 255
207 227 255
207 227 255
206 227 255
206 227 255
206 227 255
206 227 255
206 227 255
206 227 255
206 227 255
206 227 255
206 227 255
206 227 255
206 227 255
206 227 255
206 227 255
205 227 255
205 227 255
205 227 255
205 227 255
205 227 255
205 227 255
205 227 255
205 226 255
205 226 255
205 226 255
205 226 255
205 226 255
204 226 255
204 226 255
204 226 255
204 226 255
204 226 255
204 226 255
204 226 255
204 226 255
204 226 255
204 226 255
203 226 255
203 226 255
203 226 255
203 226 255
203 226 255
203 225 255
203 225 255
203 225 255
203 225 255
203 225 255
202 225 255
202 225 255
202 225 255
202 225 255
202 225 255
202 225 255
202 225 255
202 225 255
202 225 255
201 225 255
201 225 255
201 225 255
201 224 255
201 224 255
201 224 255
201 224 255
201 224 255
200 224 255
200 224 255
200 224 255
200 224 255
200 224 255
200 224 255
200 224 255
200 224 255
199 224 255
199 223 255
199 223 255
199 223 255
199 223 255
199 223 255
199 223 255
198 223 255
198 223 255
198 223 255
198 223 255
198 223 255
198 223 255
198 223 255
197 222 255
197 222 255
197 222 255
197 222 255
197 222 255
197 222 255
196 222 255
196 222 255
196 222 255
196 222 255
196 222 255
196 221 255
195 221 255
195 221 255
195 221 255
195 221 255
195 221 255
195 221 255
194 221 255
194 221 255
194 221 255
194 221 255
194 220 255
193 220 255
193 220 255
193 220 255
193 220 255
193 220 255
193 220 255
192 220 255
192 220 255
192 220 255
192 220 255
192 219 255
191 219 255
191 219 255
191 219 255
191 219 255
191 219 255
190 219 255
190 219 255
190 219 255
190 219 255
190 218 255
190 218 255
189 218 255
189 218 255
189 218 255
189 218 255
189 218 255
188 218 255
188 218 255
188 218 255
188 217 255
188 217 255
188 217 255
187 217 255
187 217 255
187 217 255
187 217 255
187 217 255
187 217 255
186 217 255
186 217 255
186 217 255
186 216 255
186 216 255
186 216 255
186 216 255
185 216 255
185 216 255
185 216 255
185 216 255
185 216 255
185 216 255
185 216 255
185 216 255
184 216 255
184 216 255
184 216 255
184 216 255
184 216 255
184 216 255
184 215 255
184 215 255
184 215 255
184 215 255
184 215 255
184 215 255
184 215 255
184 215 255
184 215 255
184 215 255
184 215 255
184 215 255
184 215 255
184 215 255
184 215 255
184 215 255
184 215 255
184 215 255
184 215 255
184 215 255
184 216 255
184 216 255
184 216 255
184 216 255
184 216 255
184 216 255
185 216 255
185 216 255
185 216 255
185 216 255
185 216 255
185 216 255
185 216 255
185 216 255
186 216 255
186 216 255
186 216 255
186 216 255
186 217 255
186 217 255
186 217 255
187 217 255
187 217 255
187 217 255
187 217 255
187 217 255
187 217 255
188 217 255
188 217 255
188 217 255
188 218 255
188 218 255
188 218 255
189 218 255
189 218 255
189 218 255
189 218 255
189 218 255
190 218 255
190 218 255
190 219 255
190 219 255
190 219 255
190 219 255
191 219 255
191 219 255
191 219 255
191 219 255
191 219 255
192 219 255
192 220 255
192 220 255
192 220 255
192 220 255
193 220 255
193 220 255
193 220 255
193 220 255
193 220 255
193 220 255
194 220 255
194 221 255
194 221 255
194 221 255
194 221 255
195 221 255
195 221 255
195 221 255
195 221 255
195 221 255
195 221 255
196 222 255
196 222 255
196 222 255
196 222 255
196 222 255
196 222 255
197 222 255
197 222 255
197 222 255
197 222 255
197 222 255
197 222 255
198 223 255
198 223 255
198 223 255
198 223 255
198 223 255
198 223 255
198 223 255
199 223 255
199 223 255
199 223 255
199 223 255
199 223 255
199 223 255
199 224 255
200 224 255
200 224 255
200 224 255
200 224 255
200 224 255
200 224 255
200 224 255
200 224 255
201 224 255
201 224 255
201 224 255
201 224 255
201 224 255
201 225 255
201 225 255
201 225 255
202 225 255
202 225 255
202 225 255
202 225 255
202 225 255
202 225 255
202 225 255
202 225 255
202 225 255
203 225 255
203 225 255
203 225 255
203 225 255
203 225 255
203 226 255
203 226 255
203 226 255
203 226 255
203 226 255
204 226 255
204 226 255
204 226 255
204 226 255
204 226 255
204 226 255
204 226 255
204 226 255
204 226 255
204 226 255
205 226 255
205 226 255
205 226 255
205 226 255
205 226 255
205 227 255
205 227 255
205 227 255
205 227 255
205 227 255
205 227 255
205 227 255
206 227 255
206 227 255
206 227 255
206 227 255
206 227 255
206 227 255
206 227 255
206 227 255
206 227 255
206 227 255
206 227 255
206 227 255
206 227 255
206 227 255
207 227 255
207 227 255
207 227 255
207 228 255
207 228 255
207 228 255
207 228 255
207 228 255
207 228 255
207 228 255
207 228 255
207 228 255
207 228 255
207 228 255
207 228 255
208 228 255
208 228 255
208 228 255
208 228 255
208 228 255
208 228 255
208 228 255
208 228 255
208 228 255
208 228 255
208 228 255
208 228 255
208 228 255
208 228 255
208 228 255
208 228 255
208 228 255
207 228 255
207 228 255
207 228 255
207 228 255
207 228 255
207 228 255
207 228 255
207 228 255
207 228 255
207 228 255
207 228 255
207 228 255
207 227 255
207 227 255
207 227 255
206 227 255
206 227 255
206 227 255
206 227 255
206 227 255
206 227 255
206 227 255
206 227 255
206 227 255
206 227 255
206 227 255
206 227 255
206 227 255
205 227 255
205 227 255
205 227 255
205 227 255
205 227 255
205 227 255
205 227 255
205 226 255
205 226 255
205 226 255
205 226 255
205 226 255
204 226 255
204 226 255
204 226 255
204 226 255
204 226 255
204 226 255
204 226 255
204 226 255
204 226 255
204 226 255
203 226 255
203 226 255
203 226 255
203 226 255
203 226 255
203 225 255
203 225 255
203 225 255
203 225 255
203 225 255
202 225 255
202 225 255
202 225 255
202 225 255
202 225 255
202 225 255
202 225 255
202 225 255
202 225 255
201 225 255
201 225 255
201 224 255
201 224 255
201 224 255
201 224 255
201 224 255
201 224 255
200 224 255
200 224 255
200 224 255
200 224 255
200 224 255
200 224 255
200 224 255
199 224 255
199 224 255
199 223 255
199 223 255
199 223 255
199 223 255
199 223 255
198 223 255
198 223 255
198 223 255
198 223 255
198 223 255
198 223 255
198 223 255
197 222 255
197 222 255
197 222 255
197 222 255
197 222 255
197 222 255
196 222 255
196 222 255
196 222 255
196 222 255
196 222 255
196 222 255
195 221 255
195 221 255
195 221 255
195 221 255
195 221 255
195 221 255
194 221 255
194 221 255
194 221 255
194 221 255
194 220 255
193 220 255
193 220 255
193 220 255
193 220 255
193 220 255
193 220 255
192 220 255
192 220 255
192 220 255
192 220 255
192 219 255
191 219 255
191 219 255
191 219 255
191 219 255
191 219 255
190 219 255
190 219 255
190 219 255
190 219 255
190 218 255
190 218 255
189 218 255
189 218 255
189 218 255
189 218 255
189 218 255
188 218 255
188 218 255
188 218 255
188 217 255
188 217 255
187 217 255
187 217 255
187 217 255
187 217 255
187 217 255
187 217 255
187 217 255
186 217 255
186 217 255
186 217 255
186 216 255
186 216 255
186 216 255
186 216 255
185 216 255
185 216 255
185 216 255
185 216 255
185 216 255
185 216 255
185 216 255
185 216 255
184 216 255
184 216 255
184 216 255
184 216 255
184 216 255
184 216 255
184 215 255
184 215 255
184 215 255
184 215 255
184 215 255
184 215 255
184 215 255
184 215 255
184 215 255
184 215 255
184 215 255
184 215 255
184 215 255
184 215 255
184 215 255
184 215 255
184 215 255
184 215 255
184 216 255
184 216 255
184 216 255
184 216 255
184 216 255
184 216 255
185 216 255
185 216 255
185 216 255
185 216 255
185 216 255
185 216 255
185 216 255
185 216 255
185 216 255
186 216 255
186 216 255
186 216 255
186 217 255
186 217 255
186 217 255
187 217 255
187 217 255
187 217 255
187 217 255
187 217 255
187 217 255
188 217 255
188 217 255
188 217 255
188 218 255
188 218 255
188 218 255
189 218 255
189 218 255
189 218 255
189 218 255
189 218 255
190 218 255
190 218 255
190 219 255
190 219 255
190 219 255
190 219 255
191 219 255
191 219 255
191 219 255
191 219 255
191 219 255
192 219 255
192 220 255
192 220 255
192 220 255
192 220 255
193 220 255
193 220 255
193 220 255
193 220 255
193 220 255
193 220 255
194 220 255
194 221 255
194 221 255
194 221 255
194 221 255
195 221 255
195 221 255
195 221 255
195 221 255
195 221 255
195 221 255
196 222 255
196 222 255
196 222 255
196 222 255
196 222 255
196 222 255
197 222 255
197 222 255
197 222 255
197 222 255
197 222 255
197 222 255
198 223 255
198 223 255
198 223 255
198 223 255
198 223 255
198 223 255
198 223 255
199 223 255
199 223 255
199 223 255
199 223 255
199 223 255
199 223 255
199 224 255
200 224 255
200 224 255
200 224 255
200 224 255
200 224 255
200 224 255
200 224 255
201 224 255
201 224 255
201 224 255
201 224 255
201 224 255
201 224 255
201 225 255
201 225 255
202 225 255
202 225 255
202 225 255
202 225 255
202 225 255
202 225 255
202 225 255
202 225 255
202 225 255
203 225 255
203 225 255
203 225 255
203 225 255
203 225 255
203 226 255
203 226 255
203 226 255
203 226 255
203 226 255
204 226 255
204 226 255
204 226 255
204 226 255
204 226 255
204 226 255
204 226 255
204 226 255
204 226 255
204 226 255
205 226 255
205 226 255
205 226 255
205 226 255
205 226 255
205 227 255
205 227 255
205 227 255
205 227 255
205 227 255
205 227 255
205 227 255
206 227 255
206 227 255
206 227 255
206 227 255
206 227 255
206 227 255
206 227 255
206 227 255
206 227 255
206 227 255
206 227 255
206 227 255
206 227 255
207 227 255
207 227 255
207 227 255
207 228 255
207 228 255
207 228 255
207 228 255
207 228 255
207 228 255
207 228 255
207 228 255
207 228 255
207 228 255
207 228 255
207 228 255
208 228 255
208 228 255
208 228 255
208 228 255
208 228 255
208 228 255
208 228 255
208 228 255
208 228 255
208 228 255
208 228 255
208 228 255
208 228 255
208 228 255
208 228 255
208 228 255
208 228 255
208 228 255
208 228 255
208 228 255
208 228 255
208 228 255
208 228 255
207 228 255
207 228 255
207 228 255
207 228 255
207 228 255
207 228 255
207 228 255
207 228 255
207 228 255
207 228 255
207 228 255
207 227 255
207 227 255
207 227 255
206 227 255
206 227 255
206 227 255
206 227 255
206 227 255
206 227 255
206 227 255
206 227 255
206 227 255
206 227 255
206 227 255
206 227 255
206 227 255
205 227 255
205 227 255
205 227 255
205 227 255
205 227 255
205 227 255
205 227 255
205 226 255
205 226 255
205 226 255
205 226 255
205 226 255
204 226 255
204 226 255
204 226 255
204 226 255
204 226 255
204 226 255
204 226 255
204 226 255
204 226 255
204 226 255
203 226 255
203 226 255
203 226 255
203 226 255
203 226 255
203 225 255
203 225 255
203 225 255
203 225 255
203 225 255
202 225 255
202 225 255
202 225 255
202 225 255
202 225 255
202 225 255
202 225 255
202 225 255
201 225 255
201 225 255
201 225 255
201 224 255
201 224 255
201 224 255
201 224 255
201 224 255
200 224 255
200 224 255
200 224 255
200 224 255
200 224 255
200 224 255
200 224 255
200 224 255
199 224 255
199 223 255
199 223 255
199 223 255
199 223 255
199 223 255
199 223 255
198 223 255
198 223 255
198 223 255
198 223 255
198 223 255
198 223 255
197 223 255
197 222 255
197 222 255
197 222 255
197 222 255
197 222 255
197 222 255
196 222 255
196 222 255
196 222 255
196 222 255
196 222 255
195 221 255
195 221 255
195 221 255
195 221 255
195 221 255
195 221 255
194 221 255
194 221 255
194 221 255
194 221 255
194 221 255
193 220 255
193 220 255
193 220 255
193 220 255
193 220 255
193 220 255
192 220 255
192 220 255
192 220 255
192 220 255
192 219 255
191 219 255
191 219 255
191 219 255
191 219 255
191 219 255
190 219 255
190 219 255
190 219 255
190 218 255
190 218 255
190 218 255
189 218 255
189 218 255
189 218 255
189 218 255
189 218 255
188 218 255
188 218 255
188 218 255
188 217 255
188 217 255
187 217 255
187 217 255
187 217 255
187 217 255
187 217 255
187 217 255
186 217 255
186 217 255
186 217 255
186 217 255
186 216 255
186 216 255
186 216 255
185 216 255
185 216 255
185 216 255
185 216 255
185 216 255
185 216 255
185 216 255
185 216 255
185 216 255
184 216 255
184 216 255
184 216 255
184 216 255
184 216 255
184 216 255
184 216 255
184 215 255
184 215 255
184 215 255
184 215 255
184 215 255
184 215 255
184 215 255
184 215 255
184 215 255
184 215 255
184 215 255
184 215 255
184 215 255
184 215 255
184 216 255
184 216 255
184 216 255
184 216 255
184 216 255
184 216 255
184 216 255
185 216 255
185 216 255
185 216 255
185 216 255
185 216 255
185 216 255
185 216 255
185 216 255
185 216 255
186 216 255
186 216 255
186 216 255
186 217 255
186 217 255
186 217 255
186 217 255
187 217 255
187 217 255
187 217 255
187 217 255
187 217 255
187 217 255
188 217 255
188 217 255
188 218 255
188 218 255
188 218 255
189 218 255
189 218 255
189 218 255
189 218 255
189 218 255
190 218 255
190 218 255
190 219 255
190 219 255
190 219 255
190 219 255
191 219 255
191 219 255
191 219 255
191 219 255
191 219 255
192 219 255
192 220 255
192 220 255
192 220 255
192 220 255
193 220 255
193 220 255
193 220 255
193 220 255
193 220 255
194 220 255
194 221 255
194 221 255
194 221 255
194 221 255
194 221 255
195 221 255
195 221 255
195 221 255
195 221 255
195 221 255
195 221 255
196 222 255
196 222 255
196 222 255
196 222 255
196 222 255
197 222 255
197 222 255
197 222 255
197 222 255
197 222 255
197 222 255
197 223 255
198 223 255
198 223 255
198 223 255
198 223 255
198 223 255
198 223 255
199 223 255
199 223 255
199 223 255
199 223 255
199 223 255
199 223 255
199 224 255
200 224 255
200 224 255
200 224 255
200 224 255
200 224 255
200 224 255
200 224 255
200 224 255
201 224 255
201 224 255
201 224 255
201 224 255
201 224 255
201 225 255
201 225 255
201 225 255
202 225 255
202 225 255
202 225 255
202 225 255
202 225 255
202 225 255
202 225 255
202 225 255
203 225 255
203 225 255
203 225 255
203 225 255
203 225 255
203 226 255
203 226 255
203 226 255
203 226 255
203 226 255
204 226 255
204 226 255
204 226 255
204 226 255
204 226 255
204 226 255
204 226 255
204 226 255
204 226 255
204 226 255
205 226 255
205 226 255
205 226 255
205 226 255
205 226 255
205 227 255
205 227 255
205 227 255
205 227 255
205 227 255
205 227 255
205 227 255
206 227 255
206 227 255
206 227 255
206 227 255
206 227 255
206 227 255
206 227 255
206 227 255
206 227 255
206 227 255
206 227 255
206 227 255
206 227 255
207 227 255
207 227 255
207 227 255
207 228 255
207 228 255
207 228 255
207 228 255
207 228 255
207 228 255
207 228 255
207 228 255
207 228 255
207 228 255
207 228 255
208 228 255
208 228 255
208 228 255
208 228 255
208 228 255
208 228 255
208 228 255
208 228 255
208 228 255
208 228 255
208 228 255
208 228 255
208 228 255
208 228 255
208 228 255
208 228 255
208 228 255
208 228 255
208 228 255
208 228 255
208 228 255
208 228 255
208 228 255
208 228 255
208 228 255
208 228 255
208 228 255
208 228 255
207 228 255
207 228 255
207 228 255
207 228 255
207 228 255
207 228 255
207 228 255
207 228 255
207 228 255
207 228 255
207 228 255
207 227 255
207 227 255
207 227 255
207 227 255
206 227 255
206 227 255
206 227 255
206 227 255
206 227 255
206 227 255
206 227 255
206 227 255
206 227 255
206 227 255
206 227 255
206 227 255
206 227 255
205 227 255
205 227 255
205 227 255
205 227 255
205 227 255
205 227 255
205 226 255
205 226 255
205 226 255
205 226 255
205 226 255
204 226 255
204 226 255
204 226 255
204 226 255
204 226 255
204 226 255
204 226 255
204 226 255
204 226 255
204 226 255
203 226 255
203 226 255
203 226 255
203 226 255
203 226 255
203 225 255
203 225 255
203 225 255
203 225 255
203 225 255
202 225 255
202 225 255
202 225 255
202 225 255
202 225 255
202 225 255
202 225 255
202 225 255
201 225 255
201 225 255
201 225 255
201 224 255
201 224 255
201 224 255
201 224 255
201 224 255
200 224 255
200 224 255
200 224 255
200 224 255
200 224 255
200 224 255
200 224 255
199 224 255
199 224 255
199 223 255
199 223 255
199 223 255
199 223 255
199 223 255
198 223 255
198 223 255
198 223 255
198 223 255
198 223 255
198 223 255
198 223 255
197 222 255
197 222 255
197 222 255
197 222 255
197 222 255
197 222 255
196 222 255
196 222 255
196 222 255
196 222 255
196 222 255
196 221 255
195 221 255
195 221 255
195 221 255
195 221 255
195 221 255
194 221 255
194 221 255
194 221 255
194 221 255
194 221 255
194 220 255
193 220 255
193 220 255
193 220 255
193 220 255
193 220 255
192 220 255
192 220 255
192 220 255
192 220 255
192 219 255
191 219 255
191 219 255
191 219 255
191 219 255
191 219 255
190 219 255
190 219 255
190 219 255
190 218 255
190 218 255
189 218 255
189 218 255
189 218 255
189 218 255
189 218 255
189 218 255
188 218 255
188 218 255
188 218 255
188 217 255
188 217 255
187 217 255
187 217 255
187 217 255
187 217 255
187 217 255
187 217 255
186 217 255
186 217 255
186 217 255
186 216 255
186 216 255
186 216 255
186 216 255
185 216 255
185 216 255
185 216 255
185 216 255
185 216 255
185 216 255
185 216 255
185 216 255
185 216 255
185 216 255
184 216 255
184 216 255
184 216 255
184 216 255
184 216 255
184 216 255
184 216 255
184 215 255
184 215 255
184 215 255
184 215 255
184 215 255
184 215 255
184 215 255
184 215 255
184 215 255
184 215 255
184 216 255
184 216 255
184 216 255
184 216 255
184 216 255
184 216 255
184 216 255
185 216 255
185 216 255
185 216 255
185 216 255
185 216 255
185 216 255
185 216 255
185 216 255
185 216 255
185 216 255
186 216 255
186 216 255
186 216 255
186 216 255
186 217 255
186 217 255
186 217 255
187 217 255
187 217 255
187 217 255
187 217 255
187 217 255
187 217 255
188 217 255
188 217 255
188 218 255
188 218 255
188 218 255
189 218 255
189 218 255
189 218 255
189 218 255
189 218 255
189 218 255
190 218 255
190 219 255
190 219 255
190 219 255
190 219 255
191 219 255
191 219 255
191 219 255
191 219 255
191 219 255
192 219 255
192 220 255
192 220 255
192 220 255
192 220 255
193 220 255
193 220 255
193 220 255
193 220 255
193 220 255
194 220 255
194 221 255
194 221 255
194 221 255
194 221 255
194 221 255
195 221 255
195 221 255
195 221 255
195 221 255
195 221 255
196 221 255
196 222 255
196 222 255
196 222 255
196 222 255
196 222 255
197 222 255
197 222 255
197 222 255
197 222 255
197 222 255
197 222 255
198 223 255
198 223 255
198 223 255
198 223 255
198 223 255
198 223 255
198 223 255
199 223 255
199 223 255
199 223 255
199 223 255
199 223 255
199 224 255
199 224 255
200 224 255
200 224 255
200 224 255
200 224 255
200 224 255
200 224 255
200 224 255
201 224 255
201 224 255
201 224 255
201 224 255
201 224 255
201 225 255
201 225 255
201 225 255
202 225 255
202 225 255
202 225 255
202 225 255
202 225 255
202 225 255
202 225 255
202 225 255
203 225 255
203 225 255
203 225 255
203 225 255
203 225 255
203 226 255
203 226 255
203 226 255
203 226 255
203 226 255
204 226 255
204 226 255
204 226 255
204 226 255
204 226 255
204 226 255
204 226 255
204 226 255
204 226 255
204 226 255
205 226 255
205 226 255
205 226 255
205 226 255
205 227 255
205 227 255
205 227 255
205 227 255
205 227 255
205 227 255
205 227 255
206 227 255
206 227 255
206 227 255
206 227 255
206 227 255
206 227 255
206 227 255
206 227 255
206 227 255
206 227 255
206 227 255
206 227 255
206 227 255
207 227 255
207 227 255
207 227 255
207 228 255
207 228 255
207 228 255
207 228 255
207 228 255
207 228 255
207 228 255
207 228 255
207 228 255
207 228 255
207 228 255
207 228 255
208 228 255
208 228 255
208 228 255
208 228 255
208 228 255
208 228 255
208 228 255
208 228 255
208 228 255
208 228 255
208 228 255
208 228 255
208 228 255
208 228 255
208 228 255
209 229 255
209 228 255
208 228 255
208 228 255
208 228 255
208 228 255
208 228 255
208 228 255
208 228 255
208 228 255
208 228 255
208 228 255
208 228 255
208 228 255
208 228 255
208 228 255
208 228 255
208 228 255
207 228 255
207 228 255
207 228 255
207 228 255
207 228 255
207 228 255
207 228 255
207 228 255
207 228 255
207 228 255
207 228 255
207 227 255
207 227 255
207 227 255
206 227 255
206 227 255
206 227 255
206 227 255
206 227 255
206 227 255
206 227 255
206 227 255
206 227 255
206 227 255
206 227 255
206 227 255
206 227 255
205 227 255
205 227 255
205 227 255
205 227 255
205 227 255
205 227 255
205 227 255
205 226 255
205 226 255
205 226 255
205 226 255
204 226 255
204 226 255
204 226 255
204 226 255
204 226 255
204 226 255
204 226 255
204 226 255
204 226 255
204 226 255
203 226 255
203 226 255
203 226 255
203 226 255
203 225 255
203 225 255
203 225 255
203 225 255
203 225 255
203 225 255
202 225 255
202 225 255
202 225 255
202 225 255
202 225 255
202 225 255
202 225 255
202 225 255
201 225 255
201 225 255
201 224 255
201 224 255
201 224 255
201 224 255
201 224 255
201 224 255
200 224 255
200 224 255
200 224 255
200 224 255
200 224 255
200 224 255
200 224 255
199 224 255
199 223 255
199 223 255
199 223 255
199 223 255
199 223 255
199 223 255
198 223 255
198 223 255
198 223 255
198 223 255
198 223 255
198 223 255
197 222 255
197 222 255
197 222 255
197 222 255
197 222 255
197 222 255
196 222 255
196 222 255
196 222 255
196 222 255
196 222 255
196 221 255
195 221 255
195 221 255
195 221 255
195 221 255
195 221 255
194 221 255
194 221 255
194 221 255
194 221 255
194 221 255
194 220 255
193 220 255
193 220 255
193 220 255
193 220 255
193 220 255
192 220 255
192 220 255
192 220 255
192 220 255
192 219 255
191 219 255
191 219 255
191 219 255
191 219 255
191 219 255
190 219 255
190 219 255
190 219 255
190 218 255
190 218 255
189 218 255
189 218 255
189 218 255
189 218 255
189 218 255
189 218 255
188 218 255
188 218 255
188 218 255
188 217 255
188 217 255
187 217 255
187 217 255
187 217 255
187 217 255
187 217 255
187 217 255
186 217 255
186 217 255
186 217 255
186 216 255
186 216 255
186 216 255
186 216 255
185 216 255
185 216 255
185 216 255
185 216 255
185 216 255
185 216 255
185 216 255
185 216 255
185 216 255
185 216 255
184 216 255
184 216 255
184 216 255
184 216 255
184 216 255
184 216 255
184 216 255
184 216 255
184 216 255
184 216 255
184 216 255
184 216 255
184 216 255
184 216 255
184 216 255
184 216 255
184 216 255
184 216 255
184 216 255
184 216 255
184 216 255
184 216 255
185 216 255
185 216 255
185 216 255
185 216 255
185 216 255
185 216 255
185 216 255
185 216 255
185 216 255
185 216 255
186 216 255
186 216 255
186 216 255
186 216 255
186 217 255
186 217 255
186 217 255
187 217 255
187 217 255
187 217 255
187 217 255
187 217 255
187 217 255
188 217 255
188 217 255
188 218 255
188 218 255
188 218 255
189 218 255
189 218 255
189 218 255
189 218 255
189 218 255
189 218 255
190 218 255
190 218 255
190 219 255
190 219 255
190 219 255
191 219 255
191 219 255
191 219 255
191 219 255
191 219 255
192 219 255
192 220 255
192 220 255
192 220 255
192 220 255
193 220 255
193 220 255
193 220 255
193 220 255
193 220 255
194 220 255
194 221 255
194 221 255
194 221 255
194 221 255
194 221 255
195 221 255
195 221 255
195 221 255
195 221 255
195 221 255
196 221 255
196 222 255
196 222 255
196 222 255
196 222 255
196 222 255
197 222 255
197 222 255
197 222 255
197 222 255
197 222 255
197 222 255
198 223 255
198 223 255
198 223 255
198 223 255
198 223 255
198 223 255
199 223 255
199 223 255
199 223 255
199 223 255
199 223 255
199 223 255
199 224 255
200 224 255
200 224 255
200 224 255
200 224 255
200 224 255
200 224 255
200 224 255
201 224 255
201 224 255
201 224 255
201 224 255
201 224 255
201 224 255
201 225 255
201 225 255
202 225 255
202 225 255
202 225 255
202 225 255
202 225 255
202 225 255
202 225 255
202 225 255
203 225 255
203 225 255
203 225 255
203 225 255
203 225 255
203 226 255
203 226 255
203 226 255
203 226 255
203 226 255
204 226 255
204 226 255
204 226 255
204 226 255
204 226 255
204 226 255
204 226 255
204 226 255
204 226 255
204 226 255
205 226 255
205 226 255
205 226 255
205 226 255
205 227 255
205 227 255
205 227 255
205 227 255
205 227 255
205 227 255
205 227 255
206 227 255
206 227 255
206 227 255
206 227 255
206 227 255
206 227 255
206 227 255
206 227 255
206 227 255
206 227 255
206 227 255
206 227 255
206 227 255
207 227 255
207 227 255
207 227 255
207 228 255
207 228 255
207 228 255
207 228 255
207 228 255
207 228 255
207 228 255
207 228 255
207 228 255
207 228 255
207 228 255
208 228 255
208 228 255
208 228 255
208 228 255
208 228 255
208 228 255
208 228 255
208 228 255
208 228 255
208 228 255
208 228 255
208 228 255
208 228 255
208 228 255
208 228 255
208 228 255
209 228 255
209 229 255
209 229 255
209 229 255
209 229 255
209 229 255
209 228 255
208 228 255
208 228 255
208 228 255
208 228 255
208 228 255
208 228 255
208 228 255
208 228 255
208 228 255
208 228 255
208 228 255
208 228 255
208 228 255
208 228 255
208 228 255
208 228 255
207 228 255
207 228 255
207 228 255
207 228 255
207 228 255
207 228 255
207 228 255
207 228 255
207 228 255
207 228 255
207 227 255
207 227 255
207 227 255
207 227 255
206 227 255
206 227 255
206 227 255
206 227 255
206 227 255
206 227 255
206 227 255
206 227 255
206 227 255
206 227 255
206 227 255
206 227 255
205 227 255
205 227 255
205 227 255
205 227 255
205 227 255
205 227 255
205 227 255
205 226 255
205 226 255
205 226 255
205 226 255
204 226 255
204 226 255
204 226 255
204 226 255
204 226 255
204 226 255
204 226 255
204 226 255
204 226 255
204 226 255
203 226 255
203 226 255
203 226 255
203 226 255
203 225 255
203 225 255
203 225 255
203 225 255
203 225 255
202 225 255
202 225 255
202 225 255
202 225 255
202 225 255
202 225 255
202 225 255
202 225 255
202 225 255
201 225 255
201 225 255
201 224 255
201 224 255
201 224 255
201 224 255
201 224 255
200 224 255
200 224 255
200 224 255
200 224 255
200 224 255
200 224 255
200 224 255
200 224 255
199 224 255
199 223 255
199 223 255
199 223 255
199 223 255
199 223 255
198 223 255
198 223 255
198 223 255
198 223 255
198 223 255
198 223 255
197 223 255
197 222 255
197 222 255
197 222 255
197 222 255
197 222 255
197 222 255
196 222 255
196 222 255
196 222 255
196 222 255
196 222 255
195 221 255
195 221 255
195 221 255
195 221 255
195 221 255
195 221 255
194 221 255
194 221 255
194 221 255
194 221 255
194 220 255
193 220 255
193 220 255
193 220 255
193 220 255
193 220 255
192 220 255
192 220 255
192 220 255
192 220 255
192 219 255
191 219 255
191 219 255
191 219 255
191 219 255
191 219 255
190 219 255
190 219 255
190 219 255
190 218 255
190 218 255
189 218 255
189 218 255
189 218 255
189 218 255
189 218 255
188 218 255
188 218 255
188 218 255
188 217 255
188 217 255
188 217 255
187 217 255
187 217 255
187 217 255
187 217 255
187 217 255
187 217 255
186 217 255
186 217 255
186 217 255
186 216 255
186 216 255
186 216 255
186 216 255
185 216 255
185 216 255
185 216 255
185 216 255
185 216 255
185 216 255
185 216 255
185 216 255
185 216 255
185 216 255
184 216 255
184 216 255
184 216 255
184 216 255
184 216 255
184 216 255
184 216 255
184 216 255
184 216 255
184 216 255
184 216 255
184 216 255
184 216 255
184 216 255
184 216 255
184 216 255
184 216 255
184 216 255
184 216 255
184 216 255
185 216 255
185 216 255
185 216 255
185 216 255
185 216 255
185 216 255
185 216 255
185 216 255
185 216 255
185 216 255
186 216 255
186 216 255
186 216 255
186 216 255
186 217 255
186 217 255
186 217 255
187 217 255
187 217 255
187 217 255
187 217 255
187 217 255
187 217 255
188 217 255
188 217 255
188 217 255
188 218 255
188 218 255
189 218 255
189 218 255
189 218 255
189 218 255
189 218 255
189 218 255
190 218 255
190 218 255
190 219 255
190 219 255
190 219 255
191 219 255
191 219 255
191 219 255
191 219 255
191 219 255
192 219 255
192 220 255
192 220 255
192 220 255
192 220 255
193 220 255
193 220 255
193 220 255
193 220 255
193 220 255
194 220 255
194 221 255
194 221 255
194 221 255
194 221 255
195 221 255
195 221 255
195 221 255
195 221 255
195 221 255
195 221 255
196 222 255
196 222 255
196 222 255
196 222 255
196 222 255
196 222 255
197 222 255
197 222 255
197 222 255
197 222 255
197 222 255
197 223 255
198 223 255
198 223 255
198 223 255
198 223 255
198 223 255
198 223 255
199 223 255
199 223 255
199 223 255
199 223 255
199 223 255
199 224 255
199 224 255
200 224 255
200 224 255
200 224 255
200 224 255
200 224 255
200 224 255
200 224 255
201 224 255
201 224 255
201 224 255
201 224 255
201 224 255
201 225 255
201 225 255
202 225 255
202 225 255
202 225 255
202 225 255
202 225 255
202 225 255
202 225 255
202 225 255
202 225 255
203 225 255
203 225 255
203 225 255
203 225 255
203 225 255
203 226 255
203 226 255
203 226 255
203 226 255
204 226 255
204 226 255
204 226 255
204 226 255
204 226 255
204 226 255
204 226 255
204 226 255
204 226 255
204 226 255
205 226 255
205 226 255
205 226 255
205 226 255
205 227 255
205 227 255
205 227 255
205 227 255
205 227 255
205 227 255
205 227 255
206 227 255
206 227 255
206 227 255
206 227 255
206 227 255
206 227 255
206 227 255
206 227 255
206 227 255
206 227 255
206 227 255
206 227 255
207 227 255
207 227 255
207 227 255
207 228 255
207 228 255
207 228 255
207 228 255
207 228 255
207 228 255
207 228 255
207 228 255
207 228 255
207 228 255
207 228 255
208 228 255
208 228 255
208 228 255
208 228 255
208 228 255
208 228 255
208 228 255
208 228 255
208 228 255
208 228 255
208 228 255
208 228 255
208 228 255
208 228 255
208 228 255
208 228 255
209 228 255
209 228 255
209 229 255
209 229 255
209 229 255
209 229 255
209 229 255
209 229 255
209 229 255
209 229 255
209 229 255
209 228 255
208 228 255
208 228 255
208 228 255
208 228 255
208 228 255
208 228 255
208 228 255
208 228 255
208 228 255
208 228 255
208 228 255
208 228 255
208 228 255
208 228 255
208 228 255
208 228 255
207 228 255
207 228 255
207 228 255
207 228 255
207 228 255
207 228 255
207 228 255
207 228 255
207 228 255
207 228 255
207 228 255
207 227 255
207 227 255
207 227 255
206 227 255
206 227 255
206 227 255
206 227 255
206 227 255
206 227 255
206 227 255
206 227 255
206 227 255
206 227 255
206 227 255
206 227 255
205 227 255
205 227 255
205 227 255
205 227 255
205 227 255
205 227 255
205 227 255
205 226 255
205 226 255
205 226 255
205 226 255
205 226 255
204 226 255
204 226 255
204 226 255
204 226 255
204 226 255
204 226 255
204 226 255
204 226 255
204 226 255
203 226 255
203 226 255
203 226 255
203 226 255
203 225 255
203 225 255
203 225 255
203 225 255
203 225 255
202 225 255
202 225 255
202 225 255
202 225 255
202 225 255
202 225 255
202 225 255
202 225 255
201 225 255
201 225 255
201 225 255
201 224 255
201 224 255
201 224 255
201 224 255
201 224 255
200 224 255
200 224 255
200 224 255
200 224 255
200 224 255
200 224 255
200 224 255
199 224 255
199 223 255
199 223 255
199 223 255
199 223 255
199 223 255
199 223 255
198 223 255
198 223 255
198 223 255
198 223 255
198 223 255
198 223 255
197 222 255
197 222 255
197 222 255
197 222 255
197 222 255
197 222 255
196 222 255
196 222 255
196 222 255
196 222 255
196 222 255
195 221 255
195 221 255
195 221 255
195 221 255
195 221 255
195 221 255
194 221 255
194 221 255
194 221 255
194 221 255
194 220 255
193 220 255
193 220 255
193 220 255
193 220 255
193 220 255
192 220 255
192 220 255
192 220 255
192 220 255
192 219 255
191 219 255
191 219 255
191 219 255
191 219 255
191 219 255
190 219 255
190 219 255
190 219 255
190 218 255
190 218 255
189 218 255
189 218 255
189 218 255
189 218 255
189 218 255
188 218 255
188 218 255
188 218 255
188 217 255
188 217 255
188 217 255
187 217 255
187 217 255
187 217 255
187 217 255
187 217 255
187 217 255
186 217 255
186 217 255
186 217 255
186 216 255
186 216 255
186 216 255
186 216 255
185 216 255
185 216 255
185 216 255
185 216 255
185 216 255
185 216 255
185 216 255
185 216 255
185 216 255
185 216 255
185 216 255
184 216 255
184 216 255
184 216 255
184 216 255
184 216 255
184 216 255
184 216 255
184 216 255
184 216 255
184 216 255
184 216 255
184 216 255
184 216 255
184 216 255
184 216 255
184 216 255
185 216 255
185 216 255
185 216 255
185 216 255
185 216 255
185 216 255
185 216 255
185 216 255
185 216 255
185 216 255
185 216 255
186 216 255
186 216 255
186 216 255
186 216 255
186 217 255
186 217 255
186 217 255
187 217 255
187 217 255
187 217 255
187 217 255
187 217 255
187 217 255
188 217 255
188 217 255
188 217 255
188 218 255
188 218 255
188 218 255
189 218 255
189 218 255
189 218 255
189 218 255
189 218 255
190 218 255
190 218 255
190 219 255
190 219 255
190 219 255
191 219 255
191 219 255
191 219 255
191 219 255
191 219 255
192 219 255
192 220 255
192 220 255
192 220 255
192 220 255
193 220 255
193 220 255
193 220 255
193 220 255
193 220 255
194 220 255
194 221 255
194 221 255
194 221 255
194 221 255
195 221 255
195 221 255
195 221 255
195 221 255
195 221 255
195 221 255
196 222 255
196 222 255
196 222 255
196 222 255
196 222 255
197 222 255
197 222 255
197 222 255
197 222 255
197 222 255
197 222 255
198 223 255
198 223 255
198 223 255
198 223 255
198 223 255
198 223 255
199 223 255
199 223 255
199 223 255
199 223 255
199 223 255
199 223 255
199 224 255
200 224 255
200 224 255
200 224 255
200 224 255
200 224 255
200 224 255
200 224 255
201 224 255
201 224 255
201 224 255
201 224 255
201 224 255
201 225 255
201 225 255
201 225 255
202 225 255
202 225 255
202 225 255
202 225 255
202 225 255
202 225 255
202 225 255
202 225 255
203 225 255
203 225 255
203 225 255
203 225 255
203 225 255
203 226 255
203 226 255
203 226 255
203 226 255
204 226 255
204 226 255
204 226 255
204 226 255
204 226 255
204 226 255
204 226 255
204 226 255
204 226 255
204 226 255
205 226 255
205 226 255
205 226 255
205 226 255
205 227 255
205 227 255
205 227 255
205 227 255
205 227 255
205 227 255
206 227 255
206 227 255
206 227 255
206 227 255
206 227 255
206 227 255
206 227 255
206 227 255
206 227 255
206 227 255
206 227 255
206 227 255
206 227 255
207 227 255
207 227 255
207 227 255
207 228 255
207 228 255
207 228 255
207 228 255
207 228 255
207 228 255
207 228 255
207 228 255
207 228 255
207 228 255
207 228 255
208 228 255
208 228 255
208 228 255
208 228 255
208 228 255
208 228 255
208 228 255
208 228 255
208 228 255
208 228 255
208 228 255
208 228 255
208 228 255
208 228 255
208 228 255
209 228 255
209 228 255
209 229 255
209 229 255
209 229 255
209 229 255
209 229 255
209 229 255
209 229 255
209 229 255
209 229 255
209 229 255
209 229 255
209 229 255
209 229 255
209 229 255
209 229 255
209 228 255
209 228 255
208 228 255
208 228 255
208 228 255
208 228 255
208 228 255
208 228 255
208 228 255
208 228 255
208 228 255
208 228 255
208 228 255
208 228 255
208 228 255
208 228 255
208 228 255
207 228 255
207 228 255
207 228 255
207 228 255
207 228 255
207 228 255
207 228 255
207 228 255
207 228 255
207 228 255
207 228 255
207 227 255
207 227 255
207 227 255
206 227 255
206 227 255
206 227 255
206 227 255
206 227 255
206 227 255
206 227 255
206 227 255
206 227 255
206 227 255
206 227 255
206 227 255
205 227 255
205 227 255
205 227 255
205 227 255
205 227 255
205 227 255
205 226 255
205 226 255
205 226 255
205 226 255
205 226 255
204 226 255
204 226 255
204 226 255
204 226 255
204 226 255
204 226 255
204 226 255
204 226 255
204 226 255
203 226 255
203 226 255
203 226 255
203 226 255
203 225 255
203 225 255
203 225 255
203 225 255
203 225 255
202 225 255
202 225 255
202 225 255
202 225 255
202 225 255
202 225 255
202 225 255
202 225 255
201 225 255
201 225 255
201 224 255
201 224 255
201 224 255
201 224 255
201 224 255
201 224 255
200 224 255
200 224 255
200 224 255
200 224 255
200 224 255
200 224 255
200 224 255
199 224 255
199 223 255
199 223 255
199 223 255
199 223 255
199 223 255
198 223 255
198 223 255
198 223 255
198 223 255
198 223 255
198 223 255
197 222 255
197 222 255
197 222 255
197 222 255
197 222 255
197 222 255
196 222 255
196 222 255
196 222 255
196 222 255
196 222 255
196 221 255
195 221 255
195 221 255
195 221 255
195 221 255
195 221 255
194 221 255
194 221 255
194 221 255
194 221 255
194 220 255
193 220 255
193 220 255
193 220 255
193 220 255
193 220 255
192 220 255
192 220 255
192 220 255
192 220 255
192 219 255
191 219 255
191 219 255
191 219 255
191 219 255
191 219 255
190 219 255
190 219 255
190 219 255
190 218 255
190 218 255
189 218 255
189 218 255
189 218 255
189 218 255
189 218 255
188 218 255
188 218 255
188 218 255
188 217 255
188 217 255
188 217 255
187 217 255
187 217 255
187 217 255
187 217 255
187 217 255
187 217 255
186 217 255
186 217 255
186 217 255
186 216 255
186 216 255
186 216 255
186 216 255
185 216 255
185 216 255
185 216 255
185 216 255
185 216 255
185 216 255
185 216 255
185 216 255
185 216 255
185 216 255
185 216 255
185 216 255
184 216 255
184 216 255
184 216 255
184 216 255
184 216 255
184 216 255
184 216 255
184 216 255
184 216 255
184 216 255
184 216 255
184 216 255
185 216 255
185 216 255
185 216 255
185 216 255
185 216 255
185 216 255
185 216 255
185 216 255
185 216 255
185 216 255
185 216 255
185 216 255
186 216 255
186 216 255
186 216 255
186 216 255
186 217 255
186 217 255
186 217 255
187 217 255
187 217 255
187 217 255
187 217 255
187 217 255
187 217 255
188 217 255
188 217 255
188 217 255
188 218 255
188 218 255
188 218 255
189 218 255
189 218 255
189 218 255
189 218 255
189 218 255
190 218 255
190 218 255
190 219 255
190 219 255
190 219 255
191 219 255
191 219 255
191 219 255
191 219 255
191 219 255
192 219 255
192 220 255
192 220 255
192 220 255
192 220 255
193 220 255
193 220 255
193 220 255
193 220 255
193 220 255
194 220 255
194 221 255
194 221 255
194 221 255
194 221 255
195 221 255
195 221 255
195 221 255
195 221 255
195 221 255
196 221 255
196 222 255
196 222 255
196 222 255
196 222 255
196 222 255
197 222 255
197 222 255
197 222 255
197 222 255
197 222 255
197 222 255
198 223 255
198 223 255
198 223 255
198 223 255
198 223 255
198 223 255
199 223 255
199 223 255
199 223 255
199 223 255
199 223 255
199 224 255
200 224 255
200 224 255
200 224 255
200 224 255
200 224 255
200 224 255
200 224 255
201 224 255
201 224 255
201 224 255
201 224 255
201 224 255
201 225 255
201 225 255
201 225 255
202 225 255
202 225 255
202 225 255
202 225 255
202 225 255
202 225 255
202 225 255
202 225 255
203 225 255
203 225 255
203 225 255
203 225 255
203 225 255
203 226 255
203 226 255
203 226 255
203 226 255
204 226 255
204 226 255
204 226 255
204 226 255
204 226 255
204 226 255
204 226 255
204 226 255
204 226 255
205 226 255
205 226 255
205 226 255
205 226 255
205 226 255
205 227 255
205 227 255
205 227 255
205 227 255
205 227 255
205 227 255
206 227 255
206 227 255
206 227 255
206 227 255
206 227 255
206 227 255
206 227 255
206 227 255
206 227 255
206 227 255
206 227 255
206 227 255
207 227 255
207 227 255
207 227 255
207 227 255
207 228 255
207 228 255
207 228 255
207 228 255
207 228 255
207 228 255
207 228 255
207 228 255
207 228 255
207 228 255
208 228 255
208 228 255
208 228 255
208 228 255
208 228 255
208 228 255
208 228 255
208 228 255
208 228 255
208 228 255
208 228 255
208 228 255
208 228 255
208 228 255
208 228 255
209 228 255
209 228 255
209 229 255
209 229 255
209 229 255
209 229 255
209 229 255
209 229 255
209 229 255
209 229 255
209 229 255
209 229 255
209 229 255
209 229 255
209 229 255
209 229 255
209 229 255
209 229 255
209 229 255
209 229 255
209 229 255
209 229 255
209 229 255
209 228 255
208 228 255
208 228 255
208 228 255
208 228 255
208 228 255
208 228 255
208 228 255
208 228 255
208 228 255
208 228 255
208 228 255
208 228 255
208 228 255
208 228 255
208 228 255
208 228 255
207 228 255
207 228 255
207 228 255
207 228 255
207 228 255
207 228 255
207 228 255
207 228 255
207 228 255
207 228 255
207 227 255
207 227 255
207 227 255
206 227 255
206 227 255
206 227 255
206 227 255
206 227 255
206 227 255
206 227 255
206 227 255
206 227 255
206 227 255
206 227 255
206 227 255
205 227 255
205 227 255
205 227 255
205 227 255
205 227 255
205 227 255
205 226 255
205 226 255
205 226 255
205 226 255
205 226 255
204 226 255
204 226 255
204 226 255
204 226 255
204 226 255
204 226 255
204 226 255
204 226 255
204 226 255
203 226 255
203 226 255
203 226 255
203 226 255
203 225 255
203 225 255
203 225 255
203 225 255
203 225 255
202 225 255
202 225 255
202 225 255
202 225 255
202 225 255
202 225 255
202 225 255
202 225 255
201 225 255
201 225 255
201 224 255
201 224 255
201 224 255
201 224 255
201 224 255
200 224 255
200 224 255
200 224 255
200 224 255
200 224 255
200 224 255
200 224 255
199 224 255
199 223 255
199 223 255
199 223 255
199 223 255
199 223 255
199 223 255
198 223 255
198 223 255
198 223 255
198 223 255
198 223 255
198 223 255
197 222 255
197 222 255
197 222 255
197 222 255
197 222 255
196 222 255
196 222 255
196 222 255
196 222 255
196 222 255
196 221 255
195 221 255
195 221 255
195 221 255
195 221 255
195 221 255
194 221 255
194 221 255
194 221 255
194 221 255
194 220 255
193 220 255
193 220 255
193 220 255
193 220 255
193 220 255
192 220 255
192 220 255
192 220 255
192 220 255
192 219 255
191 219 255
191 219 255
191 219 255
191 219 255
191 219 255
190 219 255
190 219 255
190 219 255
190 218 255
190 218 255
189 218 255
189 218 255
189 218 255
189 218 255
189 218 255
188 218 255
188 218 255
188 218 255
188 217 255
188 217 255
188 217 255
187 217 255
187 217 255
187 217 255
187 217 255
187 217 255
187 217 255
186 217 255
186 217 255
186 217 255
186 216 255
186 216 255
186 216 255
186 216 255
185 216 255
185 216 255
185 216 255
185 216 255
185 216 255
185 216 255
185 216 255
185 216 255
185 216 255
185 216 255
185 216 255
185 216 255
185 216 255
185 216 255
184 216 255
184 216 255
184 216 255
184 216 255
184 216 255
184 216 255
185 216 255
185 216 255
185 216 255
185 216 255
185 216 255
185 216 255
185 216 255
185 216 255
185 216 255
185 216 255
185 216 255
185 216 255
185 216 255
185 216 255
186 216 255
186 216 255
186 216 255
186 216 255
186 217 255
186 217 255
186 217 255
187 217 255
187 217 255
187 217 255
187 217 255
187 217 255
187 217 255
188 217 255
188 217 255
188 217 255
188 218 255
188 218 255
188 218 255
189 218 255
189 218 255
189 218 255
189 218 255
189 218 255
190 218 255
190 218 255
190 219 255
190 219 255
190 219 255
191 219 255
191 219 255
191 219 255
191 219 255
191 219 255
192 219 255
192 220 255
192 220 255
192 220 255
192 220 255
193 220 255
193 220 255
193 220 255
193 220 255
193 220 255
194 220 255
194 221 255
194 221 255
194 221 255
194 221 255
195 221 255
195 221 255
195 221 255
195 221 255
195 221 255
196 222 255
196 222 255
196 222 255
196 222 255
196 222 255
196 222 255
197 222 255
197 222 255
197 222 255
197 222 255
197 222 255
198 223 255
198 223 255
198 223 255
198 223 255
198 223 255
198 223 255
199 223 255
199 223 255
199 223 255
199 223 255
199 223 255
199 223 255
199 224 255
200 224 255
200 224 255
200 224 255
200 224 255
200 224 255
200 224 255
200 224 255
201 224 255
201 224 255
201 224 255
201 224 255
201 224 255
201 225 255
201 225 255
202 225 255
202 225 255
202 225 255
202 225 255
202 225 255
202 225 255
202 225 255
202 225 255
203 225 255
203 225 255
203 225 255
203 225 255
203 225 255
203 226 255
203 226 255
203 226 255
203 226 255
204 226 255
204 226 255
204 226 255
204 226 255
204 226 255
204 226 255
204 226 255
204 226 255
204 226 255
205 226 255
205 226 255
205 226 255
205 226 255
205 226 255
205 227 255
205 227 255
205 227 255
205 227 255
205 227 255
205 227 255
206 227 255
206 227 255
206 227 255
206 227 255
206 227 255
206 227 255
206 227 255
206 227 255
206 227 255
206 227 255
206 227 255
206 227 255
207 227 255
207 227 255
207 227 255
207 228 255
207 228 255
207 228 255
207 228 255
207 228 255
207 228 255
207 228 255
207 228 255
207 228 255
207 228 255
208 228 255
208 228 255
208 228 255
208 228 255
208 228 255
208 228 255
208 228 255
208 228 255
208 228 255
208 228 255
208 228 255
208 228 255
208 228 255
208 228 255
208 228 255
208 228 255
209 228 255
209 229 255
209 229 255
209 229 255
209 229 255
209 229 255
209 229 255
209 229 255
209 229 255
209 229 255
209 229 255
209 229 255
209 229 255
209 229 255
209 229 255
209 229 255
209 229 255
209 229 255
209 229 255
209 229 255
209 229 255
209 229 255
209 229 255
209 229 255
209 229 255
209 229 255
209 229 255
209 229 255
209 228 255
208 228 255
208 228 255
208 228 255
208 228 255
208 228 255
208 228 255
208 228 255
208 228 255
208 228 255
208 228 255
208 228 255
208 228 255
208 228 255
208 228 255
208 228 255
207 228 255
207 228 255
207 228 255
207 228 255
207 228 255
207 228 255
207 228 255
207 228 255
207 228 255
207 228 255
207 227 255
207 227 255
207 227 255
207 227 255
206 227 255
206 227 255
206 227 255
206 227 255
206 227 255
206 227 255
206 227 255
206 227 255
206 227 255
206 227 255
206 227 255
205 227 255
205 227 255
205 227 255
205 227 255
205 227 255
205 227 255
205 227 255
205 226 255
205 226 255
205 226 255
205 226 255
204 226 255
204 226 255
204 226 255
204 226 255
204 226 255
204 226 255
204 226 255
204 226 255
204 226 255
203 226 255
203 226 255
203 226 255
203 226 255
203 225 255
203 225 255
203 225 255
203 225 255
203 225 255
202 225 255
202 225 255
202 225 255
202 225 255
202 225 255
202 225 255
202 225 255
202 225 255
201 225 255
201 225 255
201 224 255
201 224 255
201 224 255
201 224 255
201 224 255
200 224 255
200 224 255
200 224 255
200 224 255
200 224 255
200 224 255
200 224 255
199 224 255
199 223 255
199 223 255
199 223 255
199 223 255
199 223 255
198 223 255
198 223 255
198 223 255
198 223 255
198 223 255
198 223 255
197 222 255
197 222 255
197 222 255
197 222 255
197 222 255
197 222 255
196 222 255
196 222 255
196 222 255
196 222 255
196 222 255
195 221 255
195 221 255
195 221 255
195 221 255
195 221 255
194 221 255
194 221 255
194 221 255
194 221 255
194 220 255
193 220 255
193 220 255
193 220 255
193 220 255
193 220 255
192 220 255
192 220 255
192 220 255
192 220 255
192 219 255
191 219 255
191 219 255
191 219 255
191 219 255
191 219 255
190 219 255
190 219 255
190 219 255
190 218 255
190 218 255
189 218 255
189 218 255
189 218 255
189 218 255
189 218 255
188 218 255
188 218 255
188 218 255
188 217 255
188 217 255
187 217 255
187 217 255
187 217 255
187 217 255
187 217 255
187 217 255
187 217 255
186 217 255
186 217 255
186 217 255
186 216 255
186 216 255
186 216 255
186 216 255
185 216 255
185 216 255
185 216 255
185 216 255
185 216 255
185 216 255
185 216 255
185 216 255
185 216 255
185 216 255
185 216 255
185 216 255
185 216 255
185 216 255
185 216 255
185 216 255
185 216 255
185 216 255
185 216 255
185 216 255
185 216 255
185 216 255
185 216 255
185 216 255
185 216 255
185 216 255
185 216 255
185 216 255
185 216 255
185 216 255
185 216 255
185 216 255
186 216 255
186 216 255
186 216 255
186 216 255
186 217 255
186 217 255
186 217 255
187 217 255
187 217 255
187 217 255
187 217 255
187 217 255
187 217 255
188 217 255
188 217 255
188 217 255
188 218 255
188 218 255
188 218 255
189 218 255
189 218 255
189 218 255
189 218 255
189 218 255
190 218 255
190 218 255
190 219 255
190 219 255
190 219 255
191 219 255
191 219 255
191 219 255
191 219 255
191 219 255
192 219 255
192 220 255
192 220 255
192 220 255
192 220 255
193 220 255
193 220 255
193 220 255
193 220 255
193 220 255
194 220 255
194 221 255
194 221 255
194 221 255
194 221 255
195 221 255
195 221 255
195 221 255
195 221 255
195 221 255
196 222 255
196 222 255
196 222 255
196 222 255
196 222 255
197 222 255
197 222 255
197 222 255
197 222 255
197 222 255
197 222 255
198 223 255
198 223 255
198 223 255
198 223 255
198 223 255
198 223 255
199 223 255
199 223 255
199 223 255
199 223 255
199 223 255
199 224 255
200 224 255
200 224 255
200 224 255
200 224 255
200 224 255
200 224 255
200 224 255
201 224 255
201 224 255
201 224 255
201 224 255
201 224 255
201 225 255
201 225 255
202 225 255
202 225 255
202 225 255
202 225 255
202 225 255
202 225 255
202 225 255
202 225 255
203 225 255
203 225 255
203 225 255
203 225 255
203 225 255
203 226 255
203 226 255
203 226 255
203 226 255
204 226 255
204 226 255
204 226 255
204 226 255
204 226 255
204 226 255
204 226 255
204 226 255
204 226 255
205 226 255
205 226 255
205 226 255
205 226 255
205 227 255
205 227 255
205 227 255
205 227 255
205 227 255
205 227 255
205 227 255
206 227 255
206 227 255
206 227 255
206 227 255
206 227 255
206 227 255
206 227 255
206 227 255
206 227 255
206 227 255
206 227 255
206 227 255
207 227 255
207 227 255
207 228 255
207 228 255
207 228 255
207 228 255
207 228 255
207 228 255
207 228 255
207 228 255
207 228 255
207 228 255
207 228 255
208 228 255
208 228 255
208 228 255
208 228 255
208 228 255
208 228 255
208 228 255
208 228 255
208 228 255
208 228 255
208 228 255
208 228 255
208 228 255
208 228 255
208 228 255
209 228 255
209 229 255
209 229 255
209 229 255
209 229 255
209 229 255
209 229 255
209 229 255
209 229 255
209 229 255
209 229 255
209 229 255
209 229 255
209 229 255
209 229 255
209 229 255
210 229 255
210 229 255
209 229 255
209 229 255
209 229 255
209 229 255
209 229 255
209 229 255
209 229 255
209 229 255
209 229 255
209 229 255
209 229 255
209 229 255
209 229 255
209 229 255
209 229 255
209 229 255
209 228 255
208 228 255
208 228 255
208 228 255
208 228 255
208 228 255
208 228 255
208 228 255
208 228 255
208 228 255
208 228 255
208 228 255
208 228 255
208 228 255
208 228 255
208 228 255
207 228 255
207 228 255
207 228 255
207 228 255
207 228 255
207 228 255
207 228 255
207 228 255
207 228 255
207 228 255
207 227 255
207 227 255
207 227 255
206 227 255
206 227 255
206 227 255
206 227 255
206 227 255
206 227 255
206 227 255
206 227 255
206 227 255
206 227 255
206 227 255
206 227 255
205 227 255
205 227 255
205 227 255
205 227 255
205 227 255
205 227 255
205 226 255
205 226 255
205 226 255
205 226 255
204 226 255
204 226 255
204 226 255
204 226 255
204 226 255
204 226 255
204 226 255
204 226 255
204 226 255
203 226 255
203 226 255
203 226 255
203 226 255
203 225 255
203 225 255
203 225 255
203 225 255
203 225 255
202 225 255
202 225 255
202 225 255
202 225 255
202 225 255
202 225 255
202 225 255
202 225 255
201 225 255
201 225 255
201 224 255
201 224 255
201 224 255
201 224 255
201 224 255
200 224 255
200 224 255
200 224 255
200 224 255
200 224 255
200 224 255
199 224 255
199 223 255
199 223 255
199 223 255
199 223 255
199 223 255
199 223 255
198 223 255
198 223 255
198 223 255
198 223 255
198 223 255
197 223 255
197 222 255
197 222 255
197 222 255
197 222 255
197 222 255
196 222 255
196 222 255
196 222 255
196 222 255
196 222 255
195 221 255
195 221 255
195 221 255
195 221 255
195 221 255
194 221 255
194 221 255
194 221 255
194 221 255
194 221 255
194 220 255
193 220 255
193 220 255
193 220 255
193 220 255
192 220 255
192 220 255
192 220 255
192 220 255
192 219 255
191 219 255
191 219 255
191 219 255
191 219 255
191 219 255
190 219 255
190 219 255
190 219 255
190 218 255
190 218 255
189 218 255
189 218 255
189 218 255
189 218 255
189 218 255
188 218 255
188 218 255
188 218 255
188 217 255
188 217 255
187 217 255
187 217 255
187 217 255
187 217 255
187 217 255
187 217 255
187 217 255
186 217 255
186 217 255
186 217 255
186 216 255
186 216 255
186 216 255
186 216 255
185 216 255
185 216 255
185 216 255
185 216 255
185 216 255
185 216 255
185 216 255
185 216 255
185 216 255
185 216 255
185 216 255
185 216 255
185 216 255
185 216 255
185 216 255
185 216 255
185 216 255
185 216 255
185 216 255
185 216 255
185 216 255
185 216 255
185 216 255
185 216 255
185 216 255
185 216 255
185 216 255
185 216 255
185 216 255
185 216 255
186 216 255
186 216 255
186 216 255
186 216 255
186 217 255
186 217 255
186 217 255
187 217 255
187 217 255
187 217 255
187 217 255
187 217 255
187 217 255
187 217 255
188 217 255
188 217 255
188 218 255
188 218 255
188 218 255
189 218 255
189 218 255
189 218 255
189 218 255
189 218 255
190 218 255
190 218 255
190 219 255
190 219 255
190 219 255
191 219 255
191 219 255
191 219 255
191 219 255
191 219 255
192 219 255
192 220 255
192 220 255
192 220 255
192 220 255
193 220 255
193 220 255
193 220 255
193 220 255
194 220 255
194 221 255
194 221 255
194 221 255
194 221 255
195 221 255
195 221 255
195 221 255
195 221 255
195 221 255
195 221 255
196 222 255
196 222 255
196 222 255
196 222 255
196 222 255
197 222 255
197 222 255
197 222 255
197 222 255
197 222 255
198 223 255
198 223 255
198 223 255
198 223 255
198 223 255
198 223 255
199 223 255
199 223 255
199 223 255
199 223 255
199 223 255
199 223 255
199 224 255
200 224 255
200 224 255
200 224 255
200 224 255
200 224 255
200 224 255
201 224 255
201 224 255
201 224 255
201 224 255
201 224 255
201 225 255
201 225 255
202 225 255
202 225 255
202 225 255
202 225 255
202 225 255
202 225 255
202 225 255
202 225 255
203 225 255
203 225 255
203 225 255
203 225 255
203 225 255
203 226 255
203 226 255
203 226 255
203 226 255
204 226 255
204 226 255
204 226 255
204 226 255
204 226 255
204 226 255
204 226 255
204 226 255
204 226 255
205 226 255
205 226 255
205 226 255
205 226 255
205 227 255
205 227 255
205 227 255
205 227 255
205 227 255
205 227 255
205 227 255
206 227 255
206 227 255
206 227 255
206 227 255
206 227 255
206 227 255
206 227 255
206 227 255
206 227 255
206 227 255
206 227 255
207 227 255
207 227 255
207 227 255
207 228 255
207 228 255
207 228 255
207 228 255
207 228 255
207 228 255
207 228 255
207 228 255
207 228 255
207 228 255
208 228 255
208 228 255
208 228 255
208 228 255
208 228 255
208 228 255
208 228 255
208 228 255
208 228 255
208 228 255
208 228 255
208 228 255
208 228 255
208 228 255
208 228 255
209 228 255
209 229 255
209 229 255
209 229 255
209 229 255
209 229 255
209 229 255
209 229 255
209 229 255
209 229 255
209 229 255
209 229 255
209 229 255
209 229 255
209 229 255
209 229 255
209 229 255
210 229 255
210 229 255
210 229 255
210 229 255
210 229 255
210 229 255
210 229 255
209 229 255
209 229 255
209 229 255
209 229 255
209 229 255
209 229 255
209 229 255
209 229 255
209 229 255
209 229 255
209 229 255
209 229 255
209 229 255
209 229 255
209 229 255
209 229 255
209 228 255
208 228 255
208 228 255
208 228 255
208 228 255
208 228 255
208 228 255
208 228 255
208 228 255
208 228 255
208 228 255
208 228 255
208 228 255
208 228 255
208 228 255
208 228 255
207 228 255
207 228 255
207 228 255
207 228 255
207 228 255
207 228 255
207 228 255
207 228 255
207 228 255
207 227 255
207 227 255
207 227 255
206 227 255
206 227 255
206 227 255
206 227 255
206 227 255
206 227 255
206 227 255
206 227 255
206 227 255
206 227 255
206 227 255
206 227 255
205 227 255
205 227 255
205 227 255
205 227 255
205 227 255
205 227 255
205 226 255
205 226 255
205 226 255
205 226 255
204 226 255
204 226 255
204 226 255
204 226 255
204 226 255
204 226 255
204 226 255
204 226 255
204 226 255
203 226 255
203 226 255
203 226 255
203 226 255
203 225 255
203 225 255
203 225 255
203 225 255
203 225 255
202 225 255
202 225 255
202 225 255
202 225 255
202 225 255
202 225 255
202 225 255
201 225 255
201 225 255
201 224 255
201 224 255
201 224 255
201 224 255
201 224 255
200 224 255
200 224 255
200 224 255
200 224 255
200 224 255
200 224 255
200 224 255
199 224 255
199 223 255
199 223 255
199 223 255
199 223 255
199 223 255
198 223 255
198 223 255
198 223 255
198 223 255
198 223 255
198 223 255
197 222 255
197 222 255
197 222 255
197 222 255
197 222 255
196 222 255
196 222 255
196 222 255
196 222 255
196 222 255
196 221 255
195 221 255
195 221 255
195 221 255
195 221 255
195 221 255
194 221 255
194 221 255
194 221 255
194 221 255
194 220 255
193 220 255
193 220 255
193 220 255
193 220 255
192 220 255
192 220 255
192 220 255
192 220 255
192 219 255
191 219 255
191 219 255
191 219 255
191 219 255
191 219 255
190 219 255
190 219 255
190 219 255
190 218 255
190 218 255
189 218 255
189 218 255
189 218 255
189 218 255
189 218 255
188 218 255
188 218 255
188 218 255
188 217 255
188 217 255
187 217 255
187 217 255
187 217 255
187 217 255
187 217 255
187 217 255
187 217 255
186 217 255
186 217 255
186 217 255
186 216 255
186 216 255
186 216 255
186 216 255
185 216 255
185 216 255
185 216 255
185 216 255
185 216 255
185 216 255
185 216 255
185 216 255
185 216 255
185 216 255
185 216 255
185 216 255
185 216 255
185 216 255
185 216 255
185 216 255
185 216 255
185 216 255
185 216 255
185 216 255
185 216 255
185 216 255
185 216 255
185 216 255
185 216 255
185 216 255
185 216 255
185 216 255
186 216 255
186 216 255
186 216 255
186 216 255
186 217 255
186 217 255
186 217 255
186 217 255
187 217 255
187 217 255
187 217 255
187 217 255
187 217 255
187 217 255
188 217 255
188 217 255
188 218 255
188 218 255
188 218 255
189 218 255
189 218 255
189 218 255
189 218 255
189 218 255
190 218 255
190 218 255
190 219 255
190 219 255
190 219 255
191 219 255
191 219 255
191 219 255
191 219 255
191 219 255
192 219 255
192 220 255
192 220 255
192 220 255
193 220 255
193 220 255
193 220 255
193 220 255
193 220 255
194 220 255
194 221 255
194 221 255
194 221 255
194 221 255
195 221 255
195 221 255
195 221 255
195 221 255
195 221 255
196 221 255
196 222 255
196 222 255
196 222 255
196 222 255
196 222 255
197 222 255
197 222 255
197 222 255
197 222 255
197 222 255
198 223 255
198 223 255
198 223 255
198 223 255
198 223 255
198 223 255
199 223 255
199 223 255
199 223 255
199 223 255
199 223 255
199 224 255
200 224 255
200 224 255
200 224 255
200 224 255
200 224 255
200 224 255
200 224 255
201 224 255
201 224 255
201 224 255
201 224 255
201 224 255
201 225 255
201 225 255
202 225 255
202 225 255
202 225 255
202 225 255
202 225 255
202 225 255
202 225 255
202 225 255
203 225 255
203 225 255
203 225 255
203 225 255
203 226 255
203 226 255
203 226 255
203 226 255
204 226 255
204 226 255
204 226 255
204 226 255
204 226 255
204 226 255
204 226 255
204 226 255
204 226 255
205 226 255
205 226 255
205 226 255
205 226 255
205 227 255
205 227 255
205 227 255
205 227 255
205 227 255
205 227 255
206 227 255
206 227 255
206 227 255
206 227 255
206 227 255
206 227 255
206 227 255
206 227 255
206 227 255
206 227 255
206 227 255
207 227 255
207 227 255
207 227 255
207 228 255
207 228 255
207 228 255
207 228 255
207 228 255
207 228 255
207 228 255
207 228 255
207 228 255
207 228 255
208 228 255
208 228 255
208 228 255
208 228 255
208 228 255
208 228 255
208 228 255
208 228 255
208 228 255
208 228 255
208 228 255
208 228 255
208 228 255
208 228 255
208 228 255
209 228 255
209 229 255
209 229 255
209 229 255
209 229 255
209 229 255
209 229 255
209 229 255
209 229 255
209 229 255
209 229 255
209 229 255
209 229 255
209 229 255
209 229 255
209 229 255
209 229 255
210 229 255
210 229 255
210 229 255
210 229 255
210 229 255
210 229 255
210 229 255
210 229 255
210 229 255
210 229 255
210 229 255
210 229 255
210 229 255
209 229 255
209 229 255
209 229 255
209 229 255
209 229 255
209 229 255
209 229 255
209 229 255
209 229 255
209 229 255
209 229 255
209 229 255
209 229 255
209 229 255
209 229 255
209 228 255
209 228 255
208 228 255
208 228 255
208 228 255
208 228 255
208 228 255
208 228 255
208 228 255
208 228 255
208 228 255
208 228 255
208 228 255
208 228 255
208 228 255
208 228 255
207 228 255
207 228 255
207 228 255
207 228 255
207 228 255
207 228 255
207 228 255
207 228 255
207 228 255
207 228 255
207 227 255
207 227 255
207 227 255
206 227 255
206 227 255
206 227 255
206 227 255
206 227 255
206 227 255
206 227 255
206 227 255
206 227 255
206 227 255
206 227 255
205 227 255
205 227 255
205 227 255
205 227 255
205 227 255
205 227 255
205 226 255
205 226 255
205 226 255
205 226 255
204 226 255
204 226 255
204 226 255
204 226 255
204 226 255
204 226 255
204 226 255
204 226 255
204 226 255
203 226 255
203 226 255
203 226 255
203 226 255
203 225 255
203 225 255
203 225 255
203 225 255
202 225 255
202 225 255
202 225 255
202 225 255
202 225 255
202 225 255
202 225 255
202 225 255
201 225 255
201 225 255
201 224 255
201 224 255
201 224 255
201 224 255
201 224 255
200 224 255
200 224 255
200 224 255
200 224 255
200 224 255
200 224 255
199 224 255
199 223 255
199 223 255
199 223 255
199 223 255
199 223 255
199 223 255
198 223 255
198 223 255
198 223 255
198 223 255
198 223 255
197 222 255
197 222 255
197 222 255
197 222 255
197 222 255
197 222 255
196 222 255
196 222 255
196 222 255
196 222 255
196 222 255
195 221 255
195 221 255
195 221 255
195 221 255
195 221 255
194 221 255
194 221 255
194 221 255
194 221 255
194 220 255
193 220 255
193 220 255
193 220 255
193 220 255
193 220 255
192 220 255
192 220 255
192 220 255
192 219 255
191 219 255
191 219 255
191 219 255
191 219 255
191 219 255
190 219 255
190 219 255
190 219 255
190 218 255
190 218 255
189 218 255
189 218 255
189 218 255
189 218 255
189 218 255
188 218 255
188 218 255
188 218 255
188 217 255
188 217 255
187 217 255
187 217 255
187 217 255
187 217 255
187 217 255
187 217 255
187 217 255
186 217 255
186 217 255
186 217 255
186 216 255
186 216 255
186 216 255
186 216 255
186 216 255
185 216 255
185 216 255
185 216 255
185 216 255
185 216 255
185 216 255
185 216 255
185 216 255
185 216 255
185 216 255
185 216 255
185 216 255
185 216 255
185 216 255
185 216 255
185 216 255
185 216 255
185 216 255
185 216 255
185 216 255
185 216 255
185 216 255
185 216 255
185 216 255
186 216 255
186 216 255
186 216 255
186 216 255
186 216 255
186 217 255
186 217 255
186 217 255
187 217 255
187 217 255
187 217 255
187 217 255
187 217 255
187 217 255
187 217 255
188 217 255
188 217 255
188 218 255
188 218 255
188 218 255
189 218 255
189 218 255
189 218 255
189 218 255
189 218 255
190 218 255
190 218 255
190 219 255
190 219 255
190 219 255
191 219 255
191 219 255
191 219 255
191 219 255
191 219 255
192 219 255
192 220 255
192 220 255
192 220 255
193 220 255
193 220 255
193 220 255
193 220 255
193 220 255
194 220 255
194 221 255
194 221 255
194 221 255
194 221 255
195 221 255
195 221 255
195 221 255
195 221 255
195 221 255
196 221 255
196 222 255
196 222 255
196 222 255
196 222 255
197 222 255
197 222 255
197 222 255
197 222 255
197 222 255
197 222 255
198 223 255
198 223 255
198 223 255
198 223 255
198 223 255
199 223 255
199 223 255
199 223 255
199 223 255
199 223 255
199 223 255
199 224 255
200 224 255
200 224 255
200 224 255
200 224 255
200 224 255
200 224 255
201 224 255
201 224 255
201 224 255
201 224 255
201 224 255
201 225 255
201 225 255
202 225 255
202 225 255
202 225 255
202 225 255
202 225 255
202 225 255
202 225 255
202 225 255
203 225 255
203 225 255
203 225 255
203 225 255
203 226 255
203 226 255
203 226 255
203 226 255
204 226 255
204 226 255
204 226 255
204 226 255
204 226 255
204 226 255
204 226 255
204 226 255
204 226 255
205 226 255
205 226 255
205 226 255
205 226 255
205 227 255
205 227 255
205 227 255
205 227 255
205 227 255
205 227 255
206 227 255
206 227 255
206 227 255
206 227 255
206 227 255
206 227 255
206 227 255
206 227 255
206 227 255
206 227 255
206 227 255
207 227 255
207 227 255
207 227 255
207 228 255
207 228 255
207 228 255
207 228 255
207 228 255
207 228 255
207 228 255
207 228 255
207 228 255
207 228 255
208 228 255
208 228 255
208 228 255
208 228 255
208 228 255
208 228 255
208 228 255
208 228 255
208 228 255
208 228 255
208 228 255
208 228 255
208 228 255
208 228 255
209 228 255
209 229 255
209 229 255
209 229 255
209 229 255
209 229 255
209 229 255
209 229 255
209 229 255
209 229 255
209 229 255
209 229 255
209 229 255
209 229 255
209 229 255
209 229 255
209 229 255
210 229 255
210 229 255
210 229 255
210 229 255
210 229 255
210 229 255
210 229 255
210 229 255
210 229 255
210 229 255
210 229 255
210 229 255
210 229 255
210 229 255
210 229 255
210 229 255
210 229 255
210 229 255
210 229 255
209 229 255
209 229 255
209 229 255
209 229 255
209 229 255
209 229 255
209 229 255
209 229 255
209 229 255
209 229 255
209 229 255
209 229 255
209 229 255
209 229 255
209 229 255
209 228 255
209 228 255
208 228 255
208 228 255
208 228 255
208 228 255
208 228 255
208 228 255
208 228 255
208 228 255
208 228 255
208 228 255
208 228 255
208 228 255
208 228 255
208 228 255
207 228 255
207 228 255
207 228 255
207 228 255
207 228 255
207 228 255
207 228 255
207 228 255
207 228 255
207 228 255
207 227 255
207 227 255
206 227 255
206 227 255
206 227 255
206 227 255
206 227 255
206 227 255
206 227 255
206 227 255
206 227 255
206 227 255
206 227 255
205 227 255
205 227 255
205 227 255
205 227 255
205 227 255
205 227 255
205 226 255
205 226 255
205 226 255
205 226 255
204 226 255
204 226 255
204 226 255
204 226 255
204 226 255
204 226 255
204 226 255
204 226 255
204 226 255
203 226 255
203 226 255
203 226 255
203 226 255
203 225 255
203 225 255
203 225 255
203 225 255
202 225 255
202 225 255
202 225 255
202 225 255
202 225 255
202 225 255
202 225 255
202 225 255
201 225 255
201 225 255
201 224 255
201 224 255
201 224 255
201 224 255
201 224 255
200 224 255
200 224 255
200 224 255
200 224 255
200 224 255
200 224 255
199 224 255
199 223 255
199 223 255
199 223 255
199 223 255
199 223 255
198 223 255
198 223 255
198 223 255
198 223 255
198 223 255
198 223 255
197 222 255
197 222 255
197 222 255
197 222 255
197 222 255
196 222 255
196 222 255
196 222 255
196 222 255
196 222 255
195 221 255
195 221 255
195 221 255
195 221 255
195 221 255
194 221 255
194 221 255
194 221 255
194 221 255
194 220 255
193 220 255
193 220 255
193 220 255
193 220 255
193 220 255
192 220 255
192 220 255
192 220 255
192 219 255
191 219 255
191 219 255
191 219 255
191 219 255
191 219 255
190 219 255
190 219 255
190 219 255
190 218 255
190 218 255
189 218 255
189 218 255
189 218 255
189 218 255
189 218 255
188 218 255
188 218 255
188 218 255
188 217 255
188 217 255
187 217 255
187 217 255
187 217 255
187 217 255
187 217 255
187 217 255
187 217 255
186 217 255
186 217 255
186 217 255
186 216 255
186 216 255
186 216 255
186 216 255
186 216 255
185 216 255
185 216 255
185 216 255
185 216 255
185 216 255
185 216 255
185 216 255
185 216 255
185 216 255
185 216 255
185 216 255
185 216 255
185 216 255
185 216 255
185 216 255
185 216 255
185 216 255
185 216 255
185 216 255
185 216 255
185 216 255
185 216 255
186 216 255
186 216 255
186 216 255
186 216 255
186 216 255
186 217 255
186 217 255
186 217 255
187 217 255
187 217 255
187 217 255
187 217 255
187 217 255
187 217 255
187 217 255
188 217 255
188 217 255
188 218 255
188 218 255
188 218 255
189 218 255
189 218 255
189 218 255
189 218 255
189 218 255
190 218 255
190 218 255
190 219 255
190 219 255
190 219 255
191 219 255
191 219 255
191 219 255
191 219 255
191 219 255
192 219 255
192 220 255
192 220 255
192 220 255
193 220 255
193 220 255
193 220 255
193 220 255
193 220 255
194 220 255
194 221 255
194 221 255
194 221 255
194 221 255
195 221 255
195 221 255
195 221 255
195 221 255
195 221 255
196 222 255
196 222 255
196 222 255
196 222 255
196 222 255
197 222 255
197 222 255
197 222 255
197 222 255
197 222 255
198 223 255
198 223 255
198 223 255
198 223 255
198 223 255
198 223 255
199 223 255
199 223 255
199 223 255
199 223 255
199 223 255
199 224 255
200 224 255
200 224 255
200 224 255
200 224 255
200 224 255
200 224 255
201 224 255
201 224 255
201 224 255
201 224 255
201 224 255
201 225 255
201 225 255
202 225 255
202 225 255
202 225 255
202 225 255
202 225 255
202 225 255
202 225 255
202 225 255
203 225 255
203 225 255
203 225 255
203 225 255
203 226 255
203 226 255
203 226 255
203 226 255
204 226 255
204 226 255
204 226 255
204 226 255
204 226 255
204 226 255
204 226 255
204 226 255
204 226 255
205 226 255
205 226 255
205 226 255
205 226 255
205 227 255
205 227 255
205 227 255
205 227 255
205 227 255
205 227 255
206 227 255
206 227 255
206 227 255
206 227 255
206 227 255
206 227 255
206 227 255
206 227 255
206 227 255
206 227 255
206 227 255
207 227 255
207 227 255
207 227 255
207 228 255
207 228 255
207 228 255
207 228 255
207 228 255
207 228 255
207 228 255
207 228 255
207 228 255
208 228 255
208 228 255
208 228 255
208 228 255
208 228 255
208 228 255
208 228 255
208 228 255
208 228 255
208 228 255
208 228 255
208 228 255
208 228 255
208 228 255
209 228 255
209 228 255
209 229 255
209 229 255
209 229 255
209 229 255
209 229 255
209 229 255
209 229 255
209 229 255
209 229 255
209 229 255
209 229 255
209 229 255
209 229 255
209 229 255
209 229 255
210 229 255
210 229 255
210 229 255
210 229 255
210 229 255
210 229 255
210 229 255
210 229 255
210 229 255
210 229 255
210 229 255
210 229 255
210 229 255
210 229 255
210 229 255
210 229 255
210 229 255
210 229 255
210 229 255
210 229 255
210 229 255
210 229 255
210 229 255
210 229 255
210 229 255
209 229 255
209 229 255
209 229 255
209 229 255
209 229 255
209 229 255
209 229 255
209 229 255
209 229 255
209 229 255
209 229 255
209 229 255
209 229 255
209 229 255
209 229 255
209 228 255
208 228 255
208 228 255
208 228 255
208 228 255
208 228 255
208 228 255
208 228 255
208 228 255
208 228 255
208 228 255
208 228 255
208 228 255
208 228 255
208 228 255
208 228 255
207 228 255
207 228 255
207 228 255
207 228 255
207 228 255
207 228 255
207 228 255
207 228 255
207 228 255
207 227 255
207 227 255
207 227 255
206 227 255
206 227 255
206 227 255
206 227 255
206 227 255
206 227 255
206 227 255
206 227 255
206 227 255
206 227 255
206 227 255
205 227 255
205 227 255
205 227 255
205 227 255
205 227 255
205 227 255
205 226 255
205 226 255
205 226 255
204 226 255
204 226 255
204 226 255
204 226 255
204 226 255
204 226 255
204 226 255
204 226 255
204 226 255
203 226 255
203 226 255
203 226 255
203 226 255
203 225 255
203 225 255
203 225 255
203 225 255
202 225 255
202 225 255
202 225 255
202 225 255
202 225 255
202 225 255
202 225 255
201 225 255
201 225 255
201 225 255
201 224 255
201 224 255
201 224 255
201 224 255
200 224 255
200 224 255
200 224 255
200 224 255
200 224 255
200 224 255
200 224 255
199 224 255
199 223 255
199 223 255
199 223 255
199 223 255
199 223 255
198 223 255
198 223 255
198 223 255
198 223 255
198 223 255
197 222 255
197 222 255
197 222 255
197 222 255
197 222 255
196 222 255
196 222 255
196 222 255
196 222 255
196 222 255
195 221 255
195 221 255
195 221 255
195 221 255
195 221 255
194 221 255
194 221 255
194 221 255
194 221 255
194 220 255
193 220 255
193 220 255
193 220 255
193 220 255
193 220 255
192 220 255
192 220 255
192 220 255
192 219 255
191 219 255
191 219 255
191 219 255
191 219 255
191 219 255
190 219 255
190 219 255
190 219 255
190 218 255
190 218 255
189 218 255
189 218 255
189 218 255
189 218 255
189 218 255
188 218 255
188 218 255
188 218 255
188 217 255
188 217 255
187 217 255
187 217 255
187 217 255
187 217 255
187 217 255
187 217 255
187 217 255
186 217 255
186 217 255
186 217 255
186 216 255
186 216 255
186 216 255
186 216 255
186 216 255
186 216 255
185 216 255
185 216 255
185 216 255
185 216 255
185 216 255
185 216 255
185 216 255
185 216 255
185 216 255
185 216 255
185 216 255
185 216 255
185 216 255
185 216 255
185 216 255
185 216 255
185 216 255
185 216 255
186 216 255
186 216 255
186 216 255
186 216 255
186 216 255
186 216 255
186 217 255
186 217 255
186 217 255
187 217 255
187 217 255
187 217 255
187 217 255
187 217 255
187 217 255
187 217 255
188 217 255
188 217 255
188 218 255
188 218 255
188 218 255
189 218 255
189 218 255
189 218 255
189 218 255
189 218 255
190 218 255
190 218 255
190 219 255
190 219 255
190 219 255
191 219 255
191 219 255
191 219 255
191 219 255
191 219 255
192 219 255
192 220 255
192 220 255
192 220 255
193 220 255
193 220 255
193 220 255
193 220 255
193 220 255
194 220 255
194 221 255
194 221 255
194 221 255
194 221 255
195 221 255
195 221 255
195 221 255
195 221 255
195 221 255
196 222 255
196 222 255
196 222 255
196 222 255
197 222 255
197 222 255
197 222 255
197 222 255
197 222 255
197 222 255
198 223 255
198 223 255
198 223 255
198 223 255
198 223 255
199 223 255
199 223 255
199 223 255
199 223 255
199 223 255
199 224 255
200 224 255
200 224 255
200 224 255
200 224 255
200 224 255
200 224 255
200 224 255
201 224 255
201 224 255
201 224 255
201 224 255
201 225 255
201 225 255
201 225 255
202 225 255
202 225 255
202 225 255
202 225 255
202 225 255
202 225 255
202 225 255
203 225 255
203 225 255
203 225 255
203 225 255
203 226 255
203 226 255
203 226 255
203 226 255
204 226 255
204 226 255
204 226 255
204 226 255
204 226 255
204 226 255
204 226 255
204 226 255
204 226 255
205 226 255
205 226 255
205 226 255
205 227 255
205 227 255
205 227 255
205 227 255
205 227 255
205 227 255
206 227 255
206 227 255
206 227 255
206 227 255
206 227 255
206 227 255
206 227 255
206 227 255
206 227 255
206 227 255
206 227 255
207 227 255
207 227 255
207 227 255
207 228 255
207 228 255
207 228 255
207 228 255
207 228 255
207 228 255
207 228 255
207 228 255
207 228 255
208 228 255
208 228 255
208 228 255
208 228 255
208 228 255
208 228 255
208 228 255
208 228 255
208 228 255
208 228 255
208 228 255
208 228 255
208 228 255
208 228 255
208 228 255
209 228 255
209 229 255
209 229 255
209 229 255
209 229 255
209 229 255
209 229 255
209 229 255
209 229 255
209 229 255
209 229 255
209 229 255
209 229 255
209 229 255
209 229 255
209 229 255
210 229 255
210 229 255
210 229 255
210 229 255
210 229 255
210 229 255
210 229 255
210 229 255
210 229 255
210 229 255
210 229 255
210 229 255
210 229 255
210 229 255
210 230 255
210 229 255
210 229 255
210 229 255
210 229 255
210 229 255
210 229 255
210 229 255
210 229 255
210 229 255
210 229 255
210 229 255
210 229 255
210 229 255
210 229 255
210 229 255
210 229 255
209 229 255
209 229 255
209 229 255
209 229 255
209 229 255
209 229 255
209 229 255
209 229 255
209 229 255
209 229 255
209 229 255
209 229 255
209 229 255
209 229 255
209 229 255
209 228 255
208 228 255
208 228 255
208 228 255
208 228 255
208 228 255
208 228 255
208 228 255
208 228 255
208 228 255
208 228 255
208 228 255
208 228 255
208 228 255
208 228 255
207 228 255
207 228 255
207 228 255
207 228 255
207 228 255
207 228 255
207 228 255
207 228 255
207 228 255
207 227 255
207 227 255
207 227 255
206 227 255
206 227 255
206 227 255
206 227 255
206 227 255
206 227 255
206 227 255
206 227 255
206 227 255
206 227 255
206 227 255
205 227 255
205 227 255
205 227 255
205 227 255
205 227 255
205 227 255
205 226 255
205 226 255
205 226 255
205 226 255
204 226 255
204 226 255
204 226 255
204 226 255
204 226 255
204 226 255
204 226 255
204 226 255
203 226 255
203 226 255
203 226 255
203 226 255
203 225 255
203 225 255
203 225 255
203 225 255
202 225 255
202 225 255
202 225 255
202 225 255
202 225 255
202 225 255
202 225 255
201 225 255
201 225 255
201 224 255
201 224 255
201 224 255
201 224 255
201 224 255
200 224 255
200 224 255
200 224 255
200 224 255
200 224 255
200 224 255
199 224 255
199 223 255
199 223 255
199 223 255
199 223 255
199 223 255
198 223 255
198 223 255
198 223 255
198 223 255
198 223 255
198 223 255
197 222 255
197 222 255
197 222 255
197 222 255
197 222 255
196 222 255
196 222 255
196 222 255
196 222 255
196 221 255
195 221 255
195 221 255
195 221 255
195 221 255
195 221 255
194 221 255
194 221 255
194 221 255
194 220 255
193 220 255
193 220 255
193 220 255
193 220 255
193 220 255
192 220 255
192 220 255
192 220 255
192 219 255
191 219 255
191 219 255
191 219 255
191 219 255
191 219 255
190 219 255
190 219 255
190 219 255
190 218 255
190 218 255
189 218 255
189 218 255
189 218 255
189 218 255
189 218 255
188 218 255
188 218 255
188 218 255
188 217 255
188 217 255
187 217 255
187 217 255
187 217 255
187 217 255
187 217 255
187 217 255
187 217 255
186 217 255
186 217 255
186 217 255
186 217 255
186 216 255
186 216 255
186 216 255
186 216 255
186 216 255
186 216 255
185 216 255
185 216 255
185 216 255
185 216 255
185 216 255
185 216 255
185 216 255
185 216 255
185 216 255
185 216 255
185 216 255
185 216 255
185 216 255
185 216 255
186 216 255
186 216 255
186 216 255
186 216 255
186 216 255
186 216 255
186 217 255
186 217 255
186 217 255
186 217 255
187 217 255
187 217 255
187 217 255
187 217 255
187 217 255
187 217 255
187 217 255
188 217 255
188 217 255
188 218 255
188 218 255
188 218 255
189 218 255
189 218 255
189 218 255
189 218 255
189 218 255
190 218 255
190 218 255
190 219 255
190 219 255
190 219 255
191 219 255
191 219 255
191 219 255
191 219 255
192 219 255
192 219 255
192 220 255
192 220 255
192 220 255
193 220 255
193 220 255
193 220 255
193 220 255
193 220 255
194 220 255
194 221 255
194 221 255
194 221 255
195 221 255
195 221 255
195 221 255
195 221 255
195 221 255
196 221 255
196 222 255
196 222 255
196 222 255
196 222 255
197 222 255
197 222 255
197 222 255
197 222 255
197 222 255
198 223 255
198 223 255
198 223 255
198 223 255
198 223 255
198 223 255
199 223 255
199 223 255
199 223 255
199 223 255
199 223 255
199 224 255
200 224 255
200 224 255
200 224 255
200 224 255
200 224 255
200 224 255
201 224 255
201 224 255
201 224 255
201 224 255
201 224 255
201 225 255
201 225 255
202 225 255
202 225 255
202 225 255
202 225 255
202 225 255
202 225 255
202 225 255
203 225 255
203 225 255
203 225 255
203 225 255
203 226 255
203 226 255
203 226 255
203 226 255
204 226 255
204 226 255
204 226 255
204 226 255
204 226 255
204 226 255
204 226 255
204 226 255
205 226 255
205 226 255
205 226 255
205 226 255
205 227 255
205 227 255
205 227 255
205 227 255
205 227 255
205 227 255
206 227 255
206 227 255
206 227 255
206 227 255
206 227 255
206 227 255
206 227 255
206 227 255
206 227 255
206 227 255
206 227 255
207 227 255
207 227 255
207 227 255
207 228 255
207 228 255
207 228 255
207 228 255
207 228 255
207 228 255
207 228 255
207 228 255
207 228 255
208 228 255
208 228 255
208 228 255
208 228 255
208 228 255
208 228 255
208 228 255
208 228 255
208 228 255
208 228 255
208 228 255
208 228 255
208 228 255
208 228 255
209 228 255
209 229 255
209 229 255
209 229 255
209 229 255
209 229 255
209 229 255
209 229 255
209 229 255
209 229 255
209 229 255
209 229 255
209 229 255
209 229 255
209 229 255
209 229 255
210 229 255
210 229 255
210 229 255
210 229 255
210 229 255
210 229 255
210 229 255
210 229 255
210 229 255
210 229 255
210 229 255
210 229 255
210 229 255
210 229 255
210 229 255
210 229 255
210 230 255
211 230 255
211 230 255
210 230 255
210 230 255
210 229 255
210 229 255
210 229 255
210 229 255
210 229 255
210 229 255
210 229 255
210 229 255
210 229 255
210 229 255
210 229 255
210 229 255
210 229 255
210 229 255
210 229 255
210 229 255
209 229 255
209 229 255
209 229 255
209 229 255
209 229 255
209 229 255
209 229 255
209 229 255
209 229 255
209 229 255
209 229 255
209 229 255
209 229 255
209 229 255
209 229 255
209 228 255
208 228 255
208 228 255
208 228 255
208 228 255
208 228 255
208 228 255
208 228 255
208 228 255
208 228 255
208 228 255
208 228 255
208 228 255
208 228 255
208 228 255
207 228 255
207 228 255
207 228 255
207 228 255
207 228 255
207 228 255
207 228 255
207 228 255
207 228 255
207 227 255
207 227 255
207 227 255
206 227 255
206 227 255
206 227 255
206 227 255
206 227 255
206 227 255
206 227 255
206 227 255
206 227 255
206 227 255
205 227 255
205 227 255
205 227 255
205 227 255
205 227 255
205 227 255
205 226 255
205 226 255
205 226 255
205 226 255
204 226 255
204 226 255
204 226 255
204 226 255
204 226 255
204 226 255
204 226 255
204 226 255
203 226 255
203 226 255
203 226 255
203 226 255
203 225 255
203 225 255
203 225 255
203 225 255
202 225 255
202 225 255
202 225 255
202 225 255
202 225 255
202 225 255
202 225 255
201 225 255
201 225 255
201 224 255
201 224 255
201 224 255
201 224 255
201 224 255
200 224 255
200 224 255
200 224 255
200 224 255
200 224 255
200 224 255
199 224 255
199 223 255
199 223 255
199 223 255
199 223 255
198 223 255
198 223 255
198 223 255
198 223 255
198 223 255
198 223 255
197 222 255
197 222 255
197 222 255
197 222 255
197 222 255
196 222 255
196 222 255
196 222 255
196 222 255
196 222 255
195 221 255
195 221 255
195 221 255
195 221 255
195 221 255
194 221 255
194 221 255
194 221 255
194 221 255
194 220 255
193 220 255
193 220 255
193 220 255
193 220 255
192 220 255
192 220 255
192 220 255
192 219 255
192 219 255
191 219 255
191 219 255
191 219 255
191 219 255
190 219 255
190 219 255
190 219 255
190 218 255
190 218 255
189 218 255
189 218 255
189 218 255
189 218 255
189 218 255
188 218 255
188 218 255
188 218 255
188 217 255
188 217 255
187 217 255
187 217 255
187 217 255
187 217 255
187 217 255
187 217 255
187 217 255
186 217 255
186 217 255
186 217 255
186 217 255
186 216 255
186 216 255
186 216 255
186 216 255
186 216 255
186 216 255
186 216 255
186 216 255
185 216 255
185 216 255
185 216 255
185 216 255
185 216 255
185 216 255
185 216 255
185 216 255
185 216 255
186 216 255
186 216 255
186 216 255
186 216 255
186 216 255
186 216 255
186 216 255
186 217 255
186 217 255
186 217 255
186 217 255
187 217 255
187 217 255
187 217 255
187 217 255
187 217 255
187 217 255
187 217 255
188 217 255
188 217 255
188 218 255
188 218 255
188 218 255
189 218 255
189 218 255
189 218 255
189 218 255
189 218 255
190 218 255
190 218 255
190 219 255
190 219 255
190 219 255
191 219 255
191 219 255
191 219 255
191 219 255
192 219 255
192 219 255
192 220 255
192 220 255
192 220 255
193 220 255
193 220 255
193 220 255
193 220 255
193 220 255
194 221 255
194 221 255
194 221 255
194 221 255
195 221 255
195 221 255
195 221 255
195 221 255
195 221 255
196 222 255
196 222 255
196 222 255
196 222 255
196 222 255
197 222 255
197 222 255
197 222 255
197 222 255
197 222 255
198 223 255
198 223 255
198 223 255
198 223 255
198 223 255
198 223 255
199 223 255
199 223 255
199 223 255
199 223 255
199 224 255
200 224 255
200 224 255
200 224 255
200 224 255
200 224 255
200 224 255
201 224 255
201 224 255
201 224 255
201 224 255
201 224 255
201 225 255
201 225 255
202 225 255
202 225 255
202 225 255
202 225 255
202 225 255
202 225 255
202 225 255
203 225 255
203 225 255
203 225 255
203 225 255
203 226 255
203 226 255
203 226 255
203 226 255
204 226 255
204 226 255
204 226 255
204 226 255
204 226 255
204 226 255
204 226 255
204 226 255
205 226 255
205 226 255
205 226 255
205 226 255
205 227 255
205 227 255
205 227 255
205 227 255
205 227 255
205 227 255
206 227 255
206 227 255
206 227 255
206 227 255
206 227 255
206 227 255
206 227 255
206 227 255
206 227 255
206 227 255
207 227 255
207 227 255
207 227 255
207 228 255
207 228 255
207 228 255
207 228 255
207 228 255
207 228 255
207 228 255
207 228 255
207 228 255
208 228 255
208 228 255
208 228 255
208 228 255
208 228 255
208 228 255
208 228 255
208 228 255
208 228 255
208 228 255
208 228 255
208 228 255
208 228 255
208 228 255
209 228 255
209 229 255
209 229 255
209 229 255
209 229 255
209 229 255
209 229 255
209 229 255
209 229 255
209 229 255
209 229 255
209 229 255
209 229 255
209 229 255
209 229 255
209 229 255
210 229 255
210 229 255
210 229 255
210 229 255
210 229 255
210 229 255
210 229 255
210 229 255
210 229 255
210 229 255
210 229 255
210 229 255
210 229 255
210 229 255
210 229 255
210 229 255
210 230 255
210 230 255
211 230 255
211 230 255
211 230 255
211 230 255
211 230 255
211 230 255
211 230 255
211 230 255
210 230 255
210 230 255
210 229 255
210 229 255
210 229 255
210 229 255
210 229 255
210 229 255
210 229 255
210 229 255
210 229 255
210 229 255
210 229 255
210 229 255
210 229 255
210 229 255
210 229 255
210 229 255
209 229 255
209 229 255
209 229 255
209 229 255
209 229 255
209 229 255
209 229 255
209 229 255
209 229 255
209 229 255
209 229 255
209 229 255
209 229 255
209 229 255
209 228 255
208 228 255
208 228 255
208 228 255
208 228 255
208 228 255
208 228 255
208 228 255
208 228 255
208 228 255
208 228 255
208 228 255
208 228 255
208 228 255
208 228 255
207 228 255
207 228 255
207 228 255
207 228 255
207 228 255
207 228 255
207 228 255
207 228 255
207 227 255
207 227 255
207 227 255
206 227 255
206 227 255
206 227 255
206 227 255
206 227 255
206 227 255
206 227 255
206 227 255
206 227 255
206 227 255
206 227 255
205 227 255
205 227 255
205 227 255
205 227 255
205 227 255
205 226 255
205 226 255
205 226 255
205 226 255
204 226 255
204 226 255
204 226 255
204 226 255
204 226 255
204 226 255
204 226 255
204 226 255
203 226 255
203 226 255
203 226 255
203 226 255
203 225 255
203 225 255
203 225 255
203 225 255
202 225 255
202 225 255
202 225 255
202 225 255
202 225 255
202 225 255
202 225 255
201 225 255
201 225 255
201 224 255
201 224 255
201 224 255
201 224 255
200 224 255
200 224 255
200 224 255
200 224 255
200 224 255
200 224 255
199 224 255
199 223 255
199 223 255
199 223 255
199 223 255
199 223 255
198 223 255
198 223 255
198 223 255
198 223 255
198 223 255
197 223 255
197 222 255
197 222 255
197 222 255
197 222 255
196 222 255
196 222 255
196 222 255
196 222 255
196 222 255
195 221 255
195 221 255
195 221 255
195 221 255
195 221 255
194 221 255
194 221 255
194 221 255
194 221 255
194 220 255
193 220 255
193 220 255
193 220 255
193 220 255
192 220 255
192 220 255
192 220 255
192 219 255
192 219 255
191 219 255
191 219 255
191 219 255
191 219 255
190 219 255
190 219 255
190 219 255
190 218 255
190 218 255
189 218 255
189 218 255
189 218 255
189 218 255
189 218 255
188 218 255
188 218 255
188 218 255
188 217 255
188 217 255
188 217 255
187 217 255
187 217 255
187 217 255
187 217 255
187 217 255
187 217 255
186 217 255
186 217 255
186 217 255
186 217 255
186 217 255
186 216 255
186 216 255
186 216 255
186 216 255
186 216 255
186 216 255
186 216 255
186 216 255
186 216 255
186 216 255
186 216 255
186 216 255
186 216 255
186 216 255
186 216 255
186 216 255
186 216 255
186 216 255
186 216 255
186 216 255
186 217 255
186 217 255
186 217 255
186 217 255
186 217 255
187 217 255
187 217 255
187 217 255
187 217 255
187 217 255
187 217 255
187 217 255
188 217 255
188 217 255
188 218 255
188 218 255
188 218 255
189 218 255
189 218 255
189 218 255
189 218 255
189 218 255
190 218 255
190 218 255
190 219 255
190 219 255
190 219 255
191 219 255
191 219 255
191 219 255
191 219 255
192 219 255
192 219 255
192 220 255
192 220 255
192 220 255
193 220 255
193 220 255
193 220 255
193 220 255
194 220 255
194 221 255
194 221 255
194 221 255
194 221 255
195 221 255
195 221 255
195 221 255
195 221 255
195 221 255
196 222 255
196 222 255
196 222 255
196 222 255
196 222 255
197 222 255
197 222 255
197 222 255
197 222 255
197 222 255
198 223 255
198 223 255
198 223 255
198 223 255
198 223 255
199 223 255
199 223 255
199 223 255
199 223 255
199 223 255
199 224 255
200 224 255
200 224 255
200 224 255
200 224 255
200 224 255
200 224 255
201 224 255
201 224 255
201 224 255
201 224 255
201 225 255
201 225 255
202 225 255
202 225 255
202 225 255
202 225 255
202 225 255
202 225 255
202 225 255
203 225 255
203 225 255
203 225 255
203 225 255
203 226 255
203 226 255
203 226 255
203 226 255
204 226 255
204 226 255
204 226 255
204 226 255
204 226 255
204 226 255
204 226 255
204 226 255
205 226 255
205 226 255
205 226 255
205 226 255
205 227 255
205 227 255
205 227 255
205 227 255
205 227 255
206 227 255
206 227 255
206 227 255
206 227 255
206 227 255
206 227 255
206 227 255
206 227 255
206 227 255
206 227 255
206 227 255
207 227 255
207 227 255
207 227 255
207 228 255
207 228 255
207 228 255
207 228 255
207 228 255
207 228 255
207 228 255
207 228 255
207 228 255
208 228 255
208 228 255
208 228 255
208 228 255
208 228 255
208 228 255
208 228 255
208 228 255
208 228 255
208 228 255
208 228 255
208 228 255
208 228 255
209 228 255
209 229 255
209 229 255
209 229 255
209 229 255
209 229 255
209 229 255
209 229 255
209 229 255
209 229 255
209 229 255
209 229 255
209 229 255
209 229 255
209 229 255
210 229 255
210 229 255
210 229 255
210 229 255
210 229 255
210 229 255
210 229 255
210 229 255
210 229 255
210 229 255
210 229 255
210 229 255
210 229 255
210 229 255
210 229 255
210 229 255
210 230 255
210 230 255
211 230 255
211 230 255
211 230 255
211 230 255
211 230 255
211 230 255
211 230 255
211 230 255
211 230 255
211 230 255
211 230 255
211 230 255
211 230 255
211 230 255
211 230 255
210 230 255
210 230 255
210 229 255
210 229 255
210 229 255
210 229 255
210 229 255
210 229 255
210 229 255
210 229 255
210 229 255
210 229 255
210 229 255
210 229 255
210 229 255
210 229 255
210 229 255
210 229 255
209 229 255
209 229 255
209 229 255
209 229 255
209 229 255
209 229 255
209 229 255
209 229 255
209 229 255
209 229 255
209 229 255
209 229 255
209 229 255
209 229 255
209 228 255
208 228 255
208 228 255
208 228 255
208 228 255
208 228 255
208 228 255
208 228 255
208 228 255
208 228 255
208 228 255
208 228 255
208 228 255
208 228 255
207 228 255
207 228 255
207 228 255
207 228 255
207 228 255
207 228 255
207 228 255
207 228 255
207 228 255
207 227 255
207 227 255
207 227 255
206 227 255
206 227 255
206 227 255
206 227 255
206 227 255
206 227 255
206 227 255
206 227 255
206 227 255
206 227 255
205 227 255
205 227 255
205 227 255
205 227 255
205 227 255
205 226 255
205 226 255
205 226 255
205 226 255
204 226 255
204 226 255
204 226 255
204 226 255
204 226 255
204 226 255
204 226 255
204 226 255
203 226 255
203 226 255
203 226 255
203 226 255
203 225 255
203 225 255
203 225 255
203 225 255
202 225 255
202 225 255
202 225 255
202 225 255
202 225 255
202 225 255
202 225 255
201 225 255
201 225 255
201 224 255
201 224 255
201 224 255
201 224 255
200 224 255
200 224 255
200 224 255
200 224 255
200 224 255
200 224 255
199 224 255
199 223 255
199 223 255
199 223 255
199 223 255
199 223 255
198 223 255
198 223 255
198 223 255
198 223 255
198 223 255
197 222 255
197 222 255
197 222 255
197 222 255
197 222 255
196 222 255
196 222 255
196 222 255
196 222 255
196 221 255
195 221 255
195 221 255
195 221 255
195 221 255
194 221 255
194 221 255
194 221 255
194 221 255
194 220 255
193 220 255
193 220 255
193 220 255
193 220 255
192 220 255
192 220 255
192 220 255
192 219 255
192 219 255
191 219 255
191 219 255
191 219 255
191 219 255
190 219 255
190 219 255
190 219 255
190 218 255
190 218 255
189 218 255
189 218 255
189 218 255
189 218 255
189 218 255
188 218 255
188 218 255
188 218 255
188 217 255
188 217 255
188 217 255
187 217 255
187 217 255
187 217 255
187 217 255
187 217 255
187 217 255
187 217 255
186 217 255
186 217 255
186 217 255
186 217 255
186 217 255
186 216 255
186 216 255
186 216 255
186 216 255
186 216 255
186 216 255
186 216 255
186 216 255
186 216 255
186 216 255
186 216 255
186 216 255
186 216 255
186 216 255
186 216 255
186 216 255
186 217 255
186 217 255
186 217 255
186 217 255
186 217 255
187 217 255
187 217 255
187 217 255
187 217 255
187 217 255
187 217 255
187 217 255
188 217 255
188 217 255
188 217 255
188 218 255
188 218 255
188 218 255
189 218 255
189 218 255
189 218 255
189 218 255
189 218 255
190 218 255
190 218 255
190 219 255
190 219 255
190 219 255
191 219 255
191 219 255
191 219 255
191 219 255
192 219 255
192 219 255
192 220 255
192 220 255
192 220 255
193 220 255
193 220 255
193 220 255
193 220 255
194 220 255
194 221 255
194 221 255
194 221 255
194 221 255
195 221 255
195 221 255
195 221 255
195 221 255
196 221 255
196 222 255
196 222 255
196 222 255
196 222 255
197 222 255
197 222 255
197 222 255
197 222 255
197 222 255
198 223 255
198 223 255
198 223 255
198 223 255
198 223 255
198 223 255
199 223 255
199 223 255
199 223 255
199 223 255
199 224 255
200 224 255
200 224 255
200 224 255
200 224 255
200 224 255
200 224 255
201 224 255
201 224 255
201 224 255
201 224 255
201 225 255
201 225 255
201 225 255
202 225 255
202 225 255
202 225 255
202 225 255
202 225 255
202 225 255
203 225 255
203 225 255
203 225 255
203 225 255
203 226 255
203 226 255
203 226 255
203 226 255
204 226 255
204 226 255
204 226 255
204 226 255
204 226 255
204 226 255
204 226 255
204 226 255
205 226 255
205 226 255
205 226 255
205 226 255
205 227 255
205 227 255
205 227 255
205 227 255
205 227 255
206 227 255
206 227 255
206 227 255
206 227 255
206 227 255
206 227 255
206 227 255
206 227 255
206 227 255
206 227 255
207 227 255
207 227 255
207 227 255
207 228 255
207 228 255
207 228 255
207 228 255
207 228 255
207 228 255
207 228 255
207 228 255
207 228 255
208 228 255
208 228 255
208 228 255
208 228 255
208 228 255
208 228 255
208 228 255
208 228 255
208 228 255
208 228 255
208 228 255
208 228 255
208 228 255
209 228 255
209 229 255
209 229 255
209 229 255
209 229 255
209 229 255
209 229 255
209 229 255
209 229 255
209 229 255
209 229 255
209 229 255
209 229 255
209 229 255
209 229 255
210 229 255
210 229 255
210 229 255
210 229 255
210 229 255
210 229 255
210 229 255
210 229 255
210 229 255
210 229 255
210 229 255
210 229 255
210 229 255
210 229 255
210 229 255
210 229 255
210 230 255
210 230 255
211 230 255
211 230 255
211 230 255
211 230 255
211 230 255
211 230 255
211 230 255
211 230 255
211 230 255
211 230 255
211 230 255
211 230 255
211 230 255
211 230 255
211 230 255
211 230 255
211 230 255
211 230 255
211 230 255
211 230 255
211 230 255
210 230 255
210 230 255
210 229 255
210 229 255
210 229 255
210 229 255
210 229 255
210 229 255
210 229 255
210 229 255
210 229 255
210 229 255
210 229 255
210 229 255
210 229 255
210 229 255
210 229 255
210 229 255
209 229 255
209 229 255
209 229 255
209 229 255
209 229 255
209 229 255
209 229 255
209 229 255
209 229 255
209 229 255
209 229 255
209 229 255
209 229 255
209 229 255
209 228 255
208 228 255
208 228 255
208 228 255
208 228 255
208 228 255
208 228 255
208 228 255
208 228 255
208 228 255
208 228 255
208 228 255
208 228 255
208 228 255
207 228 255
207 228 255
207 228 255
207 228 255
207 228 255
207 228 255
207 228 255
207 228 255
207 227 255
207 227 255
207 227 255
206 227 255
206 227 255
206 227 255
206 227 255
206 227 255
206 227 255
206 227 255
206 227 255
206 227 255
206 227 255
205 227 255
205 227 255
205 227 255
205 227 255
205 227 255
205 227 255
205 226 255
205 226 255
205 226 255
204 226 255
204 226 255
204 226 255
204 226 255
204 226 255
204 226 255
204 226 255
204 226 255
203 226 255
203 226 255
203 226 255
203 226 255
203 225 255
203 225 255
203 225 255
203 225 255
202 225 255
202 225 255
202 225 255
202 225 255
202 225 255
202 225 255
202 225 255
201 225 255
201 224 255
201 224 255
201 224 255
201 224 255
201 224 255
200 224 255
200 224 255
200 224 255
200 224 255
200 224 255
200 224 255
199 223 255
199 223 255
199 223 255
199 223 255
199 223 255
198 223 255
198 223 255
198 223 255
198 223 255
198 223 255
197 222 255
197 222 255
197 222 255
197 222 255
197 222 255
196 222 255
196 222 255
196 222 255
196 222 255
196 222 255
195 221 255
195 221 255
195 221 255
195 221 255
194 221 255
194 221 255
194 221 255
194 221 255
194 220 255
193 220 255
193 220 255
193 220 255
193 220 255
192 220 255
192 220 255
192 220 255
192 220 255
192 219 255
191 219 255
191 219 255
191 219 255
191 219 255
190 219 255
190 219 255
190 219 255
190 218 255
190 218 255
189 218 255
189 218 255
189 218 255
189 218 255
189 218 255
188 218 255
188 218 255
188 218 255
188 217 255
188 217 255
188 217 255
187 217 255
187 217 255
187 217 255
187 217 255
187 217 255
187 217 255
187 217 255
186 217 255
186 217 255
186 217 255
186 217 255
186 217 255
186 217 255
186 216 255
186 216 255
186 216 255
186 216 255
186 216 255
186 216 255
186 216 255
186 216 255
186 216 255
186 216 255
186 216 255
186 216 255
186 217 255
186 217 255
186 217 255
186 217 255
186 217 255
186 217 255
187 217 255
187 217 255
187 217 255
187 217 255
187 217 255
187 217 255
187 217 255
188 217 255
188 217 255
188 217 255
188 218 255
188 218 255
188 218 255
189 218 255
189 218 255
189 218 255
189 218 255
189 218 255
190 218 255
190 218 255
190 219 255
190 219 255
190 219 255
191 219 255
191 219 255
191 219 255
191 219 255
192 219 255
192 220 255
192 220 255
192 220 255
192 220 255
193 220 255
193 220 255
193 220 255
193 220 255
194 220 255
194 221 255
194 221 255
194 221 255
195 221 255
195 221 255
195 221 255
195 221 255
195 221 255
196 221 255
196 222 255
196 222 255
196 222 255
196 222 255
197 222 255
197 222 255
197 222 255
197 222 255
197 222 255
198 223 255
198 223 255
198 223 255
198 223 255
198 223 255
199 223 255
199 223 255
199 223 255
199 223 255
199 223 255
200 224 255
200 224 255
200 224 255
200 224 255
200 224 255
200 224 255
201 224 255
201 224 255
201 224 255
201 224 255
201 224 255
201 225 255
201 225 255
202 225 255
202 225 255
202 225 255
202 225 255
202 225 255
202 225 255
203 225 255
203 225 255
203 225 255
203 225 255
203 226 255
203 226 255
203 226 255
203 226 255
204 226 255
204 226 255
204 226 255
204 226 255
204 226 255
204 226 255
204 226 255
204 226 255
205 226 255
205 226 255
205 226 255
205 227 255
205 227 255
205 227 255
205 227 255
205 227 255
205 227 255
206 227 255
206 227 255
206 227 255
206 227 255
206 227 255
206 227 255
206 227 255
206 227 255
206 227 255
206 227 255
207 227 255
207 227 255
207 228 255
207 228 255
207 228 255
207 228 255
207 228 255
207 228 255
207 228 255
207 228 255
207 228 255
208 228 255
208 228 255
208 228 255
208 228 255
208 228 255
208 228 255
208 228 255
208 228 255
208 228 255
208 228 255
208 228 255
208 228 255
208 228 255
209 228 255
209 229 255
209 229 255
209 229 255
209 229 255
209 229 255
209 229 255
209 229 255
209 229 255
209 229 255
209 229 255
209 229 255
209 229 255
209 229 255
209 229 255
210 229 255
210 229 255
210 229 255
210 229 255
210 229 255
210 229 255
210 229 255
210 229 255
210 229 255
210 229 255
210 229 255
210 229 255
210 229 255
210 229 255
210 229 255
210 229 255
210 230 255
210 230 255
211 230 255
211 230 255
211 230 255
211 230 255
211 230 255
211 230 255
211 230 255
211 230 255
211 230 255
211 230 255
211 230 255
211 230 255
211 230 255
211 230 255
211 230 255
211 230 255
211 230 255
211 230 255
211 230 255
211 230 255
211 230 255
211 230 255
211 230 255
211 230 255
211 230 255
211 230 255
211 230 255
211 230 255
210 230 255
210 230 255
210 229 255
210 229 255
210 229 255
210 229 255
210 229 255
210 229 255
210 229 255
210 229 255
210 229 255
210 229 255
210 229 255
210 229 255
210 229 255
210 229 255
210 229 255
209 229 255
209 229 255
209 229 255
209 229 255
209 229 255
209 229 255
209 229 255
209 229 255
209 229 255
209 229 255
209 229 255
209 229 255
209 229 255
209 229 255
209 228 255
208 228 255
208 228 255
208 228 255
208 228 255
208 228 255
208 228 255
208 228 255
208 228 255
208 228 255
208 228 255
208 228 255
208 228 255
207 228 255
207 228 255
207 228 255
207 228 255
207 228 255
207 228 255
207 228 255
207 228 255
207 228 255
207 227 255
207 227 255
207 227 255
206 227 255
206 227 255
206 227 255
206 227 255
206 227 255
206 227 255
206 227 255
206 227 255
206 227 255
205 227 255
205 227 255
205 227 255
205 227 255
205 227 255
205 227 255
205 226 255
205 226 255
205 226 255
204 226 255
204 226 255
204 226 255
204 226 255
204 226 255
204 226 255
204 226 255
204 226 255
203 226 255
203 226 255
203 226 255
203 226 255
203 225 255
203 225 255
203 225 255
203 225 255
202 225 255
202 225 255
202 225 255
202 225 255
202 225 255
202 225 255
201 225 255
201 225 255
201 224 255
201 224 255
201 224 255
201 224 255
200 224 255
200 224 255
200 224 255
200 224 255
200 224 255
200 224 255
199 224 255
199 223 255
199 223 255
199 223 255
199 223 255
199 223 255
198 223 255
198 223 255
198 223 255
198 223 255
198 223 255
197 222 255
197 222 255
197 222 255
197 222 255
197 222 255
196 222 255
196 222 255
196 222 255
196 222 255
195 221 255
195 221 255
195 221 255
195 221 255
195 221 255
194 221 255
194 221 255
194 221 255
194 220 255
193 220 255
193 220 255
193 220 255
193 220 255
193 220 255
192 220 255
192 220 255
192 220 255
192 219 255
191 219 255
191 219 255
191 219 255
191 219 255
190 219 255
190 219 255
190 219 255
190 218 255
190 218 255
189 218 255
189 218 255
189 218 255
189 218 255
189 218 255
188 218 255
188 218 255
188 218 255
188 217 255
188 217 255
188 217 255
187 217 255
187 217 255
187 217 255
187 217 255
187 217 255
187 217 255
187 217 255
187 217 255
186 217 255
186 217 255
186 217 255
186 217 255
186 217 255
186 217 255
186 217 255
186 217 255
186 216 255
186 216 255
186 216 255
186 217 255
186 217 255
186 217 255
186 217 255
186 217 255
186 217 255
186 217 255
186 217 255
186 217 255
187 217 255
187 217 255
187 217 255
187 217 255
187 217 255
187 217 255
187 217 255
187 217 255
188 217 255
188 217 255
188 217 255
188 218 255
188 218 255
188 218 255
189 218 255
189 218 255
189 218 255
189 218 255
189 218 255
190 218 255
190 218 255
190 219 255
190 219 255
190 219 255
191 219 255
191 219 255
191 219 255
191 219 255
192 219 255
192 220 255
192 220 255
192 220 255
193 220 255
193 220 255
193 220 255
193 220 255
193 220 255
194 220 255
194 221 255
194 221 255
194 221 255
195 221 255
195 221 255
195 221 255
195 221 255
195 221 255
196 222 255
196 222 255
196 222 255
196 222 255
197 222 255
197 222 255
197 222 255
197 222 255
197 222 255
198 223 255
198 223 255
198 223 255
198 223 255
198 223 255
199 223 255
199 223 255
199 223 255
199 223 255
199 223 255
199 224 255
200 224 255
200 224 255
200 224 255
200 224 255
200 224 255
200 224 255
201 224 255
201 224 255
201 224 255
201 224 255
201 225 255
201 225 255
202 225 255
202 225 255
202 225 255
202 225 255
202 225 255
202 225 255
202 225 255
203 225 255
203 225 255
203 225 255
203 226 255
203 226 255
203 226 255
203 226 255
204 226 255
204 226 255
204 226 255
204 226 255
204 226 255
204 226 255
204 226 255
204 226 255
205 226 255
205 226 255
205 226 255
205 227 255
205 227 255
205 227 255
205 227 255
205 227 255
205 227 255
206 227 255
206 227 255
206 227 255
206 227 255
206 227 255
206 227 255
206 227 255
206 227 255
206 227 255
206 227 255
207 227 255
207 227 255
207 228 255
207 228 255
207 228 255
207 228 255
207 228 255
207 228 255
207 228 255
207 228 255
207 228 255
208 228 255
208 228 255
208 228 255
208 228 255
208 228 255
208 228 255
208 228 255
208 228 255
208 228 255
208 228 255
208 228 255
208 228 255
209 228 255
209 229 255
209 229 255
209 229 255
209 229 255
209 229 255
209 229 255
209 229 255
209 229 255
209 229 255
209 229 255
209 229 255
209 229 255
209 229 255
209 229 255
210 229 255
210 229 255
210 229 255
210 229 255
210 229 255
210 229 255
210 229 255
210 229 255
210 229 255
210 229 255
210 229 255
210 229 255
210 229 255
210 229 255
210 229 255
210 230 255
210 230 255
211 230 255
211 230 255
211 230 255
211 230 255
211 230 255
211 230 255
211 230 255
211 230 255
211 230 255
211 230 255
211 230 255
211 230 255
211 230 255
211 230 255
211 230 255
211 230 255
211 230 255
211 230 255
211 230 255
211 230 255
211 230 255
211 230 255
211 230 255
211 230 255
211 230 255
211 230 255
211 230 255
211 230 255
211 230 255
211 230 255
211 230 255
211 230 255
211 230 255
211 230 255
211 230 255
210 230 255
210 230 255
210 229 255
210 229 255
210 229 255
210 229 255
210 229 255
210 229 255
210 229 255
210 229 255
210 229 255
210 229 255
210 229 255
210 229 255
210 229 255
210 229 255
210 229 255
209 229 255
209 229 255
209 229 255
209 229 255
209 229 255
209 229 255
209 229 255
209 229 255
209 229 255
209 229 255
209 229 255
209 229 255
209 229 255
209 229 255
208 228 255
208 228 255
208 228 255
208 228 255
208 228 255
208 228 255
208 228 255
208 228 255
208 228 255
208 228 255
208 228 255
208 228 255
208 228 255
207 228 255
207 228 255
207 228 255
207 228 255
207 228 255
207 228 255
207 228 255
207 228 255
207 227 255
207 227 255
207 227 255
206 227 255
206 227 255
206 227 255
206 227 255
206 227 255
206 227 255
206 227 255
206 227 255
206 227 255
206 227 255
205 227 255
205 227 255
205 227 255
205 227 255
205 227 255
205 226 255
205 226 255
205 226 255
204 226 255
204 226 255
204 226 255
204 226 255
204 226 255
204 226 255
204 226 255
204 226 255
203 226 255
203 226 255
203 226 255
203 225 255
203 225 255
203 225 255
203 225 255
202 225 255
202 225 255
202 225 255
202 225 255
202 225 255
202 225 255
202 225 255
201 225 255
201 225 255
201 224 255
201 224 255
201 224 255
201 224 255
200 224 255
200 224 255
200 224 255
200 224 255
200 224 255
200 224 255
199 224 255
199 223 255
199 223 255
199 223 255
199 223 255
198 223 255
198 223 255
198 223 255
198 223 255
198 223 255
197 222 255
197 222 255
197 222 255
197 222 255
197 222 255
196 222 255
196 222 255
196 222 255
196 222 255
196 221 255
195 221 255
195 221 255
195 221 255
195 221 255
194 221 255
194 221 255
194 221 255
194 221 255
193 220 255
193 220 255
193 220 255
193 220 255
193 220 255
192 220 255
192 220 255
192 220 255
192 219 255
191 219 255
191 219 255
191 219 255
191 219 255
191 219 255
190 219 255
190 219 255
190 218 255
190 218 255
189 218 255
189 218 255
189 218 255
189 218 255
189 218 255
188 218 255
188 218 255
188 218 255
188 217 255
188 217 255
188 217 255
187 217 255
187 217 255
187 217 255
187 217 255
187 217 255
187 217 255
187 217 255
187 217 255
187 217 255
186 217 255
186 217 255
186 217 255
186 217 255
186 217 255
186 217 255
186 217 255
186 217 255
186 217 255
186 217 255
186 217 255
186 217 255
186 217 255
186 217 255
186 217 255
186 217 255
187 217 255
187 217 255
187 217 255
187 217 255
187 217 255
187 217 255
187 217 255
187 217 255
187 217 255
188 217 255
188 217 255
188 217 255
188 218 255
188 218 255
188 218 255
189 218 255
189 218 255
189 218 255
189 218 255
189 218 255
190 218 255
190 218 255
190 219 255
190 219 255
191 219 255
191 219 255
191 219 255
191 219 255
191 219 255
192 219 255
192 220 255
192 220 255
192 220 255
193 220 255
193 220 255
193 220 255
193 220 255
193 220 255
194 221 255
194 221 255
194 221 255
194 221 255
195 221 255
195 221 255
195 221 255
195 221 255
196 221 255
196 222 255
196 222 255
196 222 255
196 222 255
197 222 255
197 222 255
197 222 255
197 222 255
197 222 255
198 223 255
198 223 255
198 223 255
198 223 255
198 223 255
199 223 255
199 223 255
199 223 255
199 223 255
199 224 255
200 224 255
200 224 255
200 224 255
200 224 255
200 224 255
200 224 255
201 224 255
201 224 255
201 224 255
201 224 255
201 225 255
201 225 255
202 225 255
202 225 255
202 225 255
202 225 255
202 225 255
202 225 255
202 225 255
203 225 255
203 225 255
203 225 255
203 225 255
203 226 255
203 226 255
203 226 255
204 226 255
204 226 255
204 226 255
204 226 255
204 226 255
204 226 255
204 226 255
204 226 255
205 226 255
205 226 255
205 226 255
205 227 255
205 227 255
205 227 255
205 227 255
205 227 255
206 227 255
206 227 255
206 227 255
206 227 255
206 227 255
206 227 255
206 227 255
206 227 255
206 227 255
206 227 255
207 227 255
207 227 255
207 228 255
207 228 255
207 228 255
207 228 255
207 228 255
207 228 255
207 228 255
207 228 255
207 228 255
208 228 255
208 228 255
208 228 255
208 228 255
208 228 255
208 228 255
208 228 255
208 228 255
208 228 255
208 228 255
208 228 255
208 228 255
209 228 255
209 229 255
209 229 255
209 229 255
209 229 255
209 229 255
209 229 255
209 229 255
209 229 255
209 229 255
209 229 255
209 229 255
209 229 255
209 229 255
209 229 255
210 229 255
210 229 255
210 229 255
210 229 255
210 229 255
210 229 255
210 229 255
210 229 255
210 229 255
210 229 255
210 229 255
210 229 255
210 229 255
210 229 255
210 229 255
210 230 255
210 230 255
211 230 255
211 230 255
211 230 255
211 230 255
211 230 255
211 230 255
211 230 255
211 230 255
211 230 255
211 230 255
211 230 255
211 230 255
211 230 255
211 230 255
211 230 255
211 230 255
211 230 255
211 230 255
211 230 255
212 230 255
212 230 255
212 230 255
211 230 255
211 230 255
211 230 255
211 230 255
211 230 255
211 230 255
211 230 255
211 230 255
211 230 255
211 230 255
211 230 255
211 230 255
211 230 255
211 230 255
211 230 255
211 230 255
211 230 255
211 230 255
211 230 255
211 230 255
210 230 255
210 229 255
210 229 255
210 229 255
210 229 255
210 229 255
210 229 255
210 229 255
210 229 255
210 229 255
210 229 255
210 229 255
210 229 255
210 229 255
210 229 255
210 229 255
209 229 255
209 229 255
209 229 255
209 229 255
209 229 255
209 229 255
209 229 255
209 229 255
209 229 255
209 229 255
209 229 255
209 229 255
209 229 255
209 229 255
209 228 255
208 228 255
208 228 255
208 228 255
208 228 255
208 228 255
208 228 255
208 228 255
208 228 255
208 228 255
208 228 255
208 228 255
208 228 255
207 228 255
207 228 255
207 228 255
207 228 255
207 228 255
207 228 255
207 228 255
207 228 255
207 227 255
207 227 255
206 227 255
206 227 255
206 227 255
206 227 255
206 227 255
206 227 255
206 227 255
206 227 255
206 227 255
206 227 255
205 227 255
205 227 255
205 227 255
205 227 255
205 227 255
205 226 255
205 226 255
205 226 255
204 226 255
204 226 255
204 226 255
204 226 255
204 226 255
204 226 255
204 226 255
204 226 255
203 226 255
203 226 255
203 226 255
203 225 255
203 225 255
203 225 255
203 225 255
202 225 255
202 225 255
202 225 255
202 225 255
202 225 255
202 225 255
202 225 255
201 225 255
201 224 255
201 224 255
201 224 255
201 224 255
201 224 255
200 224 255
200 224 255
200 224 255
200 224 255
200 224 255
199 224 255
199 223 255
199 223 255
199 223 255
199 223 255
199 223 255
198 223 255
198 223 255
198 223 255
198 223 255
198 223 255
197 222 255
197 222 255
197 222 255
197 222 255
196 222 255
196 222 255
196 222 255
196 222 255
196 222 255
195 221 255
195 221 255
195 221 255
195 221 255
194 221 255
194 221 255
194 221 255
194 221 255
194 220 255
193 220 255
193 220 255
193 220 255
193 220 255
192 220 255
192 220 255
192 220 255
192 219 255
191 219 255
191 219 255
191 219 255
191 219 255
191 219 255
190 219 255
190 219 255
190 219 255
190 218 255
189 218 255
189 218 255
189 218 255
189 218 255
189 218 255
189 218 255
188 218 255
188 218 255
188 218 255
188 217 255
188 217 255
188 217 255
187 217 255
187 217 255
187 217 255
187 217 255
187 217 255
187 217 255
187 217 255
187 217 255
187 217 255
187 217 255
186 217 255
186 217 255
186 217 255
186 217 255
186 217 255
186 217 255
186 217 255
186 217 255
186 217 255
186 217 255
186 217 255
187 217 255
187 217 255
187 217 255
187 217 255
187 217 255
187 217 255
187 217 255
187 217 255
187 217 255
188 217 255
188 217 255
188 217 255
188 218 255
188 218 255
188 218 255
189 218 255
189 218 255
189 218 255
189 218 255
189 218 255
189 218 255
190 218 255
190 219 255
190 219 255
190 219 255
191 219 255
191 219 255
191 219 255
191 219 255
191 219 255
192 219 255
192 220 255
192 220 255
192 220 255
193 220 255
193 220 255
193 220 255
193 220 255
194 220 255
194 221 255
194 221 255
194 221 255
194 221 255
195 221 255
195 221 255
195 221 255
195 221 255
196 222 255
196 222 255
196 222 255
196 222 255
196 222 255
197 222 255
197 222 255
197 222 255
197 222 255
198 223 255
198 223 255
198 223 255
198 223 255
198 223 255
199 223 255
199 223 255
199 223 255
199 223 255
199 223 255
199 224 255
200 224 255
200 224 255
200 224 255
200 224 255
200 224 255
201 224 255
201 224 255
201 224 255
201 224 255
201 224 255
201 225 255
202 225 255
202 225 255
202 225 255
202 225 255
202 225 255
202 225 255
202 225 255
203 225 255
203 225 255
203 225 255
203 225 255
203 226 255
203 226 255
203 226 255
204 226 255
204 226 255
204 226 255
204 226 255
204 226 255
204 226 255
204 226 255
205 226 255
205 226 255
205 226 255
205 226 255
205 227 255
205 227 255
205 227 255
205 227 255
205 227 255
206 227 255
206 227 255
206 227 255
206 227 255
206 227 255
206 227 255
206 227 255
206 227 255
206 227 255
207 227 255
207 227 255
207 227 255
207 228 255
207 228 255
207 228 255
207 228 255
207 228 255
207 228 255
207 228 255
207 228 255
208 228 255
208 228 255
208 228 255
208 228 255
208 228 255
208 228 255
208 228 255
208 228 255
208 228 255
208 228 255
208 228 255
208 228 255
208 228 255
209 229 255
209 229 255
209 229 255
209 229 255
209 229 255
209 229 255
209 229 255
209 229 255
209 229 255
209 229 255
209 229 255
209 229 255
209 229 255
209 229 255
210 229 255
210 229 255
210 229 255
210 229 255
210 229 255
210 229 255
210 229 255
210 229 255
210 229 255
210 229 255
210 229 255
210 229 255
210 229 255
210 229 255
210 229 255
210 230 255
211 230 255
211 230 255
211 230 255
211 230 255
211 230 255
211 230 255
211 230 255
211 230 255
211 230 255
211 230 255
211 230 255
211 230 255
211 230 255
211 230 255
211 230 255
211 230 255
211 230 255
211 230 255
211 230 255
211 230 255
212 230 255
212 230 255
212 230 255
212 230 255
212 230 255
212 230 255
212 230 255
212 230 255
212 230 255
212 230 255
211 230 255
211 230 255
211 230 255
211 230 255
211 230 255
211 230 255
211 230 255
211 230 255
211 230 255
211 230 255
211 230 255
211 230 255
211 230 255
211 230 255
211 230 255
211 230 255
211 230 255
211 230 255
211 230 255
210 230 255
210 230 255
210 229 255
210 229 255
210 229 255
210 229 255
210 229 255
210 229 255
210 229 255
210 229 255
210 229 255
210 229 255
210 229 255
210 229 255
210 229 255
210 229 255
209 229 255
209 229 255
209 229 255
209 229 255
209 229 255
209 229 255
209 229 255
209 229 255
209 229 255
209 229 255
209 229 255
209 229 255
209 229 255
209 228 255
208 228 255
208 228 255
208 228 255
208 228 255
208 228 255
208 228 255
208 228 255
208 228 255
208 228 255
208 228 255
208 228 255
208 228 255
207 228 255
207 228 255
207 228 255
207 228 255
207 228 255
207 228 255
207 228 255
207 228 255
207 228 255
207 227 255
207 227 255
206 227 255
206 227 255
206 227 255
206 227 255
206 227 255
206 227 255
206 227 255
206 227 255
206 227 255
205 227 255
205 227 255
205 227 255
205 227 255
205 227 255
205 226 255
205 226 255
205 226 255
205 226 255
204 226 255
204 226 255
204 226 255
204 226 255
204 226 255
204 226 255
204 226 255
203 226 255
203 226 255
203 226 255
203 225 255
203 225 255
203 225 255
203 225 255
202 225 255
202 225 255
202 225 255
202 225 255
202 225 255
202 225 255
202 225 255
201 225 255
201 224 255
201 224 255
201 224 255
201 224 255
200 224 255
200 224 255
200 224 255
200 224 255
200 224 255
200 224 255
199 224 255
199 223 255
199 223 255
199 223 255
199 223 255
198 223 255
198 223 255
198 223 255
198 223 255
198 223 255
197 222 255
197 222 255
197 222 255
197 222 255
197 222 255
196 222 255
196 222 255
196 222 255
196 222 255
195 221 255
195 221 255
195 221 255
195 221 255
195 221 255
194 221 255
194 221 255
194 221 255
194 220 255
193 220 255
193 220 255
193 220 255
193 220 255
192 220 255
192 220 255
192 220 255
192 219 255
191 219 255
191 219 255
191 219 255
191 219 255
191 219 255
190 219 255
190 219 255
190 219 255
190 218 255
190 218 255
189 218 255
189 218 255
189 218 255
189 218 255
189 218 255
188 218 255
188 218 255
188 218 255
188 217 255
188 217 255
188 217 255
187 217 255
187 217 255
187 217 255
187 217 255
187 217 255
187 217 255
187 217 255
187 217 255
187 217 255
187 217 255
187 217 255
187 217 255
187 217 255
187 217 255
187 217 255
187 217 255
187 217 255
187 217 255
187 217 255
187 217 255
187 217 255
187 217 255
187 217 255
187 217 255
187 217 255
187 217 255
187 217 255
187 217 255
188 217 255
188 217 255
188 217 255
188 218 255
188 218 255
188 218 255
189 218 255
189 218 255
189 218 255
189 218 255
189 218 255
190 218 255
190 218 255
190 219 255
190 219 255
190 219 255
191 219 255
191 219 255
191 219 255
191 219 255
192 219 255
192 219 255
192 220 255
192 220 255
192 220 255
193 220 255
193 220 255
193 220 255
193 220 255
194 220 255
194 221 255
194 221 255
194 221 255
195 221 255
195 221 255
195 221 255
195 221 255
195 221 255
196 222 255
196 222 255
196 222 255
196 222 255
197 222 255
197 222 255
197 222 255
197 222 255
197 222 255
198 223 255
198 223 255
198 223 255
198 223 255
198 223 255
199 223 255
199 223 255
199 223 255
199 223 255
199 224 255
200 224 255
200 224 255
200 224 255
200 224 255
200 224 255
200 224 255
201 224 255
201 224 255
201 224 255
201 224 255
201 225 255
202 225 255
202 225 255
202 225 255
202 225 255
202 225 255
202 225 255
202 225 255
203 225 255
203 225 255
203 225 255
203 225 255
203 226 255
203 226 255
203 226 255
204 226 255
204 226 255
204 226 255
204 226 255
204 226 255
204 226 255
204 226 255
205 226 255
205 226 255
205 226 255
205 226 255
205 227 255
205 227 255
205 227 255
205 227 255
205 227 255
206 227 255
206 227 255
206 227 255
206 227 255
206 227 255
206 227 255
206 227 255
206 227 255
206 227 255
207 227 255
207 227 255
207 228 255
207 228 255
207 228 255
207 228 255
207 228 255
207 228 255
207 228 255
207 228 255
207 228 255
208 228 255
208 228 255
208 228 255
208 228 255
208 228 255
208 228 255
208 228 255
208 228 255
208 228 255
208 228 255
208 228 255
208 228 255
209 228 255
209 229 255
209 229 255
209 229 255
209 229 255
209 229 255
209 229 255
209 229 255
209 229 255
209 229 255
209 229 255
209 229 255
209 229 255
209 229 255
210 229 255
210 229 255
210 229 255
210 229 255
210 229 255
210 229 255
210 229 255
210 229 255
210 229 255
210 229 255
210 229 255
210 229 255
210 229 255
210 229 255
210 230 255
210 230 255
211 230 255
211 230 255
211 230 255
211 230 255
211 230 255
211 230 255
211 230 255
211 230 255
211 230 255
211 230 255
211 230 255
211 230 255
211 230 255
211 230 255
211 230 255
211 230 255
211 230 255
211 230 255
211 230 255
212 230 255
212 230 255
212 230 255
212 230 255
212 230 255
212 230 255
212 230 255
212 230 255
212 230 255
212 230 255
212 230 255
212 230 255
212 230 255
212 230 255
212 230 255
212 230 255
212 230 255
211 230 255
211 230 255
211 230 255
211 230 255
211 230 255
211 230 255
211 230 255
211 230 255
211 230 255
211 230 255
211 230 255
211 230 255
211 230 255
211 230 255
211 230 255
211 230 255
211 230 255
211 230 255
211 230 255
211 230 255
210 230 255
210 229 255
210 229 255
210 229 255
210 229 255
210 229 255
210 229 255
210 229 255
210 229 255
210 229 255
210 229 255
210 229 255
210 229 255
210 229 255
210 229 255
210 229 255
209 229 255
209 229 255
209 229 255
209 229 255
209 229 255
209 229 255
209 229 255
209 229 255
209 229 255
209 229 255
209 229 255
209 229 255
209 229 255
208 228 255
208 228 255
208 228 255
208 228 255
208 228 255
208 228 255
208 228 255
208 228 255
208 228 255
208 228 255
208 228 255
208 228 255
207 228 255
207 228 255
207 228 255
207 228 255
207 228 255
207 228 255
207 228 255
207 228 255
207 227 255
207 227 255
207 227 255
206 227 255
206 227 255
206 227 255
206 227 255
206 227 255
206 227 255
206 227 255
206 227 255
206 227 255
205 227 255
205 227 255
205 227 255
205 227 255
205 227 255
205 226 255
205 226 255
205 226 255
204 226 255
204 226 255
204 226 255
204 226 255
204 226 255
204 226 255
204 226 255
203 226 255
203 226 255
203 226 255
203 225 255
203 225 255
203 225 255
203 225 255
202 225 255
202 225 255
202 225 255
202 225 255
202 225 255
202 225 255
201 225 255
201 225 255
201 224 255
201 224 255
201 224 255
201 224 255
200 224 255
200 224 255
200 224 255
200 224 255
200 224 255
199 224 255
199 223 255
199 223 255
199 223 255
199 223 255
199 223 255
198 223 255
198 223 255
198 223 255
198 223 255
198 223 255
197 222 255
197 222 255
197 222 255
197 222 255
196 222 255
196 222 255
196 222 255
196 222 255
195 221 255
195 221 255
195 221 255
195 221 255
195 221 255
194 221 255
194 221 255
194 221 255
194 220 255
193 220 255
193 220 255
193 220 255
193 220 255
192 220 255
192 220 255
192 220 255
192 219 255
192 219 255
191 219 255
191 219 255
191 219 255
191 219 255
190 219 255
190 219 255
190 219 255
190 218 255
190 218 255
189 218 255
189 218 255
189 218 255
189 218 255
189 218 255
188 218 255
188 218 255
188 218 255
188 217 255
188 217 255
188 217 255
188 217 255
187 217 255
187 217 255
187 217 255
187 217 255
187 217 255
187 217 255
187 217 255
187 217 255
187 217 255
187 217 255
187 217 255
187 217 255
187 217 255
187 217 255
187 217 255
187 217 255
187 217 255
187 217 255
187 217 255
187 217 255
187 217 255
187 217 255
187 217 255
187 217 255
188 217 255
188 217 255
188 217 255
188 217 255
188 218 255
188 218 255
188 218 255
189 218 255
189 218 255
189 218 255
189 218 255
189 218 255
190 218 255
190 218 255
190 219 255
190 219 255
190 219 255
191 219 255
191 219 255
191 219 255
191 219 255
192 219 255
192 219 255
192 220 255
192 220 255
192 220 255
193 220 255
193 220 255
193 220 255
193 220 255
194 220 255
194 221 255
194 221 255
194 221 255
195 221 255
195 221 255
195 221 255
195 221 255
196 221 255
196 222 255
196 222 255
196 222 255
196 222 255
197 222 255
197 222 255
197 222 255
197 222 255
197 223 255
198 223 255
198 223 255
198 223 255
198 223 255
199 223 255
199 223 255
199 223 255
199 223 255
199 223 255
200 224 255
200 224 255
200 224 255
200 224 255
200 224 255
200 224 255
201 224 255
201 224 255
201 224 255
201 224 255
201 225 255
201 225 255
202 225 255
202 225 255
202 225 255
202 225 255
202 225 255
202 225 255
203 225 255
203 225 255
203 225 255
203 225 255
203 226 255
203 226 255
203 226 255
204 226 255
204 226 255
204 226 255
204 226 255
204 226 255
204 226 255
204 226 255
205 226 255
205 226 255
205 226 255
205 227 255
205 227 255
205 227 255
205 227 255
205 227 255
206 227 255
206 227 255
206 227 255
206 227 255
206 227 255
206 227 255
206 227 255
206 227 255
206 227 255
206 227 255
207 227 255
207 227 255
207 228 255
207 228 255
207 228 255
207 228 255
207 228 255
207 228 255
207 228 255
207 228 255
208 228 255
208 228 255
208 228 255
208 228 255
208 228 255
208 228 255
208 228 255
208 228 255
208 228 255
208 228 255
208 228 255
208 228 255
209 228 255
209 229 255
209 229 255
209 229 255
209 229 255
209 229 255
209 229 255
209 229 255
209 229 255
209 229 255
209 229 255
209 229 255
209 229 255
209 229 255
210 229 255
210 229 255
210 229 255
210 229 255
210 229 255
210 229 255
210 229 255
210 229 255
210 229 255
210 229 255
210 229 255
210 229 255
210 229 255
210 229 255
210 230 255
211 230 255
211 230 255
211 230 255
211 230 255
211 230 255
211 230 255
211 230 255
211 230 255
211 230 255
211 230 255
211 230 255
211 230 255
211 230 255
211 230 255
211 230 255
211 230 255
211 230 255
211 230 255
211 230 255
211 230 255
212 230 255
212 230 255
212 230 255
212 230 255
212 230 255
212 230 255
212 230 255
212 230 255
212 230 255
212 230 255
212 230 255
212 230 255
212 230 255
212 230 255
212 230 255
212 230 255
212 230 255
212 230 255
212 230 255
212 230 255
212 230 255
212 230 255
212 230 255
212 230 255
211 230 255
211 230 255
211 230 255
211 230 255
211 230 255
211 230 255
211 230 255
211 230 255
211 230 255
211 230 255
211 230 255
211 230 255
211 230 255
211 230 255
211 230 255
211 230 255
211 230 255
211 230 255
211 230 255
210 230 255
210 230 255
210 229 255
210 229 255
210 229 255
210 229 255
210 229 255
210 229 255
210 229 255
210 229 255
210 229 255
210 229 255
210 229 255
210 229 255
210 229 255
210 229 255
209 229 255
209 229 255
209 229 255
209 229 255
209 229 255
209 229 255
209 229 255
209 229 255
209 229 255
209 229 255
209 229 255
209 229 255
209 228 255
208 228 255
208 228 255
208 228 255
208 228 255
208 228 255
208 228 255
208 228 255
208 228 255
208 228 255
208 228 255
208 228 255
208 228 255
207 228 255
207 228 255
207 228 255
207 228 255
207 228 255
207 228 255
207 228 255
207 227 255
207 227 255
207 227 255
206 227 255
206 227 255
206 227 255
206 227 255
206 227 255
206 227 255
206 227 255
206 227 255
206 227 255
205 227 255
205 227 255
205 227 255
205 227 255
205 227 255
205 226 255
205 226 255
205 226 255
204 226 255
204 226 255
204 226 255
204 226 255
204 226 255
204 226 255
204 226 255
203 226 255
203 226 255
203 226 255
203 225 255
203 225 255
203 225 255
203 225 255
202 225 255
202 225 255
202 225 255
202 225 255
202 225 255
202 225 255
201 225 255
201 225 255
201 224 255
201 224 255
201 224 255
201 224 255
200 224 255
200 224 255
200 224 255
200 224 255
200 224 255
199 224 255
199 223 255
199 223 255
199 223 255
199 223 255
198 223 255
198 223 255
198 223 255
198 223 255
198 223 255
197 222 255
197 222 255
197 222 255
197 222 255
196 222 255
196 222 255
196 222 255
196 222 255
196 222 255
195 221 255
195 221 255
195 221 255
195 221 255
194 221 255
194 221 255
194 221 255
194 221 255
193 220 255
193 220 255
193 220 255
193 220 255
193 220 255
192 220 255
192 220 255
192 220 255
192 219 255
191 219 255
191 219 255
191 219 255
191 219 255
190 219 255
190 219 255
190 219 255
190 218 255
190 218 255
189 218 255
189 218 255
189 218 255
189 218 255
189 218 255
188 218 255
188 218 255
188 218 255
188 218 255
188 217 255
188 217 255
188 217 255
187 217 255
187 217 255
187 217 255
187 217 255
187 217 255
187 217 255
187 217 255
187 217 255
187 217 255
187 217 255
187 217 255
187 217 255
187 217 255
187 217 255
187 217 255
187 217 255
187 217 255
187 217 255
187 217 255
187 217 255
187 217 255
187 217 255
188 217 255
188 217 255
188 217 255
188 218 255
188 218 255
188 218 255
188 218 255
189 218 255
189 218 255
189 218 255
189 218 255
189 218 255
190 218 255
190 218 255
190 219 255
190 219 255
190 219 255
191 219 255
191 219 255
191 219 255
191 219 255
192 219 255
192 220 255
192 220 255
192 220 255
193 220 255
193 220 255
193 220 255
193 220 255
193 220 255
194 221 255
194 221 255
194 221 255
194 221 255
195 221 255
195 221 255
195 221 255
195 221 255
196 222 255
196 222 255
196 222 255
196 222 255
196 222 255
197 222 255
197 222 255
197 222 255
197 222 255
198 223 255
198 223 255
198 223 255
198 223 255
198 223 255
199 223 255
199 223 255
199 223 255
199 223 255
199 224 255
200 224 255
200 224 255
200 224 255
200 224 255
200 224 255
201 224 255
201 224 255
201 224 255
201 224 255
201 225 255
201 225 255
202 225 255
202 225 255
202 225 255
202 225 255
202 225 255
202 225 255
203 225 255
203 225 255
203 225 255
203 225 255
203 226 255
203 226 255
203 226 255
204 226 255
204 226 255
204 226 255
204 226 255
204 226 255
204 226 255
204 226 255
205 226 255
205 226 255
205 226 255
205 227 255
205 227 255
205 227 255
205 227 255
205 227 255
206 227 255
206 227 255
206 227 255
206 227 255
206 227 255
206 227 255
206 227 255
206 227 255
206 227 255
207 227 255
207 227 255
207 227 255
207 228 255
207 228 255
207 228 255
207 228 255
207 228 255
207 228 255
207 228 255
208 228 255
208 228 255
208 228 255
208 228 255
208 228 255
208 228 255
208 228 255
208 228 255
208 228 255
208 228 255
208 228 255
208 228 255
209 228 255
209 229 255
209 229 255
209 229 255
209 229 255
209 229 255
209 229 255
209 229 255
209 229 255
209 229 255
209 229 255
209 229 255
209 229 255
210 229 255
210 229 255
210 229 255
210 229 255
210 229 255
210 229 255
210 229 255
210 229 255
210 229 255
210 229 255
210 229 255
210 229 255
210 229 255
210 229 255
210 230 255
210 230 255
211 230 255
211 230 255
211 230 255
211 230 255
211 230 255
211 230 255
211 230 255
211 230 255
211 230 255
211 230 255
211 230 255
211 230 255
211 230 255
211 230 255
211 230 255
211 230 255
211 230 255
211 230 255
211 230 255
212 230 255
212 230 255
212 230 255
212 230 255
212 230 255
212 230 255
212 230 255
212 230 255
212 230 255
212 230 255
212 230 255
212 230 255
212 230 255
212 230 255
212 231 255
212 231 255
212 231 255
212 230 255
212 230 255
212 230 255
212 230 255
212 230 255
212 230 255
212 230 255
212 230 255
212 230 255
212 230 255
212 230 255
212 230 255
212 230 255
212 230 255
212 230 255
211 230 255
211 230 255
211 230 255
211 230 255
211 230 255
211 230 255
211 230 255
211 230 255
211 230 255
211 230 255
211 230 255
211 230 255
211 230 255
211 230 255
211 230 255
211 230 255
211 230 255
211 230 255
211 230 255
210 230 255
210 229 255
210 229 255
210 229 255
210 229 255
210 229 255
210 229 255
210 229 255
210 229 255
210 229 255
210 229 255
210 229 255
210 229 255
210 229 255
210 229 255
209 229 255
209 229 255
209 229 255
209 229 255
209 229 255
209 229 255
209 229 255
209 229 255
209 229 255
209 229 255
209 229 255
209 229 255
209 228 255
208 228 255
208 228 255
208 228 255
208 228 255
208 228 255
208 228 255
208 228 255
208 228 255
208 228 255
208 228 255
208 228 255
208 228 255
207 228 255
207 228 255
207 228 255
207 228 255
207 228 255
207 228 255
207 228 255
207 227 255
207 227 255
206 227 255
206 227 255
206 227 255
206 227 255
206 227 255
206 227 255
206 227 255
206 227 255
206 227 255
205 227 255
205 227 255
205 227 255
205 227 255
205 227 255
205 226 255
205 226 255
205 226 255
204 226 255
204 226 255
204 226 255
204 226 255
204 226 255
204 226 255
204 226 255
203 226 255
203 226 255
203 226 255
203 225 255
203 225 255
203 225 255
203 225 255
202 225 255
202 225 255
202 225 255
202 225 255
202 225 255
202 225 255
201 225 255
201 225 255
201 224 255
201 224 255
201 224 255
201 224 255
200 224 255
200 224 255
200 224 255
200 224 255
200 224 255
199 224 255
199 223 255
199 223 255
199 223 255
199 223 255
198 223 255
198 223 255
198 223 255
198 223 255
197 223 255
197 222 255
197 222 255
197 222 255
197 222 255
196 222 255
196 222 255
196 222 255
196 222 255
195 221 255
195 221 255
195 221 255
195 221 255
194 221 255
194 221 255
194 221 255
194 221 255
194 220 255
193 220 255
193 220 255
193 220 255
193 220 255
192 220 255
192 220 255
192 220 255
192 219 255
191 219 255
191 219 255
191 219 255
191 219 255
190 219 255
190 219 255
190 219 255
190 218 255
190 218 255
189 218 255
189 218 255
189 218 255
189 218 255
189 218 255
189 218 255
188 218 255
188 218 255
188 218 255
188 218 255
188 217 255
188 217 255
188 217 255
188 217 255
187 217 255
187 217 255
187 217 255
187 217 255
187 217 255
187 217 255
187 217 255
187 217 255
187 217 255
187 217 255
187 217 255
187 217 255
187 217 255
187 217 255
187 217 255
187 217 255
188 217 255
188 217 255
188 217 255
188 217 255
188 217 255
188 218 255
188 218 255
188 218 255
189 218 255
189 218 255
189 218 255
189 218 255
189 218 255
189 218 255
190 218 255
190 218 255
190 219 255
190 219 255
190 219 255
191 219 255
191 219 255
191 219 255
191 219 255
192 219 255
192 220 255
192 220 255
192 220 255
193 220 255
193 220 255
193 220 255
193 220 255
194 220 255
194 221 255
194 221 255
194 221 255
194 221 255
195 221 255
195 221 255
195 221 255
195 221 255
196 222 255
196 222 255
196 222 255
196 222 255
197 222 255
197 222 255
197 222 255
197 222 255
197 223 255
198 223 255
198 223 255
198 223 255
198 223 255
199 223 255
199 223 255
199 223 255
199 223 255
199 224 255
200 224 255
200 224 255
200 224 255
200 224 255
200 224 255
201 224 255
201 224 255
201 224 255
201 224 255
201 225 255
201 225 255
202 225 255
202 225 255
202 225 255
202 225 255
202 225 255
202 225 255
203 225 255
203 225 255
203 225 255
203 225 255
203 226 255
203 226 255
203 226 255
204 226 255
204 226 255
204 226 255
204 226 255
204 226 255
204 226 255
204 226 255
205 226 255
205 226 255
205 226 255
205 227 255
205 227 255
205 227 255
205 227 255
205 227 255
206 227 255
206 227 255
206 227 255
206 227 255
206 227 255
206 227 255
206 227 255
206 227 255
206 227 255
207 227 255
207 227 255
207 228 255
207 228 255
207 228 255
207 228 255
207 228 255
207 228 255
207 228 255
207 228 255
208 228 255
208 228 255
208 228 255
208 228 255
208 228 255
208 228 255
208 228 255
208 228 255
208 228 255
208 228 255
208 228 255
209 228 255
209 229 255
209 229 255
209 229 255
209 229 255
209 229 255
209 229 255
209 229 255
209 229 255
209 229 255
209 229 255
209 229 255
209 229 255
210 229 255
210 229 255
210 229 255
210 229 255
210 229 255
210 229 255
210 229 255
210 229 255
210 229 255
210 229 255
210 229 255
210 229 255
210 229 255
210 229 255
210 230 255
210 230 255
211 230 255
211 230 255
211 230 255
211 230 255
211 230 255
211 230 255
211 230 255
211 230 255
211 230 255
211 230 255
211 230 255
211 230 255
211 230 255
211 230 255
211 230 255
211 230 255
211 230 255
211 230 255
212 230 255
212 230 255
212 230 255
212 230 255
212 230 255
212 230 255
212 230 255
212 230 255
212 230 255
212 230 255
212 230 255
212 230 255
212 230 255
212 230 255
212 230 255
212 231 255
212 231 255
212 231 255
212 231 255
212 231 255
212 231 255
212 231 255
212 231 255
212 231 255
212 231 255
212 230 255
212 230 255
212 230 255
212 230 255
212 230 255
212 230 255
212 230 255
212 230 255
212 230 255
212 230 255
212 230 255
212 230 255
212 230 255
212 230 255
212 230 255
211 230 255
211 230 255
211 230 255
211 230 255
211 230 255
211 230 255
211 230 255
211 230 255
211 230 255
211 230 255
211 230 255
211 230 255
211 230 255
211 230 255
211 230 255
211 230 255
211 230 255
211 230 255
210 230 255
210 230 255
210 229 255
210 229 255
210 229 255
210 229 255
210 229 255
210 229 255
210 229 255
210 229 255
210 229 255
210 229 255
210 229 255
210 229 255
210 229 255
209 229 255
209 229 255
209 229 255
209 229 255
209 229 255
209 229 255
209 229 255
209 229 255
209 229 255
209 229 255
209 229 255
209 229 255
209 228 255
208 228 255
208 228 255
208 228 255
208 228 255
208 228 255
208 228 255
208 228 255
208 228 255
208 228 255
208 228 255
208 228 255
207 228 255
207 228 255
207 228 255
207 228 255
207 228 255
207 228 255
207 228 255
207 228 255
207 227 255
207 227 255
206 227 255
206 227 255
206 227 255
206 227 255
206 227 255
206 227 255
206 227 255
206 227 255
206 227 255
205 227 255
205 227 255
205 227 255
205 227 255
205 226 255
205 226 255
205 226 255
204 226 255
204 226 255
204 226 255
204 226 255
204 226 255
204 226 255
204 226 255
203 226 255
203 226 255
203 226 255
203 225 255
203 225 255
203 225 255
203 225 255
202 225 255
202 225 255
202 225 255
202 225 255
202 225 255
202 225 255
201 225 255
201 224 255
201 224 255
201 224 255
201 224 255
200 224 255
200 224 255
200 224 255
200 224 255
200 224 255
199 224 255
199 223 255
199 223 255
199 223 255
199 223 255
198 223 255
198 223 255
198 223 255
198 223 255
198 223 255
197 222 255
197 222 255
197 222 255
197 222 255
196 222 255
196 222 255
196 222 255
196 222 255
195 221 255
195 221 255
195 221 255
195 221 255
195 221 255
194 221 255
194 221 255
194 221 255
194 220 255
193 220 255
193 220 255
193 220 255
193 220 255
192 220 255
192 220 255
192 220 255
192 219 255
191 219 255
191 219 255
191 219 255
191 219 255
191 219 255
190 219 255
190 219 255
190 219 255
190 218 255
190 218 255
189 218 255
189 218 255
189 218 255
189 218 255
189 218 255
188 218 255
188 218 255
188 218 255
188 218 255
188 217 255
188 217 255
188 217 255
188 217 255
188 217 255
187 217 255
187 217 255
187 217 255
187 217 255
187 217 255
187 217 255
187 217 255
187 217 255
187 217 255
187 217 255
187 217 255
187 217 255
188 217 255
188 217 255
188 217 255
188 217 255
188 217 255
188 218 255
188 218 255
188 218 255
188 218 255
189 218 255
189 218 255
189 218 255
189 218 255
189 218 255
190 218 255
190 218 255
190 219 255
190 219 255
190 219 255
191 219 255
191 219 255
191 219 255
191 219 255
191 219 255
192 219 255
192 220 255
192 220 255
192 220 255
193 220 255
193 220 255
193 220 255
193 220 255
194 220 255
194 221 255
194 221 255
194 221 255
195 221 255
195 221 255
195 221 255
195 221 255
196 221 255
196 222 255
196 222 255
196 222 255
196 222 255
197 222 255
197 222 255
197 222 255
197 222 255
198 223 255
198 223 255
198 223 255
198 223 255
198 223 255
199 223 255
199 223 255
199 223 255
199 223 255
200 224 255
200 224 255
200 224 255
200 224 255
200 224 255
200 224 255
201 224 255
201 224 255
201 224 255
201 224 255
201 225 255
202 225 255
202 225 255
202 225 255
202 225 255
202 225 255
202 225 255
203 225 255
203 225 255
203 225 255
203 225 255
203 226 255
203 226 255
203 226 255
204 226 255
204 226 255
204 226 255
204 226 255
204 226 255
204 226 255
204 226 255
205 226 255
205 226 255
205 226 255
205 227 255
205 227 255
205 227 255
205 227 255
206 227 255
206 227 255
206 227 255
206 227 255
206 227 255
206 227 255
206 227 255
206 227 255
206 227 255
207 227 255
207 227 255
207 228 255
207 228 255
207 228 255
207 228 255
207 228 255
207 228 255
207 228 255
207 228 255
208 228 255
208 228 255
208 228 255
208 228 255
208 228 255
208 228 255
208 228 255
208 228 255
208 228 255
208 228 255
208 228 255
209 228 255
209 229 255
209 229 255
209 229 255
209 229 255
209 229 255
209 229 255
209 229 255
209 229 255
209 229 255
209 229 255
209 229 255
209 229 255
210 229 255
210 229 255
210 229 255
210 229 255
210 229 255
210 229 255
210 229 255
210 229 255
210 229 255
210 229 255
210 229 255
210 229 255
210 229 255
210 230 255
210 230 255
211 230 255
211 230 255
211 230 255
211 230 255
211 230 255
211 230 255
211 230 255
211 230 255
211 230 255
211 230 255
211 230 255
211 230 255
211 230 255
211 230 255
211 230 255
211 230 255
211 230 255
211 230 255
212 230 255
212 230 255
212 230 255
212 230 255
212 230 255
212 230 255
212 230 255
212 230 255
212 230 255
212 230 255
212 230 255
212 230 255
212 230 255
212 230 255
212 230 255
212 231 255
212 231 255
212 231 255
212 231 255
212 231 255
212 231 255
212 231 255
213 231 255
213 231 255
213 231 255
213 231 255
212 231 255
212 231 255
212 231 255
212 231 255
212 231 255
212 231 255
212 231 255
212 230 255
212 230 255
212 230 255
212 230 255
212 230 255
212 230 255
212 230 255
212 230 255
212 230 255
212 230 255
212 230 255
212 230 255
212 230 255
212 230 255
212 230 255
211 230 255
211 230 255
211 230 255
211 230 255
211 230 255
211 230 255
211 230 255
211 230 255
211 230 255
211 230 255
211 230 255
211 230 255
211 230 255
211 230 255
211 230 255
211 230 255
211 230 255
210 230 255
210 230 255
210 229 255
210 229 255
210 229 255
210 229 255
210 229 255
210 229 255
210 229 255
210 229 255
210 229 255
210 229 255
210 229 255
210 229 255
210 229 255
209 229 255
209 229 255
209 229 255
209 229 255
209 229 255
209 229 255
209 229 255
209 229 255
209 229 255
209 229 255
209 229 255
209 229 255
209 228 255
208 228 255
208 228 255
208 228 255
208 228 255
208 228 255
208 228 255
208 228 255
208 228 255
208 228 255
208 228 255
208 228 255
207 228 255
207 228 255
207 228 255
207 228 255
207 228 255
207 228 255
207 228 255
207 227 255
207 227 255
206 227 255
206 227 255
206 227 255
206 227 255
206 227 255
206 227 255
206 227 255
206 227 255
206 227 255
205 227 255
205 227 255
205 227 255
205 227 255
205 226 255
205 226 255
205 226 255
205 226 255
204 226 255
204 226 255
204 226 255
204 226 255
204 226 255
204 226 255
203 226 255
203 226 255
203 226 255
203 225 255
203 225 255
203 225 255
203 225 255
202 225 255
202 225 255
202 225 255
202 225 255
202 225 255
202 225 255
201 225 255
201 224 255
201 224 255
201 224 255
201 224 255
200 224 255
200 224 255
200 224 255
200 224 255
200 224 255
199 224 255
199 223 255
199 223 255
199 223 255
199 223 255
198 223 255
198 223 255
198 223 255
198 223 255
197 223 255
197 222 255
197 222 255
197 222 255
197 222 255
196 222 255
196 222 255
196 222 255
196 222 255
195 221 255
195 221 255
195 221 255
195 221 255
194 221 255
194 221 255
194 221 255
194 220 255
193 220 255
193 220 255
193 220 255
193 220 255
192 220 255
192 220 255
192 220 255
192 219 255
192 219 255
191 219 255
191 219 255
191 219 255
191 219 255
190 219 255
190 219 255
190 219 255
190 218 255
190 218 255
189 218 255
189 218 255
189 218 255
189 218 255
189 218 255
189 218 255
188 218 255
188 218 255
188 218 255
188 218 255
188 218 255
188 217 255
188 217 255
188 217 255
188 217 255
188 217 255
188 217 255
188 217 255
188 217 255
188 217 255
188 217 255
188 217 255
188 217 255
188 217 255
188 217 255
188 217 255
188 217 255
188 217 255
188 218 255
188 218 255
188 218 255
188 218 255
189 218 255
189 218 255
189 218 255
189 218 255
189 218 255
189 218 255
190 218 255
190 218 255
190 219 255
190 219 255
190 219 255
191 219 255
191 219 255
191 219 255
191 219 255
192 219 255
192 219 255
192 220 255
192 220 255
192 220 255
193 220 255
193 220 255
193 220 255
193 220 255
194 220 255
194 221 255
194 221 255
194 221 255
195 221 255
195 221 255
195 221 255
195 221 255
196 222 255
196 222 255
196 222 255
196 222 255
197 222 255
197 222 255
197 222 255
197 222 255
197 223 255
198 223 255
198 223 255
198 223 255
198 223 255
199 223 255
199 223 255
199 223 255
199 223 255
199 224 255
200 224 255
200 224 255
200 224 255
200 224 255
200 224 255
201 224 255
201 224 255
201 224 255
201 224 255
201 225 255
202 225 255
202 225 255
202 225 255
202 225 255
202 225 255
202 225 255
203 225 255
203 225 255
203 225 255
203 225 255
203 226 255
203 226 255
203 226 255
204 226 255
204 226 255
204 226 255
204 226 255
204 226 255
204 226 255
204 226 255
205 226 255
205 226 255
205 227 255
205 227 255
205 227 255
205 227 255
205 227 255
206 227 255
206 227 255
206 227 255
206 227 255
206 227 255
206 227 255
206 227 255
206 227 255
206 227 255
207 227 255
207 227 255
207 228 255
207 228 255
207 228 255
207 228 255
207 228 255
207 228 255
207 228 255
208 228 255
208 228 255
208 228 255
208 228 255
208 228 255
208 228 255
208 228 255
208 228 255
208 228 255
208 228 255
208 228 255
209 228 255
209 229 255
209 229 255
209 229 255
209 229 255
209 229 255
209 229 255
209 229 255
209 229 255
209 229 255
209 229 255
209 229 255
209 229 255
210 229 255
210 229 255
210 229 255
210 229 255
210 229 255
210 229 255
210 229 255
210 229 255
210 229 255
210 229 255
210 229 255
210 229 255
210 229 255
210 230 255
210 230 255
211 230 255
211 230 255
211 230 255
211 230 255
211 230 255
211 230 255
211 230 255
211 230 255
211 230 255
211 230 255
211 230 255
211 230 255
211 230 255
211 230 255
211 230 255
211 230 255
211 230 255
212 230 255
212 230 255
212 230 255
212 230 255
212 230 255
212 230 255
212 230 255
212 230 255
212 230 255
212 230 255
212 230 255
212 230 255
212 230 255
212 230 255
212 230 255
212 231 255
212 231 255
212 231 255
212 231 255
212 231 255
212 231 255
212 231 255
213 231 255
213 231 255
213 231 255
213 231 255
213 231 255
213 231 255
213 231 255
213 231 255
213 231 255
213 231 255
213 231 255
213 231 255
213 231 255
212 231 255
212 231 255
212 231 255
212 231 255
212 231 255
212 231 255
212 230 255
212 230 255
212 230 255
212 230 255
212 230 255
212 230 255
212 230 255
212 230 255
212 230 255
212 230 255
212 230 255
212 230 255
212 230 255
212 230 255
211 230 255
211 230 255
211 230 255
211 230 255
211 230 255
211 230 255
211 230 255
211 230 255
211 230 255
211 230 255
211 230 255
211 230 255
211 230 255
211 230 255
211 230 255
211 230 255
211 230 255
211 230 255
210 230 255
210 230 255
210 229 255
210 229 255
210 229 255
210 229 255
210 229 255
210 229 255
210 229 255
210 229 255
210 229 255
210 229 255
210 229 255
210 229 255
209 229 255
209 229 255
209 229 255
209 229 255
209 229 255
209 229 255
209 229 255
209 229 255
209 229 255
209 229 255
209 229 255
209 229 255
209 228 255
208 228 255
208 228 255
208 228 255
208 228 255
208 228 255
208 228 255
208 228 255
208 228 255
208 228 255
208 228 255
207 228 255
207 228 255
207 228 255
207 228 255
207 228 255
207 228 255
207 228 255
207 228 255
207 227 255
207 227 255
206 227 255
206 227 255
206 227 255
206 227 255
206 227 255
206 227 255
206 227 255
206 227 255
205 227 255
205 227 255
205 227 255
205 227 255
205 227 255
205 226 255
205 226 255
205 226 255
204 226 255
204 226 255
204 226 255
204 226 255
204 226 255
204 226 255
203 226 255
203 226 255
203 226 255
203 225 255
203 225 255
203 225 255
203 225 255
202 225 255
202 225 255
202 225 255
202 225 255
202 225 255
201 225 255
201 225 255
201 224 255
201 224 255
201 224 255
201 224 255
200 224 255
200 224 255
200 224 255
200 224 255
200 224 255
199 223 255
199 223 255
199 223 255
199 223 255
198 223 255
198 223 255
198 223 255
198 223 255
198 223 255
197 222 255
197 222 255
197 222 255
197 222 255
196 222 255
196 222 255
196 222 255
196 222 255
195 221 255
195 221 255
195 221 255
195 221 255
195 221 255
194 221 255
194 221 255
194 221 255
194 220 255
193 220 255
193 220 255
193 220 255
193 220 255
192 220 255
192 220 255
192 220 255
192 219 255
191 219 255
191 219 255
191 219 255
191 219 255
190 219 255
190 219 255
190 219 255
190 218 255
190 218 255
189 218 255
189 218 255
189 218 255
189 218 255
189 218 255
189 218 255
189 218 255
188 218 255
188 218 255
188 218 255
188 218 255
188 218 255
188 218 255
188 217 255
188 217 255
188 217 255
188 217 255
188 217 255
188 217 255
188 217 255
188 217 255
188 217 255
188 217 255
188 217 255
188 218 255
188 218 255
188 218 255
188 218 255
188 218 255
189 218 255
189 218 255
189 218 255
189 218 255
189 218 255
189 218 255
190 218 255
190 218 255
190 218 255
190 219 255
190 219 255
190 219 255
191 219 255
191 219 255
191 219 255
191 219 255
192 219 255
192 220 255
192 220 255
192 220 255
193 220 255
193 220 255
193 220 255
193 220 255
193 220 255
194 221 255
194 221 255
194 221 255
195 221 255
195 221 255
195 221 255
195 221 255
195 221 255
196 222 255
196 222 255
196 222 255
196 222 255
197 222 255
197 222 255
197 222 255
197 222 255
198 223 255
198 223 255
198 223 255
198 223 255
198 223 255
199 223 255
199 223 255
199 223 255
199 223 255
200 224 255
200 224 255
200 224 255
200 224 255
200 224 255
201 224 255
201 224 255
201 224 255
201 224 255
201 225 255
201 225 255
202 225 255
202 225 255
202 225 255
202 225 255
202 225 255
203 225 255
203 225 255
203 225 255
203 225 255
203 226 255
203 226 255
203 226 255
204 226 255
204 226 255
204 226 255
204 226 255
204 226 255
204 226 255
205 226 255
205 226 255
205 226 255
205 227 255
205 227 255
205 227 255
205 227 255
205 227 255
206 227 255
206 227 255
206 227 255
206 227 255
206 227 255
206 227 255
206 227 255
206 227 255
207 227 255
207 227 255
207 227 255
207 228 255
207 228 255
207 228 255
207 228 255
207 228 255
207 228 255
207 228 255
208 228 255
208 228 255
208 228 255
208 228 255
208 228 255
208 228 255
208 228 255
208 228 255
208 228 255
208 228 255
209 228 255
209 229 255
209 229 255
209 229 255
209 229 255
209 229 255
209 229 255
209 229 255
209 229 255
209 229 255
209 229 255
209 229 255
209 229 255
210 229 255
210 229 255
210 229 255
210 229 255
210 229 255
210 229 255
210 229 255
210 229 255
210 229 255
210 229 255
210 229 255
210 229 255
210 229 255
210 230 255
211 230 255
211 230 255
211 230 255
211 230 255
211 230 255
211 230 255
211 230 255
211 230 255
211 230 255
211 230 255
211 230 255
211 230 255
211 230 255
211 230 255
211 230 255
211 230 255
211 230 255
212 230 255
212 230 255
212 230 255
212 230 255
212 230 255
212 230 255
212 230 255
212 230 255
212 230 255
212 230 255
212 230 255
212 230 255
212 230 255
212 230 255
212 230 255
212 231 255
212 231 255
212 231 255
212 231 255
212 231 255
212 231 255
213 231 255
213 231 255
213 231 255
213 231 255
213 231 255
213 231 255
213 231 255
213 231 255
213 231 255
213 231 255
213 231 255
213 231 255
213 231 255
213 231 255
213 231 255
213 231 255
213 231 255
213 231 255
213 231 255
213 231 255
213 231 255
213 231 255
212 231 255
212 231 255
212 231 255
212 231 255
212 231 255
212 231 255
212 230 255
212 230 255
212 230 255
212 230 255
212 230 255
212 230 255
212 230 255
212 230 255
212 230 255
212 230 255
212 230 255
212 230 255
212 230 255
212 230 255
212 230 255
211 230 255
211 230 255
211 230 255
211 230 255
211 230 255
211 230 255
211 230 255
211 230 255
211 230 255
211 230 255
211 230 255
211 230 255
211 230 255
211 230 255
211 230 255
211 230 255
210 230 255
210 230 255
210 229 255
210 229 255
210 229 255
210 229 255
210 229 255
210 229 255
210 229 255
210 229 255
210 229 255
210 229 255
210 229 255
210 229 255
209 229 255
209 229 255
209 229 255
209 229 255
209 229 255
209 229 255
209 229 255
209 229 255
209 229 255
209 229 255
209 229 255
209 229 255
209 228 255
208 228 255
208 228 255
208 228 255
208 228 255
208 228 255
208 228 255
208 228 255
208 228 255
208 228 255
208 228 255
207 228 255
207 228 255
207 228 255
207 228 255
207 228 255
207 228 255
207 228 255
207 227 255
207 227 255
206 227 255
206 227 255
206 227 255
206 227 255
206 227 255
206 227 255
206 227 255
206 227 255
206 227 255
205 227 255
205 227 255
205 227 255
205 227 255
205 226 255
205 226 255
205 226 255
204 226 255
204 226 255
204 226 255
204 226 255
204 226 255
204 226 255
204 226 255
203 226 255
203 226 255
203 225 255
203 225 255
203 225 255
203 225 255
202 225 255
202 225 255
202 225 255
202 225 255
202 225 255
201 225 255
201 225 255
201 224 255
201 224 255
201 224 255
201 224 255
200 224 255
200 224 255
200 224 255
200 224 255
199 224 255
199 223 255
199 223 255
199 223 255
199 223 255
198 223 255
198 223 255
198 223 255
198 223 255
197 223 255
197 222 255
197 222 255
197 222 255
197 222 255
196 222 255
196 222 255
196 222 255
196 221 255
195 221 255
195 221 255
195 221 255
195 221 255
194 221 255
194 221 255
194 221 255
194 220 255
193 220 255
193 220 255
193 220 255
193 220 255
192 220 255
192 220 255
192 220 255
192 219 255
191 219 255
191 219 255
191 219 255
191 219 255
191 219 255
190 219 255
190 219 255
190 219 255
190 218 255
190 218 255
189 218 255
189 218 255
189 218 255
189 218 255
189 218 255
189 218 255
189 218 255
188 218 255
188 218 255
188 218 255
188 218 255
188 218 255
188 218 255
188 218 255
188 218 255
188 218 255
188 218 255
188 218 255
188 218 255
188 218 255
188 218 255
188 218 255
188 218 255
188 218 255
188 218 255
189 218 255
189 218 255
189 218 255
189 218 255
189 218 255
189 218 255
189 218 255
190 218 255
190 218 255
190 219 255
190 219 255
190 219 255
191 219 255
191 219 255
191 219 255
191 219 255
191 219 255
192 219 255
192 220 255
192 220 255
192 220 255
193 220 255
193 220 255
193 220 255
193 220 255
194 220 255
194 221 255
194 221 255
194 221 255
195 221 255
195 221 255
195 221 255
195 221 255
196 221 255
196 222 255
196 222 255
196 222 255
197 222 255
197 222 255
197 222 255
197 222 255
197 223 255
198 223 255
198 223 255
198 223 255
198 223 255
199 223 255
199 223 255
199 223 255
199 223 255
199 224 255
200 224 255
200 224 255
200 224 255
200 224 255
200 224 255
201 224 255
201 224 255
201 224 255
201 225 255
201 225 255
202 225 255
202 225 255
202 225 255
202 225 255
202 225 255
202 225 255
203 225 255
203 225 255
203 225 255
203 226 255
203 226 255
204 226 255
204 226 255
204 226 255
204 226 255
204 226 255
204 226 255
204 226 255
205 226 255
205 226 255
205 226 255
205 227 255
205 227 255
205 227 255
205 227 255
205 227 255
206 227 255
206 227 255
206 227 255
206 227 255
206 227 255
206 227 255
206 227 255
206 227 255
207 227 255
207 227 255
207 228 255
207 228 255
207 228 255
207 228 255
207 228 255
207 228 255
207 228 255
208 228 255
208 228 255
208 228 255
208 228 255
208 228 255
208 228 255
208 228 255
208 228 255
208 228 255
208 228 255
209 228 255
209 229 255
209 229 255
209 229 255
209 229 255
209 229 255
209 229 255
209 229 255
209 229 255
209 229 255
209 229 255
209 229 255
209 229 255
210 229 255
210 229 255
210 229 255
210 229 255
210 229 255
210 229 255
210 229 255
210 229 255
210 229 255
210 229 255
210 229 255
210 229 255
210 230 255
210 230 255
211 230 255
211 230 255
211 230 255
211 230 255
211 230 255
211 230 255
211 230 255
211 230 255
211 230 255
211 230 255
211 230 255
211 230 255
211 230 255
211 230 255
211 230 255
211 230 255
211 230 255
212 230 255
212 230 255
212 230 255
212 230 255
212 230 255
212 230 255
212 230 255
212 230 255
212 230 255
212 230 255
212 230 255
212 230 255
212 230 255
212 230 255
212 231 255
212 231 255
212 231 255
212 231 255
212 231 255
212 231 255
213 231 255
213 231 255
213 231 255
213 231 255
213 231 255
213 231 255
213 231 255
213 231 255
213 231 255
213 231 255
213 231 255
213 231 255
213 231 255
213 231 255
213 231 255
213 231 255
213 231 255
213 231 255
213 231 255
213 231 255
213 231 255
213 231 255
213 231 255
213 231 255
213 231 255
213 231 255
213 231 255
213 231 255
213 231 255
213 231 255
212 231 255
212 231 255
212 231 255
212 231 255
212 231 255
212 231 255
212 230 255
212 230 255
212 230 255
212 230 255
212 230 255
212 230 255
212 230 255
212 230 255
212 230 255
212 230 255
212 230 255
212 230 255
212 230 255
212 230 255
211 230 255
211 230 255
211 230 255
211 230 255
211 230 255
211 230 255
211 230 255
211 230 255
211 230 255
211 230 255
211 230 255
211 230 255
211 230 255
211 230 255
211 230 255
211 230 255
211 230 255
210 230 255
210 229 255
210 229 255
210 229 255
210 229 255
210 229 255
210 229 255
210 229 255
210 229 255
210 229 255
210 229 255
210 229 255
210 229 255
210 229 255
209 229 255
209 229 255
209 229 255
209 229 255
209 229 255
209 229 255
209 229 255
209 229 255
209 229 255
209 229 255
209 229 255
208 228 255
208 228 255
208 228 255
208 228 255
208 228 255
208 228 255
208 228 255
208 228 255
208 228 255
208 228 255
208 228 255
207 228 255
207 228 255
207 228 255
207 228 255
207 228 255
207 228 255
207 228 255
207 227 255
207 227 255
206 227 255
206 227 255
206 227 255
206 227 255
206 227 255
206 227 255
206 227 255
206 227 255
205 227 255
205 227 255
205 227 255
205 227 255
205 226 255
205 226 255
205 226 255
204 226 255
204 226 255
204 226 255
204 226 255
204 226 255
204 226 255
204 226 255
203 226 255
203 226 255
203 225 255
203 225 255
203 225 255
203 225 255
202 225 255
202 225 255
202 225 255
202 225 255
202 225 255
201 225 255
201 225 255
201 224 255
201 224 255
201 224 255
200 224 255
200 224 255
200 224 255
200 224 255
200 224 255
199 224 255
199 223 255
199 223 255
199 223 255
199 223 255
198 223 255
198 223 255
198 223 255
198 223 255
197 222 255
197 222 255
197 222 255
197 222 255
196 222 255
196 222 255
196 222 255
196 222 255
195 221 255
195 221 255
195 221 255
195 221 255
194 221 255
194 221 255
194 221 255
194 220 255
193 220 255
193 220 255
193 220 255
193 220 255
192 220 255
192 220 255
192 220 255
192 219 255
191 219 255
191 219 255
191 219 255
191 219 255
191 219 255
190 219 255
190 219 255
190 219 255
190 218 255
190 218 255
190 218 255
189 218 255
189 218 255
189 218 255
189 218 255
189 218 255
189 218 255
189 218 255
189 218 255
188 218 255
188 218 255
188 218 255
188 218 255
188 218 255
188 218 255
188 218 255
188 218 255
188 218 255
188 218 255
188 218 255
188 218 255
189 218 255
189 218 255
189 218 255
189 218 255
189 218 255
189 218 255
189 218 255
189 218 255
190 218 255
190 218 255
190 218 255
190 219 255
190 219 255
190 219 255
191 219 255
191 219 255
191 219 255
191 219 255
192 219 255
192 219 255
192 220 255
192 220 255
192 220 255
193 220 255
193 220 255
193 220 255
193 220 255
194 220 255
194 221 255
194 221 255
194 221 255
195 221 255
195 221 255
195 221 255
195 221 255
196 222 255
196 222 255
196 222 255
196 222 255
197 222 255
197 222 255
197 222 255
197 222 255
198 223 255
198 223 255
198 223 255
198 223 255
199 223 255
199 223 255
199 223 255
199 223 255
199 224 255
200 224 255
200 224 255
200 224 255
200 224 255
200 224 255
201 224 255
201 224 255
201 224 255
201 225 255
201 225 255
202 225 255
202 225 255
202 225 255
202 225 255
202 225 255
203 225 255
203 225 255
203 225 255
203 225 255
203 226 255
203 226 255
204 226 255
204 226 255
204 226 255
204 226 255
204 226 255
204 226 255
204 226 255
205 226 255
205 226 255
205 226 255
205 227 255
205 227 255
205 227 255
205 227 255
206 227 255
206 227 255
206 227 255
206 227 255
206 227 255
206 227 255
206 227 255
206 227 255
207 227 255
207 227 255
207 228 255
207 228 255
207 228 255
207 228 255
207 228 255
207 228 255
207 228 255
208 228 255
208 228 255
208 228 255
208 228 255
208 228 255
208 228 255
208 228 255
208 228 255
208 228 255
208 228 255
209 228 255
209 229 255
209 229 255
209 229 255
209 229 255
209 229 255
209 229 255
209 229 255
209 229 255
209 229 255
209 229 255
209 229 255
209 229 255
210 229 255
210 229 255
210 229 255
210 229 255
210 229 255
210 229 255
210 229 255
210 229 255
210 229 255
210 229 255
210 229 255
210 229 255
210 230 255
211 230 255
211 230 255
211 230 255
211 230 255
211 230 255
211 230 255
211 230 255
211 230 255
211 230 255
211 230 255
211 230 255
211 230 255
211 230 255
211 230 255
211 230 255
211 230 255
211 230 255
212 230 255
212 230 255
212 230 255
212 230 255
212 230 255
212 230 255
212 230 255
212 230 255
212 230 255
212 230 255
212 230 255
212 230 255
212 230 255
212 230 255
212 231 255
212 231 255
212 231 255
212 231 255
212 231 255
212 231 255
213 231 255
213 231 255
213 231 255
213 231 255
213 231 255
213 231 255
213 231 255
213 231 255
213 231 255
213 231 255
213 231 255
213 231 255
213 231 255
213 231 255
213 231 255
213 231 255
213 231 255
213 231 255
213 231 255
213 231 255
213 231 255
213 231 255
213 231 255
213 231 255
213 231 255
213 231 255
213 231 255
213 231 255
213 231 255
213 231 255
213 231 255
213 231 255
213 231 255
213 231 255
213 231 255
213 231 255
213 231 255
213 231 255
212 231 255
212 231 255
212 231 255
212 231 255
212 231 255
212 231 255
212 231 255
212 230 255
212 230 255
212 230 255
212 230 255
212 230 255
212 230 255
212 230 255
212 230 255
212 230 255
212 230 255
212 230 255
212 230 255
212 230 255
211 230 255
211 230 255
211 230 255
211 230 255
211 230 255
211 230 255
211 230 255
211 230 255
211 230 255
211 230 255
211 230 255
211 230 255
211 230 255
211 230 255
211 230 255
211 230 255
210 230 255
210 230 255
210 229 255
210 229 255
210 229 255
210 229 255
210 229 255
210 229 255
210 229 255
210 229 255
210 229 255
210 229 255
210 229 255
210 229 255
209 229 255
209 229 255
209 229 255
209 229 255
209 229 255
209 229 255
209 229 255
209 229 255
209 229 255
209 229 255
209 229 255
208 228 255
208 228 255
208 228 255
208 228 255
208 228 255
208 228 255
208 228 255
208 228 255
208 228 255
208 228 255
208 228 255
207 228 255
207 228 255
207 228 255
207 228 255
207 228 255
207 228 255
207 227 255
207 227 255
206 227 255
206 227 255
206 227 255
206 227 255
206 227 255
206 227 255
206 227 255
206 227 255
205 227 255
205 227 255
205 227 255
205 227 255
205 226 255
205 226 255
205 226 255
204 226 255
204 226 255
204 226 255
204 226 255
204 226 255
204 226 255
204 226 255
203 226 255
203 226 255
203 225 255
203 225 255
203 225 255
202 225 255
202 225 255
202 225 255
202 225 255
202 225 255
202 225 255
201 225 255
201 224 255
201 224 255
201 224 255
201 224 255
200 224 255
200 224 255
200 224 255
200 224 255
200 224 255
199 224 255
199 223 255
199 223 255
199 223 255
198 223 255
198 223 255
198 223 255
198 223 255
197 223 255
197 222 255
197 222 255
197 222 255
197 222 255
196 222 255
196 222 255
196 222 255
196 221 255
195 221 255
195 221 255
195 221 255
195 221 255
194 221 255
194 221 255
194 221 255
194 220 255
193 220 255
193 220 255
193 220 255
193 220 255
192 220 255
192 220 255
192 220 255
192 219 255
191 219 255
191 219 255
191 219 255
191 219 255
191 219 255
190 219 255
190 219 255
190 219 255
190 218 255
190 218 255
190 218 255
189 218 255
189 218 255
189 218 255
189 218 255
189 218 255
189 218 255
189 218 255
189 218 255
189 218 255
189 218 255
189 218 255
189 218 255
189 218 255
189 218 255
189 218 255
189 218 255
189 218 255
189 218 255
189 218 255
189 218 255
189 218 255
189 218 255
189 218 255
189 218 255
190 218 255
190 218 255
190 218 255
190 219 255
190 219 255
190 219 255
191 219 255
191 219 255
191 219 255
191 219 255
191 219 255
192 219 255
192 220 255
192 220 255
192 220 255
193 220 255
193 220 255
193 220 255
193 220 255
194 220 255
194 221 255
194 221 255
194 221 255
195 221 255
195 221 255
195 221 255
195 221 255
196 221 255
196 222 255
196 222 255
196 222 255
197 222 255
197 222 255
197 222 255
197 222 255
197 222 255
198 223 255
198 223 255
198 223 255
198 223 255
199 223 255
199 223 255
199 223 255
199 223 255
200 224 255
200 224 255
200 224 255
200 224 255
200 224 255
201 224 255
201 224 255
201 224 255
201 224 255
201 225 255
202 225 255
202 225 255
202 225 255
202 225 255
202 225 255
203 225 255
203 225 255
203 225 255
203 225 255
203 226 255
203 226 255
204 226 255
204 226 255
204 226 255
204 226 255
204 226 255
204 226 255
204 226 255
205 226 255
205 226 255
205 227 255
205 227 255
205 227 255
205 227 255
205 227 255
206 227 255
206 227 255
206 227 255
206 227 255
206 227 255
206 227 255
206 227 255
206 227 255
207 227 255
207 227 255
207 228 255
207 228 255
207 228 255
207 228 255
207 228 255
207 228 255
207 228 255
208 228 255
208 228 255
208 228 255
208 228 255
208 228 255
208 228 255
208 228 255
208 228 255
208 228 255
208 228 255
209 229 255
209 229 255
209 229 255
209 229 255
209 229 255
209 229 255
209 229 255
209 229 255
209 229 255
209 229 255
209 229 255
210 229 255
210 229 255
210 229 255
210 229 255
210 229 255
210 229 255
210 229 255
210 229 255
210 229 255
210 229 255
210 229 255
210 229 255
210 230 255
210 230 255
211 230 255
211 230 255
211 230 255
211 230 255
211 230 255
211 230 255
211 230 255
211 230 255
211 230 255
211 230 255
211 230 255
211 230 255
211 230 255
211 230 255
211 230 255
211 230 255
212 230 255
212 230 255
212 230 255
212 230 255
212 230 255
212 230 255
212 230 255
212 230 255
212 230 255
212 230 255
212 230 255
212 230 255
212 230 255
212 230 255
212 231 255
212 231 255
212 231 255
212 231 255
212 231 255
212 231 255
213 231 255
213 231 255
213 231 255
213 231 255
213 231 255
213 231 255
213 231 255
213 231 255
213 231 255
213 231 255
213 231 255
213 231 255
213 231 255
213 231 255
213 231 255
213 231 255
213 231 255
213 231 255
213 231 255
213 231 255
213 231 255
214 231 255
214 231 255
213 231 255
213 231 255
213 231 255
213 231 255
213 231 255
213 231 255
213 231 255
213 231 255
213 231 255
213 231 255
213 231 255
213 231 255
213 231 255
213 231 255
213 231 255
213 231 255
213 231 255
213 231 255
213 231 255
213 231 255
213 231 255
213 231 255
213 231 255
213 231 255
212 231 255
212 231 255
212 231 255
212 231 255
212 231 255
212 231 255
212 230 255
212 230 255
212 230 255
212 230 255
212 230 255
212 230 255
212 230 255
212 230 255
212 230 255
212 230 255
212 230 255
212 230 255
212 230 255
211 230 255
211 230 255
211 230 255
211 230 255
211 230 255
211 230 255
211 230 255
211 230 255
211 230 255
211 230 255
211 230 255
211 230 255
211 230 255
211 230 255
211 230 255
211 230 255
210 230 255
210 229 255
210 229 255
210 229 255
210 229 255
210 229 255
210 229 255
210 229 255
210 229 255
210 229 255
210 229 255
210 229 255
210 229 255
209 229 255
209 229 255
209 229 255
209 229 255
209 229 255
209 229 255
209 229 255
209 229 255
209 229 255
209 229 255
209 229 255
208 228 255
208 228 255
208 228 255
208 228 255
208 228 255
208 228 255
208 228 255
208 228 255
208 228 255
208 228 255
207 228 255
207 228 255
207 228 255
207 228 255
207 228 255
207 228 255
207 228 255
207 227 255
207 227 255
206 227 255
206 227 255
206 227 255
206 227 255
206 227 255
206 227 255
206 227 255
205 227 255
205 227 255
205 227 255
205 227 255
205 227 255
205 226 255
205 226 255
204 226 255
204 226 255
204 226 255
204 226 255
204 226 255
204 226 255
204 226 255
203 226 255
203 226 255
203 225 255
203 225 255
203 225 255
202 225 255
202 225 255
202 225 255
202 225 255
202 225 255
202 225 255
201 225 255
201 224 255
201 224 255
201 224 255
201 224 255
200 224 255
200 224 255
200 224 255
200 224 255
199 224 255
199 223 255
199 223 255
199 223 255
199 223 255
198 223 255
198 223 255
198 223 255
198 223 255
197 222 255
197 222 255
197 222 255
197 222 255
196 222 255
196 222 255
196 222 255
196 222 255
195 221 255
195 221 255
195 221 255
195 221 255
194 221 255
194 221 255
194 221 255
194 220 255
193 220 255
193 220 255
193 220 255
193 220 255
192 220 255
192 220 255
192 220 255
192 219 255
191 219 255
191 219 255
191 219 255
191 219 255
191 219 255
191 219 255
190 219 255
190 219 255
190 219 255
190 218 255
190 218 255
190 218 255
189 218 255
189 218 255
189 218 255
189 218 255
189 218 255
189 218 255
189 218 255
189 218 255
189 218 255
189 218 255
189 218 255
189 218 255
189 218 255
189 218 255
189 218 255
189 218 255
189 218 255
189 218 255
189 218 255
189 218 255
190 218 255
190 218 255
190 218 255
190 219 255
190 219 255
190 219 255
190 219 255
191 219 255
191 219 255
191 219 255
191 219 255
192 219 255
192 219 255
192 220 255
192 220 255
192 220 255
193 220 255
193 220 255
193 220 255
193 220 255
194 220 255
194 221 255
194 221 255
194 221 255
195 221 255
195 221 255
195 221 255
195 221 255
196 222 255
196 222 255
196 222 255
196 222 255
197 222 255
197 222 255
197 222 255
197 222 255
198 223 255
198 223 255
198 223 255
198 223 255
199 223 255
199 223 255
199 223 255
199 223 255
199 224 255
200 224 255
200 224 255
200 224 255
200 224 255
201 224 255
201 224 255
201 224 255
201 224 255
201 225 255
202 225 255
202 225 255
202 225 255
202 225 255
202 225 255
202 225 255
203 225 255
203 225 255
203 225 255
203 226 255
203 226 255
204 226 255
204 226 255
204 226 255
204 226 255
204 226 255
204 226 255
204 226 255
205 226 255
205 226 255
205 227 255
205 227 255
205 227 255
205 227 255
206 227 255
206 227 255
206 227 255
206 227 255
206 227 255
206 227 255
206 227 255
206 227 255
207 227 255
207 227 255
207 228 255
207 228 255
207 228 255
207 228 255
207 228 255
207 228 255
207 228 255
208 228 255
208 228 255
208 228 255
208 228 255
208 228 255
208 228 255
208 228 255
208 228 255
208 228 255
208 228 255
209 229 255
209 229 255
209 229 255
209 229 255
209 229 255
209 229 255
209 229 255
209 229 255
209 229 255
209 229 255
209 229 255
210 229 255
210 229 255
210 229 255
210 229 255
210 229 255
210 229 255
210 229 255
210 229 255
210 229 255
210 229 255
210 229 255
210 229 255
210 230 255
211 230 255
211 230 255
211 230 255
211 230 255
211 230 255
211 230 255
211 230 255
211 230 255
211 230 255
211 230 255
211 230 255
211 230 255
211 230 255
211 230 255
211 230 255
211 230 255
212 230 255
212 230 255
212 230 255
212 230 255
212 230 255
212 230 255
212 230 255
212 230 255
212 230 255
212 230 255
212 230 255
212 230 255
212 230 255
212 231 255
212 231 255
212 231 255
212 231 255
212 231 255
212 231 255
213 231 255
213 231 255
213 231 255
213 231 255
213 231 255
213 231 255
213 231 255
213 231 255
213 231 255
213 231 255
213 231 255
213 231 255
213 231 255
213 231 255
213 231 255
213 231 255
213 231 255
213 231 255
213 231 255
213 231 255
213 231 255
213 231 255
213 231 255
213 231 255
214 231 255
214 231 255
214 231 255
214 231 255
214 231 255
214 231 255
214 231 255
214 231 255
213 231 255
213 231 255
213 231 255
213 231 255
213 231 255
213 231 255
213 231 255
213 231 255
213 231 255
213 231 255
213 231 255
213 231 255
213 231 255
213 231 255
213 231 255
213 231 255
213 231 255
213 231 255
213 231 255
213 231 255
213 231 255
213 231 255
213 231 255
213 231 255
212 231 255
212 231 255
212 231 255
212 231 255
212 231 255
212 231 255
212 230 255
212 230 255
212 230 255
212 230 255
212 230 255
212 230 255
212 230 255
212 230 255
212 230 255
212 230 255
212 230 255
212 230 255
212 230 255
211 230 255
211 230 255
211 230 255
211 230 255
211 230 255
211 230 255
211 230 255
211 230 255
211 230 255
211 230 255
211 230 255
211 230 255
211 230 255
211 230 255
211 230 255
210 230 255
210 230 255
210 229 255
210 229 255
210 229 255
210 229 255
210 229 255
210 229 255
210 229 255
210 229 255
210 229 255
210 229 255
210 229 255
209 229 255
209 229 255
209 229 255
209 229 255
209 229 255
209 229 255
209 229 255
209 229 255
209 229 255
209 229 255
209 228 255
208 228 255
208 228 255
208 228 255
208 228 255
208 228 255
208 228 255
208 228 255
208 228 255
208 228 255
208 228 255
207 228 255
207 228 255
207 228 255
207 228 255
207 228 255
207 228 255
207 227 255
207 227 255
206 227 255
206 227 255
206 227 255
206 227 255
206 227 255
206 227 255
206 227 255
206 227 255
205 227 255
205 227 255
205 227 255
205 227 255
205 226 255
205 226 255
205 226 255
204 226 255
204 226 255
204 226 255
204 226 255
204 226 255
204 226 255
203 226 255
203 226 255
203 225 255
203 225 255
203 225 255
203 225 255
202 225 255
202 225 255
202 225 255
202 225 255
202 225 255
201 225 255
201 224 255
201 224 255
201 224 255
201 224 255
200 224 255
200 224 255
200 224 255
200 224 255
199 224 255
199 223 255
199 223 255
199 223 255
198 223 255
198 223 255
198 223 255
198 223 255
198 223 255
197 222 255
197 222 255
197 222 255
197 222 255
196 222 255
196 222 255
196 222 255
196 221 255
195 221 255
195 221 255
195 221 255
195 221 255
194 221 255
194 221 255
194 221 255
194 220 255
193 220 255
193 220 255
193 220 255
193 220 255
192 220 255
192 220 255
192 220 255
192 219 255
191 219 255
191 219 255
191 219 255
191 219 255
191 219 255
190 219 255
190 219 255
190 219 255
190 219 255
190 218 255
190 218 255
190 218 255
189 218 255
189 218 255
189 218 255
189 218 255
189 218 255
189 218 255
189 218 255
189 218 255
189 218 255
189 218 255
189 218 255
189 218 255
189 218 255
189 218 255
189 218 255
189 218 255
190 218 255
190 218 255
190 218 255
190 219 255
190 219 255
190 219 255
190 219 255
191 219 255
191 219 255
191 219 255
191 219 255
191 219 255
192 219 255
192 220 255
192 220 255
192 220 255
193 220 255
193 220 255
193 220 255
193 220 255
193 220 255
194 221 255
194 221 255
194 221 255
195 221 255
195 221 255
195 221 255
195 221 255
196 221 255
196 222 255
196 222 255
196 222 255
197 222 255
197 222 255
197 222 255
197 222 255
198 223 255
198 223 255
198 223 255
198 223 255
198 223 255
199 223 255
199 223 255
199 223 255
199 224 255
200 224 255
200 224 255
200 224 255
200 224 255
201 224 255
201 224 255
201 224 255
201 224 255
201 225 255
202 225 255
202 225 255
202 225 255
202 225 255
202 225 255
203 225 255
203 225 255
203 225 255
203 225 255
203 226 255
203 226 255
204 226 255
204 226 255
204 226 255
204 226 255
204 226 255
204 226 255
205 226 255
205 226 255
205 226 255
205 227 255
205 227 255
205 227 255
205 227 255
206 227 255
206 227 255
206 227 255
206 227 255
206 227 255
206 227 255
206 227 255
206 227 255
207 227 255
207 227 255
207 228 255
207 228 255
207 228 255
207 228 255
207 228 255
207 228 255
208 228 255
208 228 255
208 228 255
208 228 255
208 228 255
208 228 255
208 228 255
208 228 255
208 228 255
208 228 255
209 229 255
209 229 255
209 229 255
209 229 255
209 229 255
209 229 255
209 229 255
209 229 255
209 229 255
209 229 255
209 229 255
210 229 255
210 229 255
210 229 255
210 229 255
210 229 255
210 229 255
210 229 255
210 229 255
210 229 255
210 229 255
210 229 255
210 230 255
210 230 255
211 230 255
211 230 255
211 230 255
211 230 255
211 230 255
211 230 255
211 230 255
211 230 255
211 230 255
211 230 255
211 230 255
211 230 255
211 230 255
211 230 255
211 230 255
212 230 255
212 230 255
212 230 255
212 230 255
212 230 255
212 230 255
212 230 255
212 230 255
212 230 255
212 230 255
212 230 255
212 230 255
212 230 255
212 231 255
212 231 255
212 231 255
212 231 255
212 231 255
212 231 255
213 231 255
213 231 255
213 231 255
213 231 255
213 231 255
213 231 255
213 231 255
213 231 255
213 231 255
213 231 255
213 231 255
213 231 255
213 231 255
213 231 255
213 231 255
213 231 255
213 231 255
213 231 255
213 231 255
213 231 255
213 231 255
213 231 255
213 231 255
214 231 255
214 231 255
214 231 255
214 231 255
214 231 255
214 231 255
214 231 255
214 231 255
214 231 255
214 231 255
214 231 255
214 231 255
214 231 255
214 231 255
214 231 255
214 231 255
214 231 255
214 231 255
213 231 255
213 231 255
213 231 255
213 231 255
213 231 255
213 231 255
213 231 255
213 231 255
213 231 255
213 231 255
213 231 255
213 231 255
213 231 255
213 231 255
213 231 255
213 231 255
213 231 255
213 231 255
213 231 255
213 231 255
213 231 255
213 231 255
213 231 255
212 231 255
212 231 255
212 231 255
212 231 255
212 231 255
212 231 255
212 230 255
212 230 255
212 230 255
212 230 255
212 230 255
212 230 255
212 230 255
212 230 255
212 230 255
212 230 255
212 230 255
212 230 255
212 230 255
211 230 255
211 230 255
211 230 255
211 230 255
211 230 255
211 230 255
211 230 255
211 230 255
211 230 255
211 230 255
211 230 255
211 230 255
211 230 255
211 230 255
211 230 255
210 230 255
210 229 255
210 229 255
210 229 255
210 229 255
210 229 255
210 229 255
210 229 255
210 229 255
210 229 255
210 229 255
210 229 255
209 229 255
209 229 255
209 229 255
209 229 255
209 229 255
209 229 255
209 229 255
209 229 255
209 229 255
209 229 255
209 228 255
208 228 255
208 228 255
208 228 255
208 228 255
208 228 255
208 228 255
208 228 255
208 228 255
208 228 255
208 228 255
207 228 255
207 228 255
207 228 255
207 228 255
207 228 255
207 228 255
207 227 255
207 227 255
206 227 255
206 227 255
206 227 255
206 227 255
206 227 255
206 227 255
206 227 255
205 227 255
205 227 255
205 227 255
205 227 255
205 227 255
205 226 255
205 226 255
204 226 255
204 226 255
204 226 255
204 226 255
204 226 255
204 226 255
203 226 255
203 226 255
203 225 255
203 225 255
203 225 255
202 225 255
202 225 255
202 225 255
202 225 255
202 225 255
202 225 255
201 225 255
201 224 255
201 224 255
201 224 255
200 224 255
200 224 255
200 224 255
200 224 255
200 224 255
199 223 255
199 223 255
199 223 255
199 223 255
198 223 255
198 223 255
198 223 255
198 223 255
197 222 255
197 222 255
197 222 255
197 222 255
196 222 255
196 222 255
196 222 255
196 222 255
195 221 255
195 221 255
195 221 255
195 221 255
194 221 255
194 221 255
194 221 255
194 220 255
193 220 255
193 220 255
193 220 255
193 220 255
192 220 255
192 220 255
192 220 255
192 219 255
192 219 255
191 219 255
191 219 255
191 219 255
191 219 255
191 219 255
190 219 255
190 219 255
190 219 255
190 219 255
190 219 255
190 218 255
190 218 255
190 218 255
190 218 255
190 218 255
189 218 255
189 218 255
189 218 255
189 218 255
189 218 255
189 218 255
190 218 255
190 218 255
190 218 255
190 218 255
190 218 255
190 219 255
190 219 255
190 219 255
190 219 255
190 219 255
191 219 255
191 219 255
191 219 255
191 219 255
191 219 255
192 219 255
192 219 255
192 220 255
192 220 255
192 220 255
193 220 255
193 220 255
193 220 255
193 220 255
194 220 255
194 221 255
194 221 255
194 221 255
195 221 255
195 221 255
195 221 255
195 221 255
196 222 255
196 222 255
196 222 255
196 222 255
197 222 255
197 222 255
197 222 255
197 222 255
198 223 255
198 223 255
198 223 255
198 223 255
199 223 255
199 223 255
199 223 255
199 224 255
200 224 255
200 224 255
200 224 255
200 224 255
200 224 255
201 224 255
201 224 255
201 224 255
201 225 255
201 225 255
202 225 255
202 225 255
202 225 255
202 225 255
203 225 255
203 225 255
203 225 255
203 226 255
203 226 255
203 226 255
204 226 255
204 226 255
204 226 255
204 226 255
204 226 255
204 226 255
205 226 255
205 226 255
205 226 255
205 227 255
205 227 255
205 227 255
205 227 255
206 227 255
206 227 255
206 227 255
206 227 255
206 227 255
206 227 255
206 227 255
207 227 255
207 227 255
207 228 255
207 228 255
207 228 255
207 228 255
207 228 255
207 228 255
208 228 255
208 228 255
208 228 255
208 228 255
208 228 255
208 228 255
208 228 255
208 228 255
208 228 255
208 228 255
209 228 255
209 229 255
209 229 255
209 229 255
209 229 255
209 229 255
209 229 255
209 229 255
209 229 255
209 229 255
210 229 255
210 229 255
210 229 255
210 229 255
210 229 255
210 229 255
210 229 255
210 229 255
210 229 255
210 229 255
210 229 255
210 229 255
210 230 255
211 230 255
211 230 255
211 230 255
211 230 255
211 230 255
211 230 255
211 230 255
211 230 255
211 230 255
211 230 255
211 230 255
211 230 255
211 230 255
211 230 255
211 230 255
211 230 255
212 230 255
212 230 255
212 230 255
212 230 255
212 230 255
212 230 255
212 230 255
212 230 255
212 230 255
212 230 255
212 230 255
212 230 255
212 231 255
212 231 255
212 231 255
212 231 255
212 231 255
212 231 255
213 231 255
213 231 255
213 231 255
213 231 255
213 231 255
213 231 255
213 231 255
213 231 255
213 231 255
213 231 255
213 231 255
213 231 255
213 231 255
213 231 255
213 231 255
213 231 255
213 231 255
213 231 255
213 231 255
213 231 255
213 231 255
213 231 255
213 231 255
214 231 255
214 231 255
214 231 255
214 231 255
214 231 255
214 231 255
214 231 255
214 231 255
214 231 255
214 231 255
214 231 255
214 232 255
214 232 255
214 231 255
214 231 255
214 231 255
214 231 255
214 231 255
214 231 255
214 231 255
214 231 255
214 231 255
214 231 255
214 231 255
214 231 255
214 231 255
214 231 255
213 231 255
213 231 255
213 231 255
213 231 255
213 231 255
213 231 255
213 231 255
213 231 255
213 231 255
213 231 255
213 231 255
213 231 255
213 231 255
213 231 255
213 231 255
213 231 255
213 231 255
213 231 255
213 231 255
213 231 255
213 231 255
213 231 255
212 231 255
212 231 255
212 231 255
212 231 255
212 231 255
212 231 255
212 230 255
212 230 255
212 230 255
212 230 255
212 230 255
212 230 255
212 230 255
212 230 255
212 230 255
212 230 255
212 230 255
212 230 255
211 230 255
211 230 255
211 230 255
211 230 255
211 230 255
211 230 255
211 230 255
211 230 255
211 230 255
211 230 255
211 230 255
211 230 255
211 230 255
211 230 255
211 230 255
210 230 255
210 230 255
210 229 255
210 229 255
210 229 255
210 229 255
210 229 255
210 229 255
210 229 255
210 229 255
210 229 255
210 229 255
210 229 255
209 229 255
209 229 255
209 229 255
209 229 255
209 229 255
209 229 255
209 229 255
209 229 255
209 229 255
209 228 255
208 228 255
208 228 255
208 228 255
208 228 255
208 228 255
208 228 255
208 228 255
208 228 255
208 228 255
207 228 255
207 228 255
207 228 255
207 228 255
207 228 255
207 228 255
207 227 255
207 227 255
206 227 255
206 227 255
206 227 255
206 227 255
206 227 255
206 227 255
206 227 255
205 227 255
205 227 255
205 227 255
205 227 255
205 227 255
205 226 255
205 226 255
204 226 255
204 226 255
204 226 255
204 226 255
204 226 255
204 226 255
203 226 255
203 226 255
203 225 255
203 225 255
203 225 255
202 225 255
202 225 255
202 225 255
202 225 255
202 225 255
201 225 255
201 225 255
201 224 255
201 224 255
201 224 255
200 224 255
200 224 255
200 224 255
200 224 255
199 224 255
199 223 255
199 223 255
199 223 255
199 223 255
198 223 255
198 223 255
198 223 255
198 223 255
197 222 255
197 222 255
197 222 255
197 222 255
196 222 255
196 222 255
196 222 255
196 221 255
195 221 255
195 221 255
195 221 255
194 221 255
194 221 255
194 221 255
194 221 255
194 220 255
193 220 255
193 220 255
193 220 255
193 220 255
192 220 255
192 220 255
192 220 255
192 219 255
191 219 255
191 219 255
191 219 255
191 219 255
191 219 255
191 219 255
190 219 255
190 219 255
190 219 255
190 219 255
190 219 255
190 219 255
190 218 255
190 218 255
190 218 255
190 218 255
190 218 255
190 218 255
190 218 255
190 218 255
190 218 255
190 218 255
190 219 255
190 219 255
190 219 255
190 219 255
190 219 255
190 219 255
191 219 255
191 219 255
191 219 255
191 219 255
191 219 255
191 219 255
192 219 255
192 220 255
192 220 255
192 220 255
193 220 255
193 220 255
193 220 255
193 220 255
194 220 255
194 221 255
194 221 255
194 221 255
195 221 255
195 221 255
195 221 255
195 221 255
196 221 255
196 222 255
196 222 255
196 222 255
197 222 255
197 222 255
197 222 255
197 222 255
198 223 255
198 223 255
198 223 255
198 223 255
199 223 255
199 223 255
199 223 255
199 223 255
200 224 255
200 224 255
200 224 255
200 224 255
200 224 255
201 224 255
201 224 255
201 224 255
201 225 255
201 225 255
202 225 255
202 225 255
202 225 255
202 225 255
202 225 255
203 225 255
203 225 255
203 225 255
203 226 255
203 226 255
204 226 255
204 226 255
204 226 255
204 226 255
204 226 255
204 226 255
205 226 255
205 226 255
205 227 255
205 227 255
205 227 255
205 227 255
206 227 255
206 227 255
206 227 255
206 227 255
206 227 255
206 227 255
206 227 255
207 227 255
207 227 255
207 228 255
207 228 255
207 228 255
207 228 255
207 228 255
207 228 255
207 228 255
208 228 255
208 228 255
208 228 255
208 228 255
208 228 255
208 228 255
208 228 255
208 228 255
208 228 255
209 229 255
209 229 255
209 229 255
209 229 255
209 229 255
209 229 255
209 229 255
209 229 255
209 229 255
209 229 255
209 229 255
210 229 255
210 229 255
210 229 255
210 229 255
210 229 255
210 229 255
210 229 255
210 229 255
210 229 255
210 229 255
210 230 255
210 230 255
211 230 255
211 230 255
211 230 255
211 230 255
211 230 255
211 230 255
211 230 255
211 230 255
211 230 255
211 230 255
211 230 255
211 230 255
211 230 255
211 230 255
211 230 255
212 230 255
212 230 255
212 230 255
212 230 255
212 230 255
212 230 255
212 230 255
212 230 255
212 230 255
212 230 255
212 230 255
212 230 255
212 231 255
212 231 255
212 231 255
212 231 255
212 231 255
213 231 255
213 231 255
213 231 255
213 231 255
213 231 255
213 231 255
213 231 255
213 231 255
213 231 255
213 231 255
213 231 255
213 231 255
213 231 255
213 231 255
213 231 255
213 231 255
213 231 255
213 231 255
213 231 255
213 231 255
213 231 255
213 231 255
213 231 255
214 231 255
214 231 255
214 231 255
214 231 255
214 231 255
214 231 255
214 231 255
214 231 255
214 231 255
214 231 255
214 231 255
214 231 255
214 231 255
214 231 255
214 232 255
214 232 255
214 232 255
214 232 255
214 232 255
214 232 255
214 232 255
214 232 255
214 232 255
214 232 255
214 231 255
214 231 255
214 231 255
214 231 255
214 231 255
214 231 255
214 231 255
214 231 255
214 231 255
214 231 255
214 231 255
214 231 255
214 231 255
213 231 255
213 231 255
213 231 255
213 231 255
213 231 255
213 231 255
213 231 255
213 231 255
213 231 255
213 231 255
213 231 255
213 231 255
213 231 255
213 231 255
213 231 255
213 231 255
213 231 255
213 231 255
213 231 255
213 231 255
213 231 255
213 231 255
212 231 255
212 231 255
212 231 255
212 231 255
212 231 255
212 230 255
212 230 255
212 230 255
212 230 255
212 230 255
212 230 255
212 230 255
212 230 255
212 230 255
212 230 255
212 230 255
212 230 255
211 230 255
211 230 255
211 230 255
211 230 255
211 230 255
211 230 255
211 230 255
211 230 255
211 230 255
211 230 255
211 230 255
211 230 255
211 230 255
211 230 255
211 230 255
210 230 255
210 229 255
210 229 255
210 229 255
210 229 255
210 229 255
210 229 255
210 229 255
210 229 255
210 229 255
210 229 255
210 229 255
209 229 255
209 229 255
209 229 255
209 229 255
209 229 255
209 229 255
209 229 255
209 229 255
209 229 255
209 228 255
208 228 255
208 228 255
208 228 255
208 228 255
208 228 255
208 228 255
208 228 255
208 228 255
208 228 255
207 228 255
207 228 255
207 228 255
207 228 255
207 228 255
207 228 255
207 227 255
207 227 255
206 227 255
206 227 255
206 227 255
206 227 255
206 227 255
206 227 255
206 227 255
205 227 255
205 227 255
205 227 255
205 227 255
205 226 255
205 226 255
204 226 255
204 226 255
204 226 255
204 226 255
204 226 255
204 226 255
203 226 255
203 226 255
203 226 255
203 225 255
203 225 255
202 225 255
202 225 255
202 225 255
202 225 255
202 225 255
201 225 255
201 225 255
201 224 255
201 224 255
201 224 255
200 224 255
200 224 255
200 224 255
200 224 255
199 224 255
199 223 255
199 223 255
199 223 255
198 223 255
198 223 255
198 223 255
198 223 255
197 223 255
197 222 255
197 222 255
197 222 255
196 222 255
196 222 255
196 222 255
196 222 255
195 221 255
195 221 255
195 221 255
195 221 255
194 221 255
194 221 255
194 221 255
194 220 255
193 220 255
193 220 255
193 220 255
193 220 255
192 220 255
192 220 255
192 220 255
192 220 255
192 219 255
191 219 255
191 219 255
191 219 255
191 219 255
191 219 255
191 219 255
191 219 255
190 219 255
190 219 255
190 219 255
190 219 255
190 219 255
190 219 255
190 219 255
190 219 255
190 219 255
190 219 255
190 219 255
190 219 255
190 219 255
190 219 255
190 219 255
190 219 255
191 219 255
191 219 255
191 219 255
191 219 255
191 219 255
191 219 255
191 219 255
192 219 255
192 220 255
192 220 255
192 220 255
192 220 255
193 220 255
193 220 255
193 220 255
193 220 255
194 220 255
194 221 255
194 221 255
194 221 255
195 221 255
195 221 255
195 221 255
195 221 255
196 222 255
196 222 255
196 222 255
196 222 255
197 222 255
197 222 255
197 222 255
197 223 255
198 223 255
198 223 255
198 223 255
198 223 255
199 223 255
199 223 255
199 223 255
199 224 255
200 224 255
200 224 255
200 224 255
200 224 255
201 224 255
201 224 255
201 224 255
201 225 255
201 225 255
202 225 255
202 225 255
202 225 255
202 225 255
202 225 255
203 225 255
203 225 255
203 225 255
203 226 255
203 226 255
204 226 255
204 226 255
204 226 255
204 226 255
204 226 255
204 226 255
205 226 255
205 226 255
205 227 255
205 227 255
205 227 255
205 227 255
206 227 255
206 227 255
206 227 255
206 227 255
206 227 255
206 227 255
206 227 255
207 227 255
207 227 255
207 228 255
207 228 255
207 228 255
207 228 255
207 228 255
207 228 255
208 228 255
208 228 255
208 228 255
208 228 255
208 228 255
208 228 255
208 228 255
208 228 255
208 228 255
209 228 255
209 229 255
209 229 255
209 229 255
209 229 255
209 229 255
209 229 255
209 229 255
209 229 255
209 229 255
210 229 255
210 229 255
210 229 255
210 229 255
210 229 255
210 229 255
210 229 255
210 229 255
210 229 255
210 229 255
210 229 255
210 230 255
211 230 255
211 230 255
211 230 255
211 230 255
211 230 255
211 230 255
211 230 255
211 230 255
211 230 255
211 230 255
211 230 255
211 230 255
211 230 255
211 230 255
211 230 255
212 230 255
212 230 255
212 230 255
212 230 255
212 230 255
212 230 255
212 230 255
212 230 255
212 230 255
212 230 255
212 230 255
212 230 255
212 231 255
212 231 255
212 231 255
212 231 255
212 231 255
213 231 255
213 231 255
213 231 255
213 231 255
213 231 255
213 231 255
213 231 255
213 231 255
213 231 255
213 231 255
213 231 255
213 231 255
213 231 255
213 231 255
213 231 255
213 231 255
213 231 255
213 231 255
213 231 255
213 231 255
213 231 255
213 231 255
214 231 255
214 231 255
214 231 255
214 231 255
214 231 255
214 231 255
214 231 255
214 231 255
214 231 255
214 231 255
214 231 255
214 231 255
214 231 255
214 231 255
214 232 255
214 232 255
214 232 255
214 232 255
214 232 255
214 232 255
214 232 255
214 232 255
214 232 255
214 232 255
214 232 255
214 232 255
214 232 255
214 232 255
214 232 255
214 232 255
214 232 255
214 232 255
214 232 255
214 231 255
214 231 255
214 231 255
214 231 255
214 231 255
214 231 255
214 231 255
214 231 255
214 231 255
214 231 255
214 231 255
214 231 255
214 231 255
214 231 255
213 231 255
213 231 255
213 231 255
213 231 255
213 231 255
213 231 255
213 231 255
213 231 255
213 231 255
213 231 255
213 231 255
213 231 255
213 231 255
213 231 255
213 231 255
213 231 255
213 231 255
213 231 255
213 231 255
213 231 255
213 231 255
212 231 255
212 231 255
212 231 255
212 231 255
212 231 255
212 230 255
212 230 255
212 230 255
212 230 255
212 230 255
212 230 255
212 230 255
212 230 255
212 230 255
212 230 255
212 230 255
212 230 255
211 230 255
211 230 255
211 230 255
211 230 255
211 230 255
211 230 255
211 230 255
211 230 255
211 230 255
211 230 255
211 230 255
211 230 255
211 230 255
211 230 255
210 230 255
210 229 255
210 229 255
210 229 255
210 229 255
210 229 255
210 229 255
210 229 255
210 229 255
210 229 255
210 229 255
210 229 255
209 229 255
209 229 255
209 229 255
209 229 255
209 229 255
209 229 255
209 229 255
209 229 255
209 229 255
209 228 255
208 228 255
208 228 255
208 228 255
208 228 255
208 228 255
208 228 255
208 228 255
208 228 255
208 228 255
207 228 255
207 228 255
207 228 255
207 228 255
207 228 255
207 228 255
207 227 255
207 227 255
206 227 255
206 227 255
206 227 255
206 227 255
206 227 255
206 227 255
205 227 255
205 227 255
205 227 255
205 227 255
205 226 255
205 226 255
204 226 255
204 226 255
204 226 255
204 226 255
204 226 255
204 226 255
203 226 255
203 226 255
203 226 255
203 225 255
203 225 255
202 225 255
202 225 255
202 225 255
202 225 255
202 225 255
201 225 255
201 225 255
201 224 255
201 224 255
201 224 255
200 224 255
200 224 255
200 224 255
200 224 255
199 224 255
199 223 255
199 223 255
199 223 255
198 223 255
198 223 255
198 223 255
198 223 255
197 222 255
197 222 255
197 222 255
197 222 255
196 222 255
196 222 255
196 222 255
196 222 255
195 221 255
195 221 255
195 221 255
195 221 255
194 221 255
194 221 255
194 221 255
194 220 255
193 220 255
193 220 255
193 220 255
193 220 255
192 220 255
192 220 255
192 220 255
192 220 255
192 219 255
191 219 255
191 219 255
191 219 255
191 219 255
191 219 255
191 219 255
191 219 255
191 219 255
191 219 255
191 219 255
190 219 255
190 219 255
190 219 255
190 219 255
190 219 255
190 219 255
191 219 255
191 219 255
191 219 255
191 219 255
191 219 255
191 219 255
191 219 255
191 219 255
191 219 255
191 219 255
192 219 255
192 220 255
192 220 255
192 220 255
192 220 255
193 220 255
193 220 255
193 220 255
193 220 255
194 220 255
194 221 255
194 221 255
194 221 255
195 221 255
195 221 255
195 221 255
195 221 255
196 221 255
196 222 255
196 222 255
196 222 255
197 222 255
197 222 255
197 222 255
197 222 255
198 223 255
198 223 255
198 223 255
198 223 255
199 223 255
199 223 255
199 223 255
199 224 255
200 224 255
200 224 255
200 224 255
200 224 255
201 224 255
201 224 255
201 224 255
201 225 255
201 225 255
202 225 255
202 225 255
202 225 255
202 225 255
203 225 255
203 225 255
203 225 255
203 226 255
203 226 255
203 226 255
204 226 255
204 226 255
204 226 255
204 226 255
204 226 255
205 226 255
205 226 255
205 226 255
205 227 255
205 227 255
205 227 255
205 227 255
206 227 255
206 227 255
206 227 255
206 227 255
206 227 255
206 227 255
207 227 255
207 227 255
207 228 255
207 228 255
207 228 255
207 228 255
207 228 255
207 228 255
208 228 255
208 228 255
208 228 255
208 228 255
208 228 255
208 228 255
208 228 255
208 228 255
208 228 255
209 228 255
209 229 255
209 229 255
209 229 255
209 229 255
209 229 255
209 229 255
209 229 255
209 229 255
209 229 255
210 229 255
210 229 255
210 229 255
210 229 255
210 229 255
210 229 255
210 229 255
210 229 255
210 229 255
210 229 255
210 229 255
210 230 255
211 230 255
211 230 255
211 230 255
211 230 255
211 230 255
211 230 255
211 230 255
211 230 255
211 230 255
211 230 255
211 230 255
211 230 255
211 230 255
211 230 255
212 230 255
212 230 255
212 230 255
212 230 255
212 230 255
212 230 255
212 230 255
212 230 255
212 230 255
212 230 255
212 230 255
212 230 255
212 231 255
212 231 255
212 231 255
212 231 255
212 231 255
213 231 255
213 231 255
213 231 255
213 231 255
213 231 255
213 231 255
213 231 255
213 231 255
213 231 255
213 231 255
213 231 255
213 231 255
213 231 255
213 231 255
213 231 255
213 231 255
213 231 255
213 231 255
213 231 255
213 231 255
213 231 255
214 231 255
214 231 255
214 231 255
214 231 255
214 231 255
214 231 255
214 231 255
214 231 255
214 231 255
214 231 255
214 231 255
214 231 255
214 231 255
214 232 255
214 232 255
214 232 255
214 232 255
214 232 255
214 232 255
214 232 255
214 232 255
214 232 255
214 232 255
214 232 255
214 232 255
214 232 255
215 232 255
215 232 255
215 232 255
215 232 255
214 232 255
214 232 255
214 232 255
214 232 255
214 232 255
214 232 255
214 232 255
214 232 255
214 232 255
214 232 255
214 232 255
214 232 255
214 232 255
214 232 255
214 231 255
214 231 255
214 231 255
214 231 255
214 231 255
214 231 255
214 231 255
214 231 255
214 231 255
214 231 255
214 231 255
214 231 255
214 231 255
213 231 255
213 231 255
213 231 255
213 231 255
213 231 255
213 231 255
213 231 255
213 231 255
213 231 255
213 231 255
213 231 255
213 231 255
213 231 255
213 231 255
213 231 255
213 231 255
213 231 255
213 231 255
213 231 255
213 231 255
212 231 255
212 231 255
212 231 255
212 231 255
212 231 255
212 230 255
212 230 255
212 230 255
212 230 255
212 230 255
212 230 255
212 230 255
212 230 255
212 230 255
212 230 255
212 230 255
212 230 255
211 230 255
211 230 255
211 230 255
211 230 255
211 230 255
211 230 255
211 230 255
211 230 255
211 230 255
211 230 255
211 230 255
211 230 255
211 230 255
211 230 255
210 230 255
210 229 255
210 229 255
210 229 255
210 229 255
210 229 255
210 229 255
210 229 255
210 229 255
210 229 255
210 229 255
209 229 255
209 229 255
209 229 255
209 229 255
209 229 255
209 229 255
209 229 255
209 229 255
209 229 255
209 228 255
208 228 255
208 228 255
208 228 255
208 228 255
208 228 255
208 228 255
208 228 255
208 228 255
207 228 255
207 228 255
207 228 255
207 228 255
207 228 255
207 228 255
207 227 255
207 227 255
206 227 255
206 227 255
206 227 255
206 227 255
206 227 255
206 227 255
206 227 255
205 227 255
205 227 255
205 227 255
205 226 255
205 226 255
205 226 255
204 226 255
204 226 255
204 226 255
204 226 255
204 226 255
203 226 255
203 226 255
203 226 255
203 225 255
203 225 255
202 225 255
202 225 255
202 225 255
202 225 255
202 225 255
201 225 255
201 224 255
201 224 255
201 224 255
201 224 255
200 224 255
200 224 255
200 224 255
200 224 255
199 224 255
199 223 255
199 223 255
199 223 255
198 223 255
198 223 255
198 223 255
198 223 255
197 222 255
197 222 255
197 222 255
197 222 255
196 222 255
196 222 255
196 222 255
195 221 255
195 221 255
195 221 255
195 221 255
194 221 255
194 221 255
194 221 255
194 221 255
193 220 255
193 220 255
193 220 255
193 220 255
193 220 255
192 220 255
192 220 255
192 220 255
192 220 255
192 219 255
192 219 255
191 219 255
191 219 255
191 219 255
191 219 255
191 219 255
191 219 255
191 219 255
191 219 255
191 219 255
191 219 255
191 219 255
191 219 255
191 219 255
191 219 255
191 219 255
191 219 255
191 219 255
191 219 255
191 219 255
191 219 255
192 219 255
192 219 255
192 220 255
192 220 255
192 220 255
192 220 255
193 220 255
193 220 255
193 220 255
193 220 255
194 220 255
194 221 255
194 221 255
194 221 255
194 221 255
195 221 255
195 221 255
195 221 255
196 221 255
196 222 255
196 222 255
196 222 255
197 222 255
197 222 255
197 222 255
197 222 255
198 223 255
198 223 255
198 223 255
198 223 255
199 223 255
199 223 255
199 223 255
199 223 255
200 224 255
200 224 255
200 224 255
200 224 255
201 224 255
201 224 255
201 224 255
201 225 255
201 225 255
202 225 255
202 225 255
202 225 255
202 225 255
203 225 255
203 225 255
203 225 255
203 226 255
203 226 255
203 226 255
204 226 255
204 226 255
204 226 255
204 226 255
204 226 255
205 226 255
205 226 255
205 227 255
205 227 255
205 227 255
205 227 255
206 227 255
206 227 255
206 227 255
206 227 255
206 227 255
206 227 255
206 227 255
207 227 255
207 227 255
207 228 255
207 228 255
207 228 255
207 228 255
207 228 255
207 228 255
208 228 255
208 228 255
208 228 255
208 228 255
208 228 255
208 228 255
208 228 255
208 228 255
209 228 255
209 229 255
209 229 255
209 229 255
209 229 255
209 229 255
209 229 255
209 229 255
209 229 255
209 229 255
210 229 255
210 229 255
210 229 255
210 229 255
210 229 255
210 229 255
210 229 255
210 229 255
210 229 255
210 229 255
210 230 255
210 230 255
211 230 255
211 230 255
211 230 255
211 230 255
211 230 255
211 230 255
211 230 255
211 230 255
211 230 255
211 230 255
211 230 255
211 230 255
211 230 255
212 230 255
212 230 255
212 230 255
212 230 255
212 230 255
212 230 255
212 230 255
212 230 255
212 230 255
212 230 255
212 230 255
212 231 255
212 231 255
212 231 255
212 231 255
212 231 255
212 231 255
213 231 255
213 231 255
213 231 255
213 231 255
213 231 255
213 231 255
213 231 255
213 231 255
213 231 255
213 231 255
213 231 255
213 231 255
213 231 255
213 231 255
213 231 255
213 231 255
213 231 255
213 231 255
213 231 255
213 231 255
214 231 255
214 231 255
214 231 255
214 231 255
214 231 255
214 231 255
214 231 255
214 231 255
214 231 255
214 231 255
214 231 255
214 231 255
214 231 255
214 232 255
214 232 255
214 232 255
214 232 255
214 232 255
214 232 255
214 232 255
214 232 255
214 232 255
214 232 255
214 232 255
214 232 255
214 232 255
214 232 255
215 232 255
215 232 255
215 232 255
215 232 255
215 232 255
215 232 255
215 232 255
215 232 255
215 232 255
215 232 255
215 232 255
215 232 255
215 232 255
214 232 255
214 232 255
214 232 255
214 232 255
214 232 255
214 232 255
214 232 255
214 232 255
214 232 255
214 232 255
214 232 255
214 232 255
214 232 255
214 232 255
214 231 255
214 231 255
214 231 255
214 231 255
214 231 255
214 231 255
214 231 255
214 231 255
214 231 255
214 231 255
214 231 255
214 231 255
213 231 255
213 231 255
213 231 255
213 231 255
213 231 255
213 231 255
213 231 255
213 231 255
213 231 255
213 231 255
213 231 255
213 231 255
213 231 255
213 231 255
213 231 255
213 231 255
213 231 255
213 231 255
213 231 255
213 231 255
212 231 255
212 231 255
212 231 255
212 231 255
212 231 255
212 231 255
212 230 255
212 230 255
212 230 255
212 230 255
212 230 255
212 230 255
212 230 255
212 230 255
212 230 255
212 230 255
212 230 255
211 230 255
211 230 255
211 230 255
211 230 255
211 230 255
211 230 255
211 230 255
211 230 255
211 230 255
211 230 255
211 230 255
211 230 255
211 230 255
210 230 255
210 229 255
210 229 255
210 229 255
210 229 255
210 229 255
210 229 255
210 229 255
210 229 255
210 229 255
210 229 255
209 229 255
209 229 255
209 229 255
209 229 255
209 229 255
209 229 255
209 229 255
209 229 255
209 229 255
209 228 255
208 228 255
208 228 255
208 228 255
208 228 255
208 228 255
208 228 255
208 228 255
208 228 255
207 228 255
207 228 255
207 228 255
207 228 255
207 228 255
207 228 255
207 227 255
207 227 255
206 227 255
206 227 255
206 227 255
206 227 255
206 227 255
206 227 255
205 227 255
205 227 255
205 227 255
205 227 255
205 226 255
205 226 255
204 226 255
204 226 255
204 226 255
204 226 255
204 226 255
204 226 255
203 226 255
203 226 255
203 225 255
203 225 255
202 225 255
202 225 255
202 225 255
202 225 255
202 225 255
201 225 255
201 224 255
201 224 255
201 224 255
200 224 255
200 224 255
200 224 255
200 224 255
200 224 255
199 223 255
199 223 255
199 223 255
198 223 255
198 223 255
198 223 255
198 223 255
197 223 255
197 222 255
197 222 255
197 222 255
196 222 255
196 222 255
196 222 255
196 222 255
195 221 255
195 221 255
195 221 255
195 221 255
194 221 255
194 221 255
194 221 255
194 221 255
193 220 255
193 220 255
193 220 255
193 220 255
193 220 255
192 220 255
192 220 255
192 220 255
192 220 255
192 220 255
192 219 255
192 219 255
191 219 255
191 219 255
191 219 255
191 219 255
191 219 255
191 219 255
191 219 255
191 219 255
191 219 255
191 219 255
191 219 255
191 219 255
191 219 255
191 219 255
192 219 255
192 219 255
192 220 255
192 220 255
192 220 255
192 220 255
192 220 255
193 220 255
193 220 255
193 220 255
193 220 255
193 220 255
194 221 255
194 221 255
194 221 255
194 221 255
195 221 255
195 221 255
195 221 255
195 221 255
196 222 255
196 222 255
196 222 255
196 222 255
197 222 255
197 222 255
197 222 255
198 223 255
198 223 255
198 223 255
198 223 255
199 223 255
199 223 255
199 223 255
199 223 255
200 224 255
200 224 255
200 224 255
200 224 255
200 224 255
201 224 255
201 224 255
201 224 255
201 225 255
202 225 255
202 225 255
202 225 255
202 225 255
202 225 255
203 225 255
203 225 255
203 226 255
203 226 255
204 226 255
204 226 255
204 226 255
204 226 255
204 226 255
204 226 255
205 226 255
205 226 255
205 227 255
205 227 255
205 227 255
205 227 255
206 227 255
206 227 255
206 227 255
206 227 255
206 227 255
206 227 255
207 227 255
207 227 255
207 228 255
207 228 255
207 228 255
207 228 255
207 228 255
207 228 255
208 228 255
208 228 255
208 228 255
208 228 255
208 228 255
208 228 255
208 228 255
208 228 255
209 228 255
209 229 255
209 229 255
209 229 255
209 229 255
209 229 255
209 229 255
209 229 255
209 229 255
210 229 255
210 229 255
210 229 255
210 229 255
210 229 255
210 229 255
210 229 255
210 229 255
210 229 255
210 229 255
210 229 255
210 230 255
211 230 255
211 230 255
211 230 255
211 230 255
211 230 255
211 230 255
211 230 255
211 230 255
211 230 255
211 230 255
211 230 255
211 230 255
211 230 255
212 230 255
212 230 255
212 230 255
212 230 255
212 230 255
212 230 255
212 230 255
212 230 255
212 230 255
212 230 255
212 230 255
212 231 255
212 231 255
212 231 255
212 231 255
212 231 255
213 231 255
213 231 255
213 231 255
213 231 255
213 231 255
213 231 255
213 231 255
213 231 255
213 231 255
213 231 255
213 231 255
213 231 255
213 231 255
213 231 255
213 231 255
213 231 255
213 231 255
213 231 255
213 231 255
213 231 255
213 231 255
214 231 255
214 231 255
214 231 255
214 231 255
214 231 255
214 231 255
214 231 255
214 231 255
214 231 255
214 231 255
214 231 255
214 231 255
214 232 255
214 232 255
214 232 255
214 232 255
214 232 255
214 232 255
214 232 255
214 232 255
214 232 255
214 232 255
214 232 255
214 232 255
214 232 255
215 232 255
215 232 255
215 232 255
215 232 255
215 232 255
215 232 255
215 232 255
215 232 255
215 232 255
215 232 255
215 232 255
215 232 255
215 232 255
215 232 255
215 232 255
215 232 255
215 232 255
215 232 255
215 232 255
215 232 255
215 232 255
215 232 255
215 232 255
215 232 255
215 232 255
214 232 255
214 232 255
214 232 255
214 232 255
214 232 255
214 232 255
214 232 255
214 232 255
214 232 255
214 232 255
214 232 255
214 232 255
214 232 255
214 231 255
214 231 255
214 231 255
214 231 255
214 231 255
214 231 255
214 231 255
214 231 255
214 231 255
214 231 255
214 231 255
214 231 255
213 231 255
213 231 255
213 231 255
213 231 255
213 231 255
213 231 255
213 231 255
213 231 255
213 231 255
213 231 255
213 231 255
213 231 255
213 231 255
213 231 255
213 231 255
213 231 255
213 231 255
213 231 255
213 231 255
213 231 255
212 231 255
212 231 255
212 231 255
212 231 255
212 231 255
212 230 255
212 230 255
212 230 255
212 230 255
212 230 255
212 230 255
212 230 255
212 230 255
212 230 255
212 230 255
212 230 255
211 230 255
211 230 255
211 230 255
211 230 255
211 230 255
211 230 255
211 230 255
211 230 255
211 230 255
211 230 255
211 230 255
211 230 255
210 230 255
210 230 255
210 229 255
210 229 255
210 229 255
210 229 255
210 229 255
210 229 255
210 229 255
210 229 255
210 229 255
210 229 255
209 229 255
209 229 255
209 229 255
209 229 255
209 229 255
209 229 255
209 229 255
209 229 255
209 228 255
208 228 255
208 228 255
208 228 255
208 228 255
208 228 255
208 228 255
208 228 255
208 228 255
207 228 255
207 228 255
207 228 255
207 228 255
207 228 255
207 228 255
207 227 255
206 227 255
206 227 255
206 227 255
206 227 255
206 227 255
206 227 255
206 227 255
205 227 255
205 227 255
205 227 255
205 226 255
205 226 255
204 226 255
204 226 255
204 226 255
204 226 255
204 226 255
204 226 255
203 226 255
203 226 255
203 225 255
203 225 255
203 225 255
202 225 255
202 225 255
202 225 255
202 225 255
201 225 255
201 224 255
201 224 255
201 224 255
200 224 255
200 224 255
200 224 255
200 224 255
200 224 255
199 223 255
199 223 255
199 223 255
198 223 255
198 223 255
198 223 255
198 223 255
197 222 255
197 222 255
197 222 255
197 222 255
196 222 255
196 222 255
196 222 255
196 222 255
195 221 255
195 221 255
195 221 255
195 221 255
194 221 255
194 221 255
194 221 255
194 221 255
193 220 255
193 220 255
193 220 255
193 220 255
193 220 255
193 220 255
192 220 255
192 220 255
192 220 255
192 220 255
192 220 255
192 220 255
192 219 255
192 219 255
192 219 255
192 219 255
192 219 255
192 219 255
192 219 255
192 219 255
192 219 255
192 219 255
192 220 255
192 220 255
192 220 255
192 220 255
192 220 255
192 220 255
193 220 255
193 220 255
193 220 255
193 220 255
193 220 255
193 220 255
194 221 255
194 221 255
194 221 255
194 221 255
195 221 255
195 221 255
195 221 255
195 221 255
196 222 255
196 222 255
196 222 255
196 222 255
197 222 255
197 222 255
197 222 255
197 222 255
198 223 255
198 223 255
198 223 255
198 223 255
199 223 255
199 223 255
199 223 255
200 224 255
200 224 255
200 224 255
200 224 255
200 224 255
201 224 255
201 224 255
201 224 255
201 225 255
202 225 255
202 225 255
202 225 255
202 225 255
203 225 255
203 225 255
203 225 255
203 226 255
203 226 255
204 226 255
204 226 255
204 226 255
204 226 255
204 226 255
204 226 255
205 226 255
205 226 255
205 227 255
205 227 255
205 227 255
206 227 255
206 227 255
206 227 255
206 227 255
206 227 255
206 227 255
206 227 255
207 227 255
207 228 255
207 228 255
207 228 255
207 228 255
207 228 255
207 228 255
208 228 255
208 228 255
208 228 255
208 228 255
208 228 255
208 228 255
208 228 255
208 228 255
209 228 255
209 229 255
209 229 255
209 229 255
209 229 255
209 229 255
209 229 255
209 229 255
209 229 255
209 229 255
210 229 255
210 229 255
210 229 255
210 229 255
210 229 255
210 229 255
210 229 255
210 229 255
210 229 255
210 230 255
210 230 255
211 230 255
211 230 255
211 230 255
211 230 255
211 230 255
211 230 255
211 230 255
211 230 255
211 230 255
211 230 255
211 230 255
211 230 255
212 230 255
212 230 255
212 230 255
212 230 255
212 230 255
212 230 255
212 230 255
212 230 255
212 230 255
212 230 255
212 230 255
212 231 255
212 231 255
212 231 255
212 231 255
212 231 255
213 231 255
213 231 255
213 231 255
213 231 255
213 231 255
213 231 255
213 231 255
213 231 255
213 231 255
213 231 255
213 231 255
213 231 255
213 231 255
213 231 255
213 231 255
213 231 255
213 231 255
213 231 255
213 231 255
213 231 255
214 231 255
214 231 255
214 231 255
214 231 255
214 231 255
214 231 255
214 231 255
214 231 255
214 231 255
214 231 255
214 231 255
214 231 255
214 232 255
214 232 255
214 232 255
214 232 255
214 232 255
214 232 255
214 232 255
214 232 255
214 232 255
214 232 255
214 232 255
214 232 255
214 232 255
215 232 255
215 232 255
215 232 255
215 232 255
215 232 255
215 232 255
215 232 255
215 232 255
215 232 255
215 232 255
215 232 255
215 232 255
215 232 255
215 232 255
215 232 255
215 232 255
215 232 255
215 232 255
215 232 255
215 232 255
215 232 255
215 232 255
215 232 255
215 232 255
215 232 255
215 232 255
215 232 255
215 232 255
215 232 255
215 232 255
215 232 255
215 232 255
215 232 255
215 232 255
215 232 255
215 232 255
214 232 255
214 232 255
214 232 255
214 232 255
214 232 255
214 232 255
214 232 255
214 232 255
214 232 255
214 232 255
214 232 255
214 232 255
214 231 255
214 231 255
214 231 255
214 231 255
214 231 255
214 231 255
214 231 255
214 231 255
214 231 255
214 231 255
214 231 255
214 231 255
213 231 255
213 231 255
213 231 255
213 231 255
213 231 255
213 231 255
213 231 255
213 231 255
213 231 255
213 231 255
213 231 255
213 231 255
213 231 255
213 231 255
213 231 255
213 231 255
213 231 255
213 231 255
213 231 255
212 231 255
212 231 255
212 231 255
212 231 255
212 231 255
212 230 255
212 230 255
212 230 255
212 230 255
212 230 255
212 230 255
212 230 255
212 230 255
212 230 255
212 230 255
212 230 255
211 230 255
211 230 255
211 230 255
211 230 255
211 230 255
211 230 255
211 230 255
211 230 255
211 230 255
211 230 255
211 230 255
211 230 255
210 230 255
210 229 255
210 229 255
210 229 255
210 229 255
210 229 255
210 229 255
210 229 255
210 229 255
210 229 255
210 229 255
209 229 255
209 229 255
209 229 255
209 229 255
209 229 255
209 229 255
209 229 255
209 229 255
209 228 255
208 228 255
208 228 255
208 228 255
208 228 255
208 228 255
208 228 255
208 228 255
208 228 255
207 228 255
207 228 255
207 228 255
207 228 255
207 228 255
207 227 255
207 227 255
206 227 255
206 227 255
206 227 255
206 227 255
206 227 255
206 227 255
205 227 255
205 227 255
205 227 255
205 226 255
205 226 255
205 226 255
204 226 255
204 226 255
204 226 255
204 226 255
204 226 255
203 226 255
203 226 255
203 225 255
203 225 255
203 225 255
202 225 255
202 225 255
202 225 255
202 225 255
201 225 255
201 224 255
201 224 255
201 224 255
200 224 255
200 224 255
200 224 255
200 224 255
199 224 255
199 223 255
199 223 255
199 223 255
198 223 255
198 223 255
198 223 255
198 223 255
197 222 255
197 222 255
197 222 255
197 222 255
196 222 255
196 222 255
196 222 255
196 222 255
195 221 255
195 221 255
195 221 255
195 221 255
194 221 255
194 221 255
194 221 255
194 221 255
194 220 255
193 220 255
193 220 255
193 220 255
193 220 255
193 220 255
193 220 255
192 220 255
192 220 255
192 220 255
192 220 255
192 220 255
192 220 255
192 220 255
192 220 255
192 220 255
192 220 255
192 220 255
192 220 255
192 220 255
192 220 255
192 220 255
192 220 255
193 220 255
193 220 255
193 220 255
193 220 255
193 220 255
193 220 255
194 220 255
194 221 255
194 221 255
194 221 255
194 221 255
195 221 255
195 221 255
195 221 255
195 221 255
196 221 255
196 222 255
196 222 255
196 222 255
197 222 255
197 222 255
197 222 255
197 222 255
198 223 255
198 223 255
198 223 255
198 223 255
199 223 255
199 223 255
199 223 255
199 224 255
200 224 255
200 224 255
200 224 255
200 224 255
201 224 255
201 224 255
201 224 255
201 225 255
202 225 255
202 225 255
202 225 255
202 225 255
203 225 255
203 225 255
203 225 255
203 226 255
203 226 255
204 226 255
204 226 255
204 226 255
204 226 255
204 226 255
205 226 255
205 226 255
205 226 255
205 227 255
205 227 255
205 227 255
206 227 255
206 227 255
206 227 255
206 227 255
206 227 255
206 227 255
207 227 255
207 227 255
207 228 255
207 228 255
207 228 255
207 228 255
207 228 255
208 228 255
208 228 255
208 228 255
208 228 255
208 228 255
208 228 255
208 228 255
208 228 255
209 228 255
209 229 255
209 229 255
209 229 255
209 229 255
209 229 255
209 229 255
209 229 255
209 229 255
210 229 255
210 229 255
210 229 255
210 229 255
210 229 255
210 229 255
210 229 255
210 229 255
210 229 255
210 229 255
210 230 255
211 230 255
211 230 255
211 230 255
211 230 255
211 230 255
211 230 255
211 230 255
211 230 255
211 230 255
211 230 255
211 230 255
211 230 255
212 230 255
212 230 255
212 230 255
212 230 255
212 230 255
212 230 255
212 230 255
212 230 255
212 230 255
212 230 255
212 230 255
212 231 255
212 231 255
212 231 255
212 231 255
212 231 255
213 231 255
213 231 255
213 231 255
213 231 255
213 231 255
213 231 255
213 231 255
213 231 255
213 231 255
213 231 255
213 231 255
213 231 255
213 231 255
213 231 255
213 231 255
213 231 255
213 231 255
213 231 255
213 231 255
214 231 255
214 231 255
214 231 255
214 231 255
214 231 255
214 231 255
214 231 255
214 231 255
214 231 255
214 231 255
214 231 255
214 231 255
214 232 255
214 232 255
214 232 255
214 232 255
214 232 255
214 232 255
214 232 255
214 232 255
214 232 255
214 232 255
214 232 255
214 232 255
214 232 255
215 232 255
215 232 255
215 232 255
215 232 255
215 232 255
215 232 255
215 232 255
215 232 255
215 232 255
215 232 255
215 232 255
215 232 255
215 232 255
215 232 255
215 232 255
215 232 255
215 232 255
215 232 255
215 232 255
215 232 255
215 232 255
215 232 255
215 232 255
215 232 255
215 232 255
215 232 255
215 232 255
215 232 255
215 232 255
215 232 255
215 232 255
215 232 255
215 232 255
215 232 255
215 232 255
215 232 255
215 232 255
215 232 255
215 232 255
215 232 255
215 232 255
215 232 255
215 232 255
215 232 255
215 232 255
215 232 255
214 232 255
214 232 255
214 232 255
214 232 255
214 232 255
214 232 255
214 232 255
214 232 255
214 232 255
214 232 255
214 232 255
214 232 255
214 232 255
214 231 255
214 231 255
214 231 255
214 231 255
214 231 255
214 231 255
214 231 255
214 231 255
214 231 255
214 231 255
214 231 255
213 231 255
213 231 255
213 231 255
213 231 255
213 231 255
213 231 255
213 231 255
213 231 255
213 231 255
213 231 255
213 231 255
213 231 255
213 231 255
213 231 255
213 231 255
213 231 255
213 231 255
213 231 255
213 231 255
212 231 255
212 231 255
212 231 255
212 231 255
212 230 255
212 230 255
212 230 255
212 230 255
212 230 255
212 230 255
212 230 255
212 230 255
212 230 255
212 230 255
212 230 255
211 230 255
211 230 255
211 230 255
211 230 255
211 230 255
211 230 255
211 230 255
211 230 255
211 230 255
211 230 255
211 230 255
211 230 255
210 230 255
210 229 255
210 229 255
210 229 255
210 229 255
210 229 255
210 229 255
210 229 255
210 229 255
210 229 255
209 229 255
209 229 255
209 229 255
209 229 255
209 229 255
209 229 255
209 229 255
209 229 255
209 228 255
208 228 255
208 228 255
208 228 255
208 228 255
208 228 255
208 228 255
208 228 255
208 228 255
207 228 255
207 228 255
207 228 255
207 228 255
207 228 255
207 227 255
206 227 255
206 227 255
206 227 255
206 227 255
206 227 255
206 227 255
206 227 255
205 227 255
205 227 255
205 227 255
205 226 255
205 226 255
204 226 255
204 226 255
204 226 255
204 226 255
204 226 255
203 226 255
203 226 255
203 225 255
203 225 255
203 225 255
202 225 255
202 225 255
202 225 255
202 225 255
201 225 255
201 225 255
201 224 255
201 224 255
200 224 255
200 224 255
200 224 255
200 224 255
199 224 255
199 223 255
199 223 255
199 223 255
198 223 255
198 223 255
198 223 255
198 223 255
197 222 255
197 222 255
197 222 255
197 222 255
196 222 255
196 222 255
196 222 255
196 221 255
195 221 255
195 221 255
195 221 255
195 221 255
194 221 255
194 221 255
194 221 255
194 221 255
194 220 255
193 220 255
193 220 255
193 220 255
193 220 255
193 220 255
193 220 255
193 220 255
193 220 255
193 220 255
192 220 255
192 220 255
192 220 255
192 220 255
192 220 255
193 220 255
193 220 255
193 220 255
193 220 255
193 220 255
193 220 255
193 220 255
193 220 255
193 220 255
193 220 255
194 220 255
194 221 255
194 221 255
194 221 255
194 221 255
195 221 255
195 221 255
195 221 255
195 221 255
196 221 255
196 222 255
196 222 255
196 222 255
197 222 255
197 222 255
197 222 255
197 222 255
198 223 255
198 223 255
198 223 255
198 223 255
199 223 255
199 223 255
199 223 255
199 224 255
200 224 255
200 224 255
200 224 255
200 224 255
201 224 255
201 224 255
201 224 255
201 225 255
202 225 255
202 225 255
202 225 255
202 225 255
203 225 255
203 225 255
203 225 255
203 226 255
203 226 255
204 226 255
204 226 255
204 226 255
204 226 255
204 226 255
205 226 255
205 226 255
205 227 255
205 227 255
205 227 255
205 227 255
206 227 255
206 227 255
206 227 255
206 227 255
206 227 255
206 227 255
207 227 255
207 228 255
207 228 255
207 228 255
207 228 255
207 228 255
207 228 255
208 228 255
208 228 255
208 228 255
208 228 255
208 228 255
208 228 255
208 228 255
209 228 255
209 229 255
209 229 255
209 229 255
209 229 255
209 229 255
209 229 255
209 229 255
209 229 255
210 229 255
210 229 255
210 229 255
210 229 255
210 229 255
210 229 255
210 229 255
210 229 255
210 229 255
210 230 255
211 230 255
211 230 255
211 230 255
211 230 255
211 230 255
211 230 255
211 230 255
211 230 255
211 230 255
211 230 255
211 230 255
211 230 255
212 230 255
212 230 255
212 230 255
212 230 255
212 230 255
212 230 255
212 230 255
212 230 255
212 230 255
212 230 255
212 230 255
212 231 255
212 231 255
212 231 255
212 231 255
213 231 255
213 231 255
213 231 255
213 231 255
213 231 255
213 231 255
213 231 255
213 231 255
213 231 255
213 231 255
213 231 255
213 231 255
213 231 255
213 231 255
213 231 255
213 231 255
213 231 255
213 231 255
213 231 255
214 231 255
214 231 255
214 231 255
214 231 255
214 231 255
214 231 255
214 231 255
214 231 255
214 231 255
214 231 255
214 231 255
214 231 255
214 232 255
214 232 255
214 232 255
214 232 255
214 232 255
214 232 255
214 232 255
214 232 255
214 232 255
214 232 255
214 232 255
215 232 255
215 232 255
215 232 255
215 232 255
215 232 255
215 232 255
215 232 255
215 232 255
215 232 255
215 232 255
215 232 255
215 232 255
215 232 255
215 232 255
215 232 255
215 232 255
215 232 255
215 232 255
215 232 255
215 232 255
215 232 255
215 232 255
215 232 255
215 232 255
215 232 255
215 232 255
215 232 255
216 232 255
215 232 255
215 232 255
215 232 255
215 232 255
215 232 255
215 232 255
215 232 255
215 232 255
215 232 255
215 232 255
215 232 255
215 232 255
215 232 255
215 232 255
215 232 255
215 232 255
215 232 255
215 232 255
215 232 255
215 232 255
215 232 255
215 232 255
215 232 255
215 232 255
215 232 255
215 232 255
215 232 255
215 232 255
215 232 255
215 232 255
215 232 255
214 232 255
214 232 255
214 232 255
214 232 255
214 232 255
214 232 255
214 232 255
214 232 255
214 232 255
214 232 255
214 232 255
214 232 255
214 231 255
214 231 255
214 231 255
214 231 255
214 231 255
214 231 255
214 231 255
214 231 255
214 231 255
214 231 255
214 231 255
213 231 255
213 231 255
213 231 255
213 231 255
213 231 255
213 231 255
213 231 255
213 231 255
213 231 255
213 231 255
213 231 255
213 231 255
213 231 255
213 231 255
213 231 255
213 231 255
213 231 255
213 231 255
212 231 255
212 231 255
212 231 255
212 231 255
212 231 255
212 230 255
212 230 255
212 230 255
212 230 255
212 230 255
212 230 255
212 230 255
212 230 255
212 230 255
211 230 255
211 230 255
211 230 255
211 230 255
211 230 255
211 230 255
211 230 255
211 230 255
211 230 255
211 230 255
211 230 255
211 230 255
210 230 255
210 229 255
210 229 255
210 229 255
210 229 255
210 229 255
210 229 255
210 229 255
210 229 255
210 229 255
209 229 255
209 229 255
209 229 255
209 229 255
209 229 255
209 229 255
209 229 255
209 229 255
209 228 255
208 228 255
208 228 255
208 228 255
208 228 255
208 228 255
208 228 255
208 228 255
207 228 255
207 228 255
207 228 255
207 228 255
207 228 255
207 227 255
207 227 255
206 227 255
206 227 255
206 227 255
206 227 255
206 227 255
206 227 255
205 227 255
205 227 255
205 227 255
205 226 255
205 226 255
204 226 255
204 226 255
204 226 255
204 226 255
204 226 255
203 226 255
203 226 255
203 225 255
203 225 255
203 225 255
202 225 255
202 225 255
202 225 255
202 225 255
201 225 255
201 224 255
201 224 255
201 224 255
200 224 255
200 224 255
200 224 255
200 224 255
199 224 255
199 223 255
199 223 255
199 223 255
198 223 255
198 223 255
198 223 255
198 223 255
197 222 255
197 222 255
197 222 255
197 222 255
196 222 255
196 222 255
196 222 255
196 221 255
195 221 255
195 221 255
195 221 255
195 221 255
194 221 255
194 221 255
194 221 255
194 221 255
194 221 255
194 220 255
193 220 255
193 220 255
193 220 255
193 220 255
193 220 255
193 220 255
193 220 255
193 220 255
193 220 255
193 220 255
193 220 255
193 220 255
193 220 255
193 220 255
193 220 255
193 220 255
193 220 255
194 220 255
194 220 255
194 221 255
194 221 255
194 221 255
194 221 255
195 221 255
195 221 255
195 221 255
195 221 255
195 221 255
196 222 255
196 222 255
196 222 255
196 222 255
197 222 255
197 222 255
197 222 255
197 222 255
198 223 255
198 223 255
198 223 255
198 223 255
199 223 255
199 223 255
199 223 255
199 224 255
200 224 255
200 224 255
200 224 255
200 224 255
201 224 255
201 224 255
201 224 255
201 225 255
202 225 255
202 225 255
202 225 255
202 225 255
203 225 255
203 225 255
203 226 255
203 226 255
203 226 255
204 226 255
204 226 255
204 226 255
204 226 255
204 226 255
205 226 255
205 226 255
205 227 255
205 227 255
205 227 255
206 227 255
206 227 255
206 227 255
206 227 255
206 227 255
206 227 255
207 227 255
207 228 255
207 228 255
207 228 255
207 228 255
207 228 255
208 228 255
208 228 255
208 228 255
208 228 255
208 228 255
208 228 255
208 228 255
208 228 255
209 228 255
209 229 255
209 229 255
209 229 255
209 229 255
209 229 255
209 229 255
209 229 255
209 229 255
210 229 255
210 229 255
210 229 255
210 229 255
210 229 255
210 229 255
210 229 255
210 229 255
210 230 255
210 230 255
211 230 255
211 230 255
211 230 255
211 230 255
211 230 255
211 230 255
211 230 255
211 230 255
211 230 255
211 230 255
211 230 255
211 230 255
212 230 255
212 230 255
212 230 255
212 230 255
212 230 255
212 230 255
212 230 255
212 230 255
212 230 255
212 230 255
212 231 255
212 231 255
212 231 255
212 231 255
213 231 255
213 231 255
213 231 255
213 231 255
213 231 255
213 231 255
213 231 255
213 231 255
213 231 255
213 231 255
213 231 255
213 231 255
213 231 255
213 231 255
213 231 255
213 231 255
213 231 255
213 231 255
214 231 255
214 231 255
214 231 255
214 231 255
214 231 255
214 231 255
214 231 255
214 231 255
214 231 255
214 231 255
214 231 255
214 232 255
214 232 255
214 232 255
214 232 255
214 232 255
214 232 255
214 232 255
214 232 255
214 232 255
214 232 255
214 232 255
214 232 255
215 232 255
215 232 255
215 232 255
215 232 255
215 232 255
215 232 255
215 232 255
215 232 255
215 232 255
215 232 255
215 232 255
215 232 255
215 232 255
215 232 255
215 232 255
215 232 255
215 232 255
215 232 255
215 232 255
215 232 255
215 232 255
215 232 255
215 232 255
215 232 255
215 232 255
215 232 255
215 232 255
215 232 255
215 232 255
215 232 255
215 232 255
216 232 255
216 232 255
216 232 255
216 232 255
216 232 255
216 232 255
216 232 255
216 232 255
216 232 255
215 232 255
215 232 255
215 232 255
215 232 255
215 232 255
215 232 255
215 232 255
215 232 255
215 232 255
215 232 255
215 232 255
215 232 255
215 232 255
215 232 255
215 232 255
215 232 255
215 232 255
215 232 255
215 232 255
215 232 255
215 232 255
215 232 255
215 232 255
215 232 255
215 232 255
215 232 255
215 232 255
215 232 255
215 232 255
215 232 255
214 232 255
214 232 255
214 232 255
214 232 255
214 232 255
214 232 255
214 232 255
214 232 255
214 232 255
214 232 255
214 232 255
214 231 255
214 231 255
214 231 255
214 231 255
214 231 255
214 231 255
214 231 255
214 231 255
214 231 255
214 231 255
214 231 255
213 231 255
213 231 255
213 231 255
213 231 255
213 231 255
213 231 255
213 231 255
213 231 255
213 231 255
213 231 255
213 231 255
213 231 255
213 231 255
213 231 255
213 231 255
213 231 255
213 231 255
212 231 255
212 231 255
212 231 255
212 231 255
212 231 255
212 230 255
212 230 255
212 230 255
212 230 255
212 230 255
212 230 255
212 230 255
212 230 255
212 230 255
211 230 255
211 230 255
211 230 255
211 230 255
211 230 255
211 230 255
211 230 255
211 230 255
211 230 255
211 230 255
211 230 255
211 230 255
210 230 255
210 229 255
210 229 255
210 229 255
210 229 255
210 229 255
210 229 255
210 229 255
210 229 255
210 229 255
209 229 255
209 229 255
209 229 255
209 229 255
209 229 255
209 229 255
209 229 255
209 228 255
208 228 255
208 228 255
208 228 255
208 228 255
208 228 255
208 228 255
208 228 255
207 228 255
207 228 255
207 228 255
207 228 255
207 228 255
207 227 255
207 227 255
206 227 255
206 227 255
206 227 255
206 227 255
206 227 255
205 227 255
205 227 255
205 227 255
205 227 255
205 226 255
205 226 255
204 226 255
204 226 255
204 226 255
204 226 255
204 226 255
203 226 255
203 226 255
203 225 255
203 225 255
202 225 255
202 225 255
202 225 255
202 225 255
201 225 255
201 225 255
201 224 255
201 224 255
200 224 255
200 224 255
200 224 255
200 224 255
199 224 255
199 223 255
199 223 255
199 223 255
198 223 255
198 223 255
198 223 255
198 223 255
197 222 255
197 222 255
197 222 255
197 222 255
196 222 255
196 222 255
196 222 255
196 222 255
195 221 255
195 221 255
195 221 255
195 221 255
195 221 255
194 221 255
194 221 255
194 221 255
194 221 255
194 221 255
194 221 255
194 220 255
194 220 255
193 220 255
193 220 255
193 220 255
193 220 255
193 220 255
193 220 255
193 220 255
193 220 255
194 220 255
194 220 255
194 221 255
194 221 255
194 221 255
194 221 255
194 221 255
194 221 255
195 221 255
195 221 255
195 221 255
195 221 255
195 221 255
196 222 255
196 222 255
196 222 255
196 222 255
197 222 255
197 222 255
197 222 255
197 222 255
198 223 255
198 223 255
198 223 255
198 223 255
199 223 255
199 223 255
199 223 255
199 224 255
200 224 255
200 224 255
200 224 255
200 224 255
201 224 255
201 224 255
201 224 255
201 225 255
202 225 255
202 225 255
202 225 255
202 225 255
203 225 255
203 225 255
203 226 255
203 226 255
204 226 255
204 226 255
204 226 255
204 226 255
204 226 255
205 226 255
205 226 255
205 227 255
205 227 255
205 227 255
205 227 255
206 227 255
206 227 255
206 227 255
206 227 255
206 227 255
207 227 255
207 227 255
207 228 255
207 228 255
207 228 255
207 228 255
207 228 255
208 228 255
208 228 255
208 228 255
208 228 255
208 228 255
208 228 255
208 228 255
209 228 255
209 229 255
209 229 255
209 229 255
209 229 255
209 229 255
209 229 255
209 229 255
209 229 255
210 229 255
210 229 255
210 229 255
210 229 255
210 229 255
210 229 255
210 229 255
210 229 255
210 230 255
211 230 255
211 230 255
211 230 255
211 230 255
211 230 255
211 230 255
211 230 255
211 230 255
211 230 255
211 230 255
211 230 255
211 230 255
212 230 255
212 230 255
212 230 255
212 230 255
212 230 255
212 230 255
212 230 255
212 230 255
212 230 255
212 231 255
212 231 255
212 231 255
212 231 255
212 231 255
213 231 255
213 231 255
213 231 255
213 231 255
213 231 255
213 231 255
213 231 255
213 231 255
213 231 255
213 231 255
213 231 255
213 231 255
213 231 255
213 231 255
213 231 255
213 231 255
213 231 255
214 231 255
214 231 255
214 231 255
214 231 255
214 231 255
214 231 255
214 231 255
214 231 255
214 231 255
214 231 255
214 231 255
214 232 255
214 232 255
214 232 255
214 232 255
214 232 255
214 232 255
214 232 255
214 232 255
214 232 255
214 232 255
214 232 255
215 232 255
215 232 255
215 232 255
215 232 255
215 232 255
215 232 255
215 232 255
215 232 255
215 232 255
215 232 255
215 232 255
215 232 255
215 232 255
215 232 255
215 232 255
215 232 255
215 232 255
215 232 255
215 232 255
215 232 255
215 232 255
215 232 255
215 232 255
215 232 255
215 232 255
215 232 255
215 232 255
215 232 255
215 232 255
215 232 255
216 232 255
216 232 255
216 232 255
216 232 255
216 232 255
216 232 255
216 232 255
216 232 255
216 233 255
216 233 255
216 233 255
216 232 255
216 232 255
216 232 255
216 232 255
216 232 255
216 232 255
216 232 255
216 232 255
216 232 255
216 232 255
216 232 255
215 232 255
215 232 255
215 232 255
215 232 255
215 232 255
215 232 255
215 232 255
215 232 255
215 232 255
215 232 255
215 232 255
215 232 255
215 232 255
215 232 255
215 232 255
215 232 255
215 232 255
215 232 255
215 232 255
215 232 255
215 232 255
215 232 255
215 232 255
215 232 255
215 232 255
215 232 255
215 232 255
215 232 255
215 232 255
214 232 255
214 232 255
214 232 255
214 232 255
214 232 255
214 232 255
214 232 255
214 232 255
214 232 255
214 232 255
214 232 255
214 232 255
214 231 255
214 231 255
214 231 255
214 231 255
214 231 255
214 231 255
214 231 255
214 231 255
214 231 255
214 231 255
213 231 255
213 231 255
213 231 255
213 231 255
213 231 255
213 231 255
213 231 255
213 231 255
213 231 255
213 231 255
213 231 255
213 231 255
213 231 255
213 231 255
213 231 255
213 231 255
212 231 255
212 231 255
212 231 255
212 231 255
212 231 255
212 230 255
212 230 255
212 230 255
212 230 255
212 230 255
212 230 255
212 230 255
212 230 255
212 230 255
211 230 255
211 230 255
211 230 255
211 230 255
211 230 255
211 230 255
211 230 255
211 230 255
211 230 255
211 230 255
211 230 255
210 230 255
210 230 255
210 229 255
210 229 255
210 229 255
210 229 255
210 229 255
210 229 255
210 229 255
210 229 255
209 229 255
209 229 255
209 229 255
209 229 255
209 229 255
209 229 255
209 229 255
209 228 255
208 228 255
208 228 255
208 228 255
208 228 255
208 228 255
208 228 255
208 228 255
207 228 255
207 228 255
207 228 255
207 228 255
207 228 255
207 227 255
206 227 255
206 227 255
206 227 255
206 227 255
206 227 255
206 227 255
205 227 255
205 227 255
205 227 255
205 226 255
205 226 255
204 226 255
204 226 255
204 226 255
204 226 255
204 226 255
203 226 255
203 226 255
203 225 255
203 225 255
202 225 255
202 225 255
202 225 255
202 225 255
201 225 255
201 225 255
201 224 255
201 224 255
200 224 255
200 224 255
200 224 255
200 224 255
199 224 255
199 223 255
199 223 255
199 223 255
198 223 255
198 223 255
198 223 255
198 223 255
197 222 255
197 222 255
197 222 255
197 222 255
196 222 255
196 222 255
196 222 255
196 222 255
195 221 255
195 221 255
195 221 255
195 221 255
195 221 255
195 221 255
194 221 255
194 221 255
194 221 255
194 221 255
194 221 255
194 221 255
194 221 255
194 221 255
194 221 255
194 221 255
194 221 255
194 221 255
194 221 255
194 221 255
194 221 255
194 221 255
194 221 255
195 221 255
195 221 255
195 221 255
195 221 255
195 221 255
195 221 255
196 221 255
196 222 255
196 222 255
196 222 255
196 222 255
197 222 255
197 222 255
197 222 255
197 222 255
198 223 255
198 223 255
198 223 255
198 223 255
199 223 255
199 223 255
199 223 255
199 224 255
200 224 255
200 224 255
200 224 255
200 224 255
201 224 255
201 224 255
201 225 255
201 225 255
202 225 255
202 225 255
202 225 255
202 225 255
203 225 255
203 225 255
203 226 255
203 226 255
204 226 255
204 226 255
204 226 255
204 226 255
204 226 255
205 226 255
205 226 255
205 227 255
205 227 255
205 227 255
206 227 255
206 227 255
206 227 255
206 227 255
206 227 255
206 227 255
207 227 255
207 228 255
207 228 255
207 228 255
207 228 255
207 228 255
208 228 255
208 228 255
208 228 255
208 228 255
208 228 255
208 228 255
208 228 255
209 228 255
209 229 255
209 229 255
209 229 255
209 229 255
209 229 255
209 229 255
209 229 255
210 229 255
210 229 255
210 229 255
210 229 255
210 229 255
210 229 255
210 229 255
210 229 255
210 229 255
210 230 255
211 230 255
211 230 255
211 230 255
211 230 255
211 230 255
211 230 255
211 230 255
211 230 255
211 230 255
211 230 255
211 230 255
212 230 255
212 230 255
212 230 255
212 230 255
212 230 255
212 230 255
212 230 255
212 230 255
212 230 255
212 231 255
212 231 255
212 231 255
212 231 255
213 231 255
213 231 255
213 231 255
213 231 255
213 231 255
213 231 255
213 231 255
213 231 255
213 231 255
213 231 255
213 231 255
213 231 255
213 231 255
213 231 255
213 231 255
213 231 255
213 231 255
214 231 255
214 231 255
214 231 255
214 231 255
214 231 255
214 231 255
214 231 255
214 231 255
214 231 255
214 231 255
214 231 255
214 232 255
214 232 255
214 232 255
214 232 255
214 232 255
214 232 255
214 232 255
214 232 255
214 232 255
214 232 255
214 232 255
215 232 255
215 232 255
215 232 255
215 232 255
215 232 255
215 232 255
215 232 255
215 232 255
215 232 255
215 232 255
215 232 255
215 232 255
215 232 255
215 232 255
215 232 255
215 232 255
215 232 255
215 232 255
215 232 255
215 232 255
215 232 255
215 232 255
215 232 255
215 232 255
215 232 255
215 232 255
215 232 255
215 232 255
215 232 255
216 232 255
216 232 255
216 232 255
216 232 255
216 232 255
216 232 255
216 232 255
216 232 255
216 232 255
216 232 255
216 232 255
216 233 255
216 233 255
216 233 255
216 233 255
216 233 255
216 233 255
216 233 255
216 233 255
216 233 255
216 233 255
216 233 255
216 233 255
216 233 255
216 232 255
216 232 255
216 232 255
216 232 255
216 232 255
216 232 255
216 232 255
216 232 255
216 232 255
216 232 255
216 232 255
215 232 255
215 232 255
215 232 255
215 232 255
215 232 255
215 232 255
215 232 255
215 232 255
215 232 255
215 232 255
215 232 255
215 232 255
215 232 255
215 232 255
215 232 255
215 232 255
215 232 255
215 232 255
215 232 255
215 232 255
215 232 255
215 232 255
215 232 255
215 232 255
215 232 255
215 232 255
215 232 255
215 232 255
214 232 255
214 232 255
214 232 255
214 232 255
214 232 255
214 232 255
214 232 255
214 232 255
214 232 255
214 232 255
214 232 255
214 231 255
214 231 255
214 231 255
214 231 255
214 231 255
214 231 255
214 231 255
214 231 255
214 231 255
214 231 255
213 231 255
213 231 255
213 231 255
213 231 255
213 231 255
213 231 255
213 231 255
213 231 255
213 231 255
213 231 255
213 231 255
213 231 255
213 231 255
213 231 255
213 231 255
213 231 255
212 231 255
212 231 255
212 231 255
212 231 255
212 230 255
212 230 255
212 230 255
212 230 255
212 230 255
212 230 255
212 230 255
212 230 255
212 230 255
211 230 255
211 230 255
211 230 255
211 230 255
211 230 255
211 230 255
211 230 255
211 230 255
211 230 255
211 230 255
211 230 255
210 230 255
210 229 255
210 229 255
210 229 255
210 229 255
210 229 255
210 229 255
210 229 255
210 229 255
209 229 255
209 229 255
209 229 255
209 229 255
209 229 255
209 229 255
209 229 255
209 228 255
208 228 255
208 228 255
208 228 255
208 228 255
208 228 255
208 228 255
208 228 255
207 228 255
207 228 255
207 228 255
207 228 255
207 228 255
207 227 255
206 227 255
206 227 255
206 227 255
206 227 255
206 227 255
205 227 255
205 227 255
205 227 255
205 227 255
205 226 255
204 226 255
204 226 255
204 226 255
204 226 255
204 226 255
203 226 255
203 226 255
203 225 255
203 225 255
202 225 255
202 225 255
202 225 255
202 225 255
202 225 255
201 225 255
201 224 255
201 224 255
200 224 255
200 224 255
200 224 255
200 224 255
199 224 255
199 223 255
199 223 255
199 223 255
198 223 255
198 223 255
198 223 255
198 223 255
197 222 255
197 222 255
197 222 255
197 222 255
196 222 255
196 222 255
196 222 255
196 222 255
196 222 255
195 221 255
195 221 255
195 221 255
195 221 255
195 221 255
195 221 255
195 221 255
195 221 255
195 221 255
194 221 255
194 221 255
194 221 255
194 221 255
194 221 255
195 221 255
195 221 255
195 221 255
195 221 255
195 221 255
195 221 255
195 221 255
195 221 255
195 221 255
195 221 255
196 222 255
196 222 255
196 222 255
196 222 255
196 222 255
197 222 255
197 222 255
197 222 255
197 222 255
198 223 255
198 223 255
198 223 255
198 223 255
199 223 255
199 223 255
199 223 255
199 224 255
200 224 255
200 224 255
200 224 255
200 224 255
201 224 255
201 224 255
201 225 255
201 225 255
202 225 255
202 225 255
202 225 255
203 225 255
203 225 255
203 225 255
203 226 255
203 226 255
204 226 255
204 226 255
204 226 255
204 226 255
204 226 255
205 226 255
205 227 255
205 227 255
205 227 255
205 227 255
206 227 255
206 227 255
206 227 255
206 227 255
206 227 255
207 227 255
207 228 255
207 228 255
207 228 255
207 228 255
207 228 255
208 228 255
208 228 255
208 228 255
208 228 255
208 228 255
208 228 255
208 228 255
209 228 255
209 229 255
209 229 255
209 229 255
209 229 255
209 229 255
209 229 255
209 229 255
210 229 255
210 229 255
210 229 255
210 229 255
210 229 255
210 229 255
210 229 255
210 229 255
210 230 255
211 230 255
211 230 255
211 230 255
211 230 255
211 230 255
211 230 255
211 230 255
211 230 255
211 230 255
211 230 255
211 230 255
212 230 255
212 230 255
212 230 255
212 230 255
212 230 255
212 230 255
212 230 255
212 230 255
212 230 255
212 231 255
212 231 255
212 231 255
212 231 255
213 231 255
213 231 255
213 231 255
213 231 255
213 231 255
213 231 255
213 231 255
213 231 255
213 231 255
213 231 255
213 231 255
213 231 255
213 231 255
213 231 255
213 231 255
213 231 255
214 231 255
214 231 255
214 231 255
214 231 255
214 231 255
214 231 255
214 231 255
214 231 255
214 231 255
214 231 255
214 232 255
214 232 255
214 232 255
214 232 255
214 232 255
214 232 255
214 232 255
214 232 255
214 232 255
214 232 255
214 232 255
215 232 255
215 232 255
215 232 255
215 232 255
215 232 255
215 232 255
215 232 255
215 232 255
215 232 255
215 232 255
215 232 255
215 232 255
215 232 255
215 232 255
215 232 255
215 232 255
215 232 255
215 232 255
215 232 255
215 232 255
215 232 255
215 232 255
215 232 255
215 232 255
215 232 255
215 232 255
215 232 255
215 232 255
216 232 255
216 232 255
216 232 255
216 232 255
216 232 255
216 232 255
216 232 255
216 232 255
216 232 255
216 232 255
216 232 255
216 233 255
216 233 255
216 233 255
216 233 255
216 233 255
216 233 255
216 233 255
216 233 255
216 233 255
216 233 255
216 233 255
216 233 255
216 233 255
216 233 255
216 233 255
216 233 255
216 233 255
216 233 255
216 233 255
216 233 255
216 233 255
216 233 255
216 233 255
216 233 255
216 233 255
216 233 255
216 233 255
216 232 255
216 232 255
216 232 255
216 232 255
216 232 255
216 232 255
216 232 255
216 232 255
216 232 255
216 232 255
215 232 255
215 232 255
215 232 255
215 232 255
215 232 255
215 232 255
215 232 255
215 232 255
215 232 255
215 232 255
215 232 255
215 232 255
215 232 255
215 232 255
215 232 255
215 232 255
215 232 255
215 232 255
215 232 255
215 232 255
215 232 255
215 232 255
215 232 255
215 232 255
215 232 255
215 232 255
215 232 255
214 232 255
214 232 255
214 232 255
214 232 255
214 232 255
214 232 255
214 232 255
214 232 255
214 232 255
214 232 255
214 232 255
214 231 255
214 231 255
214 231 255
214 231 255
214 231 255
214 231 255
214 231 255
214 231 255
214 231 255
213 231 255
213 231 255
213 231 255
213 231 255
213 231 255
213 231 255
213 231 255
213 231 255
213 231 255
213 231 255
213 231 255
213 231 255
213 231 255
213 231 255
213 231 255
213 231 255
212 231 255
212 231 255
212 231 255
212 231 255
212 230 255
212 230 255
212 230 255
212 230 255
212 230 255
212 230 255
212 230 255
212 230 255
212 230 255
211 230 255
211 230 255
211 230 255
211 230 255
211 230 255
211 230 255
211 230 255
211 230 255
211 230 255
211 230 255
211 230 255
210 230 255
210 229 255
210 229 255
210 229 255
210 229 255
210 229 255
210 229 255
210 229 255
209 229 255
209 229 255
209 229 255
209 229 255
209 229 255
209 229 255
209 229 255
209 229 255
208 228 255
208 228 255
208 228 255
208 228 255
208 228 255
208 228 255
208 228 255
207 228 255
207 228 255
207 228 255
207 228 255
207 227 255
207 227 255
206 227 255
206 227 255
206 227 255
206 227 255
206 227 255
205 227 255
205 227 255
205 227 255
205 226 255
205 226 255
204 226 255
204 226 255
204 226 255
204 226 255
203 226 255
203 226 255
203 225 255
203 225 255
203 225 255
202 225 255
202 225 255
202 225 255
202 225 255
201 225 255
201 224 255
201 224 255
201 224 255
200 224 255
200 224 255
200 224 255
199 224 255
199 223 255
199 223 255
199 223 255
198 223 255
198 223 255
198 223 255
198 223 255
198 223 255
197 222 255
197 222 255
197 222 255
197 222 255
196 222 255
196 222 255
196 222 255
196 222 255
196 222 255
196 222 255
195 221 255
195 221 255
195 221 255
195 221 255
195 221 255
195 221 255
195 221 255
195 221 255
195 221 255
195 221 255
195 221 255
195 221 255
195 221 255
195 221 255
195 221 255
195 221 255
196 221 255
196 222 255
196 222 255
196 222 255
196 222 255
196 222 255
197 222 255
197 222 255
197 222 255
197 222 255
197 223 255
198 223 255
198 223 255
198 223 255
199 223 255
199 223 255
199 223 255
199 223 255
200 224 255
200 224 255
200 224 255
200 224 255
201 224 255
201 224 255
201 224 255
201 225 255
202 225 255
202 225 255
202 225 255
202 225 255
203 225 255
203 225 255
203 225 255
203 226 255
203 226 255
204 226 255
204 226 255
204 226 255
204 226 255
205 226 255
205 226 255
205 227 255
205 227 255
205 227 255
206 227 255
206 227 255
206 227 255
206 227 255
206 227 255
206 227 255
207 227 255
207 228 255
207 228 255
207 228 255
207 228 255
208 228 255
208 228 255
208 228 255
208 228 255
208 228 255
208 228 255
208 228 255
209 229 255
209 229 255
209 229 255
209 229 255
209 229 255
209 229 255
209 229 255
209 229 255
210 229 255
210 229 255
210 229 255
210 229 255
210 229 255
210 229 255
210 229 255
210 229 255
211 230 255
211 230 255
211 230 255
211 230 255
211 230 255
211 230 255
211 230 255
211 230 255
211 230 255
211 230 255
211 230 255
212 230 255
212 230 255
212 230 255
212 230 255
212 230 255
212 230 255
212 230 255
212 230 255
212 230 255
212 231 255
212 231 255
212 231 255
212 231 255
213 231 255
213 231 255
213 231 255
213 231 255
213 231 255
213 231 255
213 231 255
213 231 255
213 231 255
213 231 255
213 231 255
213 231 255
213 231 255
213 231 255
213 231 255
213 231 255
214 231 255
214 231 255
214 231 255
214 231 255
214 231 255
214 231 255
214 231 255
214 231 255
214 231 255
214 232 255
214 232 255
214 232 255
214 232 255
214 232 255
214 232 255
214 232 255
214 232 255
214 232 255
214 232 255
215 232 255
215 232 255
215 232 255
215 232 255
215 232 255
215 232 255
215 232 255
215 232 255
215 232 255
215 232 255
215 232 255
215 232 255
215 232 255
215 232 255
215 232 255
215 232 255
215 232 255
215 232 255
215 232 255
215 232 255
215 232 255
215 232 255
215 232 255
215 232 255
215 232 255
215 232 255
215 232 255
216 232 255
216 232 255
216 232 255
216 232 255
216 232 255
216 232 255
216 232 255
216 232 255
216 232 255
216 232 255
216 232 255
216 233 255
216 233 255
216 233 255
216 233 255
216 233 255
216 233 255
216 233 255
216 233 255
216 233 255
216 233 255
216 233 255
216 233 255
216 233 255
216 233 255
216 233 255
216 233 255
216 233 255
216 233 255
216 233 255
216 233 255
216 233 255
216 233 255
216 233 255
216 233 255
216 233 255
216 233 255
216 233 255
216 233 255
216 233 255
216 233 255
216 233 255
216 233 255
216 233 255
216 233 255
216 233 255
216 233 255
216 233 255
216 233 255
216 233 255
216 233 255
216 233 255
216 232 255
216 232 255
216 232 255
216 232 255
216 232 255
216 232 255
216 232 255
216 232 255
216 232 255
216 232 255
215 232 255
215 232 255
215 232 255
215 232 255
215 232 255
215 232 255
215 232 255
215 232 255
215 232 255
215 232 255
215 232 255
215 232 255
215 232 255
215 232 255
215 232 255
215 232 255
215 232 255
215 232 255
215 232 255
215 232 255
215 232 255
215 232 255
215 232 255
215 232 255
215 232 255
215 232 255
214 232 255
214 232 255
214 232 255
214 232 255
214 232 255
214 232 255
214 232 255
214 232 255
214 232 255
214 232 255
214 231 255
214 231 255
214 231 255
214 231 255
214 231 255
214 231 255
214 231 255
214 231 255
214 231 255
214 231 255
213 231 255
213 231 255
213 231 255
213 231 255
213 231 255
213 231 255
213 231 255
213 231 255
213 231 255
213 231 255
213 231 255
213 231 255
213 231 255
213 231 255
213 231 255
212 231 255
212 231 255
212 231 255
212 231 255
212 230 255
212 230 255
212 230 255
212 230 255
212 230 255
212 230 255
212 230 255
212 230 255
211 230 255
211 230 255
211 230 255
211 230 255
211 230 255
211 230 255
211 230 255
211 230 255
211 230 255
211 230 255
210 230 255
210 229 255
210 229 255
210 229 255
210 229 255
210 229 255
210 229 255
210 229 255
210 229 255
209 229 255
209 229 255
209 229 255
209 229 255
209 229 255
209 229 255
209 229 255
208 228 255
208 228 255
208 228 255
208 228 255
208 228 255
208 228 255
208 228 255
207 228 255
207 228 255
207 228 255
207 228 255
207 227 255
206 227 255
206 227 255
206 227 255
206 227 255
206 227 255
206 227 255
205 227 255
205 227 255
205 227 255
205 226 255
204 226 255
204 226 255
204 226 255
204 226 255
204 226 255
203 226 255
203 226 255
203 225 255
203 225 255
202 225 255
202 225 255
202 225 255
202 225 255
201 225 255
201 224 255
201 224 255
201 224 255
200 224 255
200 224 255
200 224 255
200 224 255
199 223 255
199 223 255
199 223 255
199 223 255
198 223 255
198 223 255
198 223 255
198 223 255
197 222 255
197 222 255
197 222 255
197 222 255
197 222 255
197 222 255
196 222 255
196 222 255
196 222 255
196 222 255
196 222 255
196 222 255
196 222 255
196 222 255
196 222 255
196 221 255
196 221 255
196 221 255
196 222 255
196 222 255
196 222 255
196 222 255
196 222 255
196 222 255
196 222 255
196 222 255
197 222 255
197 222 255
197 222 255
197 222 255
197 222 255
197 222 255
198 223 255
198 223 255
198 223 255
198 223 255
199 223 255
199 223 255
199 223 255
199 224 255
200 224 255
200 224 255
200 224 255
200 224 255
201 224 255
201 224 255
201 224 255
201 225 255
202 225 255
202 225 255
202 225 255
202 225 255
203 225 255
203 225 255
203 226 255
203 226 255
204 226 255
204 226 255
204 226 255
204 226 255
204 226 255
205 226 255
205 227 255
205 227 255
205 227 255
206 227 255
206 227 255
206 227 255
206 227 255
206 227 255
206 227 255
207 227 255
207 228 255
207 228 255
207 228 255
207 228 255
208 228 255
208 228 255
208 228 255
208 228 255
208 228 255
208 228 255
208 228 255
209 229 255
209 229 255
209 229 255
209 229 255
209 229 255
209 229 255
209 229 255
210 229 255
210 229 255
210 229 255
210 229 255
210 229 255
210 229 255
210 229 255
210 229 255
210 230 255
211 230 255
211 230 255
211 230 255
211 230 255
211 230 255
211 230 255
211 230 255
211 230 255
211 230 255
211 230 255
212 230 255
212 230 255
212 230 255
212 230 255
212 230 255
212 230 255
212 230 255
212 230 255
212 230 255
212 231 255
212 231 255
212 231 255
213 231 255
213 231 255
213 231 255
213 231 255
213 231 255
213 231 255
213 231 255
213 231 255
213 231 255
213 231 255
213 231 255
213 231 255
213 231 255
213 231 255
213 231 255
214 231 255
214 231 255
214 231 255
214 231 255
214 231 255
214 231 255
214 231 255
214 231 255
214 231 255
214 231 255
214 232 255
214 232 255
214 232 255
214 232 255
214 232 255
214 232 255
214 232 255
214 232 255
214 232 255
214 232 255
215 232 255
215 232 255
215 232 255
215 232 255
215 232 255
215 232 255
215 232 255
215 232 255
215 232 255
215 232 255
215 232 255
215 232 255
215 232 255
215 232 255
215 232 255
215 232 255
215 232 255
215 232 255
215 232 255
215 232 255
215 232 255
215 232 255
215 232 255
215 232 255
215 232 255
215 232 255
216 232 255
216 232 255
216 232 255
216 232 255
216 232 255
216 232 255
216 232 255
216 232 255
216 232 255
216 232 255
216 233 255
216 233 255
216 233 255
216 233 255
216 233 255
216 233 255
216 233 255
216 233 255
216 233 255
216 233 255
216 233 255
216 233 255
216 233 255
216 233 255
216 233 255
216 233 255
216 233 255
216 233 255
216 233 255
216 233 255
216 233 255
216 233 255
216 233 255
216 233 255
217 233 255
217 233 255
217 233 255
217 233 255
217 233 255
216 233 255
216 233 255
216 233 255
216 233 255
216 233 255
216 233 255
216 233 255
216 233 255
216 233 255
216 233 255
216 233 255
216 233 255
216 233 255
216 233 255
216 233 255
216 233 255
216 233 255
216 233 255
216 233 255
216 233 255
216 233 255
216 233 255
216 233 255
216 233 255
216 233 255
216 233 255
216 232 255
216 232 255
216 232 255
216 232 255
216 232 255
216 232 255
216 232 255
216 232 255
216 232 255
215 232 255
215 232 255
215 232 255
215 232 255
215 232 255
215 232 255
215 232 255
215 232 255
215 232 255
215 232 255
215 232 255
215 232 255
215 232 255
215 232 255
215 232 255
215 232 255
215 232 255
215 232 255
215 232 255
215 232 255
215 232 255
215 232 255
215 232 255
215 232 255
215 232 255
214 232 255
214 232 255
214 232 255
214 232 255
214 232 255
214 232 255
214 232 255
214 232 255
214 232 255
214 232 255
214 231 255
214 231 255
214 231 255
214 231 255
214 231 255
214 231 255
214 231 255
214 231 255
214 231 255
213 231 255
213 231 255
213 231 255
213 231 255
213 231 255
213 231 255
213 231 255
213 231 255
213 231 255
213 231 255
213 231 255
213 231 255
213 231 255
213 231 255
213 231 255
212 231 255
212 231 255
212 231 255
212 231 255
212 230 255
212 230 255
212 230 255
212 230 255
212 230 255
212 230 255
212 230 255
212 230 255
211 230 255
211 230 255
211 230 255
211 230 255
211 230 255
211 230 255
211 230 255
211 230 255
211 230 255
211 230 255
210 230 255
210 229 255
210 229 255
210 229 255
210 229 255
210 229 255
210 229 255
210 229 255
209 229 255
209 229 255
209 229 255
209 229 255
209 229 255
209 229 255
209 229 255
208 228 255
208 228 255
208 228 255
208 228 255
208 228 255
208 228 255
208 228 255
207 228 255
207 228 255
207 228 255
207 228 255
207 227 255
206 227 255
206 227 255
206 227 255
206 227 255
206 227 255
205 227 255
205 227 255
205 227 255
205 226 255
205 226 255
204 226 255
204 226 255
204 226 255
204 226 255
203 226 255
203 226 255
203 225 255
203 225 255
202 225 255
202 225 255
202 225 255
202 225 255
202 225 255
201 225 255
201 224 255
201 224 255
200 224 255
200 224 255
200 224 255
200 224 255
199 224 255
199 223 255
199 223 255
199 223 255
199 223 255
198 223 255
198 223 255
198 223 255
198 223 255
197 222 255
197 222 255
197 222 255
197 222 255
197 222 255
197 222 255
197 222 255
196 222 255
196 222 255
196 222 255
196 222 255
196 222 255
196 222 255
196 222 255
196 222 255
196 222 255
196 222 255
196 222 255
196 222 255
197 222 255
197 222 255
197 222 255
197 222 255
197 222 255
197 222 255
197 222 255
198 223 255
198 223 255
198 223 255
198 223 255
199 223 255
199 223 255
199 223 255
199 223 255
199 224 255
200 224 255
200 224 255
200 224 255
200 224 255
201 224 255
201 224 255
201 225 255
201 225 255
202 225 255
202 225 255
202 225 255
203 225 255
203 225 255
203 225 255
203 226 255
203 226 255
204 226 255
204 226 255
204 226 255
204 226 255
205 226 255
205 226 255
205 227 255
205 227 255
205 227 255
206 227 255
206 227 255
206 227 255
206 227 255
206 227 255
207 227 255
207 228 255
207 228 255
207 228 255
207 228 255
207 228 255
208 228 255
208 228 255
208 228 255
208 228 255
208 228 255
208 228 255
209 229 255
209 229 255
209 229 255
209 229 255
209 229 255
209 229 255
209 229 255
210 229 255
210 229 255
210 229 255
210 229 255
210 229 255
210 229 255
210 229 255
210 230 255
211 230 255
211 230 255
211 230 255
211 230 255
211 230 255
211 230 255
211 230 255
211 230 255
211 230 255
211 230 255
212 230 255
212 230 255
212 230 255
212 230 255
212 230 255
212 230 255
212 230 255
212 230 255
212 231 255
212 231 255
212 231 255
212 231 255
213 231 255
213 231 255
213 231 255
213 231 255
213 231 255
213 231 255
213 231 255
213 231 255
213 231 255
213 231 255
213 231 255
213 231 255
213 231 255
213 231 255
214 231 255
214 231 255
214 231 255
214 231 255
214 231 255
214 231 255
214 231 255
214 231 255
214 231 255
214 232 255
214 232 255
214 232 255
214 232 255
214 232 255
214 232 255
214 232 255
214 232 255
214 232 255
214 232 255
215 232 255
215 232 255
215 232 255
215 232 255
215 232 255
215 232 255
215 232 255
215 232 255
215 232 255
215 232 255
215 232 255
215 232 255
215 232 255
215 232 255
215 232 255
215 232 255
215 232 255
215 232 255
215 232 255
215 232 255
215 232 255
215 232 255
215 232 255
215 232 255
215 232 255
216 232 255
216 232 255
216 232 255
216 232 255
216 232 255
216 232 255
216 232 255
216 232 255
216 232 255
216 232 255
216 233 255
216 233 255
216 233 255
216 233 255
216 233 255
216 233 255
216 233 255
216 233 255
216 233 255
216 233 255
216 233 255
216 233 255
216 233 255
216 233 255
216 233 255
216 233 255
216 233 255
216 233 255
216 233 255
216 233 255
216 233 255
216 233 255
216 233 255
216 233 255
216 233 255
217 233 255
217 233 255
217 233 255
217 233 255
217 233 255
217 233 255
217 233 255
217 233 255
217 233 255
217 233 255
217 233 255
217 233 255
217 233 255
217 233 255
217 233 255
217 233 255
217 233 255
217 233 255
217 233 255
216 233 255
216 233 255
216 233 255
216 233 255
216 233 255
216 233 255
216 233 255
216 233 255
216 233 255
216 233 255
216 233 255
216 233 255
216 233 255
216 233 255
216 233 255
216 233 255
216 233 255
216 233 255
216 233 255
216 233 255
216 233 255
216 233 255
216 233 255
216 233 255
216 233 255
216 232 255
216 232 255
216 232 255
216 232 255
216 232 255
216 232 255
216 232 255
216 232 255
216 232 255
215 232 255
215 232 255
215 232 255
215 232 255
215 232 255
215 232 255
215 232 255
215 232 255
215 232 255
215 232 255
215 232 255
215 232 255
215 232 255
215 232 255
215 232 255
215 232 255
215 232 255
215 232 255
215 232 255
215 232 255
215 232 255
215 232 255
215 232 255
215 232 255
214 232 255
214 232 255
214 232 255
214 232 255
214 232 255
214 232 255
214 232 255
214 232 255
214 232 255
214 232 255
214 231 255
214 231 255
214 231 255
214 231 255
214 231 255
214 231 255
214 231 255
214 231 255
213 231 255
213 231 255
213 231 255
213 231 255
213 231 255
213 231 255
213 231 255
213 231 255
213 231 255
213 231 255
213 231 255
213 231 255
213 231 255
213 231 255
212 231 255
212 231 255
212 231 255
212 231 255
212 230 255
212 230 255
212 230 255
212 230 255
212 230 255
212 230 255
212 230 255
212 230 255
211 230 255
211 230 255
211 230 255
211 230 255
211 230 255
211 230 255
211 230 255
211 230 255
211 230 255
211 230 255
210 229 255
210 229 255
210 229 255
210 229 255
210 229 255
210 229 255
210 229 255
209 229 255
209 229 255
209 229 255
209 229 255
209 229 255
209 229 255
209 229 255
208 228 255
208 228 255
208 228 255
208 228 255
208 228 255
208 228 255
208 228 255
207 228 255
207 228 255
207 228 255
207 228 255
207 227 255
206 227 255
206 227 255
206 227 255
206 227 255
206 227 255
205 227 255
205 227 255
205 227 255
205 226 255
205 226 255
204 226 255
204 226 255
204 226 255
204 226 255
203 226 255
203 226 255
203 225 255
203 225 255
202 225 255
202 225 255
202 225 255
202 225 255
201 225 255
201 224 255
201 224 255
201 224 255
200 224 255
200 224 255
200 224 255
200 224 255
199 224 255
199 223 255
199 223 255
199 223 255
199 223 255
198 223 255
198 223 255
198 223 255
198 223 255
198 223 255
197 222 255
197 222 255
197 222 255
197 222 255
197 222 255
197 222 255
197 222 255
197 222 255
197 222 255
197 222 255
197 222 255
197 222 255
197 222 255
197 222 255
197 222 255
197 222 255
197 222 255
197 223 255
198 223 255
198 223 255
198 223 255
198 223 255
198 223 255
199 223 255
199 223 255
199 223 255
199 223 255
199 224 255
200 224 255
200 224 255
200 224 255
200 224 255
201 224 255
201 224 255
201 224 255
201 225 255
202 225 255
202 225 255
202 225 255
202 225 255
203 225 255
203 225 255
203 226 255
203 226 255
204 226 255
204 226 255
204 226 255
204 226 255
205 226 255
205 226 255
205 227 255
205 227 255
205 227 255
206 227 255
206 227 255
206 227 255
206 227 255
206 227 255
207 227 255
207 228 255
207 228 255
207 228 255
207 228 255
207 228 255
208 228 255
208 228 255
208 228 255
208 228 255
208 228 255
208 228 255
209 229 255
209 229 255
209 229 255
209 229 255
209 229 255
209 229 255
209 229 255
210 229 255
210 229 255
210 229 255
210 229 255
210 229 255
210 229 255
210 229 255
210 230 255
211 230 255
211 230 255
211 230 255
211 230 255
211 230 255
211 230 255
211 230 255
211 230 255
211 230 255
212 230 255
212 230 255
212 230 255
212 230 255
212 230 255
212 230 255
212 230 255
212 230 255
212 231 255
212 231 255
212 231 255
212 231 255
213 231 255
213 231 255
213 231 255
213 231 255
213 231 255
213 231 255
213 231 255
213 231 255
213 231 255
213 231 255
213 231 255
213 231 255
213 231 255
213 231 255
214 231 255
214 231 255
214 231 255
214 231 255
214 231 255
214 231 255
214 231 255
214 231 255
214 232 255
214 232 255
214 232 255
214 232 255
214 232 255
214 232 255
214 232 255
214 232 255
214 232 255
214 232 255
215 232 255
215 232 255
215 232 255
215 232 255
215 232 255
215 232 255
215 232 255
215 232 255
215 232 255
215 232 255
215 232 255
215 232 255
215 232 255
215 232 255
215 232 255
215 232 255
215 232 255
215 232 255
215 232 255
215 232 255
215 232 255
215 232 255
215 232 255
215 232 255
216 232 255
216 232 255
216 232 255
216 232 255
216 232 255
216 232 255
216 232 255
216 232 255
216 232 255
216 233 255
216 233 255
216 233 255
216 233 255
216 233 255
216 233 255
216 233 255
216 233 255
216 233 255
216 233 255
216 233 255
216 233 255
216 233 255
216 233 255
216 233 255
216 233 255
216 233 255
216 233 255
216 233 255
216 233 255
216 233 255
216 233 255
216 233 255
216 233 255
217 233 255
217 233 255
217 233 255
217 233 255
217 233 255
217 233 255
217 233 255
217 233 255
217 233 255
217 233 255
217 233 255
217 233 255
217 233 255
217 233 255
217 233 255
217 233 255
217 233 255
217 233 255
217 233 255
217 233 255
217 233 255
217 233 255
217 233 255
217 233 255
217 233 255
217 233 255
217 233 255
217 233 255
217 233 255
217 233 255
217 233 255
217 233 255
217 233 255
217 233 255
217 233 255
216 233 255
216 233 255
216 233 255
216 233 255
216 233 255
216 233 255
216 233 255
216 233 255
216 233 255
216 233 255
216 233 255
216 233 255
216 233 255
216 233 255
216 233 255
216 233 255
216 233 255
216 233 255
216 233 255
216 233 255
216 233 255
216 233 255
216 233 255
216 233 255
216 232 255
216 232 255
216 232 255
216 232 255
216 232 255
216 232 255
216 232 255
216 232 255
216 232 255
215 232 255
215 232 255
215 232 255
215 232 255
215 232 255
215 232 255
215 232 255
215 232 255
215 232 255
215 232 255
215 232 255
215 232 255
215 232 255
215 232 255
215 232 255
215 232 255
215 232 255
215 232 255
215 232 255
215 232 255
215 232 255
215 232 255
215 232 255
214 232 255
214 232 255
214 232 255
214 232 255
214 232 255
214 232 255
214 232 255
214 232 255
214 232 255
214 231 255
214 231 255
214 231 255
214 231 255
214 231 255
214 231 255
214 231 255
214 231 255
213 231 255
213 231 255
213 231 255
213 231 255
213 231 255
213 231 255
213 231 255
213 231 255
213 231 255
213 231 255
213 231 255
213 231 255
213 231 255
213 231 255
212 231 255
212 231 255
212 231 255
212 230 255
212 230 255
212 230 255
212 230 255
212 230 255
212 230 255
212 230 255
212 230 255
211 230 255
211 230 255
211 230 255
211 230 255
211 230 255
211 230 255
211 230 255
211 230 255
211 230 255
210 230 255
210 229 255
210 229 255
210 229 255
210 229 255
210 229 255
210 229 255
210 229 255
209 229 255
209 229 255
209 229 255
209 229 255
209 229 255
209 229 255
208 228 255
208 228 255
208 228 255
208 228 255
208 228 255
208 228 255
207 228 255
207 228 255
207 228 255
207 228 255
207 228 255
207 227 255
206 227 255
206 227 255
206 227 255
206 227 255
206 227 255
205 227 255
205 227 255
205 226 255
205 226 255
204 226 255
204 226 255
204 226 255
204 226 255
204 226 255
203 226 255
203 225 255
203 225 255
203 225 255
202 225 255
202 225 255
202 225 255
202 225 255
201 225 255
201 224 255
201 224 255
201 224 255
200 224 255
200 224 255
200 224 255
200 224 255
199 224 255
199 223 255
199 223 255
199 223 255
199 223 255
198 223 255
198 223 255
198 223 255
198 223 255
198 223 255
198 223 255
198 223 255
198 223 255
198 223 255
198 223 255
198 223 255
198 223 255
198 223 255
198 223 255
198 223 255
198 223 255
198 223 255
198 223 255
198 223 255
198 223 255
198 223 255
198 223 255
199 223 255
199 223 255
199 223 255
199 223 255
199 224 255
200 224 255
200 224 255
200 224 255
200 224 255
201 224 255
201 224 255
201 224 255
201 225 255
202 225 255
202 225 255
202 225 255
202 225 255
203 225 255
203 225 255
203 225 255
203 226 255
203 226 255
204 226 255
204 226 255
204 226 255
204 226 255
205 226 255
205 226 255
205 227 255
205 227 255
205 227 255
206 227 255
206 227 255
206 227 255
206 227 255
207 227 255
207 227 255
207 228 255
207 228 255
207 228 255
207 228 255
208 228 255
208 228 255
208 228 255
208 228 255
208 228 255
208 228 255
209 229 255
209 229 255
209 229 255
209 229 255
209 229 255
209 229 255
210 229 255
210 229 255
210 229 255
210 229 255
210 229 255
210 229 255
210 229 255
210 230 255
211 230 255
211 230 255
211 230 255
211 230 255
211 230 255
211 230 255
211 230 255
211 230 255
211 230 255
212 230 255
212 230 255
212 230 255
212 230 255
212 230 255
212 230 255
212 230 255
212 230 255
212 231 255
212 231 255
212 231 255
213 231 255
213 231 255
213 231 255
213 231 255
213 231 255
213 231 255
213 231 255
213 231 255
213 231 255
213 231 255
213 231 255
213 231 255
213 231 255
213 231 255
214 231 255
214 231 255
214 231 255
214 231 255
214 231 255
214 231 255
214 231 255
214 231 255
214 232 255
214 232 255
214 232 255
214 232 255
214 232 255
214 232 255
214 232 255
214 232 255
214 232 255
215 232 255
215 232 255
215 232 255
215 232 255
215 232 255
215 232 255
215 232 255
215 232 255
215 232 255
215 232 255
215 232 255
215 232 255
215 232 255
215 232 255
215 232 255
215 232 255
215 232 255
215 232 255
215 232 255
215 232 255
215 232 255
215 232 255
215 232 255
216 232 255
216 232 255
216 232 255
216 232 255
216 232 255
216 232 255
216 232 255
216 232 255
216 232 255
216 233 255
216 233 255
216 233 255
216 233 255
216 233 255
216 233 255
216 233 255
216 233 255
216 233 255
216 233 255
216 233 255
216 233 255
216 233 255
216 233 255
216 233 255
216 233 255
216 233 255
216 233 255
216 233 255
216 233 255
216 233 255
216 233 255
216 233 255
216 233 255
217 233 255
217 233 255
217 233 255
217 233 255
217 233 255
217 233 255
217 233 255
217 233 255
217 233 255
217 233 255
217 233 255
217 233 255
217 233 255
217 233 255
217 233 255
217 233 255
217 233 255
217 233 255
217 233 255
217 233 255
217 233 255
217 233 255
217 233 255
217 233 255
217 233 255
217 233 255
217 233 255
217 233 255
217 233 255
217 233 255
217 233 255
217 233 255
217 233 255
217 233 255
217 233 255
217 233 255
217 233 255
217 233 255
217 233 255
217 233 255
217 233 255
217 233 255
217 233 255
217 233 255
217 233 255
217 233 255
217 233 255
217 233 255
217 233 255
217 233 255
216 233 255
216 233 255
216 233 255
216 233 255
216 233 255
216 233 255
216 233 255
216 233 255
216 233 255
216 233 255
216 233 255
216 233 255
216 233 255
216 233 255
216 233 255
216 233 255
216 233 255
216 233 255
216 233 255
216 233 255
216 233 255
216 233 255
216 233 255
216 232 255
216 232 255
216 232 255
216 232 255
216 232 255
216 232 255
216 232 255
216 232 255
215 232 255
215 232 255
215 232 255
215 232 255
215 232 255
215 232 255
215 232 255
215 232 255
215 232 255
215 232 255
215 232 255
215 232 255
215 232 255
215 232 255
215 232 255
215 232 255
215 232 255
215 232 255
215 232 255
215 232 255
215 232 255
215 232 255
214 232 255
214 232 255
214 232 255
214 232 255
214 232 255
214 232 255
214 232 255
214 232 255
214 232 255
214 231 255
214 231 255
214 231 255
214 231 255
214 231 255
214 231 255
214 231 255
214 231 255
214 231 255
213 231 255
213 231 255
213 231 255
213 231 255
213 231 255
213 231 255
213 231 255
213 231 255
213 231 255
213 231 255
213 231 255
213 231 255
212 231 255
212 231 255
212 231 255
212 231 255
212 230 255
212 230 255
212 230 255
212 230 255
212 230 255
212 230 255
212 230 255
211 230 255
211 230 255
211 230 255
211 230 255
211 230 255
211 230 255
211 230 255
211 230 255
211 230 255
210 230 255
210 229 255
210 229 255
210 229 255
210 229 255
210 229 255
210 229 255
209 229 255
209 229 255
209 229 255
209 229 255
209 229 255
209 229 255
209 228 255
208 228 255
208 228 255
208 228 255
208 228 255
208 228 255
207 228 255
207 228 255
207 228 255
207 228 255
207 227 255
207 227 255
206 227 255
206 227 255
206 227 255
206 227 255
205 227 255
205 227 255
205 227 255
205 226 255
205 226 255
204 226 255
204 226 255
204 226 255
204 226 255
203 226 255
203 226 255
203 225 255
203 225 255
202 225 255
202 225 255
202 225 255
202 225 255
201 225 255
201 224 255
201 224 255
201 224 255
201 224 255
200 224 255
200 224 255
200 224 255
200 224 255
199 224 255
199 223 255
199 223 255
199 223 255
199 223 255
199 223 255
199 223 255
199 223 255
198 223 255
198 223 255
198 223 255
198 223 255
198 223 255
198 223 255
198 223 255
198 223 255
198 223 255
198 223 255
198 223 255
199 223 255
199 223 255
199 223 255
199 223 255
199 223 255
199 223 255
200 224 255
200 224 255
200 224 255
200 224 255
200 224 255
200 224 255
201 224 255
201 224 255
201 225 255
201 225 255
202 225 255
202 225 255
202 225 255
202 225 255
203 225 255
203 225 255
203 226 255
203 226 255
204 226 255
204 226 255
204 226 255
204 226 255
205 226 255
205 226 255
205 227 255
205 227 255
205 227 255
206 227 255
206 227 255
206 227 255
206 227 255
207 227 255
207 227 255
207 228 255
207 228 255
207 228 255
208 228 255
208 228 255
208 228 255
208 228 255
208 228 255
208 228 255
209 228 255
209 229 255
209 229 255
209 229 255
209 229 255
209 229 255
209 229 255
210 229 255
210 229 255
210 229 255
210 229 255
210 229 255
210 229 255
210 230 255
211 230 255
211 230 255
211 230 255
211 230 255
211 230 255
211 230 255
211 230 255
211 230 255
211 230 255
212 230 255
212 230 255
212 230 255
212 230 255
212 230 255
212 230 255
212 230 255
212 231 255
212 231 255
212 231 255
212 231 255
213 231 255
213 231 255
213 231 255
213 231 255
213 231 255
213 231 255
213 231 255
213 231 255
213 231 255
213 231 255
213 231 255
213 231 255
213 231 255
214 231 255
214 231 255
214 231 255
214 231 255
214 231 255
214 231 255
214 231 255
214 231 255
214 232 255
214 232 255
214 232 255
214 232 255
214 232 255
214 232 255
214 232 255
214 232 255
215 232 255
215 232 255
215 232 255
215 232 255
215 232 255
215 232 255
215 232 255
215 232 255
215 232 255
215 232 255
215 232 255
215 232 255
215 232 255
215 232 255
215 232 255
215 232 255
215 232 255
215 232 255
215 232 255
215 232 255
215 232 255
215 232 255
216 232 255
216 232 255
216 232 255
216 232 255
216 232 255
216 232 255
216 232 255
216 232 255
216 232 255
216 233 255
216 233 255
216 233 255
216 233 255
216 233 255
216 233 255
216 233 255
216 233 255
216 233 255
216 233 255
216 233 255
216 233 255
216 233 255
216 233 255
216 233 255
216 233 255
216 233 255
216 233 255
216 233 255
216 233 255
216 233 255
216 233 255
217 233 255
217 233 255
217 233 255
217 233 255
217 233 255
217 233 255
217 233 255
217 233 255
217 233 255
217 233 255
217 233 255
217 233 255
217 233 255
217 233 255
217 233 255
217 233 255
217 233 255
217 233 255
217 233 255
217 233 255
217 233 255
217 233 255
217 233 255
217 233 255
217 233 255
217 233 255
217 233 255
217 233 255
217 233 255
217 233 255
217 233 255
217 233 255
217 233 255
217 233 255
217 233 255
217 233 255
217 233 255
217 233 255
217 233 255
217 233 255
217 233 255
217 233 255
217 233 255
217 233 255
217 233 255
217 233 255
217 233 255
217 233 255
217 233 255
217 233 255
217 233 255
217 233 255
217 233 255
217 233 255
217 233 255
217 233 255
217 233 255
217 233 255
217 233 255
217 233 255
217 233 255
217 233 255
217 233 255
217 233 255
217 233 255
217 233 255
217 233 255
217 233 255
216 233 255
216 233 255
216 233 255
216 233 255
216 233 255
216 233 255
216 233 255
216 233 255
216 233 255
216 233 255
216 233 255
216 233 255
216 233 255
216 233 255
216 233 255
216 233 255
216 233 255
216 233 255
216 233 255
216 233 255
216 233 255
216 232 255
216 232 255
216 232 255
216 232 255
216 232 255
216 232 255
216 232 255
216 232 255
215 232 255
215 232 255
215 232 255
215 232 255
215 232 255
215 232 255
215 232 255
215 232 255
215 232 255
215 232 255
215 232 255
215 232 255
215 232 255
215 232 255
215 232 255
215 232 255
215 232 255
215 232 255
215 232 255
215 232 255
215 232 255
215 232 255
214 232 255
214 232 255
214 232 255
214 232 255
214 232 255
214 232 255
214 232 255
214 232 255
214 231 255
214 231 255
214 231 255
214 231 255
214 231 255
214 231 255
214 231 255
213 231 255
213 231 255
213 231 255
213 231 255
213 231 255
213 231 255
213 231 255
213 231 255
213 231 255
213 231 255
213 231 255
213 231 255
213 231 255
212 231 255
212 231 255
212 231 255
212 230 255
212 230 255
212 230 255
212 230 255
212 230 255
212 230 255
212 230 255
211 230 255
211 230 255
211 230 255
211 230 255
211 230 255
211 230 255
211 230 255
211 230 255
210 230 255
210 229 255
210 229 255
210 229 255
210 229 255
210 229 255
210 229 255
210 229 255
209 229 255
209 229 255
209 229 255
209 229 255
209 229 255
209 229 255
208 228 255
208 228 255
208 228 255
208 228 255
208 228 255
208 228 255
207 228 255
207 228 255
207 228 255
207 227 255
207 227 255
206 227 255
206 227 255
206 227 255
206 227 255
205 227 255
205 227 255
205 227 255
205 226 255
205 226 255
204 226 255
204 226 255
204 226 255
204 226 255
203 226 255
203 226 255
203 225 255
203 225 255
202 225 255
202 225 255
202 225 255
202 225 255
201 225 255
201 225 255
201 224 255
201 224 255
201 224 255
200 224 255
200 224 255
200 224 255
200 224 255
200 224 255
200 224 255
199 224 255
199 223 255
199 223 255
199 223 255
199 223 255
199 223 255
199 223 255
199 223 255
199 223 255
199 223 255
199 223 255
199 223 255
199 223 255
199 223 255
199 224 255
199 224 255
200 224 255
200 224 255
200 224 255
200 224 255
200 224 255
200 224 255
201 224 255
201 224 255
201 224 255
201 225 255
201 225 255
202 225 255
202 225 255
202 225 255
202 225 255
203 225 255
203 225 255
203 226 255
203 226 255
204 226 255
204 226 255
204 226 255
204 226 255
205 226 255
205 226 255
205 227 255
205 227 255
205 227 255
206 227 255
206 227 255
206 227 255
206 227 255
207 227 255
207 227 255
207 228 255
207 228 255
207 228 255
208 228 255
208 228 255
208 228 255
208 228 255
208 228 255
208 228 255
209 228 255
209 229 255
209 229 255
209 229 255
209 229 255
209 229 255
210 229 255
210 229 255
210 229 255
210 229 255
210 229 255
210 229 255
210 229 255
210 230 255
211 230 255
211 230 255
211 230 255
211 230 255
211 230 255
211 230 255
211 230 255
211 230 255
212 230 255
212 230 255
212 230 255
212 230 255
212 230 255
212 230 255
212 230 255
212 231 255
212 231 255
212 231 255
213 231 255
213 231 255
213 231 255
213 231 255
213 231 255
213 231 255
213 231 255
213 231 255
213 231 255
213 231 255
213 231 255
213 231 255
213 231 255
214 231 255
214 231 255
214 231 255
214 231 255
214 231 255
214 231 255
214 231 255
214 231 255
214 232 255
214 232 255
214 232 255
214 232 255
214 232 255
214 232 255
214 232 255
215 232 255
215 232 255
215 232 255
215 232 255
215 232 255
215 232 255
215 232 255
215 232 255
215 232 255
215 232 255
215 232 255
215 232 255
215 232 255
215 232 255
215 232 255
215 232 255
215 232 255
215 232 255
215 232 255
215 232 255
215 232 255
215 232 255
216 232 255
216 232 255
216 232 255
216 232 255
216 232 255
216 232 255
216 232 255
216 232 255
216 233 255
216 233 255
216 233 255
216 233 255
216 233 255
216 233 255
216 233 255
216 233 255
216 233 255
216 233 255
216 233 255
216 233 255
216 233 255
216 233 255
216 233 255
216 233 255
216 233 255
216 233 255
216 233 255
216 233 255
216 233 255
216 233 255
217 233 255
217 233 255
217 233 255
217 233 255
217 233 255
217 233 255
217 233 255
217 233 255
217 233 255
217 233 255
217 233 255
217 233 255
217 233 255
217 233 255
217 233 255
217 233 255
217 233 255
217 233 255
217 233 255
217 233 255
217 233 255
217 233 255
217 233 255
217 233 255
217 233 255
217 233 255
217 233 255
217 233 255
217 233 255
217 233 255
217 233 255
217 233 255
217 233 255
217 233 255
217 233 255
217 233 255
217 233 255
218 233 255
218 233 255
217 233 255
217 233 255
217 233 255
217 233 255
217 233 255
217 233 255
217 233 255
217 233 255
217 233 255
217 233 255
217 233 255
217 233 255
217 233 255
217 233 255
217 233 255
217 233 255
217 233 255
217 233 255
217 233 255
217 233 255
217 233 255
217 233 255
217 233 255
217 233 255
217 233 255
217 233 255
217 233 255
217 233 255
217 233 255
217 233 255
217 233 255
217 233 255
217 233 255
217 233 255
217 233 255
217 233 255
217 233 255
217 233 255
217 233 255
217 233 255
217 233 255
217 233 255
217 233 255
216 233 255
216 233 255
216 233 255
216 233 255
216 233 255
216 233 255
216 233 255
216 233 255
216 233 255
216 233 255
216 233 255
216 233 255
216 233 255
216 233 255
216 233 255
216 233 255
216 233 255
216 233 255
216 233 255
216 233 255
216 233 255
216 232 255
216 232 255
216 232 255
216 232 255
216 232 255
216 232 255
216 232 255
216 232 255
215 232 255
215 232 255
215 232 255
215 232 255
215 232 255
215 232 255
215 232 255
215 232 255
215 232 255
215 232 255
215 232 255
215 232 255
215 232 255
215 232 255
215 232 255
215 232 255
215 232 255
215 232 255
215 232 255
215 232 255
214 232 255
214 232 255
214 232 255
214 232 255
214 232 255
214 232 255
214 232 255
214 232 255
214 231 255
214 231 255
214 231 255
214 231 255
214 231 255
214 231 255
214 231 255
214 231 255
213 231 255
213 231 255
213 231 255
213 231 255
213 231 255
213 231 255
213 231 255
213 231 255
213 231 255
213 231 255
213 231 255
212 231 255
212 231 255
212 231 255
212 230 255
212 230 255
212 230 255
212 230 255
212 230 255
212 230 255
212 230 255
211 230 255
211 230 255
211 230 255
211 230 255
211 230 255
211 230 255
211 230 255
211 230 255
210 230 255
210 229 255
210 229 255
210 229 255
210 229 255
210 229 255
210 229 255
209 229 255
209 229 255
209 229 255
209 229 255
209 229 255
209 229 255
208 228 255
208 228 255
208 228 255
208 228 255
208 228 255
208 228 255
207 228 255
207 228 255
207 228 255
207 227 255
207 227 255
206 227 255
206 227 255
206 227 255
206 227 255
205 227 255
205 227 255
205 227 255
205 226 255
205 226 255
204 226 255
204 226 255
204 226 255
204 226 255
203 226 255
203 226 255
203 225 255
203 225 255
202 225 255
202 225 255
202 225 255
202 225 255
202 225 255
201 225 255
201 224 255
201 224 255
201 224 255
201 224 255
201 224 255
200 224 255
200 224 255
200 224 255
200 224 255
200 224 255
200 224 255
200 224 255
200 224 255
200 224 255
200 224 255
200 224 255
200 224 255
200 224 255
200 224 255
200 224 255
200 224 255
200 224 255
200 224 255
201 224 255
201 224 255
201 224 255
201 224 255
201 224 255
201 225 255
202 225 255
202 225 255
202 225 255
202 225 255
202 225 255
203 225 255
203 225 255
203 226 255
203 226 255
204 226 255
204 226 255
204 226 255
204 226 255
205 226 255
205 226 255
205 227 255
205 227 255
205 227 255
206 227 255
206 227 255
206 227 255
206 227 255
207 227 255
207 228 255
207 228 255
207 228 255
207 228 255
208 228 255
208 228 255
208 228 255
208 228 255
208 228 255
208 228 255
209 229 255
209 229 255
209 229 255
209 229 255
209 229 255
209 229 255
210 229 255
210 229 255
210 229 255
210 229 255
210 229 255
210 229 255
210 230 255
211 230 255
211 230 255
211 230 255
211 230 255
211 230 255
211 230 255
211 230 255
211 230 255
212 230 255
212 230 255
212 230 255
212 230 255
212 230 255
212 230 255
212 230 255
212 231 255
212 231 255
212 231 255
213 231 255
213 231 255
213 231 255
213 231 255
213 231 255
213 231 255
213 231 255
213 231 255
213 231 255
213 231 255
213 231 255
213 231 255
214 231 255
214 231 255
214 231 255
214 231 255
214 231 255
214 231 255
214 231 255
214 232 255
214 232 255
214 232 255
214 232 255
214 232 255
214 232 255
214 232 255
214 232 255
215 232 255
215 232 255
215 232 255
215 232 255
215 232 255
215 232 255
215 232 255
215 232 255
215 232 255
215 232 255
215 232 255
215 232 255
215 232 255
215 232 255
215 232 255
215 232 255
215 232 255
215 232 255
215 232 255
215 232 255
216 232 255
216 232 255
216 232 255
216 232 255
216 232 255
216 232 255
216 232 255
216 232 255
216 233 255
216 233 255
216 233 255
216 233 255
216 233 255
216 233 255
216 233 255
216 233 255
216 233 255
216 233 255
216 233 255
216 233 255
216 233 255
216 233 255
216 233 255
216 233 255
216 233 255
216 233 255
216 233 255
216 233 255
216 233 255
217 233 255
217 233 255
217 233 255
217 233 255
217 233 255
217 233 255
217 233 255
217 233 255
217 233 255
217 233 255
217 233 255
217 233 255
217 233 255
217 233 255
217 233 255
217 233 255
217 233 255
217 233 255
217 233 255
217 233 255
217 233 255
217 233 255
217 233 255
217 233 255
217 233 255
217 233 255
217 233 255
217 233 255
217 233 255
217 233 255
217 233 255
217 233 255
217 233 255
217 233 255
217 233 255
217 233 255
217 233 255
217 233 255
217 233 255
217 233 255
217 233 255
217 233 255
217 233 255
218 233 255
218 233 255
218 234 255
218 234 255
218 234 255
218 234 255
218 234 255
218 234 255
218 234 255
218 233 255
218 233 255
218 233 255
218 233 255
218 233 255
217 233 255
217 233 255
217 233 255
217 233 255
217 233 255
217 233 255
217 233 255
217 233 255
217 233 255
217 233 255
217 233 255
217 233 255
217 233 255
217 233 255
217 233 255
217 233 255
217 233 255
217 233 255
217 233 255
217 233 255
217 233 255
217 233 255
217 233 255
217 233 255
217 233 255
217 233 255
217 233 255
217 233 255
217 233 255
217 233 255
217 233 255
217 233 255
217 233 255
217 233 255
217 233 255
217 233 255
217 233 255
217 233 255
217 233 255
217 233 255
217 233 255
216 233 255
216 233 255
216 233 255
216 233 255
216 233 255
216 233 255
216 233 255
216 233 255
216 233 255
216 233 255
216 233 255
216 233 255
216 233 255
216 233 255
216 233 255
216 233 255
216 233 255
216 233 255
216 233 255
216 233 255
216 232 255
216 232 255
216 232 255
216 232 255
216 232 255
216 232 255
216 232 255
215 232 255
215 232 255
215 232 255
215 232 255
215 232 255
215 232 255
215 232 255
215 232 255
215 232 255
215 232 255
215 232 255
215 232 255
215 232 255
215 232 255
215 232 255
215 232 255
215 232 255
215 232 255
215 232 255
215 232 255
214 232 255
214 232 255
214 232 255
214 232 255
214 232 255
214 232 255
214 232 255
214 231 255
214 231 255
214 231 255
214 231 255
214 231 255
214 231 255
214 231 255
213 231 255
213 231 255
213 231 255
213 231 255
213 231 255
213 231 255
213 231 255
213 231 255
213 231 255
213 231 255
213 231 255
213 231 255
212 231 255
212 231 255
212 230 255
212 230 255
212 230 255
212 230 255
212 230 255
212 230 255
212 230 255
211 230 255
211 230 255
211 230 255
211 230 255
211 230 255
211 230 255
211 230 255
211 230 255
210 230 255
210 229 255
210 229 255
210 229 255
210 229 255
210 229 255
210 229 255
209 229 255
209 229 255
209 229 255
209 229 255
209 229 255
208 228 255
208 228 255
208 228 255
208 228 255
208 228 255
208 228 255
207 228 255
207 228 255
207 228 255
207 228 255
207 227 255
206 227 255
206 227 255
206 227 255
206 227 255
205 227 255
205 227 255
205 227 255
205 226 255
205 226 255
204 226 255
204 226 255
204 226 255
204 226 255
203 226 255
203 226 255
203 225 255
203 225 255
203 225 255
202 225 255
202 225 255
202 225 255
202 225 255
202 225 255
201 225 255
201 225 255
201 224 255
201 224 255
201 224 255
201 224 255
201 224 255
201 224 255
201 224 255
201 224 255
201 224 255
201 224 255
201 224 255
201 224 255
201 224 255
201 224 255
201 224 255
201 224 255
201 224 255
201 225 255
201 225 255
201 225 255
202 225 255
202 225 255
202 225 255
202 225 255
202 225 255
203 225 255
203 225 255
203 225 255
203 226 255
203 226 255
204 226 255
204 226 255
204 226 255
204 226 255
205 226 255
205 226 255
205 227 255
205 227 255
205 227 255
206 227 255
206 227 255
206 227 255
206 227 255
207 227 255
207 228 255
207 228 255
207 228 255
207 228 255
208 228 255
208 228 255
208 228 255
208 228 255
208 228 255
209 228 255
209 229 255
209 229 255
209 229 255
209 229 255
209 229 255
210 229 255
210 229 255
210 229 255
210 229 255
210 229 255
210 229 255
210 230 255
211 230 255
211 230 255
211 230 255
211 230 255
211 230 255
211 230 255
211 230 255
211 230 255
212 230 255
212 230 255
212 230 255
212 230 255
212 230 255
212 230 255
212 231 255
212 231 255
212 231 255
213 231 255
213 231 255
213 231 255
213 231 255
213 231 255
213 231 255
213 231 255
213 231 255
213 231 255
213 231 255
213 231 255
213 231 255
214 231 255
214 231 255
214 231 255
214 231 255
214 231 255
214 231 255
214 231 255
214 232 255
214 232 255
214 232 255
214 232 255
214 232 255
214 232 255
214 232 255
215 232 255
215 232 255
215 232 255
215 232 255
215 232 255
215 232 255
215 232 255
215 232 255
215 232 255
215 232 255
215 232 255
215 232 255
215 232 255
215 232 255
215 232 255
215 232 255
215 232 255
215 232 255
215 232 255
215 232 255
216 232 255
216 232 255
216 232 255
216 232 255
216 232 255
216 232 255
216 232 255
216 233 255
216 233 255
216 233 255
216 233 255
216 233 255
216 233 255
216 233 255
216 233 255
216 233 255
216 233 255
216 233 255
216 233 255
216 233 255
216 233 255
216 233 255
216 233 255
216 233 255
216 233 255
216 233 255
216 233 255
217 233 255
217 233 255
217 233 255
217 233 255
217 233 255
217 233 255
217 233 255
217 233 255
217 233 255
217 233 255
217 233 255
217 233 255
217 233 255
217 233 255
217 233 255
217 233 255
217 233 255
217 233 255
217 233 255
217 233 255
217 233 255
217 233 255
217 233 255
217 233 255
217 233 255
217 233 255
217 233 255
217 233 255
217 233 255
217 233 255
217 233 255
217 233 255
217 233 255
217 233 255
217 233 255
217 233 255
217 233 255
217 233 255
217 233 255
217 233 255
217 233 255
218 233 255
218 233 255
218 233 255
218 233 255
218 233 255
218 233 255
218 234 255
218 234 255
218 234 255
218 234 255
218 234 255
218 234 255
218 234 255
218 234 255
218 234 255
218 234 255
218 234 255
218 234 255
218 234 255
218 234 255
218 234 255
218 234 255
218 234 255
218 234 255
218 234 255
218 234 255
218 234 255
218 234 255
218 234 255
218 233 255
218 233 255
218 233 255
218 233 255
218 233 255
217 233 255
217 233 255
217 233 255
217 233 255
217 233 255
217 233 255
217 233 255
217 233 255
217 233 255
217 233 255
217 233 255
217 233 255
217 233 255
217 233 255
217 233 255
217 233 255
217 233 255
217 233 255
217 233 255
217 233 255
217 233 255
217 233 255
217 233 255
217 233 255
217 233 255
217 233 255
217 233 255
217 233 255
217 233 255
217 233 255
217 233 255
217 233 255
217 233 255
217 233 255
217 233 255
217 233 255
217 233 255
217 233 255
217 233 255
217 233 255
216 233 255
216 233 255
216 233 255
216 233 255
216 233 255
216 233 255
216 233 255
216 233 255
216 233 255
216 233 255
216 233 255
216 233 255
216 233 255
216 233 255
216 233 255
216 233 255
216 233 255
216 233 255
216 232 255
216 232 255
216 232 255
216 232 255
216 232 255
216 232 255
216 232 255
215 232 255
215 232 255
215 232 255
215 232 255
215 232 255
215 232 255
215 232 255
215 232 255
215 232 255
215 232 255
215 232 255
215 232 255
215 232 255
215 232 255
215 232 255
215 232 255
215 232 255
215 232 255
215 232 255
214 232 255
214 232 255
214 232 255
214 232 255
214 232 255
214 232 255
214 232 255
214 231 255
214 231 255
214 231 255
214 231 255
214 231 255
214 231 255
214 231 255
213 231 255
213 231 255
213 231 255
213 231 255
213 231 255
213 231 255
213 231 255
213 231 255
213 231 255
213 231 255
213 231 255
212 231 255
212 231 255
212 230 255
212 230 255
212 230 255
212 230 255
212 230 255
212 230 255
211 230 255
211 230 255
211 230 255
211 230 255
211 230 255
211 230 255
211 230 255
211 230 255
210 229 255
210 229 255
210 229 255
210 229 255
210 229 255
210 229 255
209 229 255
209 229 255
209 229 255
209 229 255
209 229 255
209 229 255
208 228 255
208 228 255
208 228 255
208 228 255
208 228 255
207 228 255
207 228 255
207 228 255
207 228 255
207 227 255
206 227 255
206 227 255
206 227 255
206 227 255
206 227 255
205 227 255
205 227 255
205 226 255
205 226 255
204 226 255
204 226 255
204 226 255
204 226 255
204 226 255
203 226 255
203 226 255
203 225 255
203 225 255
203 225 255
202 225 255
202 225 255
202 225 255
202 225 255
202 225 255
202 225 255
202 225 255
202 225 255
201 225 255
201 225 255
201 225 255
201 225 255
201 225 255
201 225 255
201 225 255
201 225 255
202 225 255
202 225 255
202 225 255
202 225 255
202 225 255
202 225 255
202 225 255
202 225 255
203 225 255
203 225 255
203 225 255
203 226 255
203 226 255
204 226 255
204 226 255
204 226 255
204 226 255
204 226 255
205 226 255
205 226 255
205 227 255
205 227 255
206 227 255
206 227 255
206 227 255
206 227 255
206 227 255
207 227 255
207 228 255
207 228 255
207 228 255
207 228 255
208 228 255
208 228 255
208 228 255
208 228 255
208 228 255
209 229 255
209 229 255
209 229 255
209 229 255
209 229 255
209 229 255
210 229 255
210 229 255
210 229 255
210 229 255
210 229 255
210 230 255
211 230 255
211 230 255
211 230 255
211 230 255
211 230 255
211 230 255
211 230 255
211 230 255
212 230 255
212 230 255
212 230 255
212 230 255
212 230 255
212 230 255
212 231 255
212 231 255
212 231 255
213 231 255
213 231 255
213 231 255
213 231 255
213 231 255
213 231 255
213 231 255
213 231 255
213 231 255
213 231 255
214 231 255
214 231 255
214 231 255
214 231 255
214 231 255
214 231 255
214 231 255
214 232 255
214 232 255
214 232 255
214 232 255
214 232 255
214 232 255
214 232 255
215 232 255
215 232 255
215 232 255
215 232 255
215 232 255
215 232 255
215 232 255
215 232 255
215 232 255
215 232 255
215 232 255
215 232 255
215 232 255
215 232 255
215 232 255
215 232 255
215 232 255
215 232 255
215 232 255
216 232 255
216 232 255
216 232 255
216 232 255
216 232 255
216 232 255
216 232 255
216 233 255
216 233 255
216 233 255
216 233 255
216 233 255
216 233 255
216 233 255
216 233 255
216 233 255
216 233 255
216 233 255
216 233 255
216 233 255
216 233 255
216 233 255
216 233 255
216 233 255
216 233 255
217 233 255
217 233 255
217 233 255
217 233 255
217 233 255
217 233 255
217 233 255
217 233 255
217 233 255
217 233 255
217 233 255
217 233 255
217 233 255
217 233 255
217 233 255
217 233 255
217 233 255
217 233 255
217 233 255
217 233 255
217 233 255
217 233 255
217 233 255
217 233 255
217 233 255
217 233 255
217 233 255
217 233 255
217 233 255
217 233 255
217 233 255
217 233 255
217 233 255
217 233 255
217 233 255
217 233 255
217 233 255
217 233 255
217 233 255
217 233 255
218 233 255
218 233 255
218 233 255
218 233 255
218 233 255
218 234 255
218 234 255
218 234 255
218 234 255
218 234 255
218 234 255
218 234 255
218 234 255
218 234 255
218 234 255
218 234 255
218 234 255
218 234 255
218 234 255
218 234 255
218 234 255
218 234 255
218 234 255
218 234 255
218 234 255
218 234 255
218 234 255
218 234 255
218 234 255
218 234 255
218 234 255
218 234 255
218 234 255
218 234 255
218 234 255
218 234 255
218 234 255
218 234 255
218 234 255
218 234 255
218 234 255
218 234 255
218 234 255
218 234 255
218 234 255
218 234 255
218 234 255
218 234 255
218 234 255
218 233 255
218 233 255
218 233 255
218 233 255
218 233 255
218 233 255
217 233 255
217 233 255
217 233 255
217 233 255
217 233 255
217 233 255
217 233 255
217 233 255
217 233 255
217 233 255
217 233 255
217 233 255
217 233 255
217 233 255
217 233 255
217 233 255
217 233 255
217 233 255
217 233 255
217 233 255
217 233 255
217 233 255
217 233 255
217 233 255
217 233 255
217 233 255
217 233 255
217 233 255
217 233 255
217 233 255
217 233 255
217 233 255
217 233 255
217 233 255
217 233 255
217 233 255
217 233 255
216 233 255
216 233 255
216 233 255
216 233 255
216 233 255
216 233 255
216 233 255
216 233 255
216 233 255
216 233 255
216 233 255
216 233 255
216 233 255
216 233 255
216 233 255
216 233 255
216 233 255
216 232 255
216 232 255
216 232 255
216 232 255
216 232 255
216 232 255
216 232 255
215 232 255
215 232 255
215 232 255
215 232 255
215 232 255
215 232 255
215 232 255
215 232 255
215 232 255
215 232 255
215 232 255
215 232 255
215 232 255
215 232 255
215 232 255
215 232 255
215 232 255
214 232 255
214 232 255
214 232 255
214 232 255
214 232 255
214 232 255
214 232 255
214 231 255
214 231 255
214 231 255
214 231 255
214 231 255
214 231 255
214 231 255
213 231 255
213 231 255
213 231 255
213 231 255
213 231 255
213 231 255
213 231 255
213 231 255
213 231 255
213 231 255
212 231 255
212 231 255
212 231 255
212 230 255
212 230 255
212 230 255
212 230 255
212 230 255
211 230 255
211 230 255
211 230 255
211 230 255
211 230 255
211 230 255
211 230 255
211 230 255
210 230 255
210 229 255
210 229 254
209 229 254
210 229 254
207 228 253
206 227 250
206 227 253
206 227 253
207 227 254
207 228 254
205 226 252
208 228 254
205 227 254
207 227 255
208 228 255
208 228 255
207 228 255
207 228 255
207 228 255
207 227 255
207 227 255
206 227 255
206 227 255
206 227 255
206 227 255
205 227 255
205 227 255
205 227 255
205 226 255
205 226 255
204 226 255
204 226 255
204 226 255
204 226 255
204 226 255
203 226 255
203 226 255
203 226 255
203 225 255
203 225 255
203 225 255
203 225 255
202 225 255
202 225 255
202 225 255
202 225 255
202 225 255
202 225 255
202 225 255
202 225 255
202 225 255
202 225 255
202 225 255
203 225 255
203 225 255
203 225 255
203 225 255
203 225 255
203 226 255
203 226 255
203 226 255
204 226 255
204 226 255
204 226 255
204 226 255
204 226 255
205 226 255
205 226 255
205 227 255
205 227 255
205 227 255
206 227 255
206 227 255
206 227 255
206 227 255
207 227 255
207 227 255
207 228 255
207 228 255
207 228 255
204 221 241
199 212 220
191 199 190
189 195 180
184 187 158
181 182 146
181 181 142
181 180 141
181 181 141
181 178 131
184 185 151
186 187 156
189 193 171
196 204 199
200 211 214
204 218 231
210 229 253
211 230 255
211 230 255
211 230 255
211 230 255
211 230 255
211 230 255
211 230 255
211 230 255
212 230 255
212 230 255
212 230 255
212 230 255
212 230 255
212 231 255
212 231 255
212 231 255
213 231 255
213 231 255
213 231 255
213 231 255
213 231 255
213 231 255
213 231 255
213 231 255
213 231 255
213 231 255
213 231 255
214 231 255
214 231 255
214 231 255
214 231 255
214 231 255
214 231 255
214 232 255
214 232 255
214 232 255
214 232 255
214 232 255
214 232 255
214 232 255
215 232 255
215 232 255
215 232 255
215 232 255
215 232 255
215 232 255
215 232 255
215 232 255
215 232 255
215 232 255
215 232 255
215 232 255
215 232 255
215 232 255
215 232 255
215 232 255
215 232 255
216 232 255
216 232 255
216 232 255
216 232 255
216 232 255
216 232 255
216 232 255
216 233 255
216 233 255
216 233 255
216 233 255
216 233 255
216 233 255
216 233 255
216 233 255
216 233 255
216 233 255
216 233 255
216 233 255
216 233 255
216 233 255
216 233 255
216 233 255
216 233 255
216 233 255
217 233 255
217 233 255
217 233 255
217 233 255
217 233 255
217 233 255
217 233 255
217 233 255
217 233 255
217 233 255
217 233 255
217 233 255
217 233 255
217 233 255
217 233 255
217 233 255
217 233 255
217 233 255
217 233 255
217 233 255
217 233 255
217 233 255
217 233 255
217 233 255
217 233 255
217 233 255
217 233 255
217 233 255
217 233 255
217 233 255
217 233 255
217 233 255
217 233 255
217 233 255
217 233 255
217 233 255
218 233 255
218 233 255
218 233 255
218 233 255
218 233 255
218 234 255
218 234 255
218 234 255
218 234 255
218 234 255
218 234 255
218 234 255
218 234 255
218 234 255
218 234 255
218 234 255
218 234 255
218 234 255
218 234 255
218 234 255
218 234 255
218 234 255
218 234 255
218 234 255
218 234 255
218 234 255
218 234 255
218 234 255
218 234 255
218 234 255
218 234 255
218 234 255
218 234 255
218 234 255
218 234 255
218 234 255
218 234 255
218 234 255
218 234 255
218 234 255
218 234 255
218 234 255
218 234 255
218 234 255
218 234 255
218 234 255
218 234 255
218 234 255
218 234 255
218 234 255
218 234 255
218 234 255
218 234 255
218 234 255
218 234 255
218 234 255
218 234 255
218 234 255
218 234 255
218 234 255
218 234 255
218 234 255
218 234 255
218 234 255
218 234 255
218 234 255
218 234 255
218 234 255
218 234 255
218 234 255
218 234 255
218 233 255
218 233 255
218 233 255
218 233 255
217 233 255
217 233 255
217 233 255
217 233 255
217 233 255
217 233 255
217 233 255
217 233 255
217 233 255
217 233 255
217 233 255
217 233 255
217 233 255
217 233 255
217 233 255
217 233 255
217 233 255
217 233 255
217 233 255
217 233 255
217 233 255
217 233 255
217 233 255
217 233 255
217 233 255
217 233 255
217 233 255
217 233 255
217 233 255
217 233 255
217 233 255
217 233 255
217 233 255
217 233 255
217 233 255
216 233 255
216 233 255
216 233 255
216 233 255
216 233 255
216 233 255
216 233 255
216 233 255
216 233 255
216 233 255
216 233 255
216 233 255
216 233 255
216 233 255
216 233 255
216 233 255
216 233 255
216 232 255
216 232 255
216 232 255
216 232 255
216 232 255
216 232 255
216 232 255
215 232 255
215 232 255
215 232 255
215 232 255
215 232 255
215 232 255
215 232 255
215 232 255
215 232 255
215 232 255
215 232 255
215 232 255
215 232 255
215 232 255
215 232 255
215 232 255
214 232 255
214 232 255
214 232 255
214 232 255
214 232 255
214 232 255
214 232 255
214 231 255
214 231 255
214 231 255
214 231 255
214 231 255
213 231 255
213 231 255
213 231 255
213 231 255
213 231 255
213 231 255
213 231 255
213 231 255
213 231 255
213 231 255
213 231 255
212 231 255
212 231 255
212 230 255
212 230 255
212 230 255
212 230 255
212 230 255
211 230 255
212 230 255
210 230 255
209 229 253
209 228 252
207 228 254
206 227 254
206 227 253
204 226 254
204 226 255
203 226 255
201 224 255
201 224 255
199 223 255
199 223 255
199 223 255
200 224 255
200 224 255
201 224 255
202 225 255
203 226 254
204 226 253
207 227 254
208 228 255
207 228 255
207 228 255
207 228 255
207 228 255
207 227 255
206 227 255
206 227 255
206 227 255
206 227 255
206 227 255
205 227 255
205 227 255
205 227 255
205 226 255
205 226 255
204 226 255
204 226 255
204 226 255
204 226 255
204 226 255
204 226 255
204 226 255
203 226 255
203 226 255
203 226 255
203 226 255
203 226 255
203 226 255
203 226 255
203 226 255
203 226 255
203 226 255
203 226 255
203 226 255
203 226 255
204 226 255
204 226 255
204 226 255
204 226 255
204 226 255
204 226 255
204 226 255
204 226 255
205 226 255
205 226 255
205 227 255
205 227 255
205 227 255
206 227 255
206 227 255
206 227 255
206 227 255
206 227 255
207 227 255
207 228 255
207 228 255
207 228 255
204 222 242
192 201 195
184 188 163
175 174 125
171 170 114
170 169 114
169 169 114
169 169 114
168 168 114
169 169 114
169 169 114
170 169 114
170 169 114
171 170 114
172 170 114
173 171 114
174 171 114
175 172 114
176 172 114
178 173 114
181 176 123
189 189 158
193 196 177
203 214 220
211 229 253
212 230 255
212 230 255
212 230 255
212 230 255
212 230 255
212 231 255
212 231 255
213 231 255
213 231 255
213 231 255
213 231 255
213 231 255
213 231 255
213 231 255
213 231 255
213 231 255
213 231 255
214 231 255
214 231 255
214 231 255
214 231 255
214 231 255
214 231 255
214 232 255
214 232 255
214 232 255
214 232 255
214 232 255
214 232 255
214 232 255
215 232 255
215 232 255
215 232 255
215 232 255
215 232 255
215 232 255
215 232 255
215 232 255
215 232 255
215 232 255
215 232 255
215 232 255
215 232 255
215 232 255
215 232 255
215 232 255
216 232 255
216 232 255
216 232 255
216 232 255
216 232 255
216 232 255
216 233 255
216 233 255
216 233 255
216 233 255
216 233 255
216 233 255
216 233 255
216 233 255
216 233 255
216 233 255
216 233 255
216 233 255
216 233 255
216 233 255
216 233 255
216 233 255
216 233 255
217 233 255
217 233 255
217 233 255
217 233 255
217 233 255
217 233 255
217 233 255
217 233 255
217 233 255
217 233 255
217 233 255
217 233 255
217 233 255
217 233 255
217 233 255
217 233 255
217 233 255
217 233 255
217 233 255
217 233 255
217 233 255
217 233 255
217 233 255
217 233 255
217 233 255
217 233 255
217 233 255
217 233 255
217 233 255
217 233 255
217 233 255
217 233 255
217 233 255
217 233 255
217 233 255
217 233 255
218 233 255
218 233 255
218 233 255
218 233 255
218 234 255
218 234 255
218 234 255
218 234 255
218 234 255
218 234 255
218 234 255
218 234 255
218 234 255
218 234 255
218 234 255
218 234 255
218 234 255
218 234 255
218 234 255
218 234 255
218 234 255
218 234 255
218 234 255
218 234 255
218 234 255
218 234 255
218 234 255
218 234 255
218 234 255
218 234 255
218 234 255
218 234 255
218 234 255
218 234 255
218 234 255
218 234 255
218 234 255
218 234 255
218 234 255
218 234 255
218 234 255
218 234 255
218 234 255
218 234 255
218 234 255
218 234 255
218 234 255
218 234 255
218 234 255
218 234 255
218 234 255
218 234 255
218 234 255
218 234 255
218 234 255
218 234 255
218 234 255
218 234 255
218 234 255
218 234 255
218 234 255
218 234 255
218 234 255
218 234 255
218 234 255
218 234 255
218 234 255
218 234 255
218 234 255
218 234 255
218 234 255
218 234 255
218 234 255
218 234 255
218 234 255
218 234 255
218 234 255
218 234 255
218 234 255
218 234 255
218 234 255
218 234 255
218 234 255
218 234 255
218 234 255
218 234 255
218 234 255
218 234 255
218 234 255
218 234 255
218 234 255
218 233 255
218 233 255
218 233 255
218 233 255
217 233 255
217 233 255
217 233 255
217 233 255
217 233 255
217 233 255
217 233 255
217 233 255
217 233 255
217 233 255
217 233 255
217 233 255
217 233 255
217 233 255
217 233 255
217 233 255
217 233 255
217 233 255
217 233 255
217 233 255
217 233 255
217 233 255
217 233 255
217 233 255
217 233 255
217 233 255
217 233 255
217 233 255
217 233 255
217 233 255
217 233 255
217 233 255
216 233 255
216 233 255
216 233 255
216 233 255
216 233 255
216 233 255
216 233 255
216 233 255
216 233 255
216 233 255
216 233 255
216 233 255
216 233 255
216 233 255
216 233 255
216 233 255
216 233 255
216 232 255
216 232 255
216 232 255
216 232 255
216 232 255
215 232 255
215 232 255
215 232 255
215 232 255
215 232 255
215 232 255
215 232 255
215 232 255
215 232 255
215 232 255
215 232 255
215 232 255
215 232 255
215 232 255
215 232 255
215 232 255
214 232 255
214 232 255
214 232 255
214 232 255
214 232 255
214 232 255
214 231 255
214 231 255
214 231 255
214 231 255
214 231 255
214 231 255
213 231 255
213 231 255
213 231 255
213 231 255
213 231 255
213 231 255
213 231 255
213 231 255
213 231 255
213 231 255
212 230 254
212 230 255
208 228 249
210 229 254
208 228 255
207 228 255
205 227 254
204 226 255
202 225 255
201 224 255
200 224 255
198 223 255
197 222 255
196 222 255
195 221 255
194 221 255
194 221 255
194 221 255
192 219 255
193 220 255
193 220 255
194 221 255
195 221 255
196 222 255
196 222 255
201 225 255
203 226 255
206 227 255
207 227 254
208 228 255
207 228 255
207 228 255
207 228 255
207 228 255
207 227 255
206 227 255
206 227 255
206 227 255
206 227 255
206 227 255
206 227 255
205 227 255
205 227 255
205 227 255
205 226 255
205 226 255
205 226 255
204 226 255
204 226 255
204 226 255
204 226 255
204 226 255
204 226 255
204 226 255
204 226 255
204 226 255
204 226 255
204 226 255
204 226 255
204 226 255
204 226 255
204 226 255
205 226 255
205 226 255
205 226 255
205 227 255
205 227 255
205 227 255
205 227 255
205 227 255
206 227 255
206 227 255
206 227 255
206 227 255
206 227 255
207 227 255
207 228 255
207 228 255
207 228 255
207 228 255
206 225 249
195 205 206
180 181 142
171 170 114
168 169 114
166 168 114
166 167 114
165 167 114
165 167 114
164 167 114
165 167 114
165 167 114
165 167 114
166 167 114
167 168 114
167 168 114
168 168 114
169 169 114
170 169 114
171 170 114
172 170 114
173 171 114
175 171 114
176 172 114
177 173 114
179 174 114
181 174 114
186 181 133
199 204 195
209 223 240
212 231 255
213 231 255
213 231 255
213 231 255
213 231 255
213 231 255
213 231 255
213 231 255
213 231 255
213 231 255
214 231 255
214 231 255
214 231 255
214 231 255
214 231 255
214 231 255
214 232 255
214 232 255
214 232 255
214 232 255
214 232 255
214 232 255
215 232 255
215 232 255
215 232 255
215 232 255
215 232 255
215 232 255
215 232 255
215 232 255
215 232 255
215 232 255
215 232 255
215 232 255
215 232 255
215 232 255
215 232 255
216 232 255
216 232 255
216 232 255
216 232 255
216 232 255
216 232 255
216 233 255
216 233 255
216 233 255
216 233 255
216 233 255
216 233 255
216 233 255
216 233 255
216 233 255
216 233 255
216 233 255
216 233 255
216 233 255
216 233 255
216 233 255
216 233 255
217 233 255
217 233 255
217 233 255
217 233 255
217 233 255
217 233 255
217 233 255
217 233 255
217 233 255
217 233 255
217 233 255
217 233 255
217 233 255
217 233 255
217 233 255
217 233 255
217 233 255
217 233 255
217 233 255
217 233 255
217 233 255
217 233 255
217 233 255
217 233 255
217 233 255
217 233 255
217 233 255
217 233 255
217 233 255
217 233 255
217 233 255
217 233 255
217 233 255
218 233 255
218 233 255
218 233 255
218 233 255
218 233 255
218 234 255
218 234 255
218 234 255
218 234 255
218 234 255
218 234 255
218 234 255
218 234 255
218 234 255
218 234 255
218 234 255
218 234 255
218 234 255
218 234 255
218 234 255
218 234 255
218 234 255
218 234 255
218 234 255
218 234 255
218 234 255
218 234 255
218 234 255
218 234 255
218 234 255
218 234 255
218 234 255
218 234 255
218 234 255
218 234 255
218 234 255
218 234 255
218 234 255
218 234 255
218 234 255
218 234 255
218 234 255
218 234 255
218 234 255
218 234 255
218 234 255
218 234 255
218 234 255
218 234 255
218 234 255
218 234 255
218 234 255
218 234 255
219 234 255
219 234 255
219 234 255
219 234 255
219 234 255
219 234 255
219 234 255
219 234 255
219 234 255
219 234 255
219 234 255
218 234 255
218 234 255
218 234 255
218 234 255
218 234 255
218 234 255
218 234 255
218 234 255
218 234 255
218 234 255
218 234 255
218 234 255
218 234 255
218 234 255
218 234 255
218 234 255
218 234 255
218 234 255
218 234 255
218 234 255
218 234 255
218 234 255
218 234 255
218 234 255
218 234 255
218 234 255
218 234 255
218 234 255
218 234 255
218 234 255
218 234 255
218 234 255
218 234 255
218 234 255
218 234 255
218 234 255
218 234 255
218 234 255
218 234 255
218 234 255
218 234 255
218 234 255
218 234 255
218 234 255
218 234 255
218 234 255
218 234 255
218 234 255
218 233 255
218 233 255
218 233 255
218 233 255
217 233 255
217 233 255
217 233 255
217 233 255
217 233 255
217 233 255
217 233 255
217 233 255
217 233 255
217 233 255
217 233 255
217 233 255
217 233 255
217 233 255
217 233 255
217 233 255
217 233 255
217 233 255
217 233 255
217 233 255
217 233 255
217 233 255
217 233 255
217 233 255
217 233 255
217 233 255
217 233 255
217 233 255
217 233 255
217 233 255
217 233 255
216 233 255
216 233 255
216 233 255
216 233 255
216 233 255
216 233 255
216 233 255
216 233 255
216 233 255
216 233 255
216 233 255
216 233 255
216 233 255
216 233 255
216 232 255
216 232 255
216 232 255
216 232 255
216 232 255
216 232 255
215 232 255
215 232 255
215 232 255
215 232 255
215 232 255
215 232 255
215 232 255
215 232 255
215 232 255
215 232 255
215 232 255
215 232 255
215 232 255
215 232 255
215 232 255
214 232 255
214 232 255
214 232 255
214 232 255
214 232 255
214 232 255
214 231 255
214 231 255
214 231 255
214 231 255
214 231 255
213 231 255
213 231 255
213 231 255
213 231 255
211 230 253
211 230 253
211 230 255
209 229 255
207 228 254
205 227 255
204 226 255
202 225 255
201 224 255
199 224 255
197 222 255
196 222 255
195 221 255
193 220 255
192 220 255
191 219 255
190 219 255
189 218 255
188 218 255
188 218 255
187 217 255
187 217 255
187 217 255
188 217 255
188 218 255
189 218 255
191 219 255
193 220 255
197 222 255
201 224 255
204 226 255
207 228 255
208 228 255
208 228 255
208 228 255
208 228 255
207 228 255
207 228 255
207 228 255
207 228 255
207 227 255
206 227 255
206 227 255
206 227 255
206 227 255
206 227 255
206 227 255
206 227 255
205 227 255
205 227 255
205 227 255
205 227 255
205 227 255
198 220 251
180 202 239
164 187 227
174 196 233
189 211 244
196 218 249
205 227 255
205 227 255
205 227 255
205 227 255
205 227 255
206 227 255
206 227 255
206 227 255
206 227 255
206 227 255
206 227 255
207 227 255
207 227 255
207 228 255
207 228 255
207 228 255
207 228 255
208 228 255
208 228 255
208 228 255
206 223 245
192 200 192
174 173 123
169 169 114
166 167 114
165 167 114
163 166 114
163 166 114
163 166 114
162 166 114
163 166 114
163 166 114
163 166 114
164 166 114
164 167 114
165 167 114
166 167 114
166 168 114
167 168 114
168 168 114
169 169 114
170 169 114
171 170 114
172 170 114
173 171 114
174 171 114
176 172 114
177 172 114
178 173 114
180 174 114
182 175 114
185 177 118
193 191 160
207 218 226
213 231 255
213 231 255
213 231 255
214 231 255
214 231 255
214 231 255
214 231 255
214 231 255
214 232 255
214 232 255
214 232 255
214 232 255
214 232 255
214 232 255
215 232 255
215 232 255
215 232 255
215 232 255
215 232 255
215 232 255
215 232 255
215 232 255
215 232 255
215 232 255
215 232 255
215 232 255
215 232 255
215 232 255
216 232 255
216 232 255
216 232 255
216 232 255
216 232 255
216 232 255
216 232 255
216 233 255
216 233 255
216 233 255
216 233 255
216 233 255
216 233 255
216 233 255
216 233 255
216 233 255
216 233 255
216 233 255
216 233 255
216 233 255
216 233 255
217 233 255
217 233 255
217 233 255
217 233 255
217 233 255
217 233 255
217 233 255
217 233 255
217 233 255
217 233 255
217 233 255
217 233 255
217 233 255
217 233 255
217 233 255
217 233 255
217 233 255
217 233 255
217 233 255
217 233 255
217 233 255
217 233 255
217 233 255
217 233 255
217 233 255
217 233 255
217 233 255
217 233 255
217 233 255
217 233 255
217 233 255
218 233 255
218 233 255
218 233 255
218 233 255
218 234 255
218 234 255
218 234 255
218 234 255
218 234 255
218 234 255
218 234 255
218 234 255
218 234 255
218 234 255
218 234 255
218 234 255
218 234 255
218 234 255
218 234 255
218 234 255
218 234 255
218 234 255
218 234 255
218 234 255
218 234 255
218 234 255
218 234 255
218 234 255
218 234 255
218 234 255
218 234 255
218 234 255
218 234 255
218 234 255
218 234 255
218 234 255
218 234 255
218 234 255
218 234 255
218 234 255
218 234 255
218 234 255
218 234 255
218 234 255
218 234 255
218 234 255
218 234 255
218 234 255
218 234 255
218 234 255
218 234 255
218 234 255
218 234 255
219 234 255
219 234 255
219 234 255
219 234 255
219 234 255
219 234 255
219 234 255
219 234 255
219 234 255
219 234 255
219 234 255
219 234 255
219 234 255
219 234 255
219 234 255
219 234 255
219 234 255
219 234 255
219 234 255
219 234 255
219 234 255
219 234 255
219 234 255
219 234 255
219 234 255
219 234 255
219 234 255
219 234 255
219 234 255
219 234 255
219 234 255
219 234 255
219 234 255
219 234 255
219 234 255
218 234 255
218 234 255
218 234 255
218 234 255
218 234 255
218 234 255
218 234 255
218 234 255
218 234 255
218 234 255
218 234 255
218 234 255
218 234 255
218 234 255
218 234 255
218 234 255
218 234 255
218 234 255
218 234 255
218 234 255
218 234 255
218 234 255
218 234 255
218 234 255
218 234 255
218 234 255
218 234 255
218 234 255
218 234 255
218 234 255
218 234 255
218 234 255
218 234 255
218 234 255
218 234 255
218 234 255
218 234 255
218 234 255
218 234 255
218 234 255
218 234 255
218 234 255
218 234 255
218 234 255
218 233 255
218 233 255
218 233 255
218 233 255
218 233 255
217 233 255
217 233 255
217 233 255
217 233 255
217 233 255
217 233 255
217 233 255
217 233 255
217 233 255
217 233 255
217 233 255
217 233 255
217 233 255
217 233 255
217 233 255
217 233 255
217 233 255
217 233 255
217 233 255
217 233 255
217 233 255
217 233 255
217 233 255
217 233 255
217 233 255
217 233 255
217 233 255
217 233 255
216 233 255
216 233 255
216 233 255
216 233 255
216 233 255
216 233 255
216 233 255
216 233 255
216 233 255
216 233 255
216 233 255
216 233 255
216 233 255
216 233 255
216 232 255
216 232 255
216 232 255
216 232 255
216 232 255
215 232 255
215 232 255
215 232 255
215 232 255
215 232 255
215 232 255
215 232 255
215 232 255
215 232 255
215 232 255
215 232 255
215 232 255
215 232 255
215 232 255
214 232 255
214 232 255
214 232 255
214 232 255
214 232 255
214 231 255
214 231 255
213 231 254
213 231 254
211 230 255
209 229 255
208 228 254
207 228 255
205 227 255
203 226 255
201 225 255
200 224 255
198 223 255
197 222 255
195 221 255
194 221 255
193 220 255
191 219 255
191 219 254
191 219 254
192 219 253
191 219 255
192 219 246
193 220 252
193 220 253
191 219 249
191 219 254
189 218 254
187 217 253
186 216 254
185 216 255
187 217 255
188 218 255
192 219 255
196 222 255
200 224 254
204 226 254
207 228 255
208 228 255
208 228 255
208 228 255
208 228 255
208 228 255
208 228 255
208 228 255
207 228 255
207 228 255
207 228 255
207 228 255
207 228 255
207 227 255
207 227 255
206 227 255
206 227 255
194 215 247
144 168 215
90 120 186
62 98 173
62 98 170
61 98 173
62 99 177
63 99 170
62 98 171
81 112 178
139 163 210
195 216 248
206 227 255
206 227 255
207 227 255
207 227 255
207 228 255
207 228 255
207 228 255
207 228 255
207 228 255
208 228 255
208 228 255
208 228 255
208 228 255
208 228 255
208 228 255
208 228 253
194 203 199
175 174 123
169 169 114
166 167 114
164 167 114
163 166 114
162 166 114
162 166 114
162 165 114
162 165 114
162 166 114
162 166 114
163 166 114
163 166 114
164 166 114
164 167 114
165 167 114
166 167 114
167 168 114
167 168 114
168 168 114
169 169 114
170 169 114
171 170 114
172 170 114
173 171 114
174 171 114
175 172 114
176 172 114
177 173 114
179 173 114
180 174 114
181 174 114
183 175 114
185 176 114
195 193 165
209 222 235
214 232 255
214 232 255
214 232 255
214 232 255
214 232 255
214 232 255
215 232 255
215 232 255
215 232 255
215 232 255
215 232 255
215 232 255
215 232 255
215 232 255
215 232 255
215 232 255
215 232 255
215 232 255
215 232 255
215 232 255
216 232 255
216 232 255
216 232 255
216 232 255
216 232 255
216 233 255
216 233 255
216 233 255
216 233 255
216 233 255
216 233 255
216 233 255
216 233 255
216 233 255
216 233 255
216 233 255
216 233 255
216 233 255
216 233 255
217 233 255
217 233 255
217 233 255
217 233 255
217 233 255
217 233 255
217 233 255
217 233 255
217 233 255
217 233 255
217 233 255
217 233 255
217 233 255
217 233 255
217 233 255
217 233 255
217 233 255
217 233 255
217 233 255
217 233 255
217 233 255
217 233 255
217 233 255
217 233 255
217 233 255
217 233 255
217 233 255
217 233 255
218 233 255
218 233 255
218 233 255
218 233 255
218 233 255
218 234 255
218 234 255
218 234 255
218 234 255
218 234 255
218 234 255
218 234 255
218 234 255
218 234 255
218 234 255
218 234 255
218 234 255
218 234 255
218 234 255
218 234 255
218 234 255
218 234 255
218 234 255
218 234 255
218 234 255
218 234 255
218 234 255
218 234 255
218 234 255
218 234 255
218 234 255
218 234 255
218 234 255
218 234 255
218 234 255
218 234 255
218 234 255
218 234 255
218 234 255
218 234 255
218 234 255
218 234 255
218 234 255
218 234 255
218 234 255
218 234 255
218 234 255
218 234 255
218 234 255
218 234 255
219 234 255
219 234 255
219 234 255
219 234 255
219 234 255
219 234 255
219 234 255
219 234 255
219 234 255
219 234 255
219 234 255
219 234 255
219 234 255
219 234 255
219 234 255
219 234 255
219 234 255
219 234 255
219 234 255
219 234 255
219 234 255
219 234 255
219 234 255
219 234 255
219 234 255
219 234 255
219 234 255
219 234 255
219 234 255
219 234 255
219 234 255
219 234 255
219 234 255
219 234 255
219 234 255
219 234 255
219 234 255
219 234 255
219 234 255
219 234 255
219 234 255
219 234 255
219 234 255
219 234 255
219 234 255
219 234 255
219 234 255
219 234 255
219 234 255
219 234 255
219 234 255
219 234 255
219 234 255
219 234 255
219 234 255
219 234 255
219 234 255
219 234 255
219 234 255
219 234 255
219 234 255
219 234 255
219 234 255
218 234 255
218 234 255
218 234 255
218 234 255
218 234 255
218 234 255
218 234 255
218 234 255
218 234 255
218 234 255
218 234 255
218 234 255
218 234 255
218 234 255
218 234 255
218 234 255
218 234 255
218 234 255
218 234 255
218 234 255
218 234 255
218 234 255
218 234 255
218 234 255
218 234 255
218 234 255
218 234 255
218 234 255
218 234 255
218 234 255
218 234 255
218 234 255
218 234 255
218 234 255
218 234 255
218 234 255
218 234 255
218 234 255
218 234 255
218 234 255
218 234 255
218 233 255
218 233 255
218 233 255
218 233 255
217 233 255
217 233 255
217 233 255
217 233 255
217 233 255
217 233 255
217 233 255
217 233 255
217 233 255
217 233 255
217 233 255
217 233 255
217 233 255
217 233 255
217 233 255
217 233 255
217 233 255
217 233 255
217 233 255
217 233 255
217 233 255
217 233 255
217 233 255
217 233 255
217 233 255
217 233 255
216 233 255
216 233 255
216 233 255
216 233 255
216 233 255
216 233 255
216 233 255
216 233 255
216 233 255
216 233 255
216 233 255
216 233 255
216 233 255
216 232 255
216 232 255
216 232 255
216 232 255
216 232 255
215 232 255
215 232 255
215 232 255
215 232 255
215 232 255
215 232 255
215 232 255
215 232 255
215 232 255
215 232 255
215 232 255
215 232 255
214 232 255
214 231 255
212 231 255
211 230 255
210 229 255
208 228 255
207 227 255
205 226 255
203 225 255
202 225 255
200 224 255
199 223 255
197 222 255
196 222 255
195 221 255
195 221 253
195 220 250
199 222 248
199 223 250
197 221 244
199 223 249
197 221 240
197 221 242
196 221 246
197 221 241
195 220 242
198 222 245
196 221 245
197 221 249
195 221 252
194 220 249
191 218 245
188 217 253
186 216 254
189 218 255
192 220 255
196 221 255
201 224 255
205 226 254
208 228 253
209 229 255
209 229 255
209 229 255
209 229 255
209 228 255
208 228 255
208 228 255
208 228 255
208 228 255
208 228 255
208 228 255
208 228 255
201 221 251
132 156 203
62 98 169
63 99 175
63 99 174
63 100 175
62 98 168
62 99 169
62 98 168
62 99 174
62 98 165
63 99 173
62 98 168
62 98 170
124 149 201
192 213 244
208 228 255
208 228 255
208 228 255
208 228 255
208 228 255
208 228 255
208 228 255
208 228 255
209 229 255
209 229 255
209 229 255
209 229 255
204 219 233
182 184 153
171 170 114
167 168 114
165 167 114
163 166 114
163 166 114
162 166 114
162 166 114
162 165 114
162 166 114
162 166 114
162 166 114
163 166 114
163 166 114
164 166 114
164 167 114
165 167 114
166 167 114
167 168 114
167 168 114
168 168 114
169 169 114
170 169 114
171 170 114
172 170 114
173 170 114
173 171 114
174 171 114
175 172 114
176 172 114
177 173 114
178 173 114
179 174 114
181 174 114
182 175 114
183 175 114
185 176 114
189 180 125
204 209 204
214 231 254
215 232 255
215 232 255
215 232 255
215 232 255
215 232 255
215 232 255
215 232 255
215 232 255
215 232 255
215 232 255
215 232 255
216 232 255
216 232 255
216 232 255
216 232 255
216 233 255
216 233 255
216 233 255
216 233 255
216 233 255
216 233 255
216 233 255
216 233 255
216 233 255
216 233 255
216 233 255
216 233 255
216 233 255
217 233 255
217 233 255
217 233 255
217 233 255
217 233 255
217 233 255
217 233 255
217 233 255
217 233 255
217 233 255
217 233 255
217 233 255
217 233 255
217 233 255
217 233 255
217 233 255
217 233 255
217 233 255
217 233 255
217 233 255
217 233 255
217 233 255
217 233 255
217 233 255
217 233 255
217 233 255
217 233 255
218 233 255
218 233 255
218 233 255
218 233 255
218 234 255
218 234 255
218 234 255
218 234 255
218 234 255
218 234 255
218 234 255
218 234 255
218 234 255
218 234 255
218 234 255
218 234 255
218 234 255
218 234 255
218 234 255
218 234 255
218 234 255
218 234 255
218 234 255
218 234 255
218 234 255
218 234 255
218 234 255
218 234 255
218 234 255
218 234 255
218 234 255
218 234 255
218 234 255
218 234 255
218 234 255
218 234 255
218 234 255
218 234 255
218 234 255
218 234 255
218 234 255
218 234 255
218 234 255
218 234 255
218 234 255
219 234 255
219 234 255
219 234 255
219 234 255
219 234 255
219 234 255
219 234 255
219 234 255
219 234 255
219 234 255
219 234 255
219 234 255
219 234 255
219 234 255
219 234 255
219 234 255
219 234 255
219 234 255
219 234 255
219 234 255
219 234 255
219 234 255
219 234 255
219 234 255
219 234 255
219 234 255
219 234 255
219 234 255
219 234 255
219 234 255
219 234 255
219 234 255
219 234 255
219 234 255
219 234 255
219 234 255
219 234 255
219 234 255
219 234 255
219 234 255
219 234 255
219 234 255
219 234 255
219 234 255
219 234 255
219 234 255
219 234 255
219 234 255
219 234 255
219 234 255
219 234 255
219 234 255
219 234 255
219 234 255
219 234 255
219 234 255
219 234 255
219 234 255
219 234 255
219 234 255
219 234 255
219 234 255
219 234 255
219 234 255
219 234 255
219 234 255
219 234 255
219 234 255
219 234 255
219 234 255
219 234 255
219 234 255
219 234 255
219 234 255
219 234 255
219 234 255
219 234 255
219 234 255
219 234 255
219 234 255
219 234 255
219 234 255
219 234 255
219 234 255
219 234 255
219 234 255
219 234 255
219 234 255
219 234 255
219 234 255
219 234 255
219 234 255
218 234 255
218 234 255
218 234 255
218 234 255
218 234 255
218 234 255
218 234 255
218 234 255
218 234 255
218 234 255
218 234 255
218 234 255
218 234 255
218 234 255
218 234 255
218 234 255
218 234 255
218 234 255
218 234 255
218 234 255
218 234 255
218 234 255
218 234 255
218 234 255
218 234 255
218 234 255
218 234 255
218 234 255
218 234 255
218 234 255
218 234 255
218 234 255
218 234 255
218 234 255
218 234 255
218 234 255
218 234 255
218 233 255
218 233 255
218 233 255
218 233 255
217 233 255
217 233 255
217 233 255
217 233 255
217 233 255
217 233 255
217 233 255
217 233 255
217 233 255
217 233 255
217 233 255
217 233 255
217 233 255
217 233 255
217 233 255
217 233 255
217 233 255
217 233 255
217 233 255
217 233 255
217 233 255
217 233 255
217 233 255
217 233 255
217 233 255
216 233 255
216 233 255
216 233 255
216 233 255
216 233 255
216 233 255
216 233 255
216 233 255
216 233 255
216 233 255
216 233 255
216 233 255
216 232 255
216 232 255
216 232 255
216 232 255
215 232 255
215 232 255
215 232 255
215 232 255
215 232 254
214 231 254
213 231 255
211 230 254
210 229 255
209 229 255
207 228 255
206 227 255
204 226 255
203 225 255
201 225 255
200 224 255
198 223 255
198 223 255
197 222 246
201 224 252
204 225 252
202 224 246
201 223 241
199 222 242
198 221 234
199 222 242
199 222 246
198 221 244
200 223 244
199 222 245
199 222 244
199 222 241
197 221 240
198 222 248
195 220 242
195 219 240
196 221 244
196 221 249
193 219 244
192 219 249
188 218 255
190 218 255
194 220 255
198 223 255
205 227 255
210 229 255
210 229 255
210 229 255
210 229 255
209 229 255
209 229 255
209 229 255
209 229 255
209 229 255
209 229 255
209 229 255
168 190 227
81 112 176
62 98 165
62 98 167
63 99 175
62 98 167
61 98 160
62 98 167
63 99 170
63 99 170
61 97 158
62 98 166
63 98 165
62 98 170
63 99 170
62 97 169
70 103 170
161 183 221
209 229 255
209 229 255
209 229 255
209 229 255
209 229 255
209 229 255
210 229 255
210 229 255
210 229 255
210 229 255
200 211 216
176 174 121
170 169 114
167 168 114
165 167 114
164 167 114
163 166 114
163 166 114
162 166 114
162 166 114
163 166 114
163 166 114
163 166 114
164 166 114
164 167 114
165 167 114
165 167 114
166 167 114
167 168 114
167 168 114
168 168 114
169 169 114
170 169 114
170 169 114
171 170 114
172 170 114
173 170 114
174 171 114
174 171 114
175 172 114
176 172 114
177 172 114
178 173 114
179 173 114
180 174 114
181 174 114
182 175 114
183 175 114
184 176 114
186 176 114
187 177 114
197 194 165
214 229 249
215 232 255
215 232 255
215 232 255
216 232 255
216 232 255
216 232 255
216 232 255
216 233 255
216 233 255
216 233 255
216 233 255
216 233 255
216 233 255
216 233 255
216 233 255
216 233 255
216 233 255
216 233 255
216 233 255
216 233 255
217 233 255
217 233 255
217 233 255
217 233 255
217 233 255
217 233 255
217 233 255
217 233 255
217 233 255
217 233 255
217 233 255
217 233 255
217 233 255
217 233 255
217 233 255
217 233 255
217 233 255
217 233 255
217 233 255
217 233 255
217 233 255
217 233 255
217 233 255
218 233 255
218 233 255
218 233 255
218 233 255
218 234 255
218 234 255
218 234 255
218 234 255
218 234 255
218 234 255
218 234 255
218 234 255
218 234 255
218 234 255
218 234 255
218 234 255
218 234 255
218 234 255
218 234 255
218 234 255
218 234 255
218 234 255
218 234 255
218 234 255
218 234 255
218 234 255
218 234 255
218 234 255
218 234 255
218 234 255
218 234 255
218 234 255
218 234 255
218 234 255
218 234 255
218 234 255
218 234 255
218 234 255
218 234 255
218 234 255
218 234 255
218 234 255
218 234 255
219 234 255
219 234 255
219 234 255
219 234 255
219 234 255
219 234 255
219 234 255
219 234 255
219 234 255
219 234 255
219 234 255
219 234 255
219 234 255
219 234 255
219 234 255
219 234 255
219 234 255
219 234 255
219 234 255
219 234 255
219 234 255
219 234 255
219 234 255
219 234 255
219 234 255
219 234 255
219 234 255
219 234 255
219 234 255
219 234 255
219 234 255
219 234 255
219 234 255
219 234 255
219 234 255
219 234 255
219 234 255
219 234 255
219 234 255
219 234 255
219 234 255
219 234 255
219 234 255
219 234 255
219 234 255
219 234 255
219 234 255
219 234 255
219 234 255
219 234 255
219 234 255
219 234 255
219 234 255
219 234 255
219 234 255
219 234 255
219 234 255
219 234 255
219 234 255
219 234 255
219 234 255
219 234 255
219 234 255
219 234 255
219 234 255
219 234 255
219 234 255
219 234 255
219 234 255
219 234 255
219 234 255
219 234 255
219 234 255
219 234 255
219 234 255
219 234 255
219 234 255
219 234 255
219 234 255
219 234 255
219 234 255
219 234 255
219 234 255
219 234 255
219 234 255
219 234 255
219 234 255
219 234 255
219 234 255
219 234 255
219 234 255
219 234 255
219 234 255
219 234 255
219 234 255
219 234 255
219 234 255
219 234 255
219 234 255
219 234 255
219 234 255
219 234 255
219 234 255
219 234 255
219 234 255
219 234 255
219 234 255
219 234 255
219 234 255
219 234 255
219 234 255
219 234 255
219 234 255
219 234 255
219 234 255
219 234 255
219 234 255
219 234 255
218 234 255
218 234 255
218 234 255
218 234 255
218 234 255
218 234 255
218 234 255
218 234 255
218 234 255
218 234 255
218 234 255
218 234 255
218 234 255
218 234 255
218 234 255
218 234 255
218 234 255
218 234 255
218 234 255
218 234 255
218 234 255
218 234 255
218 234 255
218 234 255
218 234 255
218 234 255
218 234 255
218 234 255
218 234 255
218 234 255
218 234 255
218 234 255
218 234 255
218 234 255
218 234 255
218 234 255
218 233 255
218 233 255
217 233 255
217 233 255
217 233 255
217 233 255
217 233 255
217 233 255
217 233 255
217 233 255
217 233 255
217 233 255
217 233 255
217 233 255
217 233 255
217 233 255
217 233 255
217 233 255
217 233 255
217 233 255
217 233 255
217 233 255
217 233 255
217 233 255
217 233 255
217 233 255
216 233 255
216 233 255
216 233 255
216 233 255
216 233 255
216 233 255
216 233 255
216 233 255
216 233 255
215 232 253
216 232 255
214 232 255
214 231 255
212 231 255
211 230 255
209 229 255
208 228 255
207 228 255
205 227 255
204 226 255
203 225 255
201 225 255
200 224 255
201 224 249
205 226 252
203 225 248
204 226 250
201 223 244
203 225 248
201 223 242
201 223 238
202 224 245
202 224 246
200 223 240
202 224 245
201 222 241
203 224 250
202 225 249
202 225 249
203 225 250
201 224 249
201 223 245
198 222 244
198 221 237
199 222 246
196 221 240
196 220 237
195 220 241
195 221 252
191 219 254
193 220 255
198 223 255
206 227 255
209 229 252
211 230 255
211 230 255
210 230 255
210 230 255
210 229 255
210 229 255
210 229 255
210 229 255
149 171 214
62 98 169
63 99 170
62 99 166
61 98 163
62 98 160
62 98 160
62 98 159
61 97 162
62 98 164
61 97 164
62 98 166
62 98 160
62 97 159
62 98 163
62 97 159
62 97 165
62 98 166
61 95 159
158 179 215
210 229 255
210 229 255
210 229 255
210 229 255
210 229 255
210 230 255
211 230 255
211 230 255
194 200 190
175 172 114
171 169 114
168 168 114
166 168 114
165 167 114
165 167 114
164 167 114
164 167 114
164 167 114
164 167 114
164 167 114
165 167 114
165 167 114
166 167 114
166 168 114
167 168 114
167 168 114
168 168 114
169 169 114
169 169 114
170 169 114
171 169 114
171 170 114
172 170 114
173 170 114
174 171 114
174 171 114
175 172 114
176 172 114
176 172 114
177 173 114
178 173 114
179 173 114
180 174 114
180 174 114
181 174 114
182 175 114
183 175 114
184 176 114
185 176 114
187 177 114
188 178 114
196 191 155
212 225 240
216 233 255
216 233 255
216 233 255
216 233 255
216 233 255
216 233 255
216 233 255
216 233 255
216 233 255
216 233 255
217 233 255
217 233 255
217 233 255
217 233 255
217 233 255
217 233 255
217 233 255
217 233 255
217 233 255
217 233 255
217 233 255
217 233 255
217 233 255
217 233 255
217 233 255
217 233 255
217 233 255
217 233 255
217 233 255
217 233 255
217 233 255
217 233 255
218 233 255
218 233 255
218 233 255
218 234 255
218 234 255
218 234 255
218 234 255
218 234 255
218 234 255
218 234 255
218 234 255
218 234 255
218 234 255
218 234 255
218 234 255
218 234 255
218 234 255
218 234 255
218 234 255
218 234 255
218 234 255
218 234 255
218 234 255
218 234 255
218 234 255
218 234 255
218 234 255
218 234 255
218 234 255
218 234 255
218 234 255
218 234 255
218 234 255
218 234 255
218 234 255
218 234 255
218 234 255
218 234 255
218 234 255
219 234 255
219 234 255
219 234 255
219 234 255
219 234 255
219 234 255
219 234 255
219 234 255
219 234 255
219 234 255
219 234 255
219 234 255
219 234 255
219 234 255
219 234 255
219 234 255
219 234 255
219 234 255
219 234 255
219 234 255
219 234 255
219 234 255
219 234 255
219 234 255
219 234 255
219 234 255
219 234 255
219 234 255
219 234 255
219 234 255
219 234 255
219 234 255
219 234 255
219 234 255
219 234 255
219 234 255
219 234 255
219 234 255
219 234 255
219 234 255
219 234 255
219 234 255
219 234 255
219 234 255
219 234 255
219 234 255
219 234 255
219 234 255
219 234 255
219 234 255
219 234 255
219 234 255
219 234 255
219 234 255
219 234 255
219 234 255
219 234 255
219 234 255
219 234 255
219 234 255
219 234 255
219 234 255
219 234 255
219 234 255
219 234 255
219 234 255
220 235 255
220 235 255
220 235 255
220 235 255
220 235 255
220 235 255
219 235 255
219 235 255
219 235 255
219 235 255
219 235 255
219 235 255
219 235 255
219 235 255
219 235 255
219 235 255
219 235 255
219 235 255
219 235 255
219 234 255
219 234 255
219 234 255
219 234 255
219 234 255
219 234 255
219 234 255
219 234 255
219 234 255
219 234 255
219 234 255
219 234 255
219 234 255
219 234 255
219 234 255
219 234 255
219 234 255
219 234 255
219 234 255
219 234 255
219 234 255
219 234 255
219 234 255
219 234 255
219 234 255
219 234 255
219 234 255
219 234 255
219 234 255
219 234 255
219 234 255
219 234 255
219 234 255
219 234 255
219 234 255
219 234 255
219 234 255
219 234 255
219 234 255
219 234 255
219 234 255
219 234 255
219 234 255
219 234 255
219 234 255
219 234 255
219 234 255
219 234 255
219 234 255
219 234 255
219 234 255
219 234 255
219 234 255
219 234 255
219 234 255
219 234 255
219 234 255
219 234 255
219 234 255
219 234 255
219 234 255
218 234 255
218 234 255
218 234 255
218 234 255
218 234 255
218 234 255
218 234 255
218 234 255
218 234 255
218 234 255
218 234 255
218 234 255
218 234 255
218 234 255
218 234 255
218 234 255
218 234 255
218 234 255
218 234 255
218 234 255
218 234 255
218 234 255
218 234 255
218 234 255
218 234 255
218 234 255
218 234 255
218 234 255
218 234 255
218 234 255
218 234 255
218 234 255
218 233 255
218 233 255
218 233 255
218 233 255
217 233 255
217 233 255
217 233 255
217 233 255
217 233 255
217 233 255
217 233 255
217 233 255
217 233 255
217 233 255
217 233 255
217 233 255
217 233 255
217 233 255
217 233 255
217 233 255
217 233 255
217 233 255
217 233 255
217 233 255
216 233 255
216 232 255
215 232 255
214 232 255
213 231 255
212 230 255
211 230 255
210 229 255
208 228 255
207 228 255
206 227 255
204 226 255
203 226 255
203 225 255
204 225 246
206 226 246
206 226 249
204 225 245
204 225 244
203 225 244
203 224 238
204 225 242
206 227 252
204 225 244
203 224 244
204 225 245
203 224 242
204 225 244
205 225 245
205 226 250
205 226 250
203 224 245
202 223 241
204 225 246
201 223 241
202 224 246
201 223 241
204 226 254
198 221 242
197 220 237
200 223 248
198 223 250
194 220 253
194 221 255
200 224 255
206 227 255
211 230 255
212 230 255
211 230 255
211 230 255
211 230 255
211 230 255
211 230 255
168 188 226
63 99 166
61 97 158
63 99 167
62 97 155
62 99 165
61 97 159
62 98 162
62 98 161
61 97 160
61 97 159
62 98 159
61 96 151
62 98 163
63 98 164
61 97 157
62 97 159
61 96 157
62 98 162
61 96 155
61 96 159
156 177 215
211 230 255
211 230 255
211 230 255
211 230 255
211 230 255
212 230 255
194 198 183
176 172 114
172 170 114
170 169 114
168 168 114
167 168 114
167 168 114
166 168 114
166 167 114
166 167 114
166 167 114
166 168 114
167 168 114
167 168 114
168 168 114
168 168 114
169 169 114
169 169 114
170 169 114
170 169 114
171 170 114
171 170 114
172 170 114
173 171 114
173 171 114
174 171 114
175 171 114
175 172 114
176 172 114
177 172 114
177 173 114
178 173 114
179 173 114
179 174 114
180 174 114
181 174 114
182 175 114
182 175 114
183 175 114
184 176 114
185 176 114
186 176 114
187 177 114
188 177 114
189 178 114
196 190 151
214 229 246
217 233 255
217 233 255
217 233 255
217 233 255
217 233 255
217 233 255
217 233 255
217 233 255
217 233 255
217 233 255
217 233 255
217 233 255
217 233 255
217 233 255
217 233 255
217 233 255
217 233 255
217 233 255
217 233 255
217 233 255
217 233 255
218 233 255
218 233 255
218 233 255
218 234 255
218 234 255
218 234 255
218 234 255
218 234 255
218 234 255
218 234 255
218 234 255
218 234 255
218 234 255
218 234 255
218 234 255
218 234 255
218 234 255
218 234 255
218 234 255
218 234 255
218 234 255
218 234 255
218 234 255
218 234 255
218 234 255
218 234 255
218 234 255
218 234 255
218 234 255
218 234 255
218 234 255
218 234 255
218 234 255
218 234 255
219 234 255
219 234 255
219 234 255
219 234 255
219 234 255
219 234 255
219 234 255
219 234 255
219 234 255
219 234 255
219 234 255
219 234 255
219 234 255
219 234 255
219 234 255
219 234 255
219 234 255
219 234 255
219 234 255
219 234 255
219 234 255
219 234 255
219 234 255
219 234 255
219 234 255
219 234 255
219 234 255
219 234 255
219 234 255
219 234 255
219 234 255
219 234 255
219 234 255
219 234 255
219 234 255
219 234 255
219 234 255
219 234 255
219 234 255
219 234 255
219 234 255
219 234 255
219 234 255
219 234 255
219 234 255
219 234 255
219 234 255
219 234 255
219 234 255
219 234 255
219 234 255
219 234 255
219 234 255
219 234 255
219 234 255
219 234 255
219 234 255
219 234 255
219 234 255
219 234 255
219 234 255
219 234 255
219 234 255
219 235 255
219 235 255
219 235 255
219 235 255
219 235 255
219 235 255
219 235 255
219 235 255
219 235 255
219 235 255
219 235 255
220 235 255
220 235 255
220 235 255
220 235 255
220 235 255
220 235 255
220 235 255
220 235 255
220 235 255
220 235 255
220 235 255
220 235 255
220 235 255
220 235 255
220 235 255
220 235 255
220 235 255
220 235 255
220 235 255
220 235 255
220 235 255
220 235 255
220 235 255
220 235 255
220 235 255
220 235 255
220 235 255
220 235 255
220 235 255
220 235 255
220 235 255
220 235 255
220 235 255
220 235 255
220 235 255
220 235 255
219 235 255
219 235 255
219 235 255
219 235 255
219 235 255
219 235 255
219 235 255
219 235 255
219 235 255
219 235 255
219 235 255
219 234 255
219 234 255
219 234 255
219 234 255
219 234 255
219 234 255
219 234 255
219 234 255
219 234 255
219 234 255
219 234 255
219 234 255
219 234 255
219 234 255
219 234 255
219 234 255
219 234 255
219 234 255
219 234 255
219 234 255
219 234 255
219 234 255
219 234 255
219 234 255
219 234 255
219 234 255
219 234 255
219 234 255
219 234 255
219 234 255
219 234 255
219 234 255
219 234 255
219 234 255
219 234 255
219 234 255
219 234 255
219 234 255
219 234 255
219 234 255
219 234 255
219 234 255
219 234 255
219 234 255
219 234 255
219 234 255
219 234 255
219 234 255
219 234 255
219 234 255
219 234 255
219 234 255
219 234 255
219 234 255
219 234 255
218 234 255
218 234 255
218 234 255
218 234 255
218 234 255
218 234 255
218 234 255
218 234 255
218 234 255
218 234 255
218 234 255
218 234 255
218 234 255
218 234 255
218 234 255
218 234 255
218 234 255
218 234 255
218 234 255
218 234 255
218 234 255
218 234 255
218 234 255
218 234 255
218 234 255
218 234 255
218 234 255
218 234 255
218 233 255
218 233 255
217 233 255
217 233 255
217 233 255
217 233 255
217 233 255
217 233 255
217 233 255
217 233 255
217 233 255
217 233 255
217 233 254
216 233 254
216 233 255
215 232 255
215 232 255
213 231 255
212 230 255
211 230 255
210 229 255
208 228 255
207 228 255
206 227 255
205 227 255
206 227 255
207 227 249
206 226 245
207 227 246
207 226 245
204 224 236
207 227 246
207 227 249
207 227 250
208 228 250
204 225 244
207 227 249
206 226 246
205 225 241
207 227 250
203 224 238
206 227 249
206 226 246
205 226 244
205 226 245
208 227 249
206 226 248
206 227 250
203 224 242
205 226 252
203 224 245
204 226 249
203 224 242
200 223 238
199 222 242
201 224 250
197 222 249
196 222 255
201 225 255
207 228 254
211 230 254
213 231 255
212 231 255
212 231 255
212 231 255
184 203 236
62 99 171
61 98 160
63 99 163
62 98 160
62 98 156
62 97 159
62 97 150
62 98 161
62 97 156
61 97 156
62 97 150
62 98 160
61 96 151
62 98 163
62 98 169
61 96 154
61 96 153
61 96 156
62 97 158
61 96 157
61 96 161
68 101 167
188 207 237
212 230 255
212 231 255
212 231 255
213 231 255
201 208 206
179 173 114
175 171 114
172 170 114
171 170 114
170 169 114
169 169 114
169 169 114
169 169 114
169 169 114
169 169 114
169 169 114
169 169 114
169 169 114
170 169 114
170 169 114
171 170 114
171 170 114
172 170 114
172 170 114
173 170 114
173 171 114
174 171 114
175 171 114
175 172 114
176 172 114
176 172 114
177 172 114
178 173 114
178 173 114
179 173 114
179 173 114
180 174 114
180 174 114
181 174 114
182 175 114
182 175 114
183 175 114
184 176 114
184 176 114
185 176 114
186 176 114
186 177 114
187 177 114
188 178 114
189 178 114
190 179 114
197 191 153
216 231 251
217 233 255
217 233 255
217 233 255
217 233 255
217 233 255
217 233 255
217 233 255
217 233 255
217 233 255
218 233 255
218 233 255
218 233 255
218 234 255
218 234 255
218 234 255
218 234 255
218 234 255
218 234 255
218 234 255
218 234 255
218 234 255
218 234 255
218 234 255
218 234 255
218 234 255
218 234 255
218 234 255
218 234 255
218 234 255
218 234 255
218 234 255
218 234 255
218 234 255
218 234 255
218 234 255
218 234 255
218 234 255
218 234 255
218 234 255
218 234 255
219 234 255
219 234 255
219 234 255
219 234 255
219 234 255
219 234 255
219 234 255
219 234 255
219 234 255
219 234 255
219 234 255
219 234 255
219 234 255
219 234 255
219 234 255
219 234 255
219 234 255
219 234 255
219 234 255
219 234 255
219 234 255
219 234 255
219 234 255
219 234 255
219 234 255
219 234 255
219 234 255
219 234 255
219 234 255
219 234 255
219 234 255
219 234 255
219 234 255
219 234 255
219 234 255
219 234 255
219 234 255
219 234 255
219 234 255
219 234 255
219 234 255
219 234 255
219 234 255
219 234 255
219 234 255
219 234 255
219 234 255
219 234 255
219 234 255
219 234 255
219 234 255
219 234 255
219 234 255
219 234 255
219 234 255
219 234 255
219 235 255
219 235 255
219 235 255
219 235 255
219 235 255
219 235 255
219 235 255
219 235 255
219 235 255
219 235 255
219 235 255
220 235 255
220 235 255
220 235 255
220 235 255
220 235 255
220 235 255
220 235 255
220 235 255
220 235 255
220 235 255
220 235 255
220 235 255
220 235 255
220 235 255
220 235 255
220 235 255
220 235 255
220 235 255
220 235 255
220 235 255
220 235 255
220 235 255
220 235 255
220 235 255
220 235 255
220 235 255
220 235 255
220 235 255
220 235 255
220 235 255
220 235 255
220 235 255
220 235 255
220 235 255
220 235 255
220 235 255
220 235 255
220 235 255
220 235 255
220 235 255
220 235 255
220 235 255
220 235 255
220 235 255
220 235 255
220 235 255
220 235 255
220 235 255
220 235 255
220 235 255
220 235 255
220 235 255
220 235 255
220 235 255
220 235 255
220 235 255
220 235 255
220 235 255
220 235 255
220 235 255
220 235 255
220 235 255
220 235 255
220 235 255
220 235 255
220 235 255
220 235 255
220 235 255
220 235 255
220 235 255
220 235 255
220 235 255
220 235 255
220 235 255
220 235 255
220 235 255
220 235 255
220 235 255
220 235 255
219 235 255
219 235 255
219 235 255
219 235 255
219 235 255
219 235 255
219 235 255
219 235 255
219 235 255
219 234 255
219 234 255
219 234 255
219 234 255
219 234 255
219 234 255
219 234 255
219 234 255
219 234 255
219 234 255
219 234 255
219 234 255
219 234 255
219 234 255
219 234 255
219 234 255
219 234 255
219 234 255
219 234 255
219 234 255
219 234 255
219 234 255
219 234 255
219 234 255
219 234 255
219 234 255
219 234 255
219 234 255
219 234 255
219 234 255
219 234 255
219 234 255
219 234 255
219 234 255
219 234 255
219 234 255
219 234 255
219 234 255
219 234 255
219 234 255
219 234 255
219 234 255
219 234 255
219 234 255
219 234 255
219 234 255
219 234 255
219 234 255
219 234 255
218 234 255
218 234 255
218 234 255
218 234 255
218 234 255
218 234 255
218 234 255
218 234 255
218 234 255
218 234 255
218 234 255
218 234 255
218 234 255
218 234 255
218 234 255
218 234 255
218 234 255
218 234 255
218 234 255
218 234 255
218 234 255
218 234 255
218 234 255
218 234 255
218 234 255
218 234 255
218 234 255
217 233 255
216 233 255
215 232 255
214 232 255
213 231 255
212 231 255
211 230 255
210 229 255
209 229 255
209 229 255
207 228 255
208 228 253
209 228 249
210 229 250
209 228 248
208 227 244
206 226 237
208 227 245
208 227 245
204 224 233
206 225 240
209 228 249
208 227 246
207 226 248
208 227 246
207 226 248
207 226 242
207 226 242
207 226 244
209 228 252
208 228 249
208 227 249
209 229 253
205 224 241
208 227 244
207 226 241
207 227 249
204 225 241
205 225 244
205 226 244
206 227 250
203 224 240
202 224 245
202 224 246
201 224 254
200 224 255
204 226 255
210 230 255
213 231 255
213 231 255
213 231 255
210 228 253
96 124 176
63 98 159
61 97 154
62 98 157
61 97 157
62 97 157
61 97 156
62 98 156
62 97 155
63 99 164
61 97 155
61 96 151
61 96 152
62 98 156
61 96 151
62 98 153
62 98 160
62 98 159
60 95 147
62 97 160
60 94 147
62 95 150
60 94 147
88 114 164
211 229 254
213 231 255
214 231 255
208 221 233
183 176 118
178 173 114
176 172 114
174 171 114
173 171 114
172 170 114
172 170 114
172 170 114
172 170 114
172 170 114
172 170 114
172 170 114
172 170 114
172 170 114
173 171 114
173 171 114
174 171 114
174 171 114
175 171 114
175 172 114
176 172 114
176 172 114
176 172 114
177 173 114
178 173 114
178 173 114
179 173 114
179 173 114
180 174 114
180 174 114
181 174 114
181 174 114
182 175 114
182 175 114
183 175 114
183 175 114
184 176 114
184 176 114
185 176 114
186 176 114
186 177 114
187 177 114
187 177 114
188 178 114
189 178 114
190 178 114
190 179 114
192 179 114
206 210 200
218 233 255
218 234 255
218 234 255
218 234 255
218 234 255
218 234 255
218 234 255
218 234 255
218 234 255
218 234 255
218 234 255
218 234 255
218 234 255
218 234 255
218 234 255
218 234 255
218 234 255
218 234 255
218 234 255
218 234 255
218 234 255
218 234 255
218 234 255
218 234 255
218 234 255
218 234 255
219 234 255
219 234 255
219 234 255
219 234 255
219 234 255
219 234 255
219 234 255
219 234 255
219 234 255
219 234 255
219 234 255
219 234 255
219 234 255
219 234 255
219 234 255
219 234 255
219 234 255
219 234 255
219 234 255
219 234 255
219 234 255
219 234 255
219 234 255
219 234 255
219 234 255
219 234 255
219 234 255
219 234 255
219 234 255
219 234 255
219 234 255
219 234 255
219 234 255
219 234 255
219 234 255
219 234 255
219 234 255
219 234 255
219 234 255
219 234 255
219 234 255
219 234 255
219 234 255
219 234 255
219 234 255
219 234 255
219 234 255
219 234 255
219 234 255
219 235 255
219 235 255
219 235 255
219 235 255
219 235 255
219 235 255
219 235 255
219 235 255
219 235 255
220 235 255
220 235 255
220 235 255
220 235 255
220 235 255
220 235 255
220 235 255
220 235 255
220 235 255
220 235 255
220 235 255
220 235 255
220 235 255
220 235 255
220 235 255
220 235 255
220 235 255
220 235 255
220 235 255
220 235 255
220 235 255
220 235 255
220 235 255
220 235 255
220 235 255
220 235 255
220 235 255
220 235 255
220 235 255
220 235 255
220 235 255
220 235 255
220 235 255
220 235 255
220 235 255
220 235 255
220 235 255
220 235 255
220 235 255
220 235 255
220 235 255
220 235 255
220 235 255
220 235 255
220 235 255
220 235 255
220 235 255
220 235 255
220 235 255
220 235 255
220 235 255
220 235 255
220 235 255
220 235 255
220 235 255
220 235 255
220 235 255
220 235 255
220 235 255
220 235 255
220 235 255
220 235 255
220 235 255
220 235 255
220 235 255
220 235 255
220 235 255
220 235 255
220 235 255
220 235 255
220 235 255
220 235 255
220 235 255
220 235 255
220 235 255
220 235 255
220 235 255
220 235 255
220 235 255
220 235 255
220 235 255
220 235 255
220 235 255
220 235 255
220 235 255
220 235 255
220 235 255
220 235 255
220 235 255
220 235 255
220 235 255
220 235 255
220 235 255
220 235 255
220 235 255
220 235 255
220 235 255
220 235 255
220 235 255
220 235 255
220 235 255
220 235 255
220 235 255
220 235 255
220 235 255
220 235 255
220 235 255
220 235 255
220 235 255
220 235 255
220 235 255
220 235 255
220 235 255
220 235 255
220 235 255
220 235 255
220 235 255
220 235 255
220 235 255
220 235 255
220 235 255
220 235 255
220 235 255
220 235 255
219 235 255
219 235 255
219 235 255
219 235 255
219 235 255
219 235 255
219 235 255
219 235 255
219 234 255
219 234 255
219 234 255
219 234 255
219 234 255
219 234 255
219 234 255
219 234 255
219 234 255
219 234 255
219 234 255
219 234 255
219 234 255
219 234 255
219 234 255
219 234 255
219 234 255
219 234 255
219 234 255
219 234 255
219 234 255
219 234 255
219 234 255
219 234 255
219 234 255
219 234 255
219 234 255
219 234 255
219 234 255
219 234 255
219 234 255
219 234 255
219 234 255
219 234 255
219 234 255
219 234 255
219 234 255
219 234 255
219 234 255
219 234 255
219 234 255
219 234 255
218 234 255
218 234 255
218 234 255
218 234 255
218 234 255
218 234 255
218 234 255
218 234 255
218 234 255
218 234 255
218 234 255
218 234 255
218 234 255
218 233 255
216 233 255
216 233 255
215 232 255
214 231 255
213 231 255
212 231 255
212 230 255
211 230 255
210 229 255
209 228 253
212 230 253
211 230 252
211 229 248
210 228 242
206 225 234
208 227 240
210 229 248
210 229 246
211 230 250
212 230 253
209 228 245
210 228 248
208 227 242
209 227 245
208 226 244
210 228 246
208 227 245
210 228 249
205 224 241
207 226 245
210 228 249
209 228 249
208 228 248
208 227 242
209 228 248
210 229 249
208 227 248
208 227 248
207 227 249
208 227 245
207 227 246
205 226 242
204 225 244
205 226 246
203 225 254
202 225 255
208 228 255
213 231 255
215 232 255
214 232 255
165 185 220
61 96 153
61 97 153
61 97 160
62 98 158
63 99 166
61 97 147
62 98 159
61 97 149
61 97 150
61 97 155
61 97 148
63 98 160
62 98 160
61 96 151
62 97 153
61 97 149
62 98 156
62 97 150
61 95 149
60 95 150
61 96 151
60 94 151
60 93 136
59 92 139
170 188 213
214 232 255
215 232 255
193 191 160
181 174 114
176 171 113
170 166 111
176 171 114
176 172 114
175 172 114
175 171 114
175 171 114
175 171 114
175 172 114
175 172 114
175 172 114
175 172 114
176 172 114
176 172 114
176 172 114
177 172 114
177 173 114
178 173 114
178 173 114
178 173 114
179 173 114
180 174 114
180 174 114
180 174 114
181 174 114
181 174 114
182 175 114
182 175 114
183 175 114
183 175 114
183 175 114
184 176 114
184 176 114
185 176 114
185 176 114
186 176 114
186 177 114
187 177 114
187 177 114
188 177 114
188 178 114
189 178 114
189 178 114
190 178 114
190 179 114
191 179 114
192 179 114
194 181 118
215 227 241
218 234 255
218 234 255
218 234 255
218 234 255
218 234 255
218 234 255
218 234 255
218 234 255
218 234 255
218 234 255
219 234 255
219 234 255
219 234 255
219 234 255
219 234 255
219 234 255
219 234 255
219 234 255
219 234 255
219 234 255
219 234 255
219 234 255
219 234 255
219 234 255
219 234 255
219 234 255
219 234 255
219 234 255
219 234 255
219 234 255
219 234 255
219 234 255
219 234 255
219 234 255
219 234 255
219 234 255
219 234 255
219 234 255
219 234 255
219 234 255
219 234 255
219 234 255
219 234 255
219 234 255
219 234 255
219 234 255
219 234 255
219 234 255
219 234 255
219 234 255
219 234 255
219 234 255
219 234 255
219 235 255
219 235 255
219 235 255
219 235 255
219 235 255
219 235 255
219 235 255
219 235 255
220 235 255
220 235 255
220 235 255
220 235 255
220 235 255
220 235 255
220 235 255
220 235 255
220 235 255
220 235 255
220 235 255
220 235 255
220 235 255
220 235 255
220 235 255
220 235 255
220 235 255
220 235 255
220 235 255
220 235 255
220 235 255
220 235 255
220 235 255
220 235 255
220 235 255
220 235 255
220 235 255
220 235 255
220 235 255
220 235 255
220 235 255
220 235 255
220 235 255
220 235 255
220 235 255
220 235 255
220 235 255
220 235 255
220 235 255
220 235 255
220 235 255
220 235 255
220 235 255
220 235 255
220 235 255
220 235 255
220 235 255
220 235 255
220 235 255
220 235 255
220 235 255
220 235 255
220 235 255
220 235 255
220 235 255
220 235 255
220 235 255
220 235 255
220 235 255
220 235 255
220 235 255
220 235 255
220 235 255
220 235 255
220 235 255
220 235 255
220 235 255
220 235 255
220 235 255
220 235 255
220 235 255
220 235 255
220 235 255
220 235 255
220 235 255
220 235 255
220 235 255
220 235 255
220 235 255
220 235 255
220 235 255
220 235 255
220 235 255
220 235 255
220 235 255
220 235 255
220 235 255
220 235 255
220 235 255
220 235 255
220 235 255
220 235 255
220 235 255
220 235 255
220 235 255
220 235 255
220 235 255
220 235 255
220 235 255
220 235 255
220 235 255
220 235 255
220 235 255
220 235 255
220 235 255
220 235 255
220 235 255
220 235 255
220 235 255
220 235 255
220 235 255
220 235 255
220 235 255
220 235 255
220 235 255
220 235 255
220 235 255
220 235 255
220 235 255
220 235 255
220 235 255
220 235 255
220 235 255
220 235 255
220 235 255
220 235 255
220 235 255
220 235 255
220 235 255
220 235 255
220 235 255
220 235 255
220 235 255
220 235 255
220 235 255
220 235 255
220 235 255
220 235 255
220 235 255
220 235 255
220 235 255
220 235 255
220 235 255
220 235 255
220 235 255
220 235 255
220 235 255
220 235 255
220 235 255
220 235 255
220 235 255
220 235 255
220 235 255
220 235 255
220 235 255
220 235 255
220 235 255
220 235 255
220 235 255
220 235 255
220 235 255
220 235 255
220 235 255
220 235 255
220 235 255
220 235 255
220 235 255
220 235 255
220 235 255
219 235 255
219 235 255
219 235 255
219 235 255
219 235 255
219 235 255
219 235 255
219 234 255
219 234 255
219 234 255
219 234 255
219 234 255
219 234 255
219 234 255
219 234 255
219 234 255
219 234 255
219 234 255
219 234 255
219 234 255
219 234 255
219 234 255
219 234 255
219 234 255
219 234 255
219 234 255
219 234 255
219 234 255
219 234 255
219 234 255
219 234 255
219 234 255
219 234 255
219 234 255
219 234 255
219 234 255
219 234 255
219 234 255
218 234 255
218 234 255
218 234 255
217 233 255
216 233 255
215 232 255
215 232 255
214 232 255
214 231 255
213 231 255
212 230 255
211 230 255
213 230 253
213 231 253
213 230 250
213 230 249
212 229 248
208 226 237
210 228 242
210 228 245
211 228 246
210 228 242
212 230 249
209 227 241
212 229 246
211 229 248
209 226 244
211 229 246
211 229 249
211 229 252
211 229 246
208 226 246
211 229 250
209 226 245
207 225 242
210 228 245
211 229 248
211 228 246
210 229 245
209 227 242
211 230 252
211 230 253
210 229 249
211 229 250
209 228 246
208 227 247
199 219 231
201 221 240
203 224 254
204 224 252
211 230 255
216 233 255
215 231 255
92 120 174
60 96 147
62 98 158
61 96 149
60 96 142
61 97 151
61 96 144
60 96 151
62 97 150
62 98 156
62 97 152
60 95 145
61 96 148
60 96 148
61 96 150
62 98 155
61 96 151
62 97 151
61 96 154
61 96 152
60 95 147
60 94 146
61 95 145
61 93 145
58 90 140
90 113 152
215 231 254
209 219 226
184 175 113
135 133 92
74 85 72
54 73 70
74 87 78
147 146 101
179 173 114
178 173 114
178 173 114
178 173 114
179 173 114
179 173 114
179 173 114
179 173 114
179 174 114
180 174 114
180 174 114
180 174 114
181 174 114
181 174 114
181 174 114
182 175 114
182 175 114
182 175 114
183 175 114
183 175 114
184 175 114
184 176 114
184 176 114
185 176 114
185 176 114
185 176 114
186 177 114
186 177 114
186 177 114
187 177 114
187 177 114
188 177 114
188 178 114
188 178 114
189 178 114
189 178 114
190 178 114
190 179 114
190 179 114
191 179 114
191 179 114
192 179 114
192 180 114
193 180 114
202 199 172
219 234 255
219 234 255
219 234 255
219 234 255
219 234 255
219 234 255
219 234 255
219 234 255
219 234 255
219 234 255
219 234 255
219 234 255
219 234 255
219 234 255
219 234 255
219 234 255
219 234 255
219 234 255
219 234 255
219 234 255
219 234 255
219 234 255
219 234 255
219 234 255
219 234 255
219 234 255
219 234 255
219 234 255
219 234 255
219 234 255
219 234 255
219 234 255
219 235 255
219 235 255
219 235 255
219 235 255
219 235 255
219 235 255
220 235 255
220 235 255
220 235 255
220 235 255
220 235 255
220 235 255
220 235 255
220 235 255
220 235 255
220 235 255
220 235 255
220 235 255
220 235 255
220 235 255
220 235 255
220 235 255
220 235 255
220 235 255
220 235 255
220 235 255
220 235 255
220 235 255
220 235 255
220 235 255
220 235 255
220 235 255
220 235 255
220 235 255
220 235 255
220 235 255
220 235 255
220 235 255
220 235 255
220 235 255
220 235 255
220 235 255
220 235 255
220 235 255
220 235 255
220 235 255
220 235 255
220 235 255
220 235 255
220 235 255
220 235 255
220 235 255
220 235 255
220 235 255
220 235 255
220 235 255
220 235 255
220 235 255
220 235 255
220 235 255
220 235 255
220 235 255
220 235 255
220 235 255
220 235 255
220 235 255
220 235 255
220 235 255
220 235 255
220 235 255
220 235 255
220 235 255
220 235 255
220 235 255
220 235 255
220 235 255
220 235 255
220 235 255
220 235 255
220 235 255
220 235 255
220 235 255
220 235 255
220 235 255
220 235 255
220 235 255
220 235 255
220 235 255
220 235 255
220 235 255
220 235 255
220 235 255
220 235 255
220 235 255
220 235 255
220 235 255
220 235 255
220 235 255
220 235 255
220 235 255
220 235 255
220 235 255
220 235 255
220 235 255
220 235 255
220 235 255
220 235 255
220 235 255
220 235 255
220 235 255
220 235 255
220 235 255
220 235 255
220 235 255
220 235 255
220 235 255
220 235 255
220 235 255
220 235 255
220 235 255
220 235 255
220 235 255
220 235 255
220 235 255
220 235 255
220 235 255
220 235 255
220 235 255
220 235 255
220 235 255
220 235 255
220 235 255
220 235 255
220 235 255
220 235 255
220 235 255
220 235 255
220 235 255
220 235 255
220 235 255
220 235 255
220 235 255
220 235 255
220 235 255
220 235 255
220 235 255
220 235 255
220 235 255
220 235 255
220 235 255
220 235 255
220 235 255
220 235 255
220 235 255
220 235 255
220 235 255
220 235 255
220 235 255
220 235 255
220 235 255
220 235 255
220 235 255
220 235 255
220 235 255
220 235 255
220 235 255
220 235 255
220 235 255
220 235 255
220 235 255
220 235 255
220 235 255
220 235 255
220 235 255
220 235 255
220 235 255
220 235 255
220 235 255
220 235 255
220 235 255
220 235 255
220 235 255
220 235 255
220 235 255
220 235 255
220 235 255
220 235 255
220 235 255
220 235 255
220 235 255
220 235 255
220 235 255
220 235 255
220 235 255
220 235 255
220 235 255
220 235 255
220 235 255
220 235 255
220 235 255
220 235 255
220 235 255
220 235 255
220 235 255
220 235 255
220 235 255
220 235 255
220 235 255
220 235 255
220 235 255
220 235 255
220 235 255
220 235 255
220 235 255
220 235 255
220 235 255
220 235 255
220 235 255
220 235 255
220 235 255
220 235 255
219 235 255
219 235 255
219 235 255
219 235 255
219 235 255
219 234 255
219 234 255
219 234 255
219 234 255
219 234 255
219 234 255
219 234 255
219 234 255
219 234 255
219 234 255
219 235 255
219 234 255
218 234 255
218 233 255
217 233 255
216 233 255
216 233 255
215 232 255
215 232 255
214 232 255
214 231 255
214 231 253
215 232 254
215 232 252
213 230 249
215 232 254
213 230 245
211 229 240
212 230 245
212 229 244
212 229 244
211 228 244
210 227 240
213 230 250
215 232 252
208 225 237
212 229 249
213 230 252
209 226 245
212 229 248
214 231 252
213 230 249
212 229 249
211 229 248
211 229 248
211 229 245
211 229 245
213 230 249
214 231 252
211 229 245
212 230 249
212 229 248
211 229 246
211 229 245
208 226 247
201 220 237
195 214 229
203 222 236
204 223 250
201 221 248
208 226 252
216 233 255
196 212 236
60 95 147
60 96 145
61 96 148
61 96 145
61 97 151
62 97 150
61 96 142
61 96 144
60 96 142
60 95 140
62 97 153
62 97 152
61 96 143
62 97 152
61 95 140
61 96 143
60 95 147
60 94 139
61 95 142
61 95 141
61 96 145
61 95 144
60 94 139
60 94 140
58 91 140
57 87 124
191 207 231
199 198 172
125 124 85
49 65 60
50 66 60
50 67 62
53 71 64
53 73 70
153 150 102
182 175 114
182 175 114
182 175 114
182 175 114
182 175 114
183 175 114
183 175 114
183 175 114
183 175 114
183 175 114
184 176 114
184 176 114
184 176 114
185 176 114
185 176 114
185 176 114
185 176 114
186 177 114
186 177 114
186 177 114
187 177 114
187 177 114
187 177 114
187 177 114
188 177 114
188 178 114
188 178 114
189 178 114
189 178 114
189 178 114
190 178 114
190 178 114
190 179 114
190 179 114
191 179 114
191 179 114
191 179 114
192 179 114
192 180 114
193 180 114
193 180 114
193 180 114
194 180 114
196 183 121
217 231 247
219 234 255
219 234 255
219 234 255
219 234 255
219 234 255
219 234 255
219 234 255
219 234 255
219 234 255
219 235 255
219 235 255
219 235 255
219 235 255
219 235 255
219 235 255
220 235 255
220 235 255
220 235 255
220 235 255
220 235 255
220 235 255
220 235 255
220 235 255
220 235 255
220 235 255
220 235 255
220 235 255
220 235 255
220 235 255
220 235 255
220 235 255
220 235 255
220 235 255
220 235 255
220 235 255
220 235 255
220 235 255
220 235 255
220 235 255
220 235 255
220 235 255
220 235 255
220 235 255
220 235 255
220 235 255
220 235 255
220 235 255
220 235 255
220 235 255
220 235 255
220 235 255
220 235 255
220 235 255
220 235 255
220 235 255
220 235 255
220 235 255
220 235 255
220 235 255
220 235 255
220 235 255
220 235 255
220 235 255
220 235 255
220 235 255
220 235 255
220 235 255
220 235 255
220 235 255
220 235 255
220 235 255
220 235 255
220 235 255
220 235 255
220 235 255
220 235 255
220 235 255
220 235 255
220 235 255
220 235 255
220 235 255
220 235 255
220 235 255
220 235 255
220 235 255
220 235 255
220 235 255
220 235 255
220 235 255
220 235 255
220 235 255
220 235 255
220 235 255
220 235 255
220 235 255
220 235 255
220 235 255
220 235 255
220 235 255
220 235 255
220 235 255
220 235 255
220 235 255
220 235 255
220 235 255
220 235 255
220 235 255
220 235 255
220 235 255
220 235 255
220 235 255
220 235 255
220 235 255
220 235 255
220 235 255
220 235 255
220 235 255
220 235 255
220 235 255
220 235 255
220 235 255
220 235 255
220 235 255
220 235 255
220 235 255
220 235 255
220 235 255
220 235 255
220 235 255
220 235 255
220 235 255
220 235 255
220 235 255
221 235 255
221 235 255
221 235 255
221 235 255
221 235 255
221 235 255
221 235 255
221 235 255
221 235 255
221 235 255
221 235 255
221 235 255
221 235 255
221 235 255
221 235 255
221 235 255
221 235 255
221 235 255
221 235 255
221 235 255
221 235 255
221 235 255
221 235 255
221 235 255
221 235 255
221 235 255
221 235 255
221 235 255
221 235 255
221 235 255
221 235 255
221 235 255
221 235 255
221 235 255
221 235 255
221 235 255
221 235 255
221 235 255
221 235 255
221 235 255
221 235 255
221 235 255
221 235 255
221 235 255
221 235 255
220 235 255
220 235 255
220 235 255
220 235 255
220 235 255
220 235 255
220 235 255
220 235 255
220 235 255
220 235 255
220 235 255
220 235 255
220 235 255
220 235 255
220 235 255
220 235 255
220 235 255
220 235 255
220 235 255
220 235 255
220 235 255
220 235 255
220 235 255
220 235 255
220 235 255
220 235 255
220 235 255
220 235 255
220 235 255
220 235 255
220 235 255
220 235 255
220 235 255
220 235 255
220 235 255
220 235 255
220 235 255
220 235 255
220 235 255
220 235 255
220 235 255
220 235 255
220 235 255
220 235 255
220 235 255
220 235 255
220 235 255
220 235 255
220 235 255
220 235 255
220 235 255
220 235 255
220 235 255
220 235 255
220 235 255
220 235 255
220 235 255
220 235 255
220 235 255
220 235 255
220 235 255
220 235 255
220 235 255
220 235 255
220 235 255
220 235 255
220 235 255
220 235 255
220 235 255
220 235 255
220 235 255
220 235 255
220 235 255
220 235 255
220 235 255
220 235 255
220 235 255
220 235 255
220 235 255
220 235 255
220 235 255
220 235 255
220 235 255
220 235 255
220 235 255
220 235 255
220 235 255
220 235 255
220 235 255
219 234 255
219 234 255
219 234 255
218 234 255
218 234 255
218 233 255
217 233 255
217 233 255
216 233 255
216 233 255
215 232 255
217 233 255
217 233 255
216 232 252
216 232 252
216 233 254
214 230 242
215 231 248
213 230 241
214 231 248
215 232 249
214 231 248
214 230 248
214 231 248
216 232 252
213 230 242
217 233 255
208 224 244
214 230 250
209 225 247
212 228 248
211 227 245
210 227 242
213 229 248
214 230 249
214 230 248
215 232 252
215 231 250
213 230 246
214 231 250
214 231 252
215 232 252
214 231 250
208 225 237
209 226 246
207 224 238
206 223 239
204 223 231
199 217 236
180 200 228
200 218 245
215 231 254
154 173 200
60 95 147
60 95 144
61 96 143
60 95 137
61 96 151
61 96 139
61 96 142
60 95 137
61 96 142
61 96 143
61 95 139
61 96 148
61 96 149
60 94 133
62 97 151
60 95 136
60 94 144
60 95 139
61 96 142
60 95 141
59 91 129
60 94 144
61 94 145
60 94 142
58 90 132
59 90 136
170 185 206
177 169 123
44 55 45
45 60 53
49 64 54
48 63 53
51 67 58
53 71 61
78 89 74
183 174 113
186 177 114
186 177 114
186 177 114
186 177 114
186 177 114
187 177 114
187 177 114
187 177 114
187 177 114
187 177 114
187 177 114
188 177 114
188 177 114
188 178 114
188 178 114
189 178 114
189 178 114
189 178 114
189 178 114
189 178 114
190 178 114
190 178 114
190 179 114
190 179 114
191 179 114
191 179 114
191 179 114
191 179 114
191 179 114
192 179 114
192 179 114
192 180 114
192 180 114
193 180 114
193 180 114
193 180 114
193 180 114
193 180 114
194 180 114
194 181 114
194 181 114
195 181 114
195 181 114
212 219 220
220 235 255
220 235 255
220 235 255
220 235 255
220 235 255
220 235 255
220 235 255
220 235 255
220 235 255
220 235 255
220 235 255
220 235 255
220 235 255
220 235 255
220 235 255
220 235 255
220 235 255
220 235 255
220 235 255
220 235 255
220 235 255
220 235 255
220 235 255
220 235 255
220 235 255
220 235 255
220 235 255
220 235 255
220 235 255
220 235 255
220 235 255
220 235 255
220 235 255
220 235 255
220 235 255
220 235 255
220 235 255
220 235 255
220 235 255
220 235 255
220 235 255
220 235 255
220 235 255
220 235 255
220 235 255
220 235 255
220 235 255
220 235 255
220 235 255
220 235 255
220 235 255
220 235 255
220 235 255
220 235 255
220 235 255
220 235 255
220 235 255
220 235 255
220 235 255
220 235 255
220 235 255
220 235 255
220 235 255
220 235 255
220 235 255
220 235 255
220 235 255
220 235 255
220 235 255
220 235 255
220 235 255
220 235 255
220 235 255
220 235 255
220 235 255
220 235 255
220 235 255
220 235 255
220 235 255
220 235 255
220 235 255
220 235 255
220 235 255
220 235 255
220 235 255
220 235 255
220 235 255
220 235 255
221 235 255
221 235 255
220 235 255
221 235 255
221 235 255
221 235 255
221 235 255
221 235 255
221 235 255
221 235 255
221 235 255
221 235 255
221 235 255
221 235 255
221 235 255
221 235 255
221 235 255
221 235 255
221 235 255
221 235 255
221 235 255
221 235 255
221 235 255
221 235 255
221 235 255
221 235 255
221 235 255
221 235 255
221 235 255
221 235 255
221 235 255
221 235 255
221 235 255
221 235 255
221 235 255
221 235 255
221 235 255
221 235 255
221 235 255
221 235 255
221 235 255
221 235 255
221 235 255
221 235 255
221 235 255
221 235 255
221 235 255
221 235 255
221 235 255
221 235 255
221 235 255
221 235 255
221 235 255
221 235 255
221 235 255
221 235 255
221 235 255
221 235 255
221 235 255
221 235 255
221 235 255
221 235 255
221 235 255
221 235 255
221 235 255
221 235 255
221 235 255
221 235 255
221 235 255
221 235 255
221 235 255
221 235 255
221 235 255
221 235 255
221 235 255
221 235 255
221 235 255
221 235 255
221 235 255
221 235 255
221 235 255
221 235 255
221 235 255
221 235 255
221 235 255
221 235 255
221 235 255
221 235 255
221 235 255
221 235 255
221 235 255
221 235 255
221 235 255
221 235 255
221 235 255
221 235 255
221 235 255
221 235 255
221 235 255
221 235 255
221 235 255
221 235 255
221 235 255
221 235 255
221 235 255
221 235 255
221 235 255
221 235 255
221 235 255
221 235 255
221 235 255
221 235 255
221 235 255
221 235 255
221 235 255
221 235 255
221 235 255
221 235 255
221 235 255
221 235 255
221 235 255
221 235 255
221 235 255
221 235 255
221 235 255
221 235 255
221 235 255
221 235 255
221 235 255
221 235 255
221 235 255
221 235 255
221 235 255
221 235 255
221 235 255
221 235 255
221 235 255
221 235 255
221 235 255
221 235 255
221 235 255
221 235 255
221 235 255
220 235 255
221 235 255
221 235 255
220 235 255
220 235 255
220 235 255
220 235 255
220 235 255
220 235 255
220 235 255
220 235 255
220 235 255
220 235 255
220 235 255
220 235 255
220 235 255
220 235 255
220 235 255
220 235 255
220 235 255
220 235 255
220 235 255
220 235 255
220 235 255
220 235 255
220 235 255
220 235 255
220 235 255
220 235 255
220 235 255
220 235 255
220 235 255
220 235 255
220 235 255
220 235 255
220 235 255
220 235 255
220 235 255
220 235 255
219 234 255
219 234 255
219 234 255
218 234 255
218 234 255
218 234 255
218 233 255
217 233 255
219 234 255
218 234 255
218 234 253
219 234 255
217 233 250
217 232 251
218 234 254
216 232 245
215 231 246
215 231 246
216 232 246
217 233 253
216 232 249
216 232 249
216 232 250
215 231 251
212 227 247
209 225 246
212 228 249
213 229 250
215 231 252
216 232 249
215 230 244
216 232 248
215 231 245
215 231 248
215 231 246
214 231 244
215 231 248
215 231 245
216 232 249
210 226 241
212 228 246
207 223 245
209 225 246
209 226 244
210 226 245
205 222 242
149 169 199
207 224 247
206 223 246
132 152 187
60 95 143
61 96 143
60 95 140
60 95 135
60 95 134
60 95 142
60 96 142
59 94 131
62 97 148
61 96 143
61 96 150
59 93 124
61 96 143
61 97 151
60 94 136
59 94 137
60 95 137
62 96 145
58 92 125
61 95 142
58 92 126
61 95 140
59 91 129
59 93 141
59 90 133
55 85 117
126 137 146
129 122 79
37 48 40
42 55 44
48 63 53
49 64 53
50 67 57
52 69 57
54 73 66
167 159 104
190 179 114
190 178 114
190 179 114
190 179 114
190 179 114
190 179 114
191 179 114
190 179 114
191 179 114
191 179 114
191 179 114
191 179 114
191 179 114
191 179 114
191 179 114
192 179 114
192 179 114
192 179 114
192 180 114
192 180 114
192 180 114
192 180 114
193 180 114
193 180 114
193 180 114
193 180 114
193 180 114
193 180 114
193 180 114
194 180 114
194 180 114
194 181 114
194 181 114
194 181 114
194 181 114
194 181 114
195 181 114
195 181 114
195 181 114
195 181 114
195 181 114
196 181 114
196 181 114
207 205 186
220 235 255
220 235 255
220 235 255
220 235 255
220 235 255
220 235 255
220 235 255
220 235 255
220 235 255
220 235 255
220 235 255
220 235 255
220 235 255
220 235 255
220 235 255
220 235 255
220 235 255
220 235 255
220 235 255
220 235 255
220 235 255
220 235 255
220 235 255
220 235 255
220 235 255
220 235 255
220 235 255
220 235 255
220 235 255
220 235 255
220 235 255
220 235 255
220 235 255
220 235 255
221 235 255
221 235 255
221 235 255
221 235 255
221 235 255
221 235 255
221 235 255
221 235 255
221 235 255
221 235 255
221 235 255
221 235 255
221 235 255
221 235 255
221 235 255
221 235 255
221 235 255
221 235 255
221 235 255
221 235 255
221 235 255
221 235 255
221 235 255
221 235 255
221 235 255
221 235 255
221 235 255
221 235 255
221 235 255
221 235 255
221 235 255
221 235 255
221 235 255
221 235 255
221 235 255
221 235 255
221 235 255
221 235 255
221 235 255
221 235 255
221 235 255
221 235 255
221 235 255
221 235 255
221 235 255
221 235 255
221 235 255
221 235 255
221 235 255
221 235 255
221 235 255
221 235 255
221 235 255
221 235 255
221 235 255
221 235 255
221 235 255
221 235 255
221 235 255
221 235 255
221 235 255
221 235 255
221 235 255
221 235 255
221 235 255
221 235 255
221 235 255
221 235 255
221 235 255
221 235 255
221 235 255
221 235 255
221 235 255
221 235 255
221 235 255
221 235 255
221 235 255
221 235 255
221 235 255
221 235 255
221 235 255
221 235 255
221 235 255
221 235 255
221 235 255
221 235 255
221 235 255
221 235 255
221 235 255
221 235 255
221 235 255
221 235 255
221 235 255
221 235 255
221 235 255
221 235 255
221 235 255
221 235 255
221 235 255
221 235 255
221 235 255
221 235 255
221 235 255
221 235 255
221 235 255
221 235 255
221 235 255
221 235 255
221 235 255
221 235 255
221 235 255
221 235 255
221 235 255
221 235 255
221 235 255
221 235 255
221 235 255
221 235 255
221 235 255
221 235 255
221 235 255
221 235 255
221 235 255
221 235 255
221 235 255
221 235 255
221 235 255
221 235 255
221 235 255
221 235 255
221 235 255
221 235 255
221 235 255
221 235 255
221 235 255
221 235 255
221 235 255
221 235 255
221 235 255
221 235 255
221 235 255
221 235 255
221 235 255
221 235 255
221 235 255
221 235 255
221 235 255
221 235 255
221 235 255
221 235 255
221 235 255
221 235 255
221 235 255
221 235 255
221 235 255
221 235 255
221 235 255
221 235 255
221 235 255
221 235 255
221 235 255
221 235 255
221 235 255
221 235 255
221 235 255
221 235 255
221 235 255
221 235 255
221 235 255
221 235 255
221 235 255
221 235 255
221 235 255
221 235 255
221 235 255
221 235 255
221 235 255
221 235 255
221 235 255
221 235 255
221 235 255
221 235 255
221 235 255
221 235 255
221 235 255
221 235 255
221 235 255
221 235 255
221 235 255
221 235 255
221 235 255
221 235 255
221 235 255
221 235 255
221 235 255
221 235 255
221 235 255
221 235 255
221 235 255
221 235 255
221 235 255
221 235 255
221 235 255
221 235 255
221 235 255
221 235 255
221 235 255
221 235 255
221 235 255
221 235 255
221 235 255
221 235 255
221 235 255
221 235 255
221 235 255
221 235 255
221 235 255
221 235 255
221 235 255
221 235 255
221 235 255
221 235 255
221 235 255
221 235 255
221 235 255
221 235 255
221 235 255
221 235 255
221 235 255
221 235 255
221 235 255
221 235 255
221 235 255
221 235 255
220 235 255
220 235 255
220 235 255
220 235 255
220 235 255
220 235 255
220 235 255
219 235 255
219 235 255
219 235 255
220 235 255
220 235 255
220 235 255
220 235 255
220 235 255
220 235 254
220 235 255
218 233 253
219 234 253
220 235 254
217 232 246
217 232 246
219 234 254
219 234 253
217 232 250
207 222 244
212 228 248
212 228 248
210 225 245
218 233 254
210 226 246
209 225 238
216 231 245
218 233 249
216 231 246
217 232 245
216 231 244
215 231 242
218 233 249
216 232 246
216 232 245
215 230 246
208 223 233
210 225 244
215 230 245
204 220 235
213 228 249
210 225 249
145 165 191
175 193 214
202 218 240
113 136 168
61 96 148
59 94 139
59 94 133
60 94 133
60 94 134
62 97 151
61 96 142
61 97 148
61 95 140
61 96 142
61 96 142
58 93 122
61 95 137
61 96 143
59 94 136
60 95 133
60 94 133
59 94 133
61 96 143
59 92 133
60 94 136
60 94 137
59 92 129
59 92 133
58 90 123
57 88 133
109 115 109
77 77 51
37 48 37
42 55 47
43 56 44
49 63 46
49 66 54
50 67 54
54 73 63
140 137 92
194 180 114
194 180 114
194 180 114
194 180 114
194 180 114
194 181 114
194 180 114
194 180 114
194 181 114
194 181 114
194 181 114
195 181 114
195 181 114
194 181 114
195 181 114
195 181 114
195 181 114
195 181 114
195 181 114
195 181 114
195 181 114
195 181 114
195 181 114
195 181 114
195 181 114
195 181 114
196 181 114
196 181 114
196 181 114
196 181 114
196 181 114
196 181 114
196 181 114
196 181 114
196 181 114
196 182 114
196 182 114
196 182 114
196 182 114
196 182 114
197 182 114
197 182 114
197 182 114
206 203 178
221 235 255
221 235 255
221 235 255
221 235 255
221 235 255
221 235 255
221 235 255
221 235 255
221 235 255
221 235 255
221 235 255
221 235 255
221 235 255
221 235 255
221 235 255
221 235 255
221 235 255
221 235 255
221 235 255
221 235 255
221 235 255
221 235 255
221 235 255
221 235 255
221 235 255
221 235 255
221 235 255
221 235 255
221 235 255
221 235 255
221 235 255
221 235 255
221 235 255
221 235 255
221 235 255
221 235 255
221 235 255
221 235 255
221 235 255
221 235 255
221 235 255
221 235 255
221 235 255
221 235 255
221 235 255
221 235 255
221 235 255
221 235 255
221 235 255
221 235 255
221 235 255
221 235 255
221 235 255
221 235 255
221 235 255
221 235 255
221 235 255
221 235 255
221 235 255
221 235 255
221 235 255
221 235 255
221 235 255
221 235 255
221 235 255
221 235 255
221 235 255
221 235 255
221 235 255
221 235 255
221 235 255
221 235 255
221 235 255
221 235 255
221 235 255
221 235 255
221 235 255
221 235 255
221 235 255
221 235 255
221 235 255
221 235 255
221 235 255
221 235 255
221 235 255
221 235 255
221 235 255
221 235 255
221 235 255
221 235 255
221 235 255
221 235 255
221 235 255
221 235 255
221 235 255
221 235 255
221 235 255
221 235 255
221 235 255
221 235 255
221 235 255
221 235 255
221 235 255
221 235 255
221 235 255
221 235 255
221 235 255
221 235 255
221 235 255
221 235 255
221 235 255
221 235 255
221 235 255
221 235 255
221 235 255
221 235 255
221 235 255
221 235 255
221 235 255
221 235 255
221 235 255
221 235 255
221 235 255
221 235 255
221 235 255
221 235 255
221 235 255
221 235 255
221 235 255
221 235 255
221 235 255
221 235 255
221 235 255
221 236 255
221 236 255
221 236 255
221 236 255
221 236 255
221 236 255
221 236 255
221 236 255
221 236 255
221 236 255
221 236 255
221 236 255
221 236 255
221 236 255
221 236 255
221 236 255
221 236 255
221 236 255
221 236 255
221 236 255
221 236 255
221 236 255
221 236 255
221 236 255
221 236 255
221 236 255
221 236 255
221 236 255
221 236 255
221 236 255
221 236 255
221 236 255
221 236 255
221 236 255
221 236 255
221 236 255
221 236 255
221 236 255
221 236 255
221 236 255
221 236 255
221 236 255
221 236 255
221 236 255
221 236 255
221 236 255
221 236 255
221 236 255
221 236 255
221 236 255
221 236 255
221 236 255
221 236 255
221 236 255
221 236 255
221 236 255
221 236 255
221 236 255
221 236 255
221 236 255
221 236 255
221 236 255
221 236 255
221 236 255
221 236 255
221 236 255
221 236 255
221 236 255
221 236 255
221 236 255
221 236 255
221 236 255
221 236 255
221 236 255
221 236 255
221 236 255
221 236 255
221 236 255
221 236 255
221 236 255
221 236 255
221 236 255
221 236 255
221 236 255
221 236 255
221 236 255
221 236 255
221 236 255
221 236 255
221 236 255
221 236 255
221 236 255
221 236 255
221 236 255
221 236 255
221 236 255
221 236 255
221 236 255
221 236 255
221 236 255
221 236 255
221 236 255
221 236 255
221 236 255
221 236 255
221 236 255
221 236 255
221 236 255
221 236 255
221 236 255
221 236 255
221 236 255
221 236 255
221 236 255
221 236 255
221 236 255
221 236 255
221 236 255
221 236 255
221 236 255
221 236 255
221 236 255
221 236 255
221 236 255
221 236 255
221 236 255
221 236 255
221 236 255
221 236 255
221 236 255
221 236 255
221 236 255
221 236 255
221 236 255
221 236 255
221 236 255
221 236 255
221 236 255
221 236 255
221 235 255
221 236 255
221 236 255
221 236 255
221 236 255
221 236 255
221 235 255
221 235 255
221 235 255
221 236 255
221 236 255
221 235 255
220 235 255
220 235 254
221 236 255
220 235 255
221 235 255
221 236 255
221 235 255
221 236 255
215 230 250
215 230 250
214 229 250
214 229 248
219 234 254
215 229 250
217 231 252
211 225 246
221 236 255
221 235 255
221 235 254
221 236 255
221 236 255
221 236 255
221 235 254
221 236 255
220 234 252
213 227 247
214 228 246
209 224 245
215 230 250
214 229 250
205 220 242
218 233 254
162 179 203
185 201 223
205 220 241
126 147 176
59 94 128
60 94 134
59 94 122
59 94 139
61 96 140
60 95 142
61 95 135
60 94 133
61 95 135
59 94 134
60 94 130
60 95 131
60 95 134
60 95 133
61 96 147
59 94 139
59 94 140
59 93 131
59 93 130
59 93 127
59 93 133
60 93 133
60 93 141
58 89 116
57 88 120
56 88 116
92 103 108
40 42 27
32 41 26
39 49 32
45 59 45
48 63 47
47 62 47
51 68 57
52 70 54
137 133 80
197 182 113
198 182 114
198 182 114
198 182 114
198 182 114
198 182 114
198 182 114
198 182 114
198 182 114
198 182 114
198 182 114
198 182 114
198 182 114
198 182 114
198 182 114
198 182 114
198 182 114
198 182 114
198 182 114
198 182 114
198 182 114
198 182 114
198 182 114
198 182 114
198 182 114
198 182 114
198 182 114
198 182 114
198 182 114
198 182 114
198 182 114
198 182 114
198 182 114
198 182 114
198 182 114
198 182 114
198 182 114
198 182 114
198 182 114
198 182 114
198 182 114
198 182 114
198 182 114
202 192 148
221 236 255
221 236 255
221 236 255
221 236 255
221 236 255
221 236 255
221 236 255
221 236 255
221 236 255
221 236 255
221 236 255
221 236 255
221 236 255
221 236 255
221 236 255
221 236 255
221 236 255
221 236 255
221 236 255
221 236 255
221 236 255
221 236 255
221 236 255
221 236 255
221 236 255
221 236 255
221 236 255
221 236 255
221 236 255
221 236 255
221 236 255
221 236 255
221 236 255
221 236 255
221 236 255
221 236 255
221 236 255
221 236 255
221 236 255
221 236 255
221 236 255
221 236 255
221 236 255
221 236 255
221 236 255
221 236 255
221 236 255
221 236 255
221 236 255
221 236 255
221 236 255
221 236 255
221 236 255
221 236 255
221 236 255
221 236 255
221 236 255
221 236 255
221 236 255
221 236 255
221 236 255
221 236 255
221 236 255
221 236 255
221 236 255
221 236 255
221 236 255
221 236 255
221 236 255
221 236 255
221 236 255
221 236 255
221 236 255
221 236 255
221 236 255
221 236 255
221 236 255
221 236 255
221 236 255
221 236 255
221 236 255
221 236 255
221 236 255
221 236 255
221 236 255
221 236 255
221 236 255
221 236 255
221 236 255
221 236 255
221 236 255
221 236 255
221 236 255
221 236 255
221 236 255
221 236 255
221 236 255
221 236 255
221 236 255
221 236 255
221 236 255
221 236 255
221 236 255
221 236 255
221 236 255
221 236 255
221 236 255
221 236 255
221 236 255
221 236 255
221 236 255
221 236 255
221 236 255
221 236 255
221 236 255
221 236 255
221 236 255
221 236 255
221 236 255
221 236 255
221 236 255
221 236 255
221 236 255
221 236 255
221 236 255
221 236 255
221 236 255
221 236 255
221 236 255
221 236 255
221 236 255
221 236 255
221 236 255
221 236 255
221 236 255
221 236 255
221 236 255
221 236 255
221 236 255
221 236 255
221 236 255
221 236 255
221 236 255
221 236 255
221 236 255
221 236 255
221 236 255
221 236 255
221 236 255
221 236 255
221 236 255
221 236 255
221 236 255
221 236 255
221 236 255
221 236 255
221 236 255
221 236 255
221 236 255
221 236 255
221 236 255
221 236 255
221 236 255
221 236 255
221 236 255
221 236 255
221 236 255
221 236 255
221 236 255
221 236 255
221 236 255
221 236 255
221 236 255
221 236 255
221 236 255
221 236 255
221 236 255
221 236 255
221 236 255
221 236 255
221 236 255
221 236 255
221 236 255
221 236 255
221 236 255
221 236 255
221 236 255
221 236 255
221 236 255
221 236 255
221 236 255
221 236 255
221 236 255
221 236 255
221 236 255
221 236 255
221 236 255
221 236 255
221 236 255
221 236 255
221 236 255
221 236 255
221 236 255
221 236 255
221 236 255
221 236 255
222 236 255
221 236 255
221 236 255
222 236 255
221 236 255
222 236 255
222 236 255
222 236 255
222 236 255
222 236 255
222 236 255
222 236 255
222 236 255
221 236 255
222 236 255
222 236 255
222 236 255
222 236 255
222 236 255
222 236 255
222 236 255
222 236 255
222 236 255
222 236 255
222 236 255
222 236 255
222 236 255
222 236 255
222 236 255
222 236 255
222 236 255
222 236 255
222 236 255
222 236 255
222 236 255
222 236 255
222 236 255
222 236 255
222 236 255
222 236 255
222 236 255
222 236 255
222 236 255
222 236 255
222 236 255
222 236 255
222 236 255
222 236 255
222 236 255
222 236 255
222 236 255
222 236 255
222 236 255
222 236 255
222 236 255
222 236 255
222 236 255
222 236 255
222 236 255
222 236 255
222 236 255
222 236 255
222 236 255
222 236 255
222 236 255
222 236 255
222 236 255
223 236 255
223 236 255
223 236 255
223 237 255
223 237 255
222 236 255
222 236 255
221 235 255
222 236 255
222 236 255
220 234 254
221 235 255
221 235 254
221 235 254
222 236 253
221 235 253
221 235 253
221 235 253
221 235 250
216 230 249
216 230 248
212 226 242
209 224 242
215 230 245
214 228 241
214 229 245
215 230 247
221 235 253
220 234 249
219 234 248
220 234 250
221 235 253
217 232 242
218 233 242
220 235 250
216 231 238
215 230 244
216 230 247
217 231 250
216 230 250
214 228 248
217 231 251
209 224 239
140 159 166
168 185 185
199 214 232
120 140 166
58 92 118
60 95 136
61 96 140
59 94 124
60 94 129
60 94 133
60 94 126
60 95 133
60 95 134
59 94 129
61 96 140
59 93 122
59 93 121
60 95 135
57 90 116
59 93 131
59 93 125
60 94 130
60 94 133
59 92 123
59 93 129
57 89 121
57 88 110
57 87 115
57 89 128
56 86 120
109 113 89
63 61 36
32 41 26
39 51 40
42 55 40
45 59 35
50 65 50
51 67 47
52 70 55
125 127 42
169 161 57
167 160 53
173 165 69
172 164 65
172 164 65
173 165 69
178 168 79
176 166 73
176 167 75
175 166 72
181 170 84
179 169 80
181 170 84
180 169 82
176 167 75
182 170 84
183 171 87
186 174 93
189 175 96
194 179 106
192 177 101
194 179 106
194 179 105
194 179 105
198 182 111
199 183 112
200 183 114
200 183 114
200 183 114
200 183 114
200 183 114
200 183 114
200 183 114
200 183 114
199 183 114
199 183 114
199 183 114
199 183 114
199 183 114
199 183 114
199 183 114
199 183 114
199 183 114
207 203 178
222 236 255
222 236 255
222 236 255
222 236 255
222 236 255
222 236 255
222 236 255
222 236 255
222 236 255
222 236 255
222 236 255
222 236 255
222 236 255
222 236 255
222 236 255
222 236 255
222 236 255
222 236 255
222 236 255
222 236 255
222 236 255
222 236 255
222 236 255
222 236 255
222 236 255
222 236 255
222 236 255
222 236 255
222 236 255
222 236 255
222 236 255
222 236 255
222 236 255
222 236 255
222 236 255
222 236 255
222 236 255
222 236 255
222 236 255
222 236 255
222 236 255
222 236 255
222 236 255
222 236 255
222 236 255
222 236 255
222 236 255
222 236 255
222 236 255
222 236 255
222 236 255
221 236 255
222 236 255
222 236 255
222 236 255
221 236 255
221 236 255
222 236 255
221 236 255
221 236 255
221 236 255
221 236 255
221 236 255
221 236 255
221 236 255
221 236 255
221 236 255
221 236 255
221 236 255
221 236 255
221 236 255
221 236 255
221 236 255
221 236 255
221 236 255
221 236 255
221 236 255
221 236 255
221 236 255
221 236 255
221 236 255
221 236 255
221 236 255
221 236 255
221 236 255
221 236 255
221 236 255
221 236 255
221 236 255
221 236 255
221 236 255
221 236 255
221 236 255
221 236 255
221 236 255
221 236 255
221 236 255
221 236 255
221 236 255
221 236 255
221 236 255
221 236 255
221 236 255
221 236 255
221 236 255
221 236 255
221 236 255
221 236 255
221 236 255
221 236 255
221 236 255
221 236 255
221 236 255
221 236 255
221 236 255
221 236 255
221 236 255
221 236 255
221 236 255
221 236 255
221 236 255
221 236 255
221 236 255
221 236 255
221 236 255
221 236 255
221 236 255
221 236 255
221 236 255
221 236 255
221 236 255
221 236 255
221 236 255
222 236 255
222 236 255
222 236 255
222 236 255
222 236 255
222 236 255
222 236 255
222 236 255
222 236 255
222 236 255
222 236 255
222 236 255
222 236 255
222 236 255
222 236 255
222 236 255
222 236 255
222 236 255
222 236 255
222 236 255
222 236 255
222 236 255
222 236 255
222 236 255
222 236 255
222 236 255
222 236 255
222 236 255
222 236 255
222 236 255
222 236 255
222 236 255
222 236 255
222 236 255
222 236 255
222 236 255
222 236 255
222 236 255
222 236 255
222 236 255
222 236 255
222 236 255
222 236 255
222 236 255
222 236 255
222 236 255
222 236 255
222 236 255
222 236 255
222 236 255
222 236 255
222 236 255
222 236 255
222 236 255
222 236 255
222 236 255
222 236 255
222 236 255
222 236 255
222 236 255
222 236 255
222 236 255
222 236 255
222 236 255
222 236 255
222 236 255
222 236 255
222 236 255
222 236 255
222 236 255
222 236 255
222 236 255
222 236 255
222 236 255
222 236 255
222 236 255
222 236 255
222 236 255
222 236 255
222 236 255
222 236 255
222 236 255
222 236 255
222 236 255
222 236 255
222 236 255
222 236 255
222 236 255
222 236 255
222 236 255
222 236 255
222 236 255
222 236 255
222 236 255
222 236 255
222 236 255
222 236 255
222 236 255
222 236 255
222 236 255
222 236 255
222 236 255
222 236 255
222 236 255
222 236 255
222 236 255
222 236 255
222 236 255
222 236 255
222 236 255
222 236 255
222 236 255
222 236 255
222 236 255
222 236 255
222 236 255
222 236 255
222 236 255
222 236 255
222 236 255
222 236 255
222 236 255
222 236 255
222 236 255
222 236 255
222 236 255
222 236 255
222 236 255
222 236 255
222 236 255
222 236 255
222 236 255
222 236 255
222 236 255
222 236 255
223 236 255
223 236 255
223 237 255
223 237 255
223 237 254
224 237 255
224 237 253
220 234 242
212 227 220
206 223 199
215 230 231
221 235 248
220 234 244
220 234 245
221 235 248
218 232 240
220 234 248
220 234 248
220 234 246
219 233 244
219 233 244
220 234 246
217 232 238
221 235 248
217 232 242
217 231 244
210 225 236
216 230 240
211 226 236
199 214 226
217 231 246
220 234 248
219 233 244
220 234 249
219 233 246
217 232 240
222 235 250
218 232 240
218 233 245
219 233 242
218 232 242
211 226 228
203 219 212
198 215 203
199 216 201
186 204 174
184 204 140
172 194 103
129 153 122
164 188 51
196 213 181
121 142 165
58 92 124
57 91 123
60 94 121
59 94 131
59 93 128
59 93 126
60 95 136
61 96 145
58 92 120
59 94 134
59 93 130
58 92 121
59 93 134
60 94 137
58 92 125
59 93 128
59 94 134
61 95 134
58 91 119
59 92 127
61 94 136
57 90 119
57 89 121
56 88 117
59 91 131
54 81 104
120 127 108
98 97 15
32 41 24
34 44 27
41 53 35
44 57 39
46 60 41
49 66 42
51 69 51
134 134 26
154 151 0
155 152 0
153 150 0
152 150 0
155 152 0
155 152 0
154 152 0
156 153 0
154 152 0
155 152 0
155 152 0
153 151 0
155 153 0
157 153 0
156 153 0
154 152 0
155 153 0
155 153 0
156 153 0
156 153 0
155 153 0
157 153 0
157 154 0
156 153 0
155 153 0
156 153 0
158 155 28
159 156 32
165 159 47
165 159 47
167 161 56
176 167 74
178 168 76
178 168 79
185 173 90
189 175 95
192 178 102
201 184 114
200 184 114
200 184 114
200 183 114
200 183 114
200 183 114
207 201 171
222 236 255
222 236 255
222 236 255
222 236 255
222 236 255
222 236 255
222 236 255
222 236 255
222 236 255
222 236 255
222 236 255
222 236 255
222 236 255
222 236 255
222 236 255
222 236 255
222 236 255
222 236 255
222 236 255
222 236 255
222 236 255
222 236 255
222 236 255
222 236 255
222 236 255
222 236 255
222 236 255
222 236 255
222 236 255
222 236 255
222 236 255
222 236 255
222 236 255
222 236 255
222 236 255
222 236 255
222 236 255
222 236 255
222 236 255
222 236 255
222 236 255
222 236 255
222 236 255
222 236 255
222 236 255
222 236 255
222 236 255
222 236 255
222 236 255
222 236 255
222 236 255
222 236 255
222 236 255
222 236 255
222 236 255
222 236 255
222 236 255
222 236 255
222 236 255
222 236 255
222 236 255
222 236 255
222 236 255
222 236 255
222 236 255
222 236 255
222 236 255
222 236 255
222 236 255
222 236 255
222 236 255
222 236 255
222 236 255
222 236 255
222 236 255
222 236 255
222 236 255
222 236 255
222 236 255
222 236 255
222 236 255
222 236 255
222 236 255
222 236 255
222 236 255
222 236 255
222 236 255
222 236 255
222 236 255
222 236 255
222 236 255
222 236 255
222 236 255
222 236 255
222 236 255
222 236 255
222 236 255
222 236 255
222 236 255
222 236 255
222 236 255
222 236 255
222 236 255
222 236 255
222 236 255
222 236 255
222 236 255
222 236 255
222 236 255
222 236 255
222 236 255
222 236 255
222 236 255
222 236 255
222 236 255
222 236 255
222 236 255
222 236 255
222 236 255
222 236 255
222 236 255
222 236 255
222 236 255
222 236 255
222 236 255
222 236 255
222 236 255
222 236 255
222 236 255
222 236 255
222 236 255
222 236 255
222 236 255
222 236 255
222 236 255
222 236 255
222 236 255
222 236 255
222 236 255
222 236 255
222 236 255
222 236 255
222 236 255
222 236 255
222 236 255
222 236 255
222 236 255
222 236 255
222 236 255
222 236 255
222 236 255
222 236 255
222 236 255
222 236 255
222 236 255
222 236 255
222 236 255
222 236 255
222 236 255
222 236 255
222 236 255
222 236 255
222 236 255
222 236 255
222 236 255
222 236 255
222 236 255
222 236 255
222 236 255
222 236 255
222 236 255
222 236 255
222 236 255
222 236 255
222 236 255
222 236 255
222 236 255
222 236 255
222 236 255
222 236 255
222 236 255
222 236 255
222 236 255
222 236 255
222 236 255
222 236 255
222 236 255
222 236 255
222 236 255
222 236 255
222 236 255
222 236 255
222 236 255
222 236 255
222 236 255
222 236 255
222 236 255
222 236 255
222 236 255
222 236 255
222 236 255
222 236 255
222 236 255
222 236 255
222 236 255
222 236 255
222 236 255
222 236 255
222 236 255
222 236 255
222 236 255
222 236 255
222 236 255
222 236 255
222 236 255
222 236 255
222 236 255
222 236 255
222 236 255
222 236 255
222 236 255
222 236 255
222 236 255
222 236 255
222 236 255
222 236 255
222 236 255
222 236 255
222 236 255
222 236 255
222 236 255
222 236 255
222 236 255
222 236 255
222 236 255
222 236 255
222 236 255
222 236 255
222 236 255
222 236 255
222 236 255
222 236 255
222 236 255
222 236 255
222 236 255
222 236 255
222 236 255
222 236 255
222 236 255
222 236 255
222 236 255
222 236 255
222 236 255
223 236 255
223 236 255
223 236 255
223 236 255
223 236 255
223 236 255
223 236 255
223 236 255
223 236 255
223 236 255
223 236 255
223 236 255
223 236 255
223 236 255
223 236 255
223 236 254
221 235 249
218 232 237
220 234 242
212 227 217
198 216 167
184 206 111
177 200 57
176 199 36
176 199 25
192 211 144
191 211 144
187 208 125
194 213 157
190 210 140
195 214 161
196 215 165
197 216 175
201 218 189
200 217 185
209 225 209
204 221 193
206 222 199
209 225 214
201 218 186
202 220 194
205 222 203
195 214 177
202 219 191
197 215 166
195 214 159
197 216 177
196 215 167
191 211 151
192 212 155
189 209 142
189 210 142
181 203 105
176 198 67
177 199 72
176 198 72
173 196 62
173 195 78
171 194 51
172 195 70
166 190 74
177 199 99
174 195 97
142 165 84
170 194 40
175 196 110
144 163 148
58 93 117
58 91 122
58 92 125
60 95 136
59 94 122
59 93 129
59 93 115
59 92 118
59 93 124
60 94 134
59 94 126
60 95 135
59 94 133
59 93 126
59 93 129
59 93 125
58 91 120
57 90 120
59 92 124
59 91 127
57 91 117
58 90 126
55 86 106
58 90 115
57 88 117
51 76 83
138 155 133
131 132 10
35 45 18
38 50 23
40 52 30
44 57 33
46 60 38
48 63 41
66 79 46
142 140 0
146 143 0
145 144 0
147 145 0
153 150 0
152 149 0
148 146 0
153 150 0
154 151 0
152 150 0
152 149 0
154 151 0
154 152 0
153 150 0
155 152 0
155 153 0
153 150 0
155 152 0
155 152 0
156 153 0
155 152 0
156 153 0
157 154 0
156 153 0
154 152 0
157 153 0
155 153 0
155 153 0
157 154 0
156 153 0
157 154 0
156 153 0
156 153 0
155 153 0
157 153 0
157 154 0
155 153 0
156 153 0
158 154 16
162 157 39
174 165 70
187 174 92
199 182 111
200 184 114
216 221 221
223 236 255
223 236 255
223 236 255
223 236 255
223 236 255
223 236 255
223 236 255
223 236 255
223 236 255
223 236 255
223 236 255
223 236 255
223 236 255
222 236 255
222 236 255
222 236 255
222 236 255
222 236 255
222 236 255
222 236 255
222 236 255
222 236 255
222 236 255
222 236 255
222 236 255
222 236 255
222 236 255
222 236 255
222 236 255
222 236 255
222 236 255
222 236 255
222 236 255
222 236 255
222 236 255
222 236 255
222 236 255
222 236 255
222 236 255
222 236 255
222 236 255
222 236 255
222 236 255
222 236 255
222 236 255
222 236 255
222 236 255
222 236 255
222 236 255
222 236 255
222 236 255
222 236 255
222 236 255
222 236 255
222 236 255
222 236 255
222 236 255
222 236 255
222 236 255
222 236 255
222 236 255
222 236 255
222 236 255
222 236 255
222 236 255
222 236 255
222 236 255
222 236 255
222 236 255
222 236 255
222 236 255
222 236 255
222 236 255
222 236 255
222 236 255
222 236 255
222 236 255
222 236 255
222 236 255
222 236 255
222 236 255
222 236 255
222 236 255
222 236 255
222 236 255
222 236 255
222 236 255
222 236 255
222 236 255
222 236 255
222 236 255
222 236 255
222 236 255
222 236 255
222 236 255
222 236 255
222 236 255
222 236 255
222 236 255
222 236 255
222 236 255
222 236 255
222 236 255
222 236 255
222 236 255
222 236 255
222 236 255
222 236 255
222 236 255
222 236 255
222 236 255
222 236 255
222 236 255
222 236 255
222 236 255
222 236 255
222 236 255
222 236 255
222 236 255
222 236 255
222 236 255
222 236 255
222 236 255
222 236 255
222 236 255
222 236 255
222 236 255
222 236 255
222 236 255
222 236 255
222 236 255
222 236 255
222 236 255
222 236 255
222 236 255
222 236 255
222 236 255
222 236 255
222 236 255
222 236 255
222 236 255
222 236 255
222 236 255
222 236 255
222 236 255
222 236 255
222 236 255
222 236 255
222 236 255
222 236 255
222 236 255
222 236 255
222 236 255
222 236 255
222 236 255
222 236 255
222 236 255
222 236 255
222 236 255
222 236 255
222 236 255
222 236 255
222 236 255
222 236 255
222 236 255
222 236 255
222 236 255
222 236 255
222 236 255
222 236 255
222 236 255
222 236 255
222 236 255
222 236 255
222 236 255
222 236 255
222 236 255
222 236 255
222 236 255
222 236 255
222 236 255
222 236 255
222 236 255
222 236 255
222 236 255
222 236 255
222 236 255
222 236 255
222 236 255
222 236 255
222 236 255
222 236 255
222 236 255
222 236 255
222 236 255
222 236 255
222 236 255
222 236 255
222 236 255
222 236 255
222 236 255
222 236 255
222 236 255
222 236 255
222 236 255
222 236 255
222 236 255
222 236 255
222 236 255
222 236 255
222 236 255
222 236 255
222 236 255
222 236 255
222 236 255
222 236 255
222 236 255
222 236 255
222 236 255
222 236 255
222 236 255
222 236 255
222 236 255
223 236 255
223 236 255
223 236 255
223 236 255
223 236 255
223 236 255
223 236 255
223 236 255
223 236 255
223 236 255
223 236 255
223 236 255
223 236 255
223 236 255
223 236 255
223 236 255
223 236 255
223 236 255
223 236 255
223 236 255
223 236 255
223 236 255
223 236 255
223 236 255
223 236 255
223 236 255
223 236 255
223 236 255
223 236 255
223 236 255
223 237 255
223 237 255
223 237 255
223 237 255
223 237 255
223 237 255
223 237 255
223 237 255
223 237 255
223 237 255
223 237 255
223 237 255
223 237 255
223 237 255
221 235 250
213 229 226
212 227 218
213 228 221
193 212 147
176 199 36
176 199 44
178 200 44
175 198 0
173 197 0
174 198 0
178 200 67
187 207 125
186 207 125
183 205 102
180 203 95
179 201 84
178 201 72
177 199 57
176 200 84
176 199 65
176 200 62
176 199 65
176 199 72
175 199 57
178 201 72
177 200 80
175 199 51
175 199 51
175 199 62
175 198 57
175 199 62
175 198 44
175 199 76
175 198 57
175 199 62
175 199 72
175 199 72
173 197 57
173 196 72
175 199 57
177 201 102
167 190 67
171 195 72
169 192 57
174 197 76
171 193 72
168 189 95
167 189 72
157 180 12
174 197 44
179 201 76
152 176 62
57 91 115
58 92 124
59 93 120
57 91 118
60 94 126
58 91 114
59 93 133
58 92 118
59 92 126
58 92 120
58 92 130
60 94 128
58 91 113
58 91 124
58 92 115
59 92 122
57 90 114
58 91 114
58 91 123
59 91 121
57 90 118
58 90 117
56 87 109
55 86 99
54 84 103
53 82 105
152 175 29
157 162 0
102 102 11
37 48 15
40 52 23
44 57 39
42 55 28
44 58 29
104 105 19
137 136 0
134 133 0
139 138 0
142 140 0
139 138 0
149 146 0
151 148 0
151 149 0
152 149 0
153 150 0
154 152 0
151 149 0
149 146 0
153 150 0
152 149 0
154 150 0
151 149 0
153 150 0
155 152 0
155 152 0
153 150 0
153 150 0
154 152 0
155 151 0
156 153 0
156 152 0
156 153 0
155 153 0
157 153 0
156 153 0
157 153 0
157 153 0
155 153 0
155 153 0
155 153 0
155 152 0
157 153 0
155 153 0
157 154 0
155 152 0
156 153 0
155 153 0
163 158 42
197 181 108
221 232 245
223 237 255
223 237 255
223 237 255
223 237 255
223 237 255
223 237 255
223 237 255
223 237 255
223 237 255
223 237 255
223 237 255
223 236 255
223 237 255
223 236 255
223 236 255
223 236 255
223 236 255
223 236 255
223 236 255
223 236 255
223 236 255
223 236 255
223 236 255
223 236 255
223 236 255
223 236 255
223 236 255
223 236 255
223 236 255
223 236 255
223 236 255
223 236 255
223 236 255
223 236 255
223 236 255
223 236 255
223 236 255
223 236 255
223 236 255
223 236 255
223 236 255
223 236 255
222 236 255
222 236 255
222 236 255
222 236 255
222 236 255
222 236 255
222 236 255
222 236 255
222 236 255
222 236 255
222 236 255
222 236 255
222 236 255
222 236 255
222 236 255
222 236 255
222 236 255
222 236 255
222 236 255
222 236 255
222 236 255
222 236 255
222 236 255
222 236 255
222 236 255
222 236 255
222 236 255
222 236 255
222 236 255
222 236 255
222 236 255
222 236 255
222 236 255
222 236 255
222 236 255
222 236 255
222 236 255
222 236 255
222 236 255
222 236 255
222 236 255
222 236 255
222 236 255
222 236 255
222 236 255
222 236 255
222 236 255
222 236 255
222 236 255
222 236 255
222 236 255
222 236 255
222 236 255
222 236 255
222 236 255
222 236 255
222 236 255
222 236 255
222 236 255
222 236 255
222 236 255
222 236 255
222 236 255
222 236 255
222 236 255
222 236 255
222 236 255
222 236 255
222 236 255
222 236 255
222 236 255
222 236 255
222 236 255
222 236 255
222 236 255
222 236 255
222 236 255
222 236 255
222 236 255
222 236 255
222 236 255
222 236 255
222 236 255
222 236 255
222 236 255
222 236 255
222 236 255
222 236 255
222 236 255
222 236 255
222 236 255
222 236 255
222 236 255
222 236 255
222 236 255
222 236 255
222 236 255
222 236 255
222 236 255
222 236 255
222 236 255
222 236 255
222 236 255
222 236 255
222 236 255
222 236 255
222 236 255
222 236 255
222 236 255
222 236 255
222 236 255
222 236 255
222 236 255
222 236 255
222 236 255
222 236 255
222 236 255
222 236 255
222 236 255
222 236 255
222 236 255
222 236 255
222 236 255
222 236 255
222 236 255
222 236 255
222 236 255
222 236 255
222 236 255
222 236 255
222 236 255
222 236 255
222 236 255
222 236 255
222 236 255
222 236 255
222 236 255
222 236 255
222 236 255
222 236 255
222 236 255
222 236 255
222 236 255
222 236 255
222 236 255
222 236 255
222 236 255
222 236 255
222 236 255
222 236 255
222 236 255
222 236 255
223 236 255
222 236 255
223 236 255
223 236 255
223 236 255
223 236 255
223 236 255
223 236 255
223 236 255
223 236 255
223 236 255
223 236 255
223 236 255
223 236 255
223 236 255
223 236 255
223 236 255
223 236 255
223 236 255
223 236 255
223 236 255
223 236 255
223 236 255
223 236 255
223 236 255
223 236 255
223 236 255
223 236 255
223 236 255
223 236 255
223 236 255
223 236 255
223 236 255
223 236 255
223 236 255
223 236 255
223 236 255
223 237 255
223 237 255
223 237 255
223 237 255
223 237 255
223 237 255
223 237 255
223 237 255
223 237 255
223 237 255
223 237 255
223 237 255
223 237 255
223 237 255
223 237 255
223 237 255
223 237 255
223 237 255
223 237 255
223 237 255
223 237 255
223 237 255
223 237 255
223 237 255
223 237 255
223 237 255
223 237 255
223 237 255
224 237 255
224 237 255
224 237 255
224 237 255
224 237 255
224 237 255
224 237 255
224 237 255
212 228 223
208 224 204
211 227 218
195 214 159
177 200 62
176 199 36
176 199 36
174 197 0
175 198 25
174 197 0
175 198 0
174 198 0
179 201 80
186 207 125
184 205 118
178 201 80
182 204 95
178 202 88
176 199 51
176 199 65
177 200 67
176 200 62
177 200 72
174 199 72
178 201 72
176 200 76
175 199 76
173 197 44
178 201 99
175 199 76
175 199 57
175 199 72
175 198 62
175 198 76
175 199 62
177 200 88
174 198 72
174 198 51
174 198 72
173 197 57
175 199 80
173 196 67
173 195 62
173 197 62
166 190 67
169 192 67
167 188 86
174 196 107
145 167 25
162 185 18
174 196 62
172 196 44
173 197 0
90 118 80
59 93 125
58 92 121
57 90 114
58 91 118
58 92 110
56 89 105
59 93 115
56 89 111
59 93 120
58 92 111
57 91 107
58 92 118
58 92 115
58 91 108
57 90 118
57 90 118
57 90 115
59 92 130
55 88 108
57 90 105
55 86 109
58 90 124
55 85 109
52 80 92
83 106 77
172 195 0
168 186 0
141 139 0
99 99 9
43 53 20
41 55 29
40 53 20
78 79 16
99 99 0
122 120 0
132 129 0
131 129 0
129 128 0
142 140 0
140 138 0
142 138 0
144 142 0
146 143 0
148 146 0
148 147 0
149 146 0
149 147 0
152 149 0
152 150 0
153 150 0
153 150 0
154 150 0
148 146 0
154 151 0
154 150 0
155 151 0
150 148 0
155 152 0
151 149 0
154 152 0
154 152 0
154 152 0
155 152 0
155 152 0
154 152 0
154 151 0
155 153 0
156 152 0
156 153 0
155 152 0
157 153 0
157 154 0
155 152 0
156 153 0
156 153 0
155 153 0
155 153 0
196 195 163
224 237 255
224 237 255
224 237 255
224 237 255
224 237 255
224 237 255
224 237 255
224 237 255
224 237 255
223 237 255
223 237 255
223 237 255
223 237 255
223 237 255
223 237 255
223 237 255
223 237 255
223 237 255
223 237 255
223 237 255
223 237 255
223 237 255
223 237 255
223 237 255
223 237 255
223 237 255
223 237 255
223 237 255
223 237 255
223 237 255
223 237 255
223 237 255
223 237 255
223 237 255
223 237 255
223 237 255
223 236 255
223 236 255
223 236 255
223 236 255
223 236 255
223 236 255
223 236 255
223 236 255
223 236 255
223 236 255
223 236 255
223 236 255
223 236 255
223 236 255
223 236 255
223 236 255
223 236 255
223 236 255
223 236 255
223 236 255
223 236 255
223 236 255
223 236 255
223 236 255
223 236 255
223 236 255
223 236 255
223 236 255
223 236 255
223 236 255
223 236 255
223 236 255
223 236 255
223 236 255
223 236 255
222 236 255
222 236 255
222 236 255
222 236 255
222 236 255
222 236 255
222 236 255
222 236 255
222 236 255
222 236 255
222 236 255
222 236 255
222 236 255
222 236 255
222 236 255
222 236 255
222 236 255
222 236 255
222 236 255
222 236 255
222 236 255
222 236 255
222 236 255
222 236 255
222 236 255
222 236 255
222 236 255
222 236 255
222 236 255
222 236 255
222 236 255
222 236 255
222 236 255
222 236 255
222 236 255
222 236 255
222 236 255
222 236 255
222 236 255
222 236 255
222 236 255
222 236 255
222 236 255
222 236 255
222 236 255
222 236 255
222 236 255
222 236 255
222 236 255
222 236 255
222 236 255
222 236 255
222 236 255
222 236 255
222 236 255
222 236 255
222 236 255
222 236 255
222 236 255
222 236 255
222 236 255
222 236 255
222 236 255
222 236 255
222 236 255
222 236 255
222 236 255
222 236 255
222 236 255
222 236 255
222 236 255
222 236 255
222 236 255
222 236 255
222 236 255
222 236 255
222 236 255
222 236 255
222 236 255
222 236 255
222 236 255
222 236 255
222 236 255
222 236 255
222 236 255
222 236 255
222 236 255
222 236 255
222 236 255
222 236 255
222 236 255
222 236 255
222 236 255
222 236 255
222 236 255
223 236 255
222 236 255
223 236 255
223 236 255
223 236 255
223 236 255
223 236 255
223 236 255
223 236 255
223 236 255
223 236 255
223 236 255
223 236 255
223 236 255
223 236 255
223 236 255
223 236 255
223 236 255
223 236 255
223 236 255
223 236 255
223 236 255
223 236 255
223 236 255
223 236 255
223 236 255
223 236 255
223 236 255
223 236 255
223 236 255
223 236 255
223 236 255
223 236 255
223 236 255
223 236 255
223 236 255
223 236 255
223 236 255
223 236 255
223 236 255
223 236 255
223 236 255
223 236 255
223 236 255
223 237 255
223 237 255
223 237 255
223 237 255
223 237 255
223 237 255
223 237 255
223 237 255
223 237 255
223 237 255
223 237 255
223 237 255
223 237 255
223 237 255
223 237 255
223 237 255
223 237 255
223 237 255
223 237 255
223 237 255
223 237 255
223 237 255
223 237 255
223 237 255
223 237 255
223 237 255
223 237 255
223 237 255
223 237 255
223 237 255
223 237 255
223 237 255
223 237 255
224 237 255
224 237 255
224 237 255
224 237 255
224 237 255
224 237 255
224 237 255
224 237 255
224 237 255
224 237 255
224 237 255
224 237 255
224 237 255
224 237 255
224 237 255
224 237 255
224 237 255
224 237 255
224 237 255
224 237 255
224 237 255
224 237 255
224 237 255
224 237 255
224 237 255
222 236 250
197 216 173
210 226 215
182 204 92
175 198 25
176 199 51
175 197 51
174 198 0
172 196 0
175 198 0
174 197 0
172 196 0
176 199 36
182 204 105
180 202 88
177 199 92
181 203 95
178 201 80
178 201 76
177 200 67
177 201 76
177 200 62
175 199 67
175 198 67
176 199 67
176 200 80
177 200 67
174 198 67
174 197 57
173 197 51
172 195 57
173 196 62
175 199 67
174 198 80
175 199 72
173 197 80
175 199 57
175 200 84
175 200 84
173 197 72
172 196 62
173 197 51
167 190 67
167 190 72
168 191 76
173 196 99
175 197 111
152 174 57
148 170 0
163 186 0
175 198 72
173 196 0
173 196 0
125 150 82
57 90 113
58 92 107
57 91 108
56 89 103
57 90 120
58 91 107
57 90 124
58 92 111
57 90 110
57 90 101
56 89 115
59 92 124
57 91 114
58 92 124
56 89 113
58 92 128
56 89 97
57 89 109
56 87 99
55 86 107
57 89 119
56 87 105
54 81 98
53 82 89
133 155 60
173 195 0
172 196 0
152 157 0
131 129 0
89 88 0
68 65 0
84 82 0
89 88 0
92 90 0
111 110 0
122 120 0
128 126 0
130 128 0
134 132 0
140 136 0
138 135 0
143 140 0
147 143 0
150 146 0
144 141 0
150 146 0
150 146 0
151 148 0
148 144 0
150 146 0
147 145 0
150 146 0
152 149 0
154 150 0
154 151 0
153 151 0
153 151 0
154 151 0
153 151 0
153 150 0
155 152 0
155 151 0
154 150 0
153 150 0
154 151 0
154 152 0
155 152 0
154 151 0
155 151 0
156 153 0
156 153 0
155 152 0
157 153 0
157 154 0
155 153 0
156 153 0
156 155 36
217 229 239
224 237 255
224 237 255
224 237 255
224 237 255
224 237 255
224 237 255
224 237 255
224 237 255
224 237 255
224 237 255
224 237 255
224 237 255
224 237 255
224 237 255
224 237 255
224 237 255
224 237 255
224 237 255
224 237 255
224 237 255
224 237 255
224 237 255
224 237 255
224 237 255
224 237 255
223 237 255
223 237 255
223 237 255
223 237 255
223 237 255
223 237 255
223 237 255
223 237 255
223 237 255
223 237 255
223 237 255
223 237 255
223 237 255
223 237 255
223 237 255
223 237 255
223 237 255
223 237 255
223 237 255
223 237 255
223 237 255
223 237 255
223 237 255
223 237 255
223 237 255
223 237 255
223 237 255
223 237 255
223 237 255
223 237 255
223 237 255
223 236 255
223 236 255
223 236 255
223 236 255
223 236 255
223 236 255
223 236 255
223 236 255
223 236 255
223 236 255
223 236 255
223 236 255
223 236 255
223 236 255
223 236 255
223 236 255
223 236 255
223 236 255
223 236 255
223 236 255
223 236 255
223 236 255
223 236 255
223 236 255
223 236 255
223 236 255
223 236 255
223 236 255
223 236 255
223 236 255
223 236 255
223 236 255
223 236 255
223 236 255
223 236 255
223 236 255
223 236 255
223 236 255
223 236 255
223 236 255
223 236 255
223 236 255
223 236 255
223 236 255
223 236 255
222 236 255
222 236 255
222 236 255
222 236 255
222 236 255
222 236 255
222 236 255
222 236 255
222 236 255
222 236 255
222 236 255
222 236 255
222 236 255
222 236 255
222 236 255
222 236 255
222 236 255
222 236 255
222 236 255
222 236 255
222 236 255
222 236 255
222 236 255
222 236 255
222 236 255
222 236 255
222 236 255
222 236 255
222 236 255
222 236 255
222 236 255
222 236 255
222 236 255
222 236 255
222 236 255
222 236 255
222 236 255
223 236 255
223 236 255
223 236 255
223 236 255
223 236 255
223 236 255
223 236 255
223 236 255
223 236 255
223 236 255
223 236 255
223 236 255
223 236 255
223 236 255
223 236 255
223 236 255
223 236 255
223 236 255
223 236 255
223 236 255
223 236 255
223 236 255
223 236 255
223 236 255
223 236 255
223 236 255
223 236 255
223 236 255
223 236 255
223 236 255
223 236 255
223 236 255
223 236 255
223 236 255
223 236 255
223 236 255
223 236 255
223 236 255
223 236 255
223 236 255
223 236 255
223 236 255
223 236 255
223 236 255
223 236 255
223 236 255
223 236 255
223 236 255
223 236 255
223 236 255
223 236 255
223 237 255
223 237 255
223 237 255
223 237 255
223 237 255
223 237 255
223 237 255
223 237 255
223 237 255
223 237 255
223 237 255
223 237 255
223 237 255
223 237 255
223 237 255
223 237 255
223 237 255
223 237 255
223 237 255
223 237 255
223 237 255
223 237 255
223 237 255
223 237 255
223 237 255
223 237 255
223 237 255
223 237 255
223 237 255
223 237 255
223 237 255
223 237 255
223 237 255
223 237 255
223 237 255
223 237 255
223 237 255
224 237 255
224 237 255
224 237 255
224 237 255
224 237 255
224 237 255
224 237 255
224 237 255
224 237 255
224 237 255
224 237 255
224 237 255
224 237 255
224 237 255
224 237 255
224 237 255
224 237 255
224 237 255
224 237 255
224 237 255
224 237 255
224 237 255
224 237 255
224 237 255
224 237 255
224 237 255
224 237 255
224 237 255
224 237 255
224 237 255
224 237 255
224 237 255
224 237 255
224 237 255
224 237 255
224 237 255
224 237 255
220 234 242
217 231 234
214 229 223
208 224 206
206 222 196
198 216 171
192 212 149
204 221 193
189 209 128
175 199 51
176 199 36
176 198 51
174 198 0
174 198 0
173 196 0
171 195 0
173 196 0
173 197 0
175 198 51
181 203 95
185 206 120
182 204 102
179 202 80
180 203 99
173 196 57
175 197 80
175 199 70
177 200 62
173 197 57
174 198 57
177 200 76
175 198 62
175 199 72
176 199 67
171 196 72
176 200 72
172 196 44
171 195 57
173 197 57
170 194 44
174 198 72
173 198 92
174 198 62
171 196 80
174 197 67
172 195 44
167 190 57
167 191 67
166 189 51
169 192 88
171 192 102
153 175 44
138 159 0
160 183 0
161 184 44
172 195 51
170 193 0
169 192 0
164 189 25
83 109 78
56 89 105
56 89 111
56 89 105
56 89 110
56 89 103
56 89 94
57 90 113
55 88 108
57 90 108
56 88 110
56 89 114
55 87 107
55 87 101
57 90 114
56 88 107
57 89 110
57 89 120
56 88 102
54 86 91
54 84 100
55 86 101
53 82 87
77 97 58
167 189 0
170 192 0
167 191 0
169 186 0
134 132 0
116 110 0
100 97 0
89 85 0
95 93 0
106 104 0
116 112 0
128 124 0
125 121 0
135 132 0
135 133 0
137 133 0
138 135 0
141 139 0
139 135 0
148 145 0
150 146 0
146 142 0
146 143 0
147 143 0
148 146 0
146 144 0
151 145 0
150 146 0
148 145 0
151 148 0
150 147 0
148 145 0
152 149 0
151 148 0
152 148 0
152 148 0
155 150 0
155 152 0
151 149 0
153 150 0
153 150 0
154 151 0
154 151 0
155 152 0
153 151 0
154 150 0
156 152 0
155 150 0
156 153 0
154 151 0
156 153 0
156 153 0
170 179 76
200 218 173
202 220 184
207 223 201
210 226 212
219 233 241
221 235 246
224 237 253
224 237 255
224 237 255
224 237 255
224 237 255
224 237 255
224 237 255
224 237 255
224 237 255
224 237 255
224 237 255
224 237 255
224 237 255
224 237 255
224 237 255
224 237 255
224 237 255
224 237 255
224 237 255
224 237 255
224 237 255
224 237 255
224 237 255
224 237 255
224 237 255
224 237 255
224 237 255
224 237 255
224 237 255
224 237 255
224 237 255
224 237 255
224 237 255
224 237 255
224 237 255
224 237 255
224 237 255
223 237 255
223 237 255
223 237 255
223 237 255
223 237 255
223 237 255
223 237 255
223 237 255
223 237 255
223 237 255
223 237 255
223 237 255
223 237 255
223 237 255
223 237 255
223 237 255
223 237 255
223 237 255
223 237 255
223 237 255
223 237 255
223 237 255
223 237 255
223 237 255
223 237 255
223 237 255
223 237 255
223 237 255
223 237 255
223 237 255
223 237 255
223 237 255
223 237 255
223 237 255
223 237 255
223 237 255
223 237 255
223 236 255
223 236 255
223 236 255
223 236 255
223 236 255
223 236 255
223 236 255
223 236 255
223 236 255
223 236 255
223 236 255
223 236 255
223 236 255
223 236 255
223 236 255
223 236 255
223 236 255
223 236 255
223 236 255
223 236 255
223 236 255
223 236 255
223 236 255
223 236 255
223 236 255
223 236 255
223 236 255
223 236 255
223 236 255
223 236 255
223 236 255
223 236 255
223 236 255
223 236 255
223 236 255
223 236 255
223 236 255
223 236 255
223 236 255
223 236 255
223 236 255
223 236 255
223 236 255
223 236 255
223 236 255
223 236 255
223 236 255
223 236 255
223 236 255
223 236 255
223 236 255
223 236 255
222 236 255
222 236 255
222 236 255
223 236 255
223 236 255
223 236 255
223 236 255
223 236 255
223 236 255
223 236 255
223 236 255
223 236 255
223 236 255
223 236 255
223 236 255
223 236 255
223 236 255
223 236 255
223 236 255
223 236 255
223 236 255
223 236 255
223 236 255
223 236 255
223 236 255
223 236 255
223 236 255
223 236 255
223 236 255
223 236 255
223 236 255
223 236 255
223 236 255
223 236 255
223 236 255
223 236 255
223 237 255
223 237 255
223 237 255
223 237 255
223 237 255
223 237 255
223 237 255
223 237 255
223 237 255
223 237 255
223 237 255
223 237 255
223 237 255
223 237 255
223 237 255
223 237 255
223 237 255
223 237 255
223 237 255
223 237 255
223 237 255
223 237 255
223 237 255
223 237 255
223 237 255
223 237 255
223 237 255
223 237 255
223 237 255
223 237 255
223 237 255
223 237 255
223 237 255
223 237 255
223 237 255
223 237 255
223 237 255
223 237 255
223 237 255
223 237 255
223 237 255
223 237 255
223 237 255
224 237 255
224 237 255
224 237 255
224 237 255
224 237 255
224 237 255
224 237 255
224 237 255
224 237 255
224 237 255
224 237 255
224 237 255
224 237 255
224 237 255
224 237 255
224 237 255
224 237 255
224 237 255
224 237 255
224 237 255
224 237 255
224 237 255
224 237 255
224 237 255
224 237 255
224 237 255
224 237 255
224 237 255
224 237 255
224 237 255
224 237 255
224 237 255
224 237 255
224 237 255
224 237 255
224 237 255
224 237 255
224 237 255
224 237 255
224 237 255
225 237 255
225 237 255
222 235 248
217 232 236
210 226 211
207 223 201
203 220 184
204 221 189
197 215 161
187 207 117
185 206 108
180 202 80
179 201 51
174 197 0
173 197 0
175 198 0
175 198 0
175 198 0
175 198 0
174 197 0
188 208 130
195 214 161
177 200 57
176 199 44
175 198 44
174 198 25
175 198 0
174 197 0
171 195 0
173 197 0
174 198 0
174 197 0
175 198 36
181 203 99
179 202 84
178 201 99
179 202 95
178 200 67
177 200 76
177 199 76
174 197 57
176 199 92
176 199 72
175 199 76
173 197 72
173 196 80
174 198 67
176 200 76
171 195 44
176 200 76
171 195 36
175 199 80
170 194 44
172 196 80
173 197 67
173 197 57
173 198 80
174 197 95
168 191 76
168 191 51
172 194 80
170 192 105
166 187 92
159 180 44
153 175 0
151 173 0
161 183 44
173 195 51
169 192 0
169 193 0
169 193 0
166 190 0
145 169 47
57 88 94
57 89 95
56 89 102
58 91 108
54 87 99
56 88 97
57 89 107
56 89 102
56 89 108
58 92 121
55 88 97
56 88 102
55 87 101
56 89 107
55 88 107
53 84 87
55 86 103
56 87 105
55 86 97
50 78 82
53 83 97
50 77 82
145 164 21
171 192 0
159 179 0
168 190 0
168 189 0
153 166 0
127 121 0
110 105 0
102 97 0
110 106 0
112 106 0
106 101 0
125 120 0
120 116 0
124 120 0
134 128 0
133 130 0
133 129 0
145 140 0
137 132 0
141 137 0
142 138 0
141 137 0
146 142 0
149 143 0
143 139 0
149 144 0
151 146 0
145 142 0
147 143 0
151 146 0
146 142 0
149 146 0
151 146 0
150 146 0
150 147 0
152 150 0
151 146 0
155 152 0
153 149 0
152 148 0
153 149 0
152 148 0
154 150 0
154 150 0
156 152 0
154 150 0
156 153 0
155 151 0
154 151 0
154 151 0
156 152 0
160 162 0
175 198 0
175 198 0
175 198 0
174 198 0
174 198 0
174 198 0
173 197 0
174 198 36
178 200 57
183 204 95
192 211 144
198 216 167
205 222 194
205 222 193
206 223 196
216 230 230
217 231 233
223 236 250
225 237 255
225 237 255
224 237 255
224 237 255
224 237 255
224 237 255
224 237 255
224 237 255
224 237 255
224 237 255
224 237 255
224 237 255
224 237 255
224 237 255
224 237 255
224 237 255
224 237 255
224 237 255
224 237 255
224 237 255
224 237 255
224 237 255
224 237 255
224 237 255
224 237 255
224 237 255
224 237 255
224 237 255
224 237 255
224 237 255
224 237 255
224 237 255
224 237 255
224 237 255
224 237 255
224 237 255
224 237 255
224 237 255
224 237 255
224 237 255
224 237 255
224 237 255
223 237 255
223 237 255
223 237 255
223 237 255
223 237 255
223 237 255
223 237 255
223 237 255
223 237 255
223 237 255
223 237 255
223 237 255
223 237 255
223 237 255
223 237 255
223 237 255
223 237 255
223 237 255
223 237 255
223 237 255
223 237 255
223 237 255
223 237 255
223 237 255
223 237 255
223 237 255
223 237 255
223 237 255
223 237 255
223 237 255
223 237 255
223 237 255
223 237 255
223 237 255
223 237 255
223 237 255
223 237 255
223 237 255
223 237 255
223 237 255
223 237 255
223 237 255
223 237 255
223 236 255
223 236 255
223 236 255
223 236 255
223 236 255
223 236 255
223 236 255
223 236 255
223 236 255
223 236 255
223 236 255
223 236 255
223 236 255
223 236 255
223 236 255
223 236 255
223 236 255
223 236 255
223 236 255
223 236 255
223 236 255
223 236 255
223 236 255
223 236 255
223 236 255
223 236 255
223 236 255
223 236 255
223 236 255
223 236 255
223 236 255
223 236 255
223 236 255
223 236 255
223 236 255
223 236 255
223 236 255
223 236 255
223 236 255
223 236 255
223 236 255
223 236 255
223 236 255
223 236 255
223 237 255
223 237 255
223 237 255
223 237 255
223 237 255
223 237 255
223 237 255
223 237 255
223 237 255
223 237 255
223 237 255
223 237 255
223 237 255
223 237 255
223 237 255
223 237 255
223 237 255
223 237 255
223 237 255
223 237 255
223 237 255
223 237 255
223 237 255
223 237 255
223 237 255
223 237 255
223 237 255
223 237 255
223 237 255
223 237 255
223 237 255
223 237 255
223 237 255
223 237 255
223 237 255
223 237 255
223 237 255
223 237 255
223 237 255
223 237 255
223 237 255
223 237 255
223 237 255
223 237 255
223 237 255
223 237 255
223 237 255
223 237 255
224 237 255
224 237 255
224 237 255
224 237 255
224 237 255
224 237 255
224 237 255
224 237 255
224 237 255
224 237 255
224 237 255
224 237 255
224 237 255
224 237 255
224 237 255
224 237 255
224 237 255
224 237 255
224 237 255
224 237 255
224 237 255
224 237 255
224 237 255
224 237 255
224 237 255
224 237 255
224 237 255
224 237 255
224 237 255
224 237 255
224 237 255
224 237 255
224 237 255
224 237 255
224 237 255
224 237 255
224 237 255
224 237 255
224 237 255
224 237 255
224 237 255
224 237 255
224 237 255
224 237 255
224 237 255
224 237 255
225 237 255
225 237 255
224 237 254
221 235 245
213 228 223
209 225 209
207 224 203
199 217 173
195 214 159
196 215 159
182 204 102
183 205 102
175 199 44
173 197 0
174 198 0
173 197 0
175 198 0
175 198 0
174 198 0
175 198 0
174 197 0
175 198 0
173 197 0
176 198 0
176 198 0
174 198 0
176 199 0
173 197 0
174 197 0
173 197 0
173 197 0
177 199 0
195 214 161
185 206 111
177 200 51
173 197 36
174 198 36
175 198 0
172 197 0
174 197 25
175 198 0
175 198 0
171 194 0
173 196 0
175 197 25
179 201 76
181 203 105
183 205 114
178 201 88
176 199 88
177 200 80
177 200 80
176 199 102
172 196 67
175 197 76
175 198 57
172 196 51
174 199 80
174 198 62
173 197 67
174 197 57
171 195 67
172 196 62
170 194 76
172 196 62
176 199 67
172 195 62
173 196 84
172 194 72
169 192 76
167 188 84
169 191 99
170 190 108
161 182 51
145 166 0
149 171 0
162 185 36
166 189 51
168 191 0
162 185 0
164 188 0
164 187 0
162 185 0
160 184 0
136 158 44
52 83 74
53 84 86
51 82 72
56 89 103
54 86 88
54 86 95
56 89 113
57 90 110
58 91 108
55 87 103
55 87 103
56 88 102
57 90 105
56 88 103
56 88 104
53 83 90
55 85 96
53 83 89
51 79 85
47 73 69
105 124 41
162 182 0
156 175 0
154 172 0
157 176 0
159 179 0
161 179 0
141 147 0
119 113 0
107 101 0
103 98 0
116 109 0
110 105 0
114 110 0
128 120 0
119 114 0
122 117 0
132 126 0
135 132 0
134 128 0
140 136 0
140 135 0
142 136 0
141 136 0
145 141 0
147 141 0
143 139 0
143 140 0
147 143 0
149 144 0
146 142 0
147 142 0
150 145 0
149 144 0
149 144 0
149 146 0
149 144 0
154 151 0
151 147 0
152 147 0
154 149 0
151 147 0
154 150 0
152 148 0
156 152 0
153 150 0
155 151 0
156 152 0
154 152 0
155 151 0
156 153 0
155 151 0
158 160 0
174 195 0
175 198 0
175 198 0
174 197 0
173 197 0
176 198 0
175 198 0
173 197 0
175 198 0
175 198 0
173 197 0
175 198 0
174 197 0
174 197 0
173 197 0
175 198 0
175 198 0
175 198 0
174 198 0
178 200 57
182 203 84
187 208 122
192 211 142
192 211 144
200 218 181
203 220 186
209 225 206
213 228 221
219 233 238
224 237 254
225 237 255
225 237 255
224 237 255
224 237 255
224 237 255
224 237 255
224 237 255
224 237 255
224 237 255
224 237 255
224 237 255
224 237 255
224 237 255
224 237 255
224 237 255
224 237 255
224 237 255
224 237 255
224 237 255
224 237 255
224 237 255
224 237 255
224 237 255
224 237 255
224 237 255
224 237 255
224 237 255
224 237 255
224 237 255
224 237 255
224 237 255
224 237 255
224 237 255
224 237 255
224 237 255
224 237 255
224 237 255
224 237 255
224 237 255
224 237 255
224 237 255
224 237 255
224 237 255
224 237 255
224 237 255
224 237 255
224 237 255
223 237 255
223 237 255
223 237 255
223 237 255
223 237 255
223 237 255
223 237 255
223 237 255
223 237 255
223 237 255
223 237 255
223 237 255
223 237 255
223 237 255
223 237 255
223 237 255
223 237 255
223 237 255
223 237 255
223 237 255
223 237 255
223 237 255
223 237 255
223 237 255
223 237 255
223 237 255
223 237 255
223 237 255
223 237 255
223 237 255
223 237 255
223 237 255
223 237 255
223 237 255
223 237 255
223 237 255
223 237 255
223 237 255
223 237 255
223 237 255
223 237 255
223 237 255
223 237 255
223 237 255
223 237 255
223 237 255
223 237 255
223 237 255
223 237 255
223 236 255
223 236 255
223 236 255
223 236 255
223 236 255
223 236 255
223 236 255
223 236 255
223 236 255
223 236 255
223 236 255
223 237 255
223 237 255
223 237 255
223 237 255
223 237 255
223 237 255
223 237 255
223 237 255
223 237 255
223 237 255
223 237 255
223 237 255
223 237 255
223 237 255
223 237 255
223 237 255
223 237 255
223 237 255
223 237 255
223 237 255
223 237 255
223 237 255
223 237 255
223 237 255
223 237 255
223 237 255
223 237 255
223 237 255
223 237 255
223 237 255
223 237 255
223 237 255
223 237 255
223 237 255
223 237 255
223 237 255
223 237 255
223 237 255
223 237 255
223 237 255
223 237 255
223 237 255
223 237 255
224 237 255
224 237 255
224 237 255
224 237 255
224 237 255
224 237 255
224 237 255
224 237 255
224 237 255
224 237 255
224 237 255
224 237 255
224 237 255
224 237 255
224 237 255
224 237 255
224 237 255
224 237 255
224 237 255
224 237 255
224 237 255
224 237 255
224 237 255
224 237 255
224 237 255
224 237 255
224 237 255
224 237 255
224 237 255
224 237 255
224 237 255
224 237 255
224 237 255
224 237 255
224 237 255
224 237 255
224 237 255
224 237 255
224 237 255
224 237 255
224 237 255
224 237 255
224 237 255
224 237 255
224 237 255
224 237 255
224 237 255
224 237 255
224 237 255
224 237 255
225 237 255
225 237 255
225 237 255
225 237 255
223 236 250
216 231 231
212 227 217
208 224 204
208 224 203
201 219 179
198 216 167
188 208 130
185 206 108
181 202 76
175 198 25
174 198 0
174 197 0
173 197 0
174 198 0
174 197 0
174 198 0
174 197 0
174 198 0
173 197 0
174 197 0
175 198 0
175 198 0
173 197 0
176 198 0
176 198 0
174 198 0
175 198 0
174 198 0
174 197 0
175 198 0
174 197 0
174 198 0
174 197 0
175 198 0
175 198 0
175 198 0
175 198 0
174 198 0
173 197 0
175 199 44
190 210 137
183 205 102
174 198 44
176 199 51
175 197 51
173 197 0
173 197 0
174 197 0
173 196 0
175 198 0
175 198 0
172 195 0
170 194 0
174 197 44
176 199 72
175 199 72
178 200 99
179 201 95
181 203 108
178 201 95
178 201 88
174 197 62
172 195 57
174 197 76
173 196 72
173 196 51
177 199 67
172 195 76
172 196 67
174 197 80
170 193 62
176 198 62
174 197 80
174 196 57
169 190 67
174 195 88
170 191 99
166 187 88
156 177 44
156 176 44
152 173 0
159 180 0
162 184 0
167 190 51
164 186 0
149 172 0
160 183 0
159 183 0
160 182 0
159 182 0
151 173 0
158 180 0
116 138 65
54 85 94
54 86 90
55 87 99
53 84 92
51 81 92
54 86 95
52 83 84
54 85 95
54 86 97
55 88 102
55 87 97
54 85 100
54 85 89
52 82 90
51 80 95
53 82 94
50 78 81
48 76 77
99 116 49
141 159 0
157 175 0
144 162 0
152 169 0
160 175 0
148 165 0
153 169 0
159 175 0
135 140 0
111 101 0
115 109 0
109 102 0
121 113 0
119 115 0
118 110 0
126 119 0
129 123 0
130 124 0
128 121 0
140 134 0
137 133 0
143 137 0
142 134 0
144 137 0
142 136 0
144 137 0
143 136 0
147 141 0
146 141 0
144 140 0
149 144 0
151 144 0
148 143 0
146 141 0
145 139 0
151 145 0
152 148 0
150 146 0
152 147 0
152 146 0
153 148 0
153 148 0
148 144 0
150 145 0
152 148 0
154 149 0
154 151 0
154 151 0
154 149 0
156 153 0
157 153 0
159 162 0
171 191 0
173 197 0
175 198 0
173 197 0
173 196 0
175 198 0
174 197 0
175 198 0
174 197 0
174 198 0
175 198 0
175 198 0
173 197 0
174 198 0
175 198 0
175 198 0
174 198 0
175 198 0
173 197 0
175 198 0
174 198 0
175 198 0
175 198 0
175 198 0
175 198 0
175 198 0
175 198 0
174 198 0
176 199 0
174 197 0
176 199 25
180 202 76
187 207 122
190 210 140
195 213 155
199 216 169
203 220 184
207 223 199
210 226 212
218 232 236
223 236 252
225 237 255
225 237 255
225 237 255
224 237 255
224 237 255
224 237 255
224 237 255
224 237 255
224 237 255
224 237 255
224 237 255
224 237 255
224 237 255
224 237 255
224 237 255
224 237 255
224 237 255
224 237 255
224 237 255
224 237 255
224 237 255
224 237 255
224 237 255
224 237 255
224 237 255
224 237 255
224 237 255
224 237 255
224 237 255
224 237 255
224 237 255
224 237 255
224 237 255
224 237 255
224 237 255
224 237 255
224 237 255
224 237 255
224 237 255
224 237 255
224 237 255
224 237 255
224 237 255
224 237 255
224 237 255
224 237 255
224 237 255
224 237 255
224 237 255
224 237 255
224 237 255
224 237 255
224 237 255
223 237 255
223 237 255
223 237 255
223 237 255
223 237 255
223 237 255
223 237 255
223 237 255
223 237 255
223 237 255
223 237 255
223 237 255
223 237 255
223 237 255
223 237 255
223 237 255
223 237 255
223 237 255
223 237 255
223 237 255
223 237 255
223 237 255
223 237 255
223 237 255
223 237 255
223 237 255
223 237 255
223 237 255
223 237 255
223 237 255
223 237 255
223 237 255
223 237 255
223 237 255
223 237 255
223 237 255
223 237 255
223 237 255
223 237 255
223 237 255
223 237 255
223 237 255
223 237 255
223 237 255
223 237 255
223 237 255
223 237 255
223 237 255
223 237 255
223 237 255
223 237 255
223 237 255
223 237 255
223 237 255
223 237 255
223 237 255
223 237 255
223 237 255
223 237 255
223 237 255
223 237 255
223 237 255
223 237 255
223 237 255
223 237 255
223 237 255
223 237 255
223 237 255
223 237 255
223 237 255
223 237 255
224 237 255
224 237 255
224 237 255
224 237 255
224 237 255
224 237 255
224 237 255
224 237 255
224 237 255
224 237 255
224 237 255
224 237 255
224 237 255
224 237 255
224 237 255
224 237 255
224 237 255
224 237 255
224 237 255
224 237 255
224 237 255
224 237 255
224 237 255
224 237 255
224 237 255
224 237 255
224 237 255
224 237 255
224 237 255
224 237 255
224 237 255
224 237 255
224 237 255
224 237 255
224 237 255
224 237 255
224 237 255
224 237 255
224 237 255
224 237 255
224 237 255
224 237 255
224 237 255
224 237 255
224 237 255
224 237 255
224 237 255
224 237 255
224 237 255
224 237 255
224 237 255
224 237 255
224 237 255
224 237 255
224 237 255
225 237 255
225 237 255
225 237 255
225 237 255
225 237 255
219 233 241
218 232 236
211 227 217
205 222 198
206 222 198
203 220 186
191 211 137
188 208 125
182 203 95
179 201 67
175 198 0
174 198 0
173 197 0
175 198 0
174 198 0
174 198 0
173 197 0
173 197 0
175 198 0
173 197 0
175 198 0
175 198 0
175 198 0
174 198 0
175 198 0
174 197 0
174 198 0
175 198 0
172 196 0
175 198 0
174 198 0
174 198 0
173 197 0
174 198 0
174 197 0
174 197 0
175 198 0
175 198 0
175 198 0
173 197 0
175 198 0
173 197 0
175 198 0
176 198 0
175 198 0
174 198 0
173 197 0
173 197 0
175 198 0
175 198 0
175 198 0
174 198 0
187 207 133
183 204 108
176 199 36
173 197 0
175 198 36
171 195 0
172 196 0
176 198 0
172 196 0
172 195 0
171 194 0
170 192 0
173 197 0
173 196 25
174 196 25
178 200 76
177 200 92
174 197 80
177 199 92
178 200 80
179 201 84
177 199 102
178 200 84
177 199 84
176 197 76
173 195 84
176 198 62
175 196 80
174 196 76
176 198 102
174 197 95
173 194 88
168 189 67
170 192 95
171 192 84
169 190 44
162 182 44
144 165 0
154 176 0
154 174 25
160 181 25
163 185 51
161 184 0
161 183 0
160 182 0
156 178 0
156 179 0
150 173 0
141 162 0
144 165 0
158 179 0
142 163 0
103 125 25
56 85 74
50 81 78
52 83 80
50 80 80
52 83 82
54 85 94
51 81 78
52 83 84
54 86 88
54 86 94
53 84 90
53 84 81
51 81 79
50 79 77
50 79 78
54 79 69
99 115 44
130 145 0
130 147 0
133 148 0
128 142 0
144 160 0
137 151 0
145 155 0
147 159 0
145 156 0
147 157 0
129 129 0
106 95 0
121 111 0
107 101 0
117 107 0
124 117 0
124 118 0
124 118 0
131 124 0
136 128 0
132 125 0
136 129 0
137 131 0
138 130 0
138 133 0
141 134 0
139 134 0
146 139 0
146 140 0
140 133 0
147 140 0
147 140 0
147 141 0
150 141 0
146 139 0
151 143 0
147 141 0
147 139 0
149 144 0
147 141 0
148 140 0
155 149 0
153 148 0
152 147 0
153 147 0
153 150 0
153 149 0
154 150 0
152 149 0
153 149 0
154 151 0
160 166 0
172 194 0
175 198 0
175 198 0
175 198 0
173 197 0
174 197 0
174 197 0
174 197 0
174 198 0
173 197 0
174 198 0
172 196 0
174 197 0
174 198 0
175 198 0
173 197 0
175 198 0
174 198 0
178 199 0
173 197 0
174 198 0
174 197 0
175 198 0
175 198 0
174 198 0
174 198 0
176 199 0
175 198 0
175 198 0
176 199 0
174 198 0
174 197 0
175 198 0
173 197 0
175 198 0
175 198 0
174 198 0
175 198 0
174 198 0
175 198 0
175 198 0
173 197 0
176 199 51
185 206 108
188 209 128
192 211 144
195 214 159
203 220 186
211 227 215
214 229 224
216 230 228
222 235 246
224 237 254
225 237 255
225 237 255
225 237 255
225 237 255
224 237 255
224 237 255
224 237 255
224 237 255
224 237 255
224 237 255
224 237 255
224 237 255
224 237 255
224 237 255
224 237 255
224 237 255
224 237 255
224 237 255
224 237 255
224 237 255
224 237 255
224 237 255
224 237 255
224 237 255
224 237 255
224 237 255
224 237 255
224 237 255
224 237 255
224 237 255
224 237 255
224 237 255
224 237 255
224 237 255
224 237 255
224 237 255
224 237 255
224 237 255
224 237 255
224 237 255
224 237 255
224 237 255
224 237 255
224 237 255
224 237 255
224 237 255
224 237 255
224 237 255
224 237 255
224 237 255
224 237 255
224 237 255
224 237 255
224 237 255
224 237 255
224 237 255
224 237 255
224 237 255
224 237 255
223 237 255
223 237 255
223 237 255
223 237 255
223 237 255
223 237 255
223 237 255
223 237 255
223 237 255
223 237 255
223 237 255
223 237 255
223 237 255
223 237 255
223 237 255
223 237 255
223 237 255
223 237 255
223 237 255
223 237 255
223 237 255
223 237 255
223 237 255
223 237 255
223 237 255
223 237 255
223 237 255
223 237 255
223 237 255
223 237 255
223 237 255
223 237 255
223 237 255
223 237 255
223 237 255
223 237 255
223 237 255
223 237 255
224 237 255
224 237 255
224 237 255
224 237 255
224 237 255
224 237 255
224 237 255
224 237 255
224 237 255
224 237 255
224 237 255
224 237 255
224 237 255
224 237 255
224 237 255
224 237 255
224 237 255
224 237 255
224 237 255
224 237 255
224 237 255
224 237 255
224 237 255
224 237 255
224 237 255
224 237 255
224 237 255
224 237 255
224 237 255
224 237 255
224 237 255
224 237 255
224 237 255
224 237 255
224 237 255
224 237 255
224 237 255
224 237 255
224 237 255
224 237 255
224 237 255
224 237 255
224 237 255
224 237 255
224 237 255
224 237 255
224 237 255
224 237 255
224 237 255
224 237 255
224 237 255
224 237 255
224 237 255
224 237 255
224 237 255
224 237 255
224 237 255
224 237 255
224 237 255
224 237 255
225 237 255
225 237 255
225 237 255
225 237 255
225 237 255
223 236 250
220 234 242
214 228 221
209 225 209
210 226 211
200 218 175
200 218 177
188 208 130
185 206 114
182 203 95
175 198 36
174 198 0
175 198 0
175 198 0
175 198 0
174 197 0
175 198 0
176 199 0
175 198 0
172 197 0
175 198 0
176 199 0
175 198 0
173 197 0
175 198 0
175 198 0
173 197 0
174 198 0
174 198 0
175 198 0
175 198 0
174 198 0
176 199 0
172 196 0
173 197 0
174 198 0
175 198 0
174 197 0
175 198 0
175 198 0
174 198 0
175 198 0
173 197 0
175 198 0
174 198 0
174 198 0
175 198 0
175 198 0
174 197 0
174 198 0
174 198 0
176 198 0
174 198 0
174 198 0
174 197 0
175 198 0
174 197 0
176 199 0
173 197 0
174 197 0
173 197 0
176 198 0
176 199 0
175 198 0
182 203 99
185 207 120
176 199 36
175 198 25
174 198 44
172 196 0
174 196 0
171 194 0
174 197 0
173 195 0
175 198 0
173 196 0
169 192 0
172 195 0
171 194 25
175 197 51
172 194 62
174 196 62
175 197 44
179 200 76
176 197 84
178 199 99
177 199 102
177 198 92
176 197 80
174 196 84
175 196 80
175 196 99
176 197 102
172 193 92
170 191 84
165 186 57
163 185 51
160 181 0
164 184 25
155 177 0
162 182 0
155 176 25
164 185 62
159 181 44
161 182 0
154 175 0
150 171 0
153 175 0
160 181 0
143 165 0
149 171 0
145 166 0
137 159 0
142 163 0
119 139 0
122 140 0
110 128 18
74 96 70
47 77 65
50 80 74
51 81 86
49 79 78
47 75 72
48 78 60
52 83 92
49 78 84
49 78 78
49 77 70
48 76 78
47 74 75
56 78 54
89 101 25
94 109 0
109 122 0
125 139 0
117 131 0
130 144 0
127 141 0
132 146 0
135 148 0
129 138 0
136 144 0
131 138 0
130 133 0
128 128 0
115 108 0
96 85 0
118 107 0
119 110 0
109 99 0
123 112 0
128 120 0
131 122 0
130 120 0
134 124 0
137 129 0
134 127 0
136 128 0
137 129 0
141 133 0
136 127 0
147 138 0
141 134 0
143 135 0
147 139 0
148 141 0
147 140 0
148 142 0
145 137 0
149 141 0
147 139 0
151 144 0
147 143 0
149 142 0
151 144 0
150 145 0
151 145 0
151 145 0
154 149 0
151 146 0
153 148 0
152 147 0
153 150 0
164 174 0
174 196 0
175 197 0
174 198 0
174 198 0
173 197 0
174 197 0
175 197 0
174 197 0
174 197 0
176 198 0
175 198 0
173 197 0
175 198 0
175 197 0
174 197 0
175 198 0
173 197 0
174 198 0
174 198 0
174 197 0
174 197 0
174 198 0
174 197 0
175 198 0
174 198 0
173 197 0
172 196 0
174 197 0
175 198 0
173 197 0
175 198 0
176 199 0
174 198 0
173 197 0
174 197 0
173 197 0
173 197 0
174 197 0
173 197 0
173 197 0
173 197 0
175 198 0
175 198 0
174 198 0
172 197 0
173 197 0
175 198 0
174 198 0
175 198 0
174 197 0
175 198 0
175 198 0
175 198 0
177 200 57
180 202 72
185 206 108
190 210 140
198 216 165
200 218 173
207 223 201
209 225 206
215 230 228
221 235 246
225 237 255
225 237 255
225 237 255
225 237 255
225 237 255
225 237 255
224 237 255
224 237 255
224 237 255
224 237 255
224 237 255
224 237 255
224 237 255
224 237 255
224 237 255
224 237 255
224 237 255
224 237 255
224 237 255
224 237 255
224 237 255
224 237 255
224 237 255
224 237 255
224 237 255
224 237 255
224 237 255
224 237 255
224 237 255
224 237 255
224 237 255
224 237 255
224 237 255
224 237 255
224 237 255
224 237 255
224 237 255
224 237 255
224 237 255
224 237 255
224 237 255
224 237 255
224 237 255
224 237 255
224 237 255
224 237 255
224 237 255
224 237 255
224 237 255
224 237 255
224 237 255
224 237 255
224 237 255
224 237 255
224 237 255
224 237 255
224 237 255
224 237 255
224 237 255
224 237 255
224 237 255
224 237 255
224 237 255
224 237 255
224 237 255
224 237 255
223 237 255
223 237 255
223 237 255
223 237 255
223 237 255
223 237 255
223 237 255
223 237 255
223 237 255
223 237 255
223 237 255
224 237 255
224 237 255
224 237 255
224 237 255
224 237 255
224 237 255
224 237 255
224 237 255
224 237 255
224 237 255
224 237 255
224 237 255
224 237 255
224 237 255
224 237 255
224 237 255
224 237 255
224 237 255
224 237 255
224 237 255
224 237 255
224 237 255
224 237 255
224 237 255
224 237 255
224 237 255
224 237 255
224 237 255
224 237 255
224 237 255
224 237 255
224 237 255
224 237 255
224 237 255
224 237 255
224 237 255
224 237 255
224 237 255
224 237 255
224 237 255
224 237 255
224 237 255
224 237 255
224 237 255
224 237 255
224 237 255
224 237 255
224 237 255
224 237 255
224 237 255
224 237 255
224 237 255
224 237 255
224 237 255
224 237 255
224 237 255
224 237 255
224 237 255
224 237 255
224 237 255
225 237 255
225 237 255
225 237 255
225 237 255
225 237 255
225 237 255
224 237 253
219 233 238
216 230 230
210 226 211
208 224 204
203 220 189
196 214 161
192 211 144
183 204 95
179 201 72
176 199 36
174 198 0
175 198 0
175 198 0
175 198 0
175 198 0
175 198 0
174 198 0
174 197 0
174 197 0
175 198 0
175 198 0
173 197 0
174 198 0
174 198 0
173 197 0
175 198 0
176 199 0
175 198 0
174 198 0
173 197 0
175 198 0
175 198 0
173 197 0
173 197 0
175 198 0
175 198 0
173 197 0
175 198 0
174 197 0
174 197 0
175 198 0
173 197 0
174 198 0
175 198 0
175 198 0
174 197 0
175 198 0
174 197 0
174 197 0
175 198 0
174 197 0
172 197 0
174 198 0
174 197 0
173 197 0
175 198 0
174 198 0
174 198 0
175 198 0
173 197 0
174 198 0
175 198 0
174 197 0
176 198 0
175 198 0
173 197 0
174 198 0
174 197 0
174 198 0
175 198 0
173 197 0
174 198 0
173 197 0
175 198 0
177 200 62
180 201 92
180 201 88
174 198 25
174 197 36
175 198 44
174 198 0
173 196 0
173 196 0
172 195 0
172 194 0
168 192 25
174 196 0
171 194 0
173 194 0
173 195 0
172 195 0
173 196 25
174 196 62
176 198 76
174 195 67
171 193 36
175 196 80
172 193 62
167 188 67
174 195 80
166 186 44
164 186 0
164 185 0
162 182 0
154 175 0
163 183 0
156 176 0
159 180 0
161 182 25
163 185 44
171 192 36
161 182 36
164 185 0
153 175 0
153 174 0
150 172 0
161 183 0
152 174 0
152 173 0
142 163 0
145 166 0
143 164 0
133 153 0
128 148 0
125 144 0
110 128 0
101 116 0
82 99 25
64 83 47
50 73 65
48 76 60
47 75 70
47 74 76
47 74 67
44 71 62
44 69 57
40 65 51
65 79 40
73 84 0
86 97 0
91 103 0
102 113 0
106 117 0
109 122 0
119 131 0
120 132 0
126 137 0
119 132 0
115 125 0
120 127 0
135 143 0
125 133 0
119 120 0
132 134 0
117 115 0
111 101 0
103 89 0
101 89 0
109 97 0
120 110 0
123 112 0
124 115 0
126 118 0
131 120 0
127 116 0
131 119 0
129 120 0
133 124 0
142 132 0
138 128 0
138 128 0
139 129 0
136 127 0
143 135 0
143 135 0
146 136 0
149 138 0
144 137 0
149 141 0
145 136 0
149 141 0
148 139 0
150 142 0
150 143 0
151 143 0
152 145 0
152 146 0
153 146 0
151 144 0
152 147 0
157 159 0
170 189 0
176 198 0
173 196 0
173 196 0
174 197 0
174 196 0
174 197 0
173 196 0
175 198 0
173 196 0
174 196 0
174 198 0
175 198 0
176 198 0
176 198 0
176 199 0
173 197 0
175 198 0
174 198 0
173 197 0
174 198 0
174 198 0
174 197 0
174 197 0
173 197 0
176 198 0
175 198 0
173 197 0
174 197 0
173 197 0
173 197 0
175 198 0
173 197 0
176 199 0
175 198 0
174 197 0
175 198 0
173 197 0
175 198 0
174 197 0
176 199 0
176 198 0
174 198 0
174 198 0
174 198 0
174 198 0
174 197 0
175 198 0
173 197 0
175 198 0
174 198 0
175 198 0
174 198 0
174 198 0
175 198 0
174 197 0
172 197 0
175 198 0
175 198 0
174 197 0
177 199 0
175 198 0
172 196 0
174 198 0
175 198 0
175 198 0
180 202 76
187 207 122
188 209 133
194 213 155
201 219 182
213 228 218
206 222 199
216 231 230
216 231 231
224 237 253
225 237 255
225 237 255
225 237 255
225 237 255
225 237 255
225 237 255
225 237 255
224 237 255
224 237 255
224 237 255
224 237 255
224 237 255
224 237 255
224 237 255
224 237 255
224 237 255
224 237 255
224 237 255
224 237 255
224 237 255
224 237 255
224 237 255
224 237 255
224 237 255
224 237 255
224 237 255
224 237 255
224 237 255
224 237 255
224 237 255
224 237 255
224 237 255
224 237 255
224 237 255
224 237 255
224 237 255
224 237 255
224 237 255
224 237 255
224 237 255
224 237 255
224 237 255
224 237 255
224 237 255
224 237 255
224 237 255
224 237 255
224 237 255
224 237 255
224 237 255
224 237 255
224 237 255
224 237 255
224 237 255
224 237 255
224 237 255
224 237 255
224 237 255
224 237 255
224 237 255
224 237 255
224 237 255
224 237 255
224 237 255
224 237 255
224 237 255
224 237 255
224 237 255
224 237 255
224 237 255
224 237 255
224 237 255
224 237 255
224 237 255
224 237 255
224 237 255
224 237 255
224 237 255
224 237 255
224 237 255
224 237 255
224 237 255
224 237 255
224 237 255
224 237 255
224 237 255
224 237 255
224 237 255
224 237 255
224 237 255
224 237 255
224 237 255
224 237 255
224 237 255
224 237 255
224 237 255
224 237 255
224 237 255
224 237 255
224 237 255
224 237 255
224 237 255
224 237 255
224 237 255
224 237 255
224 237 255
224 237 255
224 237 255
224 237 255
224 237 255
224 237 255
224 237 255
224 237 255
224 237 255
225 237 255
225 237 255
225 237 255
225 237 255
225 237 255
225 237 255
225 237 255
225 237 255
222 236 249
221 234 244
212 227 217
206 222 196
204 221 191
202 219 181
190 210 137
188 208 128
182 204 99
179 202 76
173 197 0
177 199 0
177 199 0
174 198 0
175 198 0
173 197 0
175 198 0
174 198 0
173 197 0
173 197 0
175 198 0
174 198 0
174 198 0
174 198 0
174 198 0
172 197 0
174 198 0
174 198 0
175 198 0
175 198 0
174 198 0
175 198 0
174 198 0
174 198 0
175 198 0
174 198 0
174 198 0
174 197 0
174 198 0
174 198 0
174 198 0
173 197 0
175 198 0
175 198 0
176 198 0
175 198 0
174 198 0
173 196 0
173 197 0
174 197 0
173 197 0
175 198 0
174 198 0
173 197 0
174 198 0
174 198 0
174 198 0
175 198 0
174 198 0
174 198 0
172 196 0
175 198 0
174 197 0
173 197 0
175 198 0
174 197 0
176 198 0
173 197 0
174 198 0
174 197 0
174 198 0
174 198 0
173 197 0
175 198 0
171 195 0
175 198 0
175 198 0
174 197 0
173 197 0
172 196 0
175 198 0
173 197 0
173 197 0
174 197 0
174 197 0
175 198 0
174 197 0
180 203 88
178 200 99
179 201 72
173 197 44
173 196 44
173 196 25
175 197 36
173 197 0
173 196 0
173 196 0
176 198 0
173 196 0
171 194 0
170 192 0
169 192 0
170 192 0
172 194 0
172 194 0
173 195 0
170 192 0
162 183 0
175 196 0
171 193 0
171 192 0
165 186 0
166 186 0
160 181 0
162 182 0
165 186 0
168 189 0
163 184 0
169 189 44
162 184 44
167 188 25
161 182 0
160 180 0
155 176 0
148 168 0
156 177 0
154 174 0
144 165 0
147 169 0
140 162 0
141 163 0
136 156 0
137 158 0
127 146 0
128 148 0
124 142 0
123 141 0
107 124 0
98 112 0
86 101 0
84 96 0
63 74 25
63 75 0
54 68 44
67 82 25
56 66 0
70 81 0
70 79 0
73 82 0
82 92 0
94 105 0
94 106 0
99 112 0
99 111 0
126 138 0
108 120 0
121 132 0
113 124 0
113 123 0
128 137 0
114 123 0
119 129 0
117 121 0
125 127 0
105 110 0
123 122 0
118 118 0
108 103 0
105 96 0
110 93 0
102 88 0
113 100 0
121 109 0
119 106 0
125 113 0
124 113 0
134 122 0
133 119 0
129 116 0
137 125 0
138 127 0
141 129 0
137 128 0
141 127 0
141 131 0
142 130 0
141 132 0
142 130 0
148 138 0
144 135 0
146 135 0
146 136 0
147 138 0
146 136 0
149 141 0
148 139 0
151 142 0
150 143 0
152 145 0
160 164 0
170 187 0
172 193 0
172 194 0
171 193 0
171 195 0
174 195 0
172 195 0
174 197 0
173 196 0
174 197 0
172 196 0
174 196 0
174 197 0
174 196 0
174 197 0
172 196 0
174 197 0
174 197 0
175 197 0
174 197 0
174 197 0
174 198 0
175 198 0
173 197 0
173 197 0
176 198 0
173 196 0
175 198 0
175 198 0
174 197 0
175 198 0
175 198 0
173 197 0
174 198 0
175 198 0
176 199 0
175 198 0
176 198 0
174 198 0
174 197 0
175 198 0
173 197 0
175 198 0
174 198 0
175 198 0
173 197 0
175 198 0
175 198 0
175 198 0
175 198 0
174 197 0
174 198 0
175 198 0
174 198 0
174 198 0
173 197 0
175 198 0
174 198 0
174 197 0
173 197 0
174 198 0
176 199 0
174 198 0
174 198 0
174 198 0
175 198 0
175 198 0
174 197 0
175 198 0
175 198 0
174 198 0
175 198 0
175 198 0
175 198 0
175 198 0
174 198 0
174 197 0
174 198 0
178 200 51
181 203 92
186 207 114
195 214 159
203 219 182
201 219 182
205 222 193
217 231 230
216 230 230
222 236 249
225 237 255
225 237 255
225 237 255
225 237 255
225 237 255
225 237 255
225 237 255
225 237 255
224 237 255
224 237 255
224 237 255
224 237 255
224 237 255
224 237 255
224 237 255
224 237 255
224 237 255
224 237 255
224 237 255
224 237 255
224 237 255
224 237 255
224 237 255
224 237 255
224 237 255
224 237 255
224 237 255
224 237 255
224 237 255
224 237 255
224 237 255
224 237 255
224 237 255
224 237 255
224 237 255
224 237 255
224 237 255
224 237 255
224 237 255
224 237 255
224 237 255
224 237 255
224 237 255
224 237 255
224 237 255
224 237 255
224 237 255
224 237 255
224 237 255
224 237 255
224 237 255
224 237 255
224 237 255
224 237 255
224 237 255
224 237 255
224 237 255
224 237 255
224 237 255
224 237 255
224 237 255
224 237 255
224 237 255
224 237 255
224 237 255
224 237 255
224 237 255
224 237 255
224 237 255
224 237 255
224 237 255
224 237 255
224 237 255
224 237 255
224 237 255
224 237 255
224 237 255
224 237 255
224 237 255
224 237 255
224 237 255
224 237 255
224 237 255
224 237 255
224 237 255
224 237 255
224 237 255
224 237 255
224 237 255
224 237 255
224 237 255
224 237 255
224 237 255
225 237 255
225 237 255
225 237 255
225 237 255
225 237 255
225 237 255
225 237 255
225 237 255
225 237 255
222 236 249
218 232 234
213 228 220
207 223 199
205 222 194
201 218 175
195 214 155
188 208 125
183 204 99
174 198 44
174 198 0
175 198 0
174 198 0
173 197 0
175 198 0
174 198 0
173 197 0
175 198 0
174 198 0
176 199 0
173 197 0
173 197 0
173 197 0
173 197 0
176 199 0
175 198 0
174 198 0
175 198 0
174 198 0
173 197 0
175 198 0
174 198 0
176 198 0
175 198 0
174 197 0
172 196 0
173 197 0
173 197 0
174 197 0
175 198 0
174 198 0
175 198 0
175 198 0
176 199 0
174 198 0
176 199 0
175 198 0
174 197 0
174 198 0
175 198 0
174 198 0
173 197 0
174 198 0
175 198 0
175 198 0
174 198 0
175 198 0
172 197 0
176 198 0
175 198 0
175 198 0
173 197 0
174 198 0
174 197 0
173 197 0
174 197 0
174 198 0
173 197 0
174 198 0
174 198 0
174 197 0
176 198 0
175 198 0
174 197 0
174 198 0
172 197 0
175 198 0
173 197 0
175 198 0
173 197 0
174 197 0
175 198 0
173 197 0
174 198 0
175 198 0
174 198 0
174 198 0
172 197 0
173 196 0
175 198 0
174 197 0
173 197 0
174 197 0
173 197 0
172 196 0
174 198 0
174 197 0
172 196 0
172 196 0
177 200 62
178 200 80
179 201 80
174 198 44
172 195 36
177 199 62
172 194 36
173 196 36
172 195 0
174 197 0
174 195 0
173 195 36
174 196 0
174 195 0
169 192 0
174 195 0
171 193 0
169 190 0
171 193 0
168 189 0
172 193 25
171 192 0
169 191 0
166 187 0
165 185 0
168 189 0
172 192 51
166 188 51
170 190 25
168 189 0
161 182 0
159 180 0
162 183 0
158 179 0
154 176 0
147 168 0
155 175 0
147 167 0
150 171 0
144 165 0
147 168 0
137 158 0
137 158 0
133 153 0
133 152 0
123 142 0
129 149 0
118 137 0
109 126 0
102 117 0
95 111 0
98 113 0
84 97 0
96 107 0
70 83 0
94 105 0
87 100 0
66 79 0
93 105 0
97 109 0
99 111 0
86 96 0
104 117 0
96 110 0
122 134 0
114 130 0
120 133 0
121 133 0
126 139 0
123 134 0
130 143 0
126 138 0
122 134 0
115 121 0
118 126 0
118 122 0
115 118 0
118 120 0
98 94 0
112 110 0
97 89 0
85 70 0
94 80 0
110 93 0
118 104 0
120 105 0
123 109 0
120 105 0
129 115 0
128 112 0
133 120 0
137 124 0
137 124 0
137 123 0
133 122 0
141 127 0
143 132 0
143 132 0
145 134 0
145 134 0
143 133 0
145 134 0
144 134 0
148 137 0
146 137 0
147 136 0
149 140 0
155 152 0
159 164 0
169 189 0
171 192 0
173 194 0
173 195 0
172 195 0
173 193 0
171 193 0
173 195 0
173 196 0
175 198 0
173 196 0
174 197 0
173 195 0
173 196 0
174 197 0
173 194 0
174 197 0
175 197 0
172 195 0
174 197 0
175 197 0
175 198 0
175 198 0
173 196 0
173 196 0
173 195 0
174 197 0
173 196 0
174 197 0
174 198 0
174 197 0
175 198 0
175 198 0
174 198 0
173 197 0
174 196 0
174 197 0
175 198 0
173 197 0
176 198 0
172 196 0
175 198 0
175 198 0
175 198 0
175 198 0
173 197 0
174 198 0
176 198 0
173 197 0
175 198 0
174 197 0
175 198 0
175 198 0
175 198 0
175 198 0
174 198 0
175 198 0
175 198 0
175 198 0
175 198 0
175 198 0
175 198 0
174 197 0
175 198 0
175 198 0
175 198 0
174 198 0
175 198 0
174 197 0
175 198 0
175 198 0
174 197 0
176 198 0
176 199 0
176 198 0
174 197 0
175 198 0
176 199 0
174 197 0
176 198 0
174 198 0
174 198 0
176 199 0
172 196 0
174 198 0
174 197 0
175 198 0
176 199 0
173 197 0
176 199 0
178 201 62
182 204 95
185 206 114
188 209 130
202 219 182
206 222 196
208 224 206
211 227 217
217 232 236
223 236 252
225 237 255
225 237 255
225 237 255
225 237 255
225 237 255
225 237 255
225 237 255
225 237 255
225 237 255
224 237 255
224 237 255
224 237 255
224 237 255
224 237 255
224 237 255
224 237 255
224 237 255
224 237 255
224 237 255
224 237 255
224 237 255
224 237 255
224 237 255
224 237 255
224 237 255
224 237 255
224 237 255
224 237 255
224 237 255
224 237 255
224 237 255
224 237 255
224 237 255
224 237 255
224 237 255
224 237 255
224 237 255
224 237 255
224 237 255
224 237 255
224 237 255
224 237 255
224 237 255
224 237 255
224 237 255
224 237 255
224 237 255
224 237 255
224 237 255
224 237 255
224 237 255
224 237 255
224 237 255
224 237 255
224 237 255
224 237 255
224 237 255
224 237 255
224 237 255
224 237 255
224 237 255
224 237 255
224 237 255
224 237 255
224 237 255
224 237 255
224 237 255
224 237 255
224 237 255
224 237 255
224 237 255
225 237 255
225 237 255
225 237 255
225 237 255
225 237 255
225 237 255
225 237 255
225 237 255
225 237 255
225 237 255
225 237 255
222 235 248
216 231 230
211 227 215
206 223 199
205 222 194
196 215 163
194 213 151
186 207 117
181 203 95
179 201 72
175 198 0
174 198 0
176 199 0
175 198 0
173 197 0
173 197 0
174 198 0
174 198 0
174 198 0
174 198 0
173 197 0
173 197 0
175 198 0
173 197 0
175 198 0
174 197 0
174 198 0
173 197 0
174 197 0
175 198 0
175 198 0
174 198 0
175 198 0
174 198 0
175 198 0
174 198 0
174 198 0
174 197 0
176 198 0
175 198 0
174 198 0
174 197 0
174 198 0
175 198 0
175 198 0
174 197 0
175 198 0
175 198 0
173 197 0
174 197 0
175 198 0
175 198 0
174 198 0
174 198 0
175 198 0
174 197 0
174 198 0
175 198 0
175 198 0
175 198 0
173 197 0
173 197 0
174 197 0
174 198 0
174 198 0
175 198 0
174 197 0
174 198 0
174 197 0
175 198 0
175 198 0
175 198 0
173 197 0
174 197 0
173 197 0
173 197 0
174 197 0
174 198 0
174 198 0
175 198 0
173 197 0
175 198 0
175 198 0
174 198 0
172 197 0
175 198 0
174 198 0
174 198 0
174 197 0
174 198 0
173 196 0
173 197 0
174 198 0
175 198 0
173 197 0
172 196 0
174 197 0
174 197 0
174 198 0
172 196 0
173 197 0
174 197 0
172 196 0
174 198 0
173 197 0
174 197 0
174 198 0
175 198 0
173 197 0
173 196 0
174 197 0
176 199 36
178 200 57
177 199 80
178 200 76
174 196 51
173 195 44
174 197 62
173 194 36
173 196 0
171 193 36
172 193 25
173 194 0
175 196 0
174 195 25
171 193 0
171 191 0
172 194 25
168 189 36
173 194 36
172 192 44
167 188 0
169 190 62
168 189 57
169 190 57
164 184 0
165 186 0
161 183 0
161 182 0
155 176 0
159 180 0
161 183 0
157 179 0
151 173 0
150 171 0
145 167 0
154 175 0
153 175 0
149 171 0
150 171 0
137 158 0
143 163 0
141 162 0
129 150 0
131 150 0
134 154 0
116 135 0
124 143 0
128 146 0
107 124 0
107 123 0
103 117 0
103 119 0
85 100 0
105 120 0
88 103 0
100 115 0
96 110 0
103 115 0
110 126 0
106 120 0
109 123 0
120 133 0
122 138 0
118 134 0
119 133 0
120 132 0
134 148 0
128 141 0
131 143 0
132 144 0
130 140 0
128 139 0
118 125 0
130 134 0
128 134 0
116 120 0
117 117 0
118 119 0
113 113 0
109 103 0
112 112 0
99 87 0
96 79 0
104 86 0
103 84 0
118 99 0
122 105 0
124 107 0
132 117 0
134 119 0
135 118 0
131 116 0
136 121 0
138 122 0
135 121 0
142 128 0
141 127 0
143 130 0
145 133 0
140 129 0
145 132 0
142 130 0
152 147 0
159 162 0
165 176 0
167 185 0
172 192 0
170 189 0
168 187 0
170 189 0
169 190 0
170 192 0
172 193 0
173 194 0
171 194 0
173 194 0
173 193 0
172 194 0
171 192 0
173 195 0
170 192 0
172 195 0
173 196 0
173 196 0
175 197 0
173 196 0
173 195 0
172 195 0
173 196 0
174 197 0
174 196 0
173 196 0
172 196 0
173 196 0
173 197 0
174 197 0
173 196 0
174 197 0
175 198 0
174 197 0
173 197 0
174 197 0
174 197 0
173 197 0
175 198 0
174 198 0
175 198 0
175 198 0
174 197 0
174 197 0
175 198 0
173 197 0
174 198 0
175 198 0
174 198 0
175 198 0
175 198 0
174 197 0
175 198 0
174 197 0
172 197 0
173 197 0
173 197 0
174 197 0
175 198 0
175 198 0
175 198 0
174 198 0
175 198 0
174 197 0
173 197 0
175 198 0
175 198 0
175 198 0
175 198 0
175 198 0
175 198 0
174 198 0
175 198 0
176 198 0
174 198 0
174 198 0
173 197 0
174 197 0
174 198 0
176 199 0
175 198 0
176 198 0
175 198 0
173 197 0
174 198 0
175 198 0
174 197 0
174 197 0
175 198 0
176 199 0
174 198 0
173 197 0
174 197 0
174 198 0
175 198 0
175 198 0
174 198 0
174 198 0
174 197 0
175 198 0
176 199 0
177 200 57
182 204 95
189 209 130
197 215 163
196 215 161
204 221 189
204 221 191
213 228 220
215 229 224
220 234 242
225 237 255
225 237 255
225 237 255
225 237 255
225 237 255
225 237 255
225 237 255
225 237 255
225 237 255
225 237 255
225 237 255
224 237 255
224 237 255
224 237 255
224 237 255
224 237 255
224 237 255
224 237 255
224 237 255
224 237 255
224 237 255
224 237 255
224 237 255
224 237 255
224 237 255
224 237 255
224 237 255
224 237 255
224 237 255
224 237 255
224 237 255
224 237 255
224 237 255
224 237 255
224 237 255
224 237 255
224 237 255
224 237 255
224 237 255
224 237 255
224 237 255
224 237 255
224 237 255
224 237 255
224 237 255
224 237 255
224 237 255
224 237 255
224 237 255
224 237 255
225 237 255
225 237 255
225 237 255
225 237 255
225 237 255
225 237 255
225 237 255
225 237 255
225 237 255
225 237 255
225 237 255
224 237 254
221 235 245
219 233 238
211 227 217
208 224 203
204 221 193
199 217 173
188 208 125
186 207 120
180 202 84
175 198 36
175 198 0
174 198 0
175 198 0
174 197 0
176 198 0
174 198 0
176 199 0
176 198 0
175 198 0
175 198 0
173 197 0
175 198 0
175 198 0
174 198 0
175 198 0
175 197 0
176 198 0
175 198 0
172 197 0
173 197 0
174 198 0
173 197 0
174 198 0
176 199 0
175 198 0
173 197 0
175 198 0
174 197 0
174 198 0
174 198 0
173 197 0
174 197 0
175 198 0
174 198 0
175 198 0
174 198 0
174 198 0
174 197 0
175 198 0
174 198 0
175 198 0
174 198 0
174 198 0
174 198 0
172 197 0
176 198 0
175 198 0
175 198 0
174 197 0
174 198 0
174 197 0
173 197 0
175 198 0
176 199 0
173 197 0
175 198 0
173 197 0
176 199 0
173 197 0
174 198 0
173 197 0
175 198 0
173 197 0
172 196 0
174 198 0
173 197 0
173 197 0
174 198 0
175 198 0
173 197 0
175 198 0
173 196 0
174 197 0
173 197 0
176 198 0
173 197 0
175 198 0
174 197 0
174 198 0
174 197 0
173 197 0
174 197 0
172 196 0
175 198 0
172 196 0
173 197 0
173 196 0
172 196 0
172 196 0
174 197 0
176 199 0
174 198 0
173 197 0
172 195 0
175 198 0
173 196 0
175 198 0
175 198 0
174 197 0
174 197 0
171 196 0
173 196 0
172 196 0
174 197 0
171 195 0
173 197 0
171 194 0
174 197 0
173 197 0
172 195 0
172 196 0
173 196 0
172 196 0
175 198 0
173 196 0
174 196 36
175 198 51
175 198 36
174 196 44
176 198 51
176 198 44
175 197 44
177 199 62
175 196 51
169 191 36
174 196 36
172 193 25
169 190 57
172 194 36
167 188 36
169 190 25
171 191 25
165 186 0
165 186 0
164 185 0
166 187 0
167 188 0
158 179 0
159 180 0
153 175 0
160 181 0
158 180 0
151 173 0
151 173 0
154 176 0
146 167 0
145 168 0
148 169 0
149 170 0
150 171 0
147 168 0
138 157 0
142 162 0
134 155 0
137 158 0
137 158 0
127 147 0
124 143 0
125 142 0
127 146 0
119 136 0
118 135 0
120 138 0
106 122 0
114 131 0
111 129 0
113 131 0
113 129 0
110 127 0
105 120 0
114 128 0
105 120 0
128 144 0
124 139 0
109 125 0
122 137 0
125 141 0
135 149 0
133 146 0
132 146 0
130 144 0
138 152 0
129 143 0
121 131 0
131 140 0
133 143 0
126 134 0
121 122 0
124 126 0
127 129 0
126 123 0
120 118 0
115 112 0
114 110 0
114 111 0
108 101 0
109 101 0
111 95 0
113 98 0
114 97 0
124 109 0
125 111 0
132 118 0
135 118 0
134 117 0
136 123 0
139 125 0
138 126 0
143 131 0
151 147 0
157 157 0
161 169 0
166 179 0
167 183 0
168 182 0
167 182 0
167 183 0
170 189 0
171 189 0
169 185 0
172 192 0
173 191 0
171 190 0
171 191 0
171 191 0
172 193 0
171 193 0
173 193 0
172 193 0
173 196 0
173 195 0
171 193 0
174 197 0
174 196 0
172 194 0
173 195 0
173 195 0
174 195 0
173 195 0
173 195 0
172 195 0
174 196 0
173 197 0
174 197 0
175 197 0
174 194 0
174 197 0
176 197 0
174 196 0
174 196 0
173 196 0
175 198 0
173 195 0
174 197 0
174 196 0
174 196 0
175 198 0
174 198 0
174 197 0
174 197 0
175 198 0
174 198 0
173 197 0
174 197 0
173 197 0
174 198 0
174 197 0
173 197 0
174 197 0
175 198 0
174 198 0
176 198 0
174 197 0
175 198 0
174 198 0
174 198 0
174 197 0
174 197 0
174 197 0
172 197 0
175 198 0
175 198 0
176 199 0
174 198 0
175 198 0
173 197 0
174 197 0
175 198 0
176 199 0
175 198 0
175 198 0
175 198 0
176 198 0
175 198 0
174 197 0
175 198 0
174 197 0
174 198 0
175 198 0
173 197 0
175 198 0
174 198 0
175 198 0
174 197 0
176 199 0
176 198 0
172 197 0
173 197 0
174 197 0
177 199 0
174 197 0
174 198 0
175 198 0
176 199 0
176 199 0
175 198 0
175 198 0
173 197 0
175 198 0
173 197 0
174 197 0
174 197 0
174 197 0
174 198 0
175 198 0
176 198 0
176 199 0
176 199 0
177 200 62
180 202 72
184 205 105
190 209 133
197 215 165
203 220 186
209 225 207
211 226 212
218 232 238
220 233 241
225 237 255
225 237 255
225 237 255
225 237 255
225 237 255
225 237 255
225 237 255
225 237 255
225 237 255
225 237 255
225 237 255
225 237 255
224 237 255
224 237 255
224 237 255
224 237 255
224 237 255
224 237 255
224 237 255
224 237 255
224 237 255
224 237 255
224 237 255
224 237 255
224 237 255
224 237 255
224 237 255
224 237 255
224 237 255
224 237 255
225 237 255
225 237 255
225 237 255
225 237 255
225 237 255
225 237 255
225 237 255
225 237 255
225 237 255
225 237 255
225 237 255
224 237 253
222 235 246
216 230 228
216 230 228
203 221 191
203 220 188
200 218 177
191 211 147
188 208 122
180 202 84
176 199 44
174 197 0
174 198 0
175 198 0
175 198 0
175 198 0
174 197 0
173 197 0
174 198 0
175 198 0
176 199 0
176 199 0
175 198 0
173 197 0
174 197 0
174 198 0
176 199 0
176 198 0
176 198 0
174 198 0
175 198 0
174 197 0
174 198 0
175 198 0
173 197 0
174 198 0
175 198 0
175 198 0
175 198 0
175 198 0
174 197 0
174 198 0
175 198 0
175 198 0
174 198 0
174 197 0
174 198 0
175 198 0
174 198 0
174 197 0
174 198 0
175 198 0
175 198 0
175 198 0
174 198 0
174 197 0
172 197 0
176 198 0
175 198 0
176 198 0
175 197 0
175 198 0
173 197 0
175 198 0
175 198 0
174 197 0
175 198 0
174 197 0
173 197 0
174 197 0
172 197 0
176 199 0
174 197 0
176 198 0
176 198 0
173 197 0
172 196 0
173 197 0
175 198 0
173 197 0
173 197 0
174 198 0
174 198 0
175 198 0
175 198 0
174 198 0
175 198 0
174 198 0
172 196 0
174 197 0
173 197 0
174 197 0
174 198 0
174 197 0
172 196 0
175 198 0
175 198 0
175 198 0
173 197 0
174 197 0
172 197 0
174 197 0
174 197 0
173 197 0
174 198 0
173 197 0
174 198 0
175 198 0
173 196 0
174 197 0
174 198 0
175 197 0
175 198 0
172 196 0
172 196 0
174 198 0
170 194 0
173 196 0
173 196 0
173 196 0
174 197 0
175 198 0
173 196 0
172 195 0
171 194 0
172 195 0
169 193 0
173 197 0
173 197 0
174 196 0
173 196 0
174 197 0
174 197 0
174 197 0
173 196 0
175 198 0
175 198 0
169 192 0
173 196 0
173 195 0
175 197 0
174 195 0
172 193 0
175 197 0
171 192 0
175 195 0
172 194 0
171 192 0
167 187 0
171 193 0
165 187 0
167 189 0
165 185 0
162 183 0
165 186 0
164 185 0
157 179 0
153 173 0
154 174 0
164 185 0
157 179 0
160 182 0
155 176 0
153 174 0
152 175 0
150 173 0
142 164 0
148 171 0
154 175 0
142 164 0
147 168 0
136 157 0
154 174 0
131 152 0
142 163 0
131 150 0
123 144 0
128 149 0
129 149 0
129 147 0
125 144 0
120 138 0
115 133 0
124 143 0
126 143 0
122 139 0
126 145 0
117 133 0
123 140 0
113 132 0
124 139 0
124 141 0
127 145 0
124 142 0
131 149 0
130 145 0
128 145 0
137 153 0
135 152 0
128 144 0
129 144 0
134 149 0
137 152 0
145 158 0
138 149 0
137 149 0
137 148 0
135 144 0
128 136 0
130 135 0
143 150 0
142 147 0
135 138 0
135 135 0
117 113 0
131 130 0
123 122 0
117 110 0
125 117 0
118 110 0
121 114 0
124 116 0
127 119 0
138 135 0
130 126 0
141 136 0
149 148 0
149 149 0
155 158 0
152 154 0
154 156 0
158 163 0
161 171 0
163 174 0
168 182 0
167 180 0
165 179 0
166 179 0
168 182 0
167 180 0
170 187 0
169 186 0
169 185 0
170 189 0
170 188 0
170 189 0
172 191 0
170 189 0
169 187 0
170 190 0
171 192 0
172 193 0
171 192 0
173 196 0
172 194 0
172 192 0
172 193 0
172 194 0
173 196 0
172 194 0
171 194 0
173 195 0
173 195 0
173 195 0
173 196 0
173 197 0
172 195 0
174 197 0
174 196 0
174 196 0
175 198 0
172 196 0
173 197 0
174 198 0
174 197 0
174 197 0
176 198 0
173 197 0
174 197 0
173 196 0
175 198 0
174 198 0
174 197 0
174 197 0
175 197 0
173 197 0
174 196 0
173 197 0
173 197 0
174 197 0
174 197 0
174 197 0
174 198 0
175 198 0
174 198 0
173 197 0
174 197 0
174 197 0
172 197 0
175 198 0
174 197 0
175 198 0
174 198 0
175 197 0
173 196 0
176 198 0
175 198 0
175 198 0
172 196 0
175 198 0
175 198 0
173 197 0
174 197 0
174 198 0
174 198 0
175 197 0
174 198 0
174 197 0
176 199 0
172 196 0
175 198 0
176 199 0
174 197 0
175 198 0
174 197 0
175 198 0
173 197 0
174 197 0
174 198 0
174 198 0
175 198 0
175 198 0
173 197 0
174 198 0
175 198 0
173 197 0
174 197 0
175 198 0
177 199 0
175 198 0
177 199 0
176 199 0
177 199 0
174 198 0
174 198 0
175 198 0
173 197 0
174 197 0
175 198 0
174 198 0
174 197 0
175 198 0
175 198 0
175 198 0
174 198 0
175 198 0
175 198 0
176 199 0
176 199 0
178 200 57
183 204 99
186 207 122
189 209 128
202 219 179
202 220 184
204 221 189
209 225 209
215 229 226
222 235 248
224 237 254
225 237 255
225 237 255
225 237 255
225 237 255
225 237 255
225 237 255
225 237 255
225 237 255
225 237 255
225 237 255
225 237 255
225 237 255
224 237 255
224 237 255
224 237 255
225 237 255
225 237 255
225 237 255
225 237 255
225 238 255
224 237 254
221 234 244
218 232 237
215 230 228
206 223 199
204 220 189
194 213 153
188 208 128
183 204 95
180 202 80
176 199 44
175 198 0
174 198 0
175 198 0
174 198 0
174 198 0
174 198 0
173 197 0
174 198 0
176 199 0
175 198 0
175 198 0
174 198 0
175 198 0
173 197 0
174 198 0
174 198 0
175 198 0
176 199 0
173 197 0
173 197 0
174 198 0
174 198 0
174 198 0
176 198 0
174 198 0
175 198 0
175 198 0
174 198 0
172 197 0
173 197 0
175 198 0
175 198 0
175 198 0
174 198 0
173 197 0
174 198 0
174 197 0
175 198 0
172 197 0
175 198 0
176 199 0
174 198 0
174 198 0
175 198 0
174 198 0
173 197 0
174 198 0
175 198 0
174 198 0
173 197 0
174 197 0
176 198 0
175 198 0
174 198 0
173 197 0
176 199 0
174 198 0
175 197 0
175 198 0
174 198 0
174 198 0
173 197 0
174 198 0
174 198 0
173 197 0
175 198 0
175 198 0
174 197 0
175 198 0
175 198 0
173 197 0
173 197 0
175 198 0
174 197 0
172 196 0
176 198 0
174 198 0
171 195 0
174 197 0
174 198 0
175 198 0
174 198 0
173 196 0
173 197 0
173 196 0
174 197 0
174 198 0
173 197 0
174 198 0
175 198 0
174 198 0
174 197 0
175 198 0
174 198 0
174 198 0
173 197 0
171 195 0
173 197 0
175 198 0
175 198 0
175 198 0
173 197 0
175 198 0
173 197 0
173 197 0
173 196 0
173 197 0
172 196 0
173 197 0
173 196 0
174 197 0
173 197 0
174 197 0
175 198 0
174 197 0
173 196 0
169 193 0
172 196 0
171 194 0
176 198 0
174 197 0
173 196 0
173 196 0
173 196 0
175 198 0
172 195 0
171 194 0
173 196 0
172 195 0
175 198 0
173 196 0
174 197 0
173 195 0
174 197 0
173 196 0
174 197 0
171 193 0
176 197 0
171 194 0
175 197 0
175 196 0
174 196 0
172 193 0
169 191 0
172 193 0
174 195 0
171 192 0
172 192 0
168 190 0
169 191 0
168 189 0
168 189 0
167 188 0
158 180 0
166 187 0
160 182 0
161 183 0
156 178 0
156 177 0
152 174 0
163 185 0
157 179 0
158 180 0
148 170 0
156 179 0
150 173 0
148 170 0
143 165 0
144 166 0
146 168 0
143 164 0
154 175 0
142 163 0
142 163 0
137 157 0
133 154 0
130 151 0
136 157 0
143 164 0
136 156 0
133 152 0
132 150 0
134 155 0
138 158 0
126 144 0
129 147 0
124 143 0
130 149 0
129 146 0
122 141 0
130 148 0
125 143 0
137 156 0
132 147 0
128 143 0
139 157 0
137 154 0
140 156 0
141 158 0
135 150 0
138 153 0
135 151 0
136 150 0
141 155 0
142 157 0
139 152 0
133 145 0
141 151 0
137 145 0
138 144 0
138 144 0
138 146 0
137 141 0
129 133 0
140 144 0
136 137 0
140 144 0
137 140 0
135 132 0
139 137 0
137 134 0
150 148 0
143 140 0
138 135 0
144 143 0
145 142 0
154 154 0
153 156 0
154 156 0
155 159 0
160 166 0
153 156 0
155 162 0
162 169 0
166 177 0
166 178 0
163 174 0
168 182 0
167 180 0
164 178 0
168 183 0
170 188 0
169 188 0
170 186 0
170 189 0
166 185 0
170 190 0
169 190 0
172 192 0
172 192 0
169 188 0
171 190 0
174 195 0
173 194 0
171 191 0
174 194 0
171 192 0
173 194 0
173 195 0
172 195 0
172 196 0
173 195 0
173 194 0
174 195 0
171 192 0
173 195 0
172 194 0
171 194 0
172 196 0
174 196 0
175 196 0
174 196 0
172 195 0
175 197 0
174 196 0
174 196 0
174 198 0
174 196 0
174 196 0
174 197 0
173 197 0
173 197 0
174 197 0
172 197 0
175 197 0
175 198 0
174 197 0
174 197 0
174 197 0
173 197 0
173 197 0
173 197 0
173 197 0
174 198 0
174 198 0
173 196 0
174 198 0
175 197 0
172 196 0
174 197 0
174 197 0
174 197 0
175 198 0
173 197 0
172 197 0
174 196 0
174 197 0
176 198 0
174 197 0
174 197 0
175 198 0
175 198 0
175 198 0
174 198 0
174 198 0
175 198 0
174 197 0
175 198 0
175 198 0
175 198 0
175 198 0
175 198 0
174 198 0
174 197 0
174 198 0
173 197 0
173 197 0
174 197 0
174 198 0
175 198 0
175 198 0
175 198 0
174 198 0
174 198 0
173 197 0
176 198 0
176 199 0
175 198 0
174 198 0
176 198 0
173 197 0
175 198 0
175 198 0
175 198 0
173 197 0
176 199 0
174 198 0
176 198 0
174 198 0
173 197 0
174 198 0
174 198 0
175 198 0
174 198 0
176 198 0
173 197 0
174 198 0
176 198 0
174 197 0
175 198 0
175 198 0
174 198 0
175 198 0
175 198 0
175 198 0
173 197 0
175 198 0
174 198 0
175 198 0
179 202 80
187 207 114
191 211 140
195 213 155
203 220 189
202 220 188
211 227 217
216 230 230
217 231 234
225 238 255
225 238 255
225 237 255
225 237 255
225 237 255
225 237 255
202 219 177
192 211 142
194 213 155
181 203 80
182 204 95
175 198 0
174 198 0
174 198 0
175 198 0
175 198 0
175 198 0
173 197 0
176 199 0
176 199 0
174 198 0
176 199 0
177 199 0
174 198 0
174 198 0
175 198 0
174 198 0
176 198 0
175 198 0
174 197 0
173 197 0
175 198 0
175 198 0
175 198 0
173 197 0
175 198 0
175 198 0
176 199 0
174 198 0
173 197 0
175 198 0
174 198 0
175 198 0
175 198 0
174 198 0
175 198 0
176 199 0
173 197 0
174 198 0
175 198 0
174 198 0
174 198 0
173 197 0
175 198 0
175 198 0
174 198 0
174 198 0
174 198 0
176 199 0
174 198 0
176 198 0
174 198 0
176 198 0
176 198 0
173 197 0
172 197 0
173 197 0
174 198 0
175 198 0
175 198 0
177 199 0
175 198 0
175 198 0
174 198 0
174 198 0
173 197 0
175 198 0
173 197 0
175 198 0
174 198 0
173 197 0
175 198 0
175 198 0
174 198 0
173 197 0
174 198 0
175 198 0
174 198 0
176 199 0
175 198 0
174 197 0
174 198 0
174 197 0
173 197 0
174 198 0
171 196 0
174 198 0
174 197 0
175 198 0
175 198 0
173 197 0
174 197 0
174 198 0
173 197 0
174 198 0
175 198 0
174 198 0
174 198 0
173 196 0
175 198 0
173 197 0
174 198 0
174 197 0
172 197 0
176 198 0
174 198 0
174 197 0
175 198 0
174 197 0
173 197 0
174 197 0
174 197 0
173 197 0
172 195 0
174 198 0
173 197 0
173 197 0
172 197 0
174 198 0
174 197 0
172 196 0
171 195 0
173 197 0
174 197 0
173 196 0
172 196 0
174 197 0
173 197 0
174 197 0
175 197 0
172 195 0
171 195 0
173 196 0
171 195 0
172 195 0
173 196 0
169 192 0
175 198 0
176 198 0
174 197 0
172 195 0
174 196 0
173 196 0
174 197 0
174 196 0
170 192 0
173 195 0
172 192 0
167 189 0
174 195 0
172 194 0
174 195 0
172 194 0
172 194 0
167 188 0
169 190 0
172 193 0
170 191 0
167 188 0
169 190 0
167 188 0
169 190 0
163 184 0
157 178 0
162 184 0
167 189 0
168 190 0
154 176 0
157 178 0
163 185 0
158 181 0
158 180 0
151 175 0
147 170 0
155 178 0
156 177 0
153 175 0
146 168 0
148 170 0
153 175 0
155 177 0
152 174 0
152 174 0
149 170 0
138 159 0
141 163 0
150 172 0
142 163 0
142 161 0
142 161 0
140 162 0
132 153 0
134 153 0
132 152 0
131 151 0
129 147 0
125 145 0
130 150 0
138 159 0
130 148 0
127 147 0
141 158 0
143 161 0
134 152 0
131 148 0
134 151 0
139 155 0
142 160 0
143 161 0
145 164 0
136 150 0
140 159 0
142 159 0
135 148 0
132 149 0
142 158 0
145 161 0
139 151 0
145 160 0
135 144 0
140 151 0
145 156 0
143 151 0
143 151 0
137 143 0
148 156 0
146 152 0
148 153 0
133 134 0
144 144 0
138 138 0
134 134 0
145 146 0
145 145 0
145 150 0
145 144 0
140 137 0
149 148 0
139 136 0
146 144 0
154 157 0
151 153 0
159 164 0
156 162 0
155 161 0
158 165 0
158 163 0
165 178 0
163 175 0
162 171 0
164 176 0
168 181 0
168 185 0
165 179 0
169 185 0
169 186 0
165 180 0
169 185 0
170 188 0
171 191 0
169 185 0
170 188 0
170 190 0
169 188 0
170 189 0
172 192 0
171 190 0
173 194 0
171 193 0
173 195 0
171 194 0
173 196 0
174 196 0
174 195 0
172 195 0
170 192 0
173 195 0
172 194 0
173 196 0
173 195 0
174 195 0
172 195 0
174 197 0
173 195 0
175 197 0
175 198 0
174 197 0
174 197 0
172 194 0
172 196 0
175 196 0
173 196 0
174 197 0
174 197 0
172 195 0
173 196 0
172 195 0
173 196 0
173 196 0
175 197 0
173 197 0
173 197 0
173 197 0
173 196 0
175 198 0
175 198 0
175 197 0
174 197 0
173 197 0
174 197 0
174 197 0
173 196 0
173 197 0
174 197 0
173 196 0
175 198 0
173 197 0
174 198 0
174 197 0
174 197 0
174 197 0
174 198 0
174 198 0
173 197 0
173 197 0
173 197 0
175 198 0
175 198 0
173 197 0
175 198 0
173 197 0
174 198 0
175 198 0
175 198 0
175 198 0
174 197 0
174 197 0
173 197 0
174 198 0
174 198 0
175 197 0
175 198 0
174 197 0
175 198 0
173 197 0
175 198 0
173 197 0
173 197 0
175 198 0
175 198 0
173 197 0
174 198 0
175 198 0
173 197 0
175 198 0
174 198 0
175 198 0
175 198 0
175 198 0
174 198 0
175 198 0
175 198 0
176 198 0
173 197 0
175 198 0
174 198 0
174 198 0
174 198 0
176 199 0
174 198 0
174 197 0
177 199 0
173 197 0
176 198 0
175 198 0
176 198 0
174 198 0
176 198 0
177 199 0
174 198 0
174 198 0
175 198 0
175 198 0
175 198 0
173 197 0
175 198 0
173 197 0
174 198 0
175 198 0
175 198 0
175 198 36
183 204 88
185 206 111
188 209 130
198 216 171
204 221 188
175 198 0
174 198 0
175 198 0
173 197 0
175 198 0
175 198 0
175 198 0
177 199 0
175 198 0
175 198 0
174 198 0
177 199 0
174 198 0
173 197 0
174 198 0
176 199 0
176 198 0
173 197 0
173 197 0
173 197 0
175 198 0
174 198 0
175 198 0
174 198 0
174 198 0
176 199 0
173 197 0
174 198 0
174 198 0
175 198 0
175 198 0
173 197 0
176 199 0
176 198 0
175 198 0
174 198 0
174 198 0
175 198 0
174 198 0
175 198 0
175 198 0
175 198 0
174 197 0
173 196 0
174 197 0
175 198 0
175 198 0
177 199 0
174 198 0
175 198 0
174 198 0
174 198 0
175 198 0
175 198 0
175 198 0
174 198 0
173 197 0
175 198 0
175 198 0
175 198 0
174 197 0
173 197 0
174 197 0
175 198 0
175 198 0
176 198 0
173 197 0
174 197 0
176 199 0
173 197 0
173 196 0
175 198 0
175 198 0
175 198 0
172 196 0
174 198 0
175 198 0
172 197 0
172 196 0
173 197 0
174 198 0
175 198 0
174 197 0
174 197 0
175 198 0
173 197 0
174 198 0
174 197 0
174 197 0
174 197 0
172 196 0
174 198 0
174 198 0
174 198 0
173 197 0
171 196 0
175 198 0
173 197 0
173 197 0
174 197 0
175 198 0
174 197 0
174 197 0
174 198 0
173 197 0
171 196 0
175 198 0
173 197 0
173 197 0
173 196 0
173 196 0
173 196 0
172 195 0
176 198 0
173 197 0
173 197 0
174 197 0
175 198 0
172 196 0
174 198 0
172 196 0
175 198 0
172 196 0
172 196 0
173 197 0
175 198 0
175 197 0
174 198 0
171 195 0
174 198 0
175 198 0
173 196 0
174 197 0
170 193 0
172 195 0
174 197 0
170 193 0
174 197 0
175 197 0
171 195 0
172 195 0
171 195 0
173 195 0
174 197 0
172 195 0
171 194 0
175 197 0
171 193 0
173 195 0
172 194 0
173 195 0
176 198 0
171 192 0
173 195 0
168 189 0
173 195 0
173 194 0
171 194 0
172 194 0
169 191 0
168 190 0
165 187 0
167 187 0
163 186 0
160 181 0
167 189 0
163 185 0
167 190 0
163 186 0
162 185 0
159 180 0
159 180 0
163 186 0
162 184 0
160 182 0
161 181 0
157 179 0
163 185 0
145 168 0
153 174 0
152 174 0
143 166 0
153 175 0
143 165 0
150 173 0
157 178 0
154 174 0
149 171 0
148 169 0
151 174 0
139 160 0
151 173 0
138 160 0
141 162 0
133 153 0
145 166 0
138 159 0
140 160 0
145 166 0
121 141 0
140 160 0
132 151 0
139 158 0
137 157 0
143 162 0
132 151 0
141 160 0
144 164 0
139 157 0
140 159 0
141 159 0
143 159 0
141 159 0
136 153 0
139 157 0
149 167 0
151 168 0
149 166 0
140 157 0
140 157 0
146 161 0
142 159 0
144 159 0
137 151 0
144 159 0
147 161 0
143 153 0
133 139 0
144 157 0
141 150 0
146 156 0
141 150 0
153 161 0
142 150 0
145 149 0
148 152 0
143 148 0
149 153 0
151 155 0
150 155 0
151 154 0
144 145 0
150 152 0
151 151 0
150 153 0
157 164 0
153 156 0
158 164 0
153 158 0
159 167 0
157 162 0
160 169 0
165 176 0
168 182 0
166 177 0
163 174 0
165 178 0
163 174 0
161 170 0
169 183 0
167 185 0
168 182 0
169 183 0
166 183 0
170 188 0
169 188 0
170 187 0
169 189 0
170 188 0
169 189 0
168 188 0
167 186 0
171 192 0
170 191 0
172 194 0
172 194 0
171 192 0
173 195 0
173 195 0
172 194 0
173 194 0
172 193 0
173 194 0
171 194 0
173 196 0
175 197 0
171 194 0
175 196 0
174 197 0
174 197 0
174 197 0
173 197 0
174 197 0
173 195 0
174 196 0
172 195 0
174 198 0
173 196 0
174 196 0
174 196 0
173 197 0
173 196 0
174 197 0
171 195 0
173 195 0
175 197 0
173 196 0
173 197 0
174 197 0
174 197 0
174 197 0
175 198 0
175 198 0
174 197 0
175 197 0
174 197 0
172 195 0
174 197 0
175 197 0
174 197 0
174 197 0
174 197 0
176 198 0
176 199 0
175 198 0
174 197 0
174 197 0
173 197 0
174 198 0
175 197 0
174 197 0
174 198 0
174 197 0
174 198 0
174 198 0
173 197 0
172 196 0
174 197 0
175 198 0
174 197 0
174 198 0
174 197 0
173 196 0
174 198 0
173 197 0
174 198 0
175 198 0
175 198 0
173 197 0
174 198 0
174 197 0
174 198 0
176 198 0
175 198 0
174 198 0
174 198 0
174 198 0
174 198 0
175 198 0
176 199 0
176 199 0
174 198 0
175 198 0
175 198 0
175 198 0
176 198 0
174 197 0
175 198 0
173 197 0
175 198 0
175 198 0
175 198 0
171 196 0
173 197 0
173 197 0
173 197 0
174 197 0
174 198 0
174 198 0
175 198 0
172 196 0
173 197 0
174 198 0
175 198 0
175 198 0
174 198 0
174 197 0
173 197 0
174 198 0
176 198 0
173 197 0
174 198 0
174 198 0
175 198 0
174 198 0
175 198 0
175 198 0
174 198 0
174 198 0
174 197 0
175 198 0
174 198 0
174 197 0
175 198 0
174 198 0
175 198 0
176 199 0
176 199 0
173 197 0
172 196 0
173 197 0
175 198 0
174 198 0
173 197 0
174 198 0
174 198 0
174 198 0
174 198 0
175 198 0
174 198 0
174 198 0
174 198 0
174 197 0
174 198 0
173 197 0
175 198 0
174 197 0
174 198 0
175 198 0
175 198 0
174 198 0
174 197 0
174 198 0
174 198 0
174 198 0
173 197 0
172 197 0
175 198 0
175 198 0
174 198 0
175 198 0
174 198 0
175 198 0
176 199 0
174 198 0
174 198 0
174 197 0
174 197 0
176 199 0
174 197 0
175 198 0
174 198 0
175 198 0
174 197 0
176 198 0
173 197 0
174 198 0
174 197 0
174 197 0
174 198 0
174 197 0
173 196 0
175 198 0
175 198 0
175 198 0
172 196 0
175 198 0
174 197 0
175 198 0
174 197 0
174 198 0
174 198 0
173 197 0
175 198 0
175 198 0
175 198 0
173 197 0
174 197 0
175 198 0
174 198 0
174 197 0
174 198 0
174 198 0
174 197 0
173 197 0
175 198 0
172 196 0
175 198 0
175 198 0
172 196 0
175 197 0
174 197 0
174 198 0
174 198 0
173 196 0
176 199 0
175 198 0
172 196 0
174 197 0
171 195 0
174 198 0
175 198 0
174 198 0
174 197 0
173 197 0
173 197 0
175 198 0
173 196 0
174 197 0
173 197 0
174 197 0
175 198 0
172 195 0
173 197 0
172 196 0
173 197 0
174 197 0
170 195 0
172 195 0
172 196 0
173 197 0
173 196 0
175 198 0
173 196 0
172 196 0
172 196 0
176 198 0
173 196 0
174 197 0
174 196 0
171 195 0
173 197 0
173 196 0
174 197 0
174 197 0
171 195 0
174 197 0
173 196 0
172 195 0
172 195 0
172 195 0
170 193 0
175 198 0
172 195 0
176 198 0
173 195 0
173 196 0
171 194 0
168 190 0
172 194 0
172 193 0
174 196 0
169 191 0
173 195 0
171 192 0
173 195 0
172 193 0
167 189 0
165 187 0
164 185 0
168 190 0
167 189 0
169 190 0
166 188 0
165 187 0
167 189 0
171 193 0
159 181 0
166 188 0
160 182 0
163 185 0
158 179 0
158 181 0
158 182 0
160 183 0
158 181 0
158 181 0
158 181 0
159 181 0
149 171 0
147 169 0
154 177 0
156 179 0
154 176 0
151 173 0
149 172 0
151 172 0
143 165 0
148 170 0
151 173 0
144 167 0
144 165 0
145 166 0
148 170 0
153 174 0
154 176 0
138 158 0
144 165 0
142 162 0
134 154 0
141 162 0
138 160 0
154 174 0
143 163 0
147 167 0
142 163 0
137 157 0
144 162 0
137 155 0
143 163 0
137 155 0
146 167 0
133 152 0
145 161 0
141 159 0
137 157 0
143 159 0
146 163 0
141 157 0
146 161 0
135 149 0
141 158 0
145 160 0
147 163 0
156 171 0
143 156 0
144 159 0
151 166 0
148 160 0
145 158 0
152 165 0
147 156 0
141 152 0
151 157 0
149 156 0
142 148 0
150 157 0
145 152 0
154 162 0
151 157 0
148 152 0
158 168 0
155 163 0
150 153 0
153 158 0
154 156 0
154 161 0
156 162 0
157 164 0
156 160 0
160 166 0
159 165 0
160 170 0
165 176 0
160 168 0
162 172 0
164 175 0
163 174 0
164 174 0
165 178 0
168 182 0
169 185 0
167 183 0
167 184 0
170 187 0
169 186 0
168 187 0
169 185 0
170 190 0
166 184 0
170 187 0
171 191 0
172 192 0
172 192 0
171 191 0
170 191 0
171 190 0
172 193 0
171 190 0
173 193 0
171 193 0
172 193 0
171 192 0
172 192 0
173 194 0
171 194 0
173 195 0
171 192 0
174 196 0
173 195 0
174 197 0
173 194 0
172 195 0
173 195 0
173 195 0
173 195 0
173 194 0
173 195 0
173 196 0
173 195 0
172 195 0
173 195 0
174 197 0
174 197 0
173 196 0
172 195 0
173 196 0
174 196 0
174 197 0
175 196 0
173 196 0
174 196 0
174 197 0
174 197 0
173 196 0
174 196 0
174 197 0
175 198 0
174 197 0
175 198 0
174 197 0
175 198 0
173 196 0
174 197 0
174 197 0
174 198 0
173 196 0
173 196 0
176 198 0
176 199 0
174 197 0
174 197 0
174 198 0
173 197 0
174 198 0
174 198 0
174 198 0
172 196 0
174 197 0
174 198 0
172 196 0
174 197 0
174 198 0
174 198 0
173 197 0
172 196 0
174 198 0
174 197 0
174 197 0
173 197 0
174 198 0
173 197 0
175 198 0
173 197 0
177 199 0
175 198 0
173 197 0
172 197 0
175 198 0
174 197 0
173 197 0
174 198 0
176 198 0
173 197 0
174 197 0
174 198 0
175 198 0
174 197 0
173 197 0
175 198 0
175 198 0
174 197 0
174 198 0
173 197 0
174 198 0
175 198 0
175 198 0
174 198 0
175 198 0
175 198 0
174 197 0
175 198 0
174 197 0
174 198 0
176 198 0
175 198 0
175 198 0
175 198 0
175 198 0
174 198 0
174 197 0
175 198 0
174 198 0
174 198 0
175 198 0
174 198 0
173 197 0
175 198 0
173 197 0
175 198 0
175 198 0
174 198 0
175 198 0
174 198 0
174 197 0
176 198 0
175 198 0
173 197 0
174 198 0
175 198 0
174 197 0
174 197 0
174 198 0
174 197 0
173 197 0
172 197 0
176 199 0
176 198 0
175 198 0
174 198 0
175 198 0
175 198 0
174 198 0
176 198 0
174 198 0
176 199 0
174 198 0
174 197 0
175 198 0
171 196 0
176 199 0
175 198 0
175 198 0
174 198 0
176 198 0
174 198 0
174 198 0
176 199 0
175 198 0
175 198 0
173 197 0
178 200 0
174 198 0
174 198 0
175 198 0
174 198 0
174 198 0
173 197 0
174 198 0
175 198 0
175 198 0
174 198 0
175 198 0
172 197 0
176 199 0
175 198 0
174 197 0
175 198 0
173 197 0
174 198 0
173 197 0
174 198 0
174 198 0
174 198 0
173 197 0
173 197 0
175 198 0
174 197 0
173 197 0
174 198 0
173 197 0
175 198 0
174 197 0
173 196 0
175 198 0
172 197 0
174 198 0
174 198 0
172 196 0
175 198 0
173 197 0
174 198 0
175 198 0
175 198 0
174 198 0
172 197 0
174 197 0
174 198 0
174 197 0
174 198 0
173 196 0
172 196 0
174 197 0
175 198 0
174 197 0
177 199 0
172 197 0
175 198 0
173 197 0
172 196 0
176 198 0
174 198 0
174 197 0
176 199 0
174 197 0
175 198 0
173 197 0
172 196 0
174 197 0
174 197 0
173 196 0
174 197 0
174 198 0
172 196 0
174 197 0
173 197 0
172 195 0
175 198 0
172 196 0
173 197 0
173 197 0
174 197 0
173 196 0
170 193 0
172 196 0
173 196 0
174 197 0
174 197 0
173 196 0
175 197 0
172 196 0
175 198 0
174 196 0
172 194 0
169 193 0
172 194 0
172 195 0
172 195 0
172 195 0
174 197 0
174 196 0
173 196 0
173 196 0
174 197 0
173 195 0
170 193 0
172 194 0
172 194 0
174 196 0
172 194 0
171 193 0
172 194 0
164 187 0
170 192 0
172 195 0
171 193 0
172 194 0
171 193 0
164 186 0
171 192 0
164 187 0
159 181 0
167 190 0
171 193 0
167 189 0
161 183 0
166 189 0
164 187 0
164 185 0
163 185 0
161 184 0
154 177 0
161 183 0
161 182 0
153 175 0
163 186 0
163 185 0
156 178 0
158 182 0
158 180 0
157 179 0
158 181 0
149 171 0
146 169 0
152 173 0
153 175 0
148 172 0
150 172 0
149 171 0
139 160 0
149 172 0
143 164 0
142 164 0
147 169 0
139 159 0
137 158 0
146 166 0
150 170 0
142 163 0
143 162 0
136 157 0
139 159 0
139 159 0
130 150 0
148 169 0
145 165 0
144 165 0
145 165 0
147 166 0
146 165 0
143 161 0
151 171 0
144 163 0
141 161 0
145 162 0
140 159 0
154 171 0
143 159 0
152 169 0
156 173 0
150 167 0
148 166 0
149 166 0
149 168 0
147 163 0
148 164 0
153 168 0
160 179 0
143 156 0
147 161 0
142 153 0
143 156 0
148 157 0
155 167 0
147 155 0
157 168 0
147 156 0
153 164 0
155 166 0
154 161 0
154 160 0
154 159 0
150 156 0
156 163 0
150 156 0
155 160 0
156 163 0
152 159 0
155 162 0
155 162 0
157 164 0
163 173 0
166 176 0
159 167 0
161 170 0
163 171 0
160 168 0
166 177 0
163 174 0
163 173 0
167 181 0
168 183 0
167 181 0
166 184 0
168 185 0
170 186 0
170 186 0
168 185 0
169 185 0
170 188 0
166 184 0
168 186 0
168 186 0
172 192 0
172 193 0
169 188 0
170 189 0
172 191 0
171 193 0
169 190 0
169 190 0
173 195 0
171 193 0
174 195 0
172 192 0
173 193 0
170 194 0
173 195 0
172 195 0
168 189 0
172 193 0
174 196 0
172 196 0
174 197 0
173 196 0
171 193 0
173 195 0
173 195 0
174 195 0
173 194 0
171 194 0
173 196 0
174 196 0
174 196 0
173 196 0
175 197 0
174 197 0
173 195 0
174 196 0
173 197 0
175 197 0
173 196 0
174 196 0
173 197 0
173 196 0
172 196 0
175 198 0
173 197 0
174 198 0
175 198 0
173 197 0
174 197 0
173 197 0
174 197 0
174 198 0
173 196 0
175 198 0
173 196 0
175 198 0
172 196 0
174 198 0
175 198 0
175 198 0
172 196 0
174 197 0
175 198 0
177 199 0
175 198 0
173 197 0
175 198 0
175 198 0
175 198 0
174 197 0
175 198 0
174 198 0
175 198 0
174 197 0
173 196 0
174 197 0
175 198 0
173 197 0
173 197 0
174 197 0
172 196 0
174 197 0
176 198 0
173 197 0
175 198 0
173 197 0
177 199 0
174 198 0
174 198 0
175 198 0
173 197 0
174 198 0
174 198 0
174 197 0
175 198 0
174 198 0
175 198 0
176 198 0
175 198 0
173 197 0
174 198 0
175 198 0
174 198 0
174 198 0
176 199 0
174 198 0
175 198 0
176 198 0
174 198 0
174 198 0
174 198 0
173 197 0
174 198 0
174 198 0
174 198 0
174 198 0
175 198 0
175 198 0
175 198 0
175 198 0
175 198 0
176 199 0
174 197 0
176 198 0
175 198 0
174 197 0
175 198 0
174 197 0
176 198 0
173 197 0
174 197 0
174 198 0
175 198 0
174 197 0
174 198 0
174 198 0
173 197 0
174 198 0
174 198 0
174 198 0
173 197 0
174 197 0
174 198 0
174 198 0
174 197 0
175 198 0
175 198 0
176 198 0
174 198 0
174 198 0
173 197 0
174 197 0
174 198 0
175 198 0
175 198 0
174 198 0
173 197 0
173 197 0
174 198 0
174 197 0
175 198 0
173 197 0
175 198 0
173 197 0
175 198 0
175 198 0
173 197 0
174 198 0
172 196 0
172 196 0
175 198 0
173 197 0
176 199 0
176 199 0
175 198 0
175 198 0
172 196 0
175 198 0
173 197 0
174 198 0
173 197 0
172 196 0
174 197 0
174 198 0
174 198 0
174 198 0
175 198 0
175 198 0
175 198 0
174 197 0
175 198 0
174 198 0
174 198 0
172 197 0
172 196 0
175 198 0
174 197 0
174 198 0
174 198 0
174 198 0
174 198 0
175 198 0
174 197 0
173 197 0
172 195 0
174 198 0
172 196 0
174 197 0
174 197 0
175 198 0
172 196 0
174 197 0
172 197 0
174 198 0
175 198 0
173 197 0
174 197 0
173 197 0
174 197 0
173 196 0
174 197 0
174 198 0
176 199 0
175 198 0
172 197 0
173 196 0
173 197 0
174 197 0
175 198 0
174 197 0
174 197 0
172 196 0
174 198 0
173 197 0
173 197 0
172 196 0
174 198 0
172 195 0
174 197 0
172 195 0
174 197 0
172 196 0
173 197 0
176 198 0
173 197 0
172 196 0
170 194 0
173 196 0
174 197 0
175 198 0
173 196 0
174 197 0
172 195 0
176 198 0
173 196 0
172 195 0
173 196 0
173 197 0
171 195 0
171 194 0
175 198 0
172 196 0
175 197 0
170 193 0
172 196 0
174 197 0
173 197 0
174 196 0
171 193 0
170 193 0
174 196 0
172 194 0
173 195 0
170 193 0
174 197 0
170 192 0
172 193 0
172 194 0
170 192 0
169 191 0
166 188 0
172 194 0
171 193 0
165 187 0
168 190 0
165 188 0
167 189 0
168 191 0
164 186 0
162 184 0
163 185 0
162 184 0
168 190 0
164 186 0
160 183 0
164 186 0
161 184 0
153 175 0
157 178 0
164 186 0
156 180 0
161 184 0
158 181 0
157 179 0
160 183 0
153 175 0
154 176 0
150 171 0
160 183 0
145 167 0
156 178 0
148 170 0
150 172 0
151 173 0
150 172 0
152 173 0
148 170 0
156 178 0
150 171 0
148 168 0
151 173 0
145 166 0
153 175 0
147 169 0
150 171 0
135 156 0
144 165 0
140 161 0
154 174 0
154 174 0
151 173 0
149 170 0
150 169 0
141 161 0
146 166 0
142 163 0
147 166 0
145 165 0
150 168 0
137 156 0
148 168 0
150 169 0
145 162 0
153 171 0
148 167 0
149 165 0
150 167 0
156 172 0
148 166 0
144 159 0
152 168 0
150 165 0
144 160 0
146 163 0
148 163 0
151 167 0
152 167 0
153 168 0
156 170 0
148 160 0
153 165 0
150 162 0
153 165 0
154 166 0
154 165 0
156 167 0
154 165 0
155 168 0
156 164 0
154 162 0
158 168 0
160 168 0
161 171 0
155 161 0
155 166 0
157 165 0
160 166 0
156 166 0
162 172 0
156 165 0
161 173 0
161 173 0
161 170 0
161 172 0
161 170 0
162 173 0
164 174 0
166 179 0
165 177 0
166 181 0
167 179 0
164 177 0
165 182 0
166 181 0
164 181 0
168 185 0
168 185 0
170 187 0
170 188 0
170 189 0
169 188 0
168 187 0
169 186 0
171 188 0
173 193 0
169 190 0
171 191 0
170 191 0
171 192 0
172 194 0
172 193 0
172 193 0
174 195 0
174 194 0
172 192 0
172 194 0
170 191 0
172 195 0
172 194 0
173 195 0
172 195 0
173 195 0
173 196 0
170 191 0
173 194 0
173 197 0
173 196 0
174 196 0
175 197 0
173 196 0
174 196 0
173 196 0
173 196 0
174 196 0
175 196 0
171 194 0
173 196 0
176 198 0
172 196 0
174 197 0
175 197 0
171 194 0
174 197 0
175 197 0
174 197 0
173 196 0
174 197 0
175 197 0
175 197 0
174 197 0
173 196 0
173 196 0
175 197 0
175 198 0
175 197 0
173 197 0
174 198 0
174 197 0
172 196 0
176 198 0
173 197 0
174 197 0
174 197 0
176 199 0
175 198 0
173 197 0
175 198 0
174 197 0
174 197 0
175 198 0
176 198 0
176 198 0
174 197 0
175 198 0
174 197 0
174 197 0
174 198 0
175 198 0
174 198 0
174 198 0
172 196 0
173 197 0
174 197 0
173 197 0
175 198 0
175 198 0
174 197 0
175 198 0
173 197 0
173 197 0
173 197 0
173 197 0
174 198 0
174 198 0
175 198 0
174 197 0
174 198 0
175 198 0
175 198 0
175 198 0
174 197 0
175 198 0
173 197 0
174 198 0
175 198 0
174 198 0
175 198 0
173 197 0
176 198 0
175 198 0
175 198 0
174 197 0
174 198 0
173 197 0
175 198 0
175 198 0
176 198 0
172 197 0
175 198 0
175 198 0
175 198 0
175 198 0
173 197 0
175 198 0
174 197 0
174 197 0
174 197 0
175 198 0
176 198 0
174 198 0
173 197 0
176 198 0
173 197 0
174 198 0
173 197 0
175 198 0
175 198 0
175 198 0
175 198 0
175 198 0
173 197 0
174 198 0
174 198 0
174 198 0
173 197 0
175 198 0
175 198 0
174 198 0
173 197 0
175 198 0
175 198 0
175 198 0
173 197 0
174 198 0
174 198 0
175 198 0
172 196 0
173 197 0
174 197 0
173 197 0
174 198 0
175 198 0
174 197 0
177 199 0
173 197 0
173 197 0
175 198 0
173 197 0
176 198 0
174 198 0
176 199 0
174 198 0
174 198 0
174 197 0
174 197 0
172 196 0
174 198 0
175 198 0
175 198 0
172 197 0
174 198 0
174 197 0
174 198 0
174 198 0
173 197 0
175 198 0
175 198 0
174 198 0
174 197 0
174 198 0
174 197 0
173 197 0
174 198 0
176 199 0
174 198 0
173 196 0
174 198 0
173 197 0
174 198 0
174 197 0
174 198 0
175 198 0
175 198 0
174 198 0
176 199 0
174 197 0
174 197 0
173 197 0
173 196 0
173 197 0
174 197 0
174 197 0
173 197 0
175 198 0
173 197 0
174 198 0
174 198 0
173 197 0
173 197 0
173 197 0
172 196 0
172 196 0
174 198 0
175 198 0
171 195 0
174 197 0
173 197 0
175 198 0
174 197 0
174 197 0
173 197 0
173 197 0
173 196 0
174 198 0
174 197 0
172 196 0
173 197 0
172 195 0
171 195 0
173 197 0
174 197 0
171 195 0
172 196 0
173 197 0
173 196 0
174 198 0
173 195 0
173 196 0
174 197 0
172 196 0
174 196 0
171 194 0
172 195 0
171 196 0
172 196 0
171 194 0
173 197 0
174 196 0
172 195 0
175 198 0
171 195 0
170 194 0
174 196 0
173 196 0
172 194 0
172 194 0
173 196 0
173 195 0
169 191 0
168 191 0
165 188 0
171 194 0
172 195 0
171 193 0
171 194 0
170 192 0
166 188 0
170 192 0
168 190 0
170 191 0
168 190 0
171 192 0
169 192 0
168 190 0
168 191 0
169 192 0
165 188 0
171 193 0
166 188 0
162 185 0
164 187 0
161 185 0
161 184 0
166 187 0
157 180 0
162 185 0
160 184 0
158 181 0
159 182 0
157 180 0
161 184 0
151 173 0
160 184 0
159 181 0
157 179 0
160 182 0
155 178 0
158 181 0
151 174 0
156 179 0
153 175 0
152 174 0
150 172 0
159 181 0
156 177 0
157 180 0
156 178 0
147 168 0
152 173 0
149 171 0
148 170 0
149 170 0
145 166 0
147 168 0
144 166 0
144 166 0
147 169 0
149 170 0
137 158 0
148 170 0
147 167 0
150 171 0
141 161 0
144 163 0
148 168 0
143 163 0
153 173 0
147 167 0
155 176 0
154 173 0
147 167 0
151 171 0
155 176 0
146 164 0
151 168 0
150 169 0
142 160 0
152 171 0
152 172 0
150 169 0
149 167 0
151 168 0
149 164 0
150 168 0
147 160 0
156 172 0
148 165 0
150 164 0
155 171 0
156 171 0
153 169 0
154 169 0
150 162 0
161 176 0
155 169 0
155 168 0
153 165 0
159 169 0
157 169 0
158 170 0
151 159 0
150 159 0
154 162 0
159 170 0
160 173 0
157 165 0
156 165 0
158 167 0
163 175 0
160 170 0
162 175 0
163 173 0
159 169 0
165 175 0
165 177 0
164 178 0
160 170 0
164 176 0
168 182 0
169 183 0
161 174 0
165 179 0
169 181 0
166 182 0
169 185 0
169 187 0
168 183 0
170 187 0
167 179 0
170 189 0
168 186 0
169 184 0
169 186 0
170 189 0
171 192 0
172 190 0
168 187 0
171 189 0
168 189 0
171 192 0
172 192 0
172 193 0
171 192 0
171 192 0
172 194 0
171 192 0
171 192 0
171 192 0
173 194 0
172 194 0
172 193 0
172 194 0
171 194 0
172 194 0
172 195 0
173 196 0
171 192 0
173 195 0
174 197 0
173 196 0
172 193 0
173 196 0
172 194 0
172 195 0
173 195 0
174 196 0
174 196 0
174 196 0
173 196 0
173 195 0
171 195 0
173 195 0
173 196 0
174 197 0
175 198 0
174 197 0
173 196 0
174 197 0
174 197 0
174 197 0
174 198 0
173 196 0
173 196 0
175 198 0
174 198 0
173 197 0
175 197 0
172 196 0
174 197 0
174 197 0
173 197 0
174 196 0
176 198 0
173 197 0
173 197 0
173 197 0
175 198 0
173 197 0
174 197 0
176 198 0
173 197 0
174 198 0
173 197 0
174 197 0
174 197 0
175 198 0
173 197 0
174 198 0
174 198 0
172 196 0
174 197 0
174 197 0
175 198 0
175 198 0
175 198 0
175 198 0
173 197 0
174 198 0
174 197 0
175 198 0
174 197 0
173 197 0
174 197 0
176 198 0
174 198 0
175 198 0
173 197 0
173 197 0
174 197 0
173 197 0
173 197 0
172 196 0
172 197 0
173 197 0
174 198 0
175 198 0
175 198 0
173 197 0
174 198 0
174 197 0
174 198 0
173 197 0
176 199 0
174 198 0
174 197 0
175 198 0
175 198 0
173 197 0
174 197 0
173 197 0
176 199 0
174 197 0
175 198 0
174 197 0
174 198 0
176 198 0
174 197 0
175 198 0
175 198 0
173 197 0
175 198 0
175 198 0
174 198 0
173 196 0
173 197 0
174 197 0
174 198 0
174 198 0
175 198 0
174 198 0
174 197 0
174 197 0
175 198 0
176 199 0
175 198 0
174 198 0
174 198 0
174 198 0
176 198 0
175 198 0
174 197 0
175 198 0
175 198 0
175 198 0
173 197 0
175 198 0
175 198 0
175 198 0
174 198 0
175 198 0
174 198 0
174 198 0
175 198 0
174 198 0
174 197 0
174 197 0
175 198 0
174 198 0
175 197 0
174 197 0
174 198 0
174 198 0
174 197 0
174 198 0
174 198 0
173 197 0
173 197 0
175 198 0
174 197 0
174 197 0
172 197 0
173 197 0
175 198 0
174 198 0
172 196 0
173 197 0
175 198 0
176 199 0
172 196 0
174 198 0
175 198 0
173 197 0
174 198 0
172 196 0
173 197 0
173 197 0
174 198 0
174 197 0
175 198 0
174 197 0
174 198 0
174 197 0
174 198 0
174 197 0
173 197 0
174 197 0
174 198 0
173 197 0
174 198 0
175 198 0
173 196 0
172 197 0
175 198 0
175 198 0
173 197 0
173 197 0
173 197 0
174 198 0
174 198 0
174 197 0
173 197 0
174 197 0
173 196 0
173 197 0
174 197 0
175 198 0
173 196 0
172 196 0
174 197 0
173 197 0
174 198 0
174 197 0
173 196 0
172 195 0
174 197 0
173 196 0
173 196 0
172 196 0
173 197 0
172 195 0
173 196 0
174 197 0
173 197 0
174 198 0
171 194 0
174 197 0
175 198 0
174 197 0
174 197 0
174 197 0
172 196 0
173 197 0
174 196 0
173 196 0
173 196 0
173 196 0
172 196 0
172 195 0
168 190 0
174 197 0
173 196 0
170 192 0
173 196 0
172 194 0
172 195 0
171 194 0
174 196 0
172 195 0
173 195 0
172 194 0
173 195 0
171 193 0
168 190 0
173 194 0
173 196 0
171 194 0
166 188 0
169 192 0
165 188 0
170 192 0
166 189 0
166 188 0
166 189 0
166 189 0
165 188 0
169 191 0
165 188 0
160 182 0
166 189 0
166 189 0
161 184 0
156 179 0
162 186 0
160 184 0
165 187 0
163 185 0
166 189 0
159 182 0
164 186 0
163 185 0
158 181 0
161 184 0
156 179 0
157 180 0
156 179 0
159 183 0
153 176 0
157 178 0
158 180 0
159 181 0
155 177 0
150 172 0
148 171 0
157 179 0
159 182 0
146 168 0
149 172 0
150 173 0
150 170 0
147 168 0
144 166 0
153 175 0
149 170 0
154 174 0
148 171 0
145 167 0
153 174 0
150 172 0
154 176 0
147 169 0
142 162 0
154 176 0
149 168 0
149 170 0
148 168 0
146 167 0
150 170 0
154 174 0
149 169 0
151 170 0
149 169 0
144 165 0
148 168 0
146 166 0
149 167 0
140 158 0
154 174 0
150 168 0
151 168 0
152 171 0
148 165 0
156 175 0
158 178 0
152 169 0
152 169 0
149 166 0
151 168 0
150 165 0
153 169 0
151 167 0
157 172 0
153 167 0
152 167 0
160 176 0
152 164 0
152 167 0
155 169 0
148 160 0
155 166 0
154 167 0
160 173 0
161 174 0
159 168 0
159 169 0
156 168 0
153 163 0
156 166 0
159 169 0
165 175 0
157 167 0
161 169 0
158 170 0
158 168 0
159 168 0
165 176 0
166 178 0
164 176 0
168 182 0
162 170 0
165 179 0
163 175 0
166 181 0
164 174 0
166 181 0
169 184 0
164 178 0
165 181 0
165 177 0
168 183 0
169 187 0
169 187 0
169 188 0
168 185 0
170 189 0
172 191 0
170 188 0
168 188 0
171 190 0
171 191 0
170 189 0
167 185 0
170 188 0
172 193 0
170 190 0
173 192 0
173 194 0
172 193 0
173 195 0
173 194 0
172 192 0
170 192 0
172 192 0
175 196 0
172 193 0
172 193 0
172 193 0
172 193 0
172 193 0
174 195 0
174 195 0
172 195 0
174 197 0
171 194 0
173 194 0
173 195 0
176 198 0
173 196 0
174 196 0
173 196 0
171 194 0
172 195 0
174 196 0
173 196 0
173 196 0
175 197 0
173 195 0
173 195 0
173 196 0
173 197 0
174 197 0
173 196 0
173 197 0
173 196 0
174 196 0
175 197 0
175 198 0
175 198 0
172 195 0
174 196 0
175 197 0
174 198 0
172 195 0
174 197 0
175 198 0
173 196 0
175 198 0
172 196 0
175 198 0
173 196 0
174 197 0
175 198 0
173 197 0
173 196 0
173 196 0
173 197 0
174 198 0
174 198 0
174 197 0
173 197 0
174 197 0
175 198 0
176 198 0
174 197 0
177 199 0
175 198 0
175 198 0
174 198 0
174 198 0
174 197 0
174 197 0
174 197 0
174 197 0
174 197 0
173 197 0
175 198 0
174 197 0
176 199 0
175 198 0
175 198 0
175 198 0
175 198 0
175 197 0
175 198 0
174 198 0
175 198 0
174 197 0
175 198 0
173 197 0
174 197 0
175 198 0
176 198 0
175 198 0
177 199 0
174 198 0
173 197 0
173 197 0
175 198 0
174 198 0
173 197 0
174 197 0
175 198 0
174 197 0
174 198 0
175 197 0
175 198 0
174 198 0
174 197 0
173 197 0
174 198 0
174 197 0
175 198 0
176 199 0
175 198 0
175 198 0
173 197 0
175 198 0
174 198 0
176 198 0
176 199 0
175 198 0
175 198 0
174 198 0
174 197 0
174 198 0
173 197 0
176 198 0
176 199 0
173 197 0
175 198 0
173 197 0
175 198 0
174 198 0
175 198 0
173 197 0
174 198 0
175 198 0
177 199 0
173 197 0
174 198 0
174 198 0
174 198 0
173 197 0
174 198 0
174 198 0
174 198 0
176 198 0
175 198 0
175 198 0
173 197 0
175 198 0
174 197 0
176 198 0
174 198 0
176 199 0
175 198 0
173 197 0
173 197 0
173 197 0
175 198 0
175 198 0
175 198 0
173 197 0
175 198 0
176 199 0
174 198 0
173 197 0
173 197 0
173 196 0
174 198 0
175 198 0
175 198 0
174 197 0
176 198 0
174 198 0
175 198 0
173 197 0
174 197 0
174 197 0
175 198 0
176 198 0
173 197 0
173 197 0
175 198 0
173 197 0
176 199 0
172 196 0
173 197 0
176 199 0
173 196 0
174 197 0
176 198 0
174 198 0
173 196 0
173 197 0
175 198 0
170 194 0
175 198 0
174 198 0
173 196 0
173 197 0
175 198 0
174 198 0
171 196 0
172 196 0
172 196 0
174 198 0
173 197 0
175 198 0
172 195 0
172 196 0
174 197 0
173 196 0
173 196 0
173 196 0
168 193 0
172 195 0
173 197 0
174 197 0
171 195 0
173 196 0
173 196 0
172 196 0
172 196 0
171 195 0
170 193 0
172 196 0
171 194 0
171 194 0
173 196 0
171 195 0
173 196 0
170 194 0
171 194 0
174 197 0
169 192 0
173 196 0
174 196 0
170 193 0
173 196 0
173 196 0
168 190 0
170 193 0
173 195 0
167 191 0
171 194 0
170 193 0
171 194 0
169 192 0
172 194 0
172 194 0
170 193 0
170 193 0
169 192 0
168 191 0
168 190 0
165 188 0
168 191 0
172 196 0
169 192 0
171 193 0
169 190 0
167 190 0
163 186 0
164 187 0
167 189 0
169 191 0
161 184 0
163 186 0
166 188 0
165 188 0
165 186 0
160 183 0
165 188 0
159 182 0
164 188 0
159 181 0
162 185 0
162 185 0
157 180 0
161 182 0
156 179 0
158 180 0
156 179 0
161 181 0
163 186 0
164 186 0
155 177 0
157 179 0
153 175 0
156 178 0
150 172 0
161 184 0
156 178 0
157 180 0
152 174 0
153 176 0
146 168 0
153 174 0
146 168 0
152 174 0
153 176 0
149 171 0
149 171 0
146 167 0
147 170 0
147 167 0
152 174 0
144 166 0
148 171 0
148 170 0
141 161 0
147 169 0
150 171 0
147 169 0
154 175 0
157 177 0
159 179 0
147 166 0
143 163 0
148 168 0
147 167 0
153 173 0
153 174 0
156 176 0
156 176 0
148 168 0
146 165 0
152 170 0
151 170 0
154 175 0
153 173 0
150 167 0
153 172 0
147 168 0
151 167 0
150 166 0
152 169 0
153 169 0
152 169 0
160 176 0
154 172 0
150 165 0
155 170 0
158 171 0
152 167 0
158 174 0
159 174 0
160 174 0
155 167 0
157 169 0
157 170 0
153 167 0
160 173 0
157 169 0
155 168 0
162 175 0
157 168 0
163 172 0
164 176 0
158 168 0
159 172 0
165 178 0
159 170 0
163 176 0
162 174 0
162 175 0
162 174 0
160 170 0
163 175 0
166 178 0
166 179 0
168 184 0
167 182 0
168 181 0
168 182 0
166 179 0
170 187 0
167 183 0
169 185 0
170 188 0
166 182 0
166 181 0
168 185 0
170 186 0
168 186 0
171 190 0
170 188 0
167 185 0
170 188 0
168 185 0
170 189 0
170 190 0
172 191 0
170 190 0
170 188 0
169 192 0
170 192 0
171 190 0
172 192 0
169 189 0
172 193 0
171 192 0
173 194 0
170 192 0
169 189 0
171 193 0
172 194 0
173 194 0
173 195 0
172 194 0
173 194 0
173 195 0
173 196 0
174 196 0
173 195 0
171 194 0
172 196 0
172 194 0
173 195 0
172 194 0
174 195 0
173 196 0
173 196 0
173 196 0
173 196 0
174 196 0
172 196 0
174 196 0
174 195 0
175 198 0
174 196 0
174 196 0
173 197 0
174 197 0
172 195 0
175 198 0
173 196 0
175 198 0
174 197 0
173 195 0
174 197 0
173 196 0
171 194 0
173 196 0
174 197 0
173 197 0
173 197 0
175 198 0
174 197 0
173 196 0
174 196 0
174 198 0
173 197 0
173 197 0
174 197 0
173 196 0
174 197 0
175 198 0
174 197 0
174 196 0
174 197 0
174 197 0
175 198 0
174 198 0
174 198 0
174 197 0
175 198 0
173 197 0
175 198 0
175 197 0
174 197 0
175 198 0
174 198 0
176 198 0
174 197 0
173 197 0
175 197 0
175 198 0
172 196 0
175 198 0
174 197 0
174 197 0
172 196 0
175 198 0
173 197 0
175 197 0
175 198 0
175 198 0
175 198 0
173 197 0
175 198 0
172 196 0
174 197 0
176 198 0
173 197 0
173 197 0
175 198 0
174 198 0
176 199 0
175 198 0
174 198 0
174 198 0
174 197 0
174 198 0
174 198 0
174 196 0
175 198 0
173 197 0
173 197 0
176 198 0
174 198 0
174 197 0
174 197 0
173 197 0
175 198 0
174 198 0
173 197 0
173 197 0
173 197 0
174 198 0
175 198 0
175 198 0
174 198 0
175 198 0
174 197 0
175 198 0
173 197 0
174 198 0
173 197 0
175 198 0
174 197 0
174 197 0
174 197 0
175 198 0
175 198 0
174 197 0
175 198 0
177 199 0
176 199 0
174 198 0
176 199 0
174 197 0
174 198 0
173 197 0
174 198 0
175 198 0
172 196 0
174 197 0
174 197 0
173 197 0
173 197 0
174 198 0
174 197 0
175 198 0
173 197 0
175 198 0
173 197 0
176 199 0
173 197 0
175 198 0
174 197 0
175 198 0
174 198 0
174 198 0
175 198 0
172 196 0
174 197 0
175 198 0
175 198 0
175 198 0
173 197 0
173 196 0
174 197 0
173 197 0
173 197 0
175 198 0
174 198 0
174 198 0
174 197 0
174 197 0
172 196 0
174 198 0
175 198 0
171 195 0
174 197 0
175 198 0
173 197 0
174 197 0
176 198 0
172 196 0
173 197 0
173 197 0
173 196 0
175 198 0
174 197 0
174 198 0
174 197 0
175 198 0
174 198 0
173 197 0
173 196 0
174 197 0
173 197 0
174 197 0
174 197 0
173 197 0
172 196 0
173 197 0
174 197 0
173 196 0
173 197 0
172 196 0
172 196 0
173 196 0
174 197 0
173 195 0
173 197 0
172 195 0
172 195 0
174 197 0
171 195 0
172 195 0
171 196 0
171 195 0
172 195 0
172 195 0
175 198 0
173 196 0
174 197 0
174 196 0
171 196 0
171 194 0
171 194 0
169 193 0
174 197 0
173 196 0
172 195 0
171 194 0
171 195 0
173 195 0
172 196 0
169 191 0
172 194 0
169 192 0
171 193 0
170 193 0
167 189 0
168 190 0
171 194 0
169 192 0
174 197 0
166 189 0
165 187 0
170 193 0
168 191 0
169 192 0
166 188 0
167 190 0
165 188 0
168 190 0
170 193 0
163 186 0
166 188 0
162 186 0
165 188 0
166 190 0
165 188 0
163 185 0
165 188 0
153 176 0
161 184 0
167 189 0
162 184 0
165 188 0
162 186 0
163 186 0
163 185 0
160 182 0
163 186 0
160 183 0
164 186 0
163 186 0
160 183 0
160 183 0
158 181 0
158 181 0
160 182 0
159 180 0
160 183 0
153 175 0
157 180 0
154 177 0
159 182 0
154 177 0
156 178 0
148 170 0
157 180 0
158 180 0
156 179 0
156 177 0
154 177 0
153 175 0
149 171 0
151 173 0
148 170 0
150 172 0
153 174 0
148 170 0
154 175 0
153 173 0
151 172 0
152 173 0
157 178 0
135 156 0
153 175 0
155 175 0
152 173 0
154 175 0
141 160 0
153 174 0
155 175 0
151 171 0
157 176 0
148 168 0
152 173 0
141 160 0
150 170 0
157 177 0
147 167 0
155 173 0
156 174 0
151 170 0
149 166 0
150 170 0
152 171 0
153 172 0
152 169 0
149 166 0
155 173 0
154 173 0
158 177 0
153 171 0
158 176 0
155 172 0
156 174 0
155 171 0
158 173 0
158 172 0
160 173 0
156 170 0
155 166 0
161 176 0
161 175 0
162 177 0
159 174 0
160 174 0
160 171 0
165 179 0
163 175 0
156 168 0
162 177 0
163 176 0
160 173 0
167 181 0
159 169 0
159 171 0
162 175 0
165 179 0
166 179 0
163 174 0
163 174 0
164 176 0
166 180 0
167 183 0
169 184 0
167 184 0
167 183 0
168 185 0
166 182 0
164 180 0
168 182 0
164 180 0
169 187 0
167 186 0
171 190 0
170 187 0
169 186 0
170 189 0
168 187 0
173 192 0
169 188 0
171 190 0
169 187 0
168 186 0
170 189 0
170 190 0
170 189 0
171 189 0
170 189 0
173 193 0
172 191 0
170 191 0
172 192 0
173 194 0
170 191 0
172 193 0
172 193 0
172 192 0
172 192 0
172 194 0
171 193 0
171 193 0
170 191 0
173 196 0
171 194 0
172 195 0
173 195 0
173 194 0
174 197 0
174 195 0
173 195 0
172 195 0
172 195 0
172 195 0
173 196 0
174 196 0
173 195 0
172 195 0
174 197 0
172 195 0
174 197 0
173 195 0
175 196 0
174 197 0
171 193 0
174 197 0
173 196 0
173 196 0
173 195 0
172 194 0
174 197 0
173 197 0
175 198 0
174 198 0
173 197 0
174 197 0
173 196 0
173 197 0
172 196 0
174 197 0
175 197 0
176 198 0
175 197 0
174 197 0
173 196 0
173 197 0
174 197 0
174 197 0
176 199 0
174 197 0
174 197 0
172 196 0
172 195 0
173 196 0
174 197 0
173 197 0
175 198 0
172 196 0
174 197 0
173 196 0
174 197 0
174 197 0
176 199 0
172 197 0
175 198 0
174 197 0
173 196 0
174 197 0
175 197 0
174 197 0
174 198 0
174 198 0
174 198 0
174 198 0
175 198 0
174 198 0
173 197 0
174 197 0
174 197 0
175 198 0
174 198 0
173 197 0
175 198 0
174 197 0
174 198 0
176 199 0
174 197 0
172 196 0
174 198 0
173 197 0
174 198 0
175 198 0
173 197 0
174 197 0
175 198 0
176 198 0
175 198 0
175 198 0
174 198 0
174 198 0
173 197 0
173 196 0
175 198 0
175 198 0
176 199 0
174 198 0
174 198 0
174 198 0
176 199 0
175 198 0
174 198 0
175 198 0
175 198 0
175 198 0
174 197 0
175 198 0
174 198 0
175 198 0
173 197 0
173 197 0
173 197 0
175 198 0
174 198 0
174 198 0
176 199 0
173 197 0
173 197 0
172 197 0
175 198 0
174 198 0
174 197 0
174 197 0
176 198 0
173 197 0
175 198 0
174 197 0
175 198 0
174 198 0
175 198 0
173 197 0
174 198 0
172 196 0
173 197 0
172 196 0
175 198 0
174 198 0
175 198 0
174 197 0
173 196 0
173 197 0
174 198 0
174 198 0
172 196 0
175 198 0
175 198 0
174 197 0
176 198 0
175 198 0
172 196 0
174 198 0
171 195 0
174 197 0
174 198 0
175 198 0
174 198 0
173 197 0
175 198 0
173 197 0
175 198 0
174 197 0
174 197 0
176 198 0
172 195 0
174 198 0
171 195 0
172 195 0
174 197 0
173 197 0
174 198 0
172 195 0
173 197 0
173 197 0
173 197 0
173 197 0
173 197 0
173 196 0
173 197 0
172 196 0
174 197 0
174 198 0
174 197 0
173 197 0
173 197 0
176 199 0
174 198 0
171 194 0
174 196 0
175 198 0
175 198 0
173 196 0
173 197 0
173 196 0
174 198 0
174 197 0
174 197 0
171 195 0
175 198 0
173 197 0
171 195 0
173 197 0
170 194 0
174 197 0
172 195 0
172 195 0
172 196 0
171 195 0
170 193 0
171 194 0
171 194 0
171 194 0
171 193 0
170 193 0
173 197 0
169 192 0
172 195 0
172 195 0
170 193 0
171 195 0
173 196 0
173 195 0
171 195 0
170 192 0
167 190 0
174 196 0
173 196 0
168 191 0
170 194 0
173 195 0
169 192 0
168 191 0
173 196 0
170 194 0
166 190 0
169 192 0
171 193 0
163 185 0
169 192 0
164 187 0
166 189 0
170 192 0
167 190 0
167 191 0
164 188 0
163 186 0
166 188 0
169 191 0
169 192 0
168 190 0
163 186 0
162 185 0
162 185 0
164 187 0
166 189 0
161 184 0
159 180 0
163 185 0
159 182 0
162 185 0
165 187 0
160 182 0
164 187 0
161 184 0
158 181 0
157 179 0
158 179 0
158 181 0
161 184 0
152 174 0
160 183 0
152 175 0
160 182 0
156 179 0
160 183 0
155 178 0
160 183 0
155 177 0
152 174 0
147 167 0
149 171 0
154 176 0
152 173 0
155 176 0
162 185 0
152 173 0
153 175 0
150 171 0
149 170 0
148 170 0
153 174 0
148 168 0
157 179 0
156 178 0
156 178 0
135 154 0
151 173 0
150 172 0
151 173 0
163 186 0
155 176 0
154 175 0
153 174 0
157 177 0
146 166 0
154 175 0
153 175 0
154 174 0
157 178 0
153 173 0
155 176 0
158 177 0
153 169 0
157 175 0
154 174 0
152 170 0
153 173 0
153 173 0
158 177 0
157 175 0
154 170 0
155 172 0
149 167 0
160 179 0
153 170 0
157 173 0
152 169 0
155 172 0
156 172 0
155 173 0
157 174 0
153 171 0
158 172 0
155 170 0
153 168 0
156 171 0
159 173 0
153 167 0
161 173 0
157 173 0
159 175 0
159 174 0
160 175 0
155 168 0
158 169 0
166 179 0
162 174 0
164 176 0
159 170 0
163 174 0
164 178 0
163 177 0
166 179 0
166 181 0
164 175 0
165 178 0
167 182 0
166 180 0
165 179 0
166 181 0
169 183 0
167 183 0
165 180 0
168 181 0
168 184 0
170 187 0
166 182 0
168 185 0
168 185 0
170 185 0
167 183 0
168 185 0
169 187 0
169 189 0
168 186 0
172 191 0
169 188 0
173 193 0
171 190 0
168 188 0
173 192 0
173 194 0
171 191 0
171 191 0
172 193 0
171 191 0
170 190 0
173 193 0
172 194 0
173 195 0
172 192 0
173 194 0
174 195 0
172 193 0
172 195 0
174 195 0
174 196 0
173 195 0
171 195 0
172 195 0
173 195 0
172 195 0
173 195 0
173 194 0
172 195 0
173 195 0
175 197 0
173 196 0
173 196 0
173 195 0
175 195 0
174 196 0
173 196 0
173 196 0
172 196 0
173 196 0
174 198 0
175 197 0
175 198 0
173 195 0
173 196 0
173 196 0
173 195 0
174 196 0
176 198 0
174 197 0
174 196 0
174 197 0
175 197 0
174 198 0
175 198 0
173 197 0
174 198 0
173 197 0
174 198 0
174 197 0
172 196 0
173 196 0
173 197 0
175 197 0
174 197 0
176 198 0
175 197 0
173 196 0
172 196 0
174 197 0
173 196 0
173 197 0
174 197 0
173 196 0
175 198 0
173 197 0
173 196 0
174 197 0
174 197 0
174 197 0
174 198 0
173 197 0
174 197 0
175 197 0
175 198 0
174 197 0
175 198 0
173 197 0
173 197 0
175 198 0
175 198 0
174 197 0
175 198 0
173 197 0
174 198 0
174 197 0
174 197 0
172 197 0
174 198 0
174 197 0
173 197 0
172 197 0
176 199 0
174 197 0
175 198 0
175 198 0
173 197 0
173 196 0
174 197 0
174 198 0
177 199 0
173 197 0
173 197 0
173 197 0
176 199 0
175 198 0
175 198 0
176 198 0
173 197 0
174 197 0
173 197 0
174 198 0
175 198 0
175 198 0
174 198 0
173 197 0
174 198 0
174 197 0
174 197 0
175 198 0
175 198 0
174 198 0
175 198 0
175 198 0
175 198 0
174 197 0
174 197 0
173 197 0
174 198 0
173 197 0
173 197 0
175 198 0
173 196 0
174 198 0
173 197 0
174 197 0
174 197 0
174 198 0
174 197 0
173 196 0
174 198 0
174 197 0
173 196 0
172 196 0
174 197 0
175 198 0
173 197 0
174 198 0
175 198 0
173 197 0
173 197 0
174 198 0
174 197 0
173 197 0
172 195 0
173 197 0
174 198 0
173 197 0
174 198 0
173 197 0
173 197 0
172 196 0
176 198 0
173 197 0
174 197 0
173 197 0
175 198 0
174 197 0
175 198 0
175 198 0
175 198 0
174 197 0
172 197 0
173 197 0
172 196 0
171 195 0
172 196 0
172 196 0
174 197 0
174 198 0
174 198 0
174 198 0
174 197 0
175 198 0
173 197 0
173 196 0
174 197 0
173 196 0
173 197 0
173 197 0
174 197 0
174 198 0
174 197 0
174 198 0
174 197 0
173 197 0
173 196 0
174 198 0
172 196 0
173 196 0
172 196 0
172 196 0
175 198 0
174 198 0
173 197 0
173 196 0
172 195 0
170 195 0
173 196 0
172 196 0
172 196 0
171 195 0
173 196 0
171 195 0
173 196 0
173 196 0
171 195 0
173 195 0
174 196 0
173 196 0
172 195 0
172 196 0
173 197 0
173 195 0
172 195 0
171 194 0
175 198 0
172 194 0
172 195 0
169 192 0
171 194 0
174 197 0
171 195 0
173 196 0
174 197 0
174 197 0
170 193 0
169 191 0
174 197 0
171 193 0
166 189 0
167 190 0
170 192 0
174 196 0
169 192 0
166 189 0
168 190 0
167 191 0
168 191 0
167 189 0
166 188 0
164 186 0
165 188 0
171 193 0
166 189 0
163 186 0
171 195 0
172 194 0
166 188 0
166 189 0
168 192 0
166 189 0
159 182 0
164 187 0
170 193 0
167 190 0
163 185 0
160 183 0
164 187 0
162 184 0
160 182 0
160 184 0
162 184 0
159 182 0
155 177 0
164 187 0
166 188 0
157 181 0
157 180 0
157 180 0
154 178 0
153 176 0
156 178 0
160 184 0
159 182 0
162 185 0
156 177 0
152 175 0
156 179 0
154 177 0
159 181 0
154 177 0
142 164 0
158 180 0
152 175 0
155 177 0
153 175 0
152 173 0
154 177 0
152 173 0
157 178 0
153 172 0
150 171 0
154 176 0
164 186 0
157 177 0
151 173 0
152 174 0
151 172 0
155 177 0
151 171 0
152 174 0
154 174 0
142 164 0
156 178 0
154 174 0
150 171 0
158 177 0
161 181 0
150 169 0
156 176 0
153 171 0
145 163 0
157 178 0
152 172 0
156 175 0
159 178 0
157 175 0
153 174 0
151 169 0
155 174 0
154 173 0
159 179 0
153 171 0
162 179 0
155 173 0
158 174 0
158 176 0
155 173 0
157 174 0
167 184 0
158 173 0
154 171 0
155 171 0
161 178 0
157 173 0
157 173 0
155 169 0
154 172 0
156 172 0
156 171 0
152 167 0
157 174 0
156 171 0
158 172 0
163 176 0
160 177 0
171 185 0
159 170 0
162 174 0
158 171 0
164 177 0
162 174 0
161 175 0
166 180 0
159 170 0
161 173 0
164 177 0
162 177 0
167 182 0
167 183 0
166 180 0
168 183 0
163 175 0
169 184 0
166 180 0
165 180 0
168 184 0
167 182 0
166 182 0
168 186 0
165 180 0
166 183 0
170 189 0
169 188 0
170 189 0
170 187 0
168 188 0
170 187 0
168 185 0
171 191 0
173 192 0
171 191 0
170 188 0
172 189 0
168 187 0
170 190 0
172 192 0
172 193 0
170 192 0
170 190 0
172 193 0
171 192 0
169 189 0
173 194 0
172 193 0
172 192 0
172 193 0
171 194 0
173 195 0
171 193 0
173 194 0
173 196 0
173 193 0
171 193 0
171 194 0
174 197 0
172 195 0
174 196 0
173 196 0
172 194 0
173 195 0
174 196 0
174 196 0
173 197 0
173 195 0
172 194 0
173 195 0
173 195 0
173 194 0
175 198 0
173 197 0
174 197 0
175 197 0
173 195 0
174 197 0
176 198 0
174 197 0
173 196 0
175 197 0
174 197 0
173 196 0
172 195 0
174 196 0
175 198 0
172 196 0
175 198 0
172 196 0
174 197 0
173 195 0
174 197 0
174 196 0
175 198 0
174 197 0
174 197 0
173 196 0
174 198 0
172 195 0
173 196 0
174 197 0
174 197 0
175 198 0
174 197 0
174 196 0
174 197 0
174 198 0
174 198 0
174 198 0
173 197 0
174 197 0
174 198 0
172 197 0
174 197 0
174 197 0
175 198 0
174 197 0
176 198 0
174 197 0
173 197 0
175 197 0
174 197 0
173 197 0
174 197 0
175 198 0
173 196 0
174 197 0
173 195 0
174 197 0
174 197 0
174 197 0
174 198 0
175 198 0
176 198 0
174 197 0
174 198 0
175 198 0
174 197 0
174 197 0
175 197 0
174 198 0
173 197 0
174 197 0
176 198 0
175 198 0
173 196 0
175 198 0
175 198 0
175 198 0
175 198 0
173 196 0
176 198 0
174 198 0
177 199 0
173 197 0
173 197 0
175 198 0
174 197 0
173 197 0
171 195 0
175 198 0
174 197 0
176 198 0
173 197 0
175 198 0
173 197 0
174 197 0
172 196 0
175 198 0
174 198 0
174 198 0
173 197 0
172 196 0
173 197 0
174 198 0
174 198 0
173 197 0
173 197 0
175 198 0
173 196 0
173 196 0
174 198 0
175 198 0
174 197 0
175 198 0
175 198 0
174 197 0
174 198 0
174 198 0
173 196 0
173 196 0
176 198 0
172 195 0
174 197 0
173 197 0
174 197 0
173 197 0
173 197 0
172 196 0
174 197 0
175 198 0
173 197 0
173 197 0
174 197 0
174 197 0
173 197 0
176 199 0
173 197 0
174 197 0
173 197 0
173 197 0
174 198 0
174 198 0
174 197 0
174 198 0
175 198 0
174 197 0
173 196 0
173 197 0
170 194 0
171 195 0
173 197 0
174 197 0
172 196 0
173 197 0
172 196 0
174 197 0
174 197 0
174 197 0
175 198 0
174 197 0
174 198 0
173 197 0
171 195 0
172 196 0
174 197 0
174 197 0
172 196 0
172 196 0
174 198 0
169 194 0
171 195 0
172 195 0
174 197 0
174 197 0
175 198 0
171 196 0
173 197 0
170 193 0
174 197 0
174 197 0
175 198 0
171 195 0
173 196 0
171 195 0
172 195 0
172 195 0
171 195 0
174 196 0
172 195 0
172 196 0
173 196 0
171 194 0
172 195 0
171 194 0
174 197 0
170 194 0
174 197 0
172 195 0
173 196 0
171 194 0
170 194 0
168 191 0
172 196 0
173 197 0
167 191 0
170 193 0
168 191 0
171 194 0
171 194 0
166 189 0
168 192 0
168 192 0
169 193 0
174 197 0
170 192 0
168 191 0
165 188 0
168 191 0
167 190 0
166 188 0
168 190 0
167 191 0
169 192 0
167 191 0
164 187 0
163 186 0
163 186 0
166 189 0
165 189 0
163 186 0
167 191 0
168 191 0
167 189 0
162 184 0
166 188 0
170 193 0
162 185 0
166 189 0
161 185 0
160 182 0
162 186 0
156 180 0
166 188 0
158 181 0
160 182 0
166 190 0
153 177 0
162 185 0
159 182 0
156 179 0
160 183 0
154 177 0
158 182 0
161 184 0
162 185 0
152 175 0
159 182 0
158 181 0
159 182 0
164 186 0
158 181 0
156 179 0
158 180 0
158 182 0
153 176 0
155 178 0
155 178 0
155 178 0
164 185 0
151 173 0
151 172 0
154 177 0
158 181 0
152 175 0
158 180 0
154 177 0
156 178 0
164 186 0
157 179 0
153 174 0
158 178 0
153 174 0
154 175 0
154 177 0
154 176 0
156 177 0
151 172 0
155 175 0
158 180 0
153 173 0
155 175 0
156 179 0
154 174 0
154 176 0
151 172 0
154 173 0
155 174 0
151 171 0
152 172 0
155 174 0
155 174 0
156 174 0
159 179 0
155 176 0
154 174 0
152 170 0
157 176 0
157 176 0
155 172 0
152 170 0
162 181 0
155 172 0
156 172 0
159 175 0
162 179 0
157 174 0
163 175 0
158 175 0
161 177 0
162 178 0
165 179 0
156 171 0
160 176 0
161 176 0
154 168 0
163 179 0
164 179 0
156 168 0
159 174 0
163 177 0
161 175 0
162 178 0
165 180 0
157 170 0
161 176 0
163 177 0
166 182 0
165 178 0
166 183 0
163 176 0
165 181 0
169 184 0
170 184 0
166 180 0
166 179 0
166 180 0
165 182 0
167 181 0
168 185 0
167 184 0
168 185 0
169 186 0
169 188 0
170 187 0
166 182 0
167 184 0
169 186 0
165 182 0
169 187 0
170 188 0
168 188 0
170 189 0
169 188 0
168 187 0
170 187 0
169 188 0
168 187 0
171 192 0
172 190 0
171 190 0
170 190 0
170 192 0
170 190 0
173 194 0
171 193 0
171 192 0
171 191 0
172 193 0
172 194 0
173 194 0
171 193 0
171 192 0
172 194 0
172 194 0
173 196 0
169 190 0
175 197 0
170 192 0
171 194 0
172 194 0
174 197 0
173 194 0
173 196 0
173 194 0
172 194 0
172 196 0
173 194 0
172 195 0
173 196 0
172 194 0
171 195 0
174 195 0
173 196 0
174 196 0
172 195 0
173 195 0
174 197 0
172 194 0
174 196 0
174 196 0
173 195 0
175 198 0
173 196 0
171 195 0
174 197 0
172 196 0
173 197 0
173 195 0
174 197 0
173 196 0
175 198 0
174 197 0
173 197 0
173 195 0
175 198 0
174 197 0
174 197 0
173 196 0
174 198 0
175 198 0
173 196 0
174 197 0
174 198 0
174 197 0
174 197 0
174 197 0
174 197 0
174 197 0
175 198 0
173 196 0
175 198 0
173 196 0
174 197 0
173 197 0
173 197 0
174 197 0
175 198 0
174 197 0
173 197 0
173 197 0
174 198 0
175 198 0
173 196 0
174 197 0
174 197 0
175 198 0
174 198 0
175 198 0
173 197 0
173 197 0
173 196 0
175 198 0
174 198 0
173 197 0
175 198 0
175 198 0
174 197 0
175 198 0
175 198 0
175 198 0
174 198 0
174 198 0
174 197 0
173 197 0
175 198 0
174 198 0
177 199 0
175 198 0
175 198 0
174 198 0
175 198 0
173 197 0
174 198 0
174 198 0
175 198 0
173 197 0
174 198 0
171 196 0
174 198 0
175 198 0
174 198 0
173 197 0
173 197 0
174 198 0
174 198 0
174 197 0
173 197 0
174 198 0
173 197 0
175 198 0
174 198 0
175 198 0
174 197 0
175 198 0
174 197 0
175 198 0
172 196 0
174 198 0
174 198 0
175 198 0
175 198 0
173 197 0
174 197 0
173 197 0
174 198 0
174 198 0
174 197 0
174 197 0
173 196 0
174 198 0
174 197 0
174 198 0
175 198 0
172 196 0
172 196 0
174 197 0
173 196 0
174 197 0
170 194 0
172 196 0
173 197 0
173 197 0
172 196 0
171 195 0
172 196 0
174 198 0
174 198 0
171 195 0
174 197 0
174 197 0
175 198 0
171 195 0
172 196 0
172 196 0
171 195 0
173 197 0
174 197 0
173 197 0
174 197 0
174 197 0
174 197 0
173 196 0
172 196 0
173 197 0
174 197 0
173 196 0
172 196 0
172 196 0
174 197 0
173 196 0
174 198 0
174 197 0
172 197 0
174 197 0
172 196 0
172 196 0
173 196 0
174 197 0
173 196 0
172 196 0
171 195 0
174 198 0
173 197 0
172 196 0
171 195 0
173 197 0
169 193 0
174 197 0
172 195 0
175 198 0
171 195 0
172 195 0
173 196 0
171 195 0
172 195 0
175 198 0
172 195 0
175 198 0
172 196 0
174 197 0
173 196 0
168 192 0
173 196 0
170 193 0
173 196 0
171 194 0
171 194 0
173 196 0
174 195 0
173 195 0
172 194 0
174 197 0
174 196 0
170 193 0
173 197 0
171 194 0
169 192 0
171 194 0
167 190 0
172 194 0
174 196 0
172 194 0
168 191 0
166 188 0
168 190 0
173 195 0
166 189 0
165 188 0
170 193 0
164 185 0
165 188 0
165 188 0
168 191 0
163 186 0
164 188 0
164 188 0
167 190 0
165 189 0
162 185 0
162 184 0
166 189 0
163 187 0
166 190 0
161 183 0
167 190 0
163 185 0
162 186 0
162 186 0
167 188 0
162 185 0
165 188 0
159 183 0
164 187 0
164 188 0
164 187 0
162 185 0
159 182 0
161 184 0
159 181 0
158 181 0
154 176 0
159 182 0
163 186 0
163 185 0
158 179 0
153 176 0
160 183 0
152 175 0
158 181 0
159 181 0
155 178 0
154 177 0
155 177 0
157 180 0
157 178 0
157 179 0
154 176 0
159 181 0
154 176 0
154 175 0
157 179 0
156 180 0
157 178 0
157 179 0
152 174 0
154 175 0
149 170 0
157 179 0
159 182 0
159 181 0
161 182 0
155 176 0
157 178 0
154 174 0
157 178 0
156 179 0
151 171 0
155 175 0
155 176 0
153 175 0
157 177 0
158 179 0
159 179 0
158 179 0
161 182 0
163 183 0
163 182 0
155 176 0
156 176 0
160 181 0
161 180 0
162 182 0
160 179 0
157 176 0
157 176 0
157 176 0
159 176 0
159 179 0
160 178 0
155 174 0
161 180 0
159 178 0
156 174 0
156 172 0
159 177 0
163 181 0
160 179 0
153 171 0
151 165 0
160 177 0
158 174 0
163 180 0
160 176 0
163 180 0
166 181 0
154 171 0
156 173 0
162 175 0
161 177 0
159 175 0
164 181 0
161 177 0
163 177 0
167 182 0
160 174 0
166 182 0
166 182 0
165 180 0
165 178 0
167 181 0
164 178 0
165 179 0
166 183 0
165 179 0
164 177 0
165 180 0
165 181 0
164 180 0
168 186 0
165 180 0
168 184 0
166 181 0
168 185 0
168 184 0
164 179 0
170 187 0
171 189 0
169 188 0
168 186 0
166 184 0
167 188 0
167 185 0
171 190 0
171 190 0
169 189 0
168 187 0
169 186 0
173 192 0
169 190 0
169 188 0
169 187 0
172 193 0
171 191 0
168 187 0
171 191 0
171 192 0
170 190 0
170 191 0
170 189 0
174 195 0
173 193 0
171 192 0
173 193 0
174 195 0
170 192 0
171 193 0
172 195 0
170 192 0
173 195 0
172 193 0
173 194 0
173 195 0
173 194 0
172 195 0
173 195 0
172 194 0
174 196 0
174 195 0
171 192 0
172 196 0
173 194 0
173 194 0
173 196 0
172 194 0
171 194 0
172 196 0
174 197 0
172 195 0
173 196 0
173 196 0
173 196 0
173 196 0
172 195 0
173 196 0
174 197 0
174 197 0
173 197 0
173 196 0
174 197 0
174 196 0
175 197 0
174 196 0
174 197 0
175 198 0
174 197 0
173 196 0
173 196 0
172 195 0
173 197 0
173 196 0
174 197 0
174 197 0
174 197 0
173 197 0
175 197 0
174 198 0
173 196 0
175 197 0
174 198 0
174 197 0
175 198 0
173 196 0
175 198 0
172 196 0
174 198 0
175 198 0
173 197 0
174 197 0
175 198 0
174 197 0
174 196 0
174 197 0
175 198 0
174 197 0
172 196 0
174 197 0
174 197 0
175 198 0
174 198 0
172 196 0
173 197 0
174 197 0
173 197 0
173 197 0
175 198 0
174 198 0
174 197 0
175 198 0
173 197 0
174 197 0
173 197 0
174 197 0
175 198 0
172 196 0
175 198 0
175 198 0
174 197 0
174 198 0
173 197 0
174 197 0
174 198 0
174 198 0
174 198 0
174 197 0
176 198 0
175 198 0
172 197 0
173 197 0
174 198 0
174 197 0
175 198 0
173 197 0
175 198 0
173 197 0
172 196 0
174 197 0
172 196 0
175 198 0
174 198 0
175 198 0
173 197 0
174 197 0
174 198 0
175 198 0
174 198 0
173 197 0
174 198 0
174 198 0
173 196 0
175 198 0
174 198 0
175 198 0
174 198 0
174 197 0
174 198 0
173 197 0
172 196 0
174 198 0
175 197 0
175 198 0
172 196 0
173 196 0
174 197 0
176 198 0
174 198 0
172 197 0
175 198 0
173 197 0
174 198 0
174 198 0
174 197 0
173 197 0
173 196 0
173 197 0
173 197 0
173 197 0
173 197 0
174 197 0
172 196 0
175 198 0
175 198 0
173 196 0
173 197 0
174 197 0
173 197 0
176 198 0
173 196 0
175 198 0
174 197 0
175 198 0
175 198 0
171 195 0
174 198 0
174 197 0
172 196 0
171 195 0
171 195 0
172 197 0
174 197 0
173 197 0
173 197 0
173 197 0
172 195 0
173 196 0
175 198 0
174 197 0
172 195 0
172 196 0
172 197 0
172 196 0
172 196 0
170 194 0
170 194 0
173 197 0
173 196 0
173 196 0
173 196 0
173 196 0
172 196 0
172 196 0
173 197 0
173 197 0
173 196 0
171 194 0
173 196 0
171 195 0
173 195 0
173 196 0
175 198 0
174 196 0
172 196 0
173 196 0
172 195 0
173 196 0
172 195 0
171 194 0
173 196 0
171 194 0
169 191 0
173 197 0
169 192 0
173 196 0
169 192 0
169 193 0
171 194 0
167 191 0
167 189 0
167 189 0
171 194 0
171 195 0
169 192 0
167 191 0
166 190 0
169 192 0
169 192 0
166 189 0
168 191 0
172 194 0
169 192 0
163 186 0
160 183 0
167 191 0
166 190 0
165 188 0
167 191 0
169 191 0
161 183 0
169 192 0
168 191 0
167 189 0
165 189 0
162 185 0
162 185 0
163 187 0
160 183 0
165 188 0
163 185 0
159 181 0
157 180 0
158 181 0
159 181 0
159 182 0
163 186 0
160 183 0
166 189 0
165 189 0
160 182 0
157 180 0
161 184 0
156 178 0
164 187 0
163 184 0
163 186 0
161 184 0
166 188 0
159 181 0
159 183 0
152 175 0
164 187 0
152 175 0
162 185 0
162 185 0
162 185 0
157 181 0
158 179 0
161 183 0
148 169 0
152 174 0
159 181 0
162 183 0
160 182 0
156 178 0
161 184 0
159 181 0
156 176 0
155 179 0
156 178 0
158 180 0
156 179 0
149 171 0
155 176 0
152 174 0
167 189 0
151 172 0
158 179 0
159 178 0
154 174 0
161 182 0
148 168 0
154 175 0
163 184 0
158 180 0
152 174 0
156 177 0
155 175 0
155 174 0
158 178 0
158 178 0
159 180 0
151 170 0
153 173 0
152 172 0
153 173 0
155 176 0
154 173 0
159 179 0
154 172 0
159 178 0
154 174 0
153 171 0
157 174 0
159 178 0
161 179 0
157 175 0
164 183 0
165 184 0
155 173 0
158 175 0
160 178 0
162 178 0
156 174 0
163 180 0
159 171 0
160 177 0
165 183 0
158 173 0
159 176 0
162 181 0
164 181 0
163 178 0
161 175 0
160 175 0
162 177 0
163 178 0
162 173 0
163 177 0
163 179 0
167 184 0
164 180 0
165 182 0
163 175 0
166 182 0
164 180 0
163 178 0
167 181 0
169 182 0
168 185 0
168 185 0
165 179 0
169 188 0
166 181 0
167 182 0
170 186 0
166 183 0
168 185 0
170 187 0
167 183 0
169 185 0
170 186 0
171 188 0
170 188 0
168 187 0
168 186 0
167 188 0
169 188 0
165 181 0
167 183 0
170 189 0
172 192 0
168 187 0
169 188 0
169 187 0
172 192 0
169 188 0
172 192 0
172 191 0
169 189 0
173 193 0
171 191 0
170 189 0
172 192 0
171 191 0
172 191 0
172 192 0
170 192 0
172 193 0
171 191 0
171 192 0
171 191 0
173 195 0
173 195 0
172 193 0
173 195 0
173 195 0
173 194 0
173 195 0
172 194 0
173 194 0
173 195 0
174 195 0
172 194 0
173 196 0
173 196 0
172 193 0
172 194 0
174 195 0
172 195 0
174 196 0
174 196 0
175 196 0
173 197 0
173 196 0
173 196 0
175 198 0
176 197 0
174 197 0
173 196 0
173 196 0
175 197 0
173 196 0
172 196 0
176 198 0
172 194 0
174 197 0
174 197 0
173 197 0
171 195 0
174 197 0
174 197 0
175 197 0
174 196 0
173 196 0
173 197 0
173 197 0
173 197 0
173 196 0
174 198 0
174 197 0
174 197 0
173 196 0
175 197 0
174 197 0
174 198 0
172 195 0
173 196 0
173 197 0
172 197 0
174 197 0
173 196 0
174 198 0
174 197 0
174 197 0
173 197 0
175 197 0
173 197 0
175 198 0
174 197 0
174 198 0
174 197 0
173 196 0
174 198 0
173 197 0
173 196 0
174 198 0
174 197 0
173 197 0
173 197 0
173 197 0
173 197 0
174 198 0
176 198 0
173 197 0
174 198 0
175 198 0
175 198 0
175 198 0
175 198 0
175 198 0
174 198 0
175 198 0
174 197 0
175 198 0
173 197 0
173 197 0
175 198 0
175 198 0
174 198 0
177 199 0
174 197 0
174 198 0
175 198 0
176 199 0
175 198 0
172 197 0
173 197 0
172 196 0
173 196 0
174 197 0
174 198 0
174 198 0
173 197 0
173 197 0
176 198 0
172 196 0
173 197 0
173 197 0
175 198 0
173 197 0
174 198 0
174 197 0
176 198 0
174 197 0
173 197 0
174 198 0
174 198 0
172 196 0
171 196 0
173 197 0
176 198 0
174 198 0
174 197 0
173 196 0
175 198 0
175 198 0
173 197 0
172 196 0
173 197 0
174 197 0
173 197 0
174 197 0
174 197 0
172 197 0
176 198 0
176 198 0
175 198 0
173 197 0
173 196 0
174 198 0
174 197 0
173 196 0
174 198 0
172 195 0
175 198 0
174 197 0
174 197 0
173 197 0
173 197 0
175 198 0
173 197 0
173 196 0
175 198 0
170 194 0
172 197 0
171 195 0
174 197 0
173 197 0
173 196 0
173 197 0
173 196 0
171 195 0
174 198 0
174 197 0
173 196 0
174 197 0
172 195 0
172 196 0
173 197 0
173 197 0
171 195 0
171 195 0
173 195 0
174 198 0
170 194 0
174 197 0
175 197 0
171 195 0
172 195 0
172 196 0
172 196 0
172 195 0
173 196 0
171 194 0
172 195 0
172 195 0
172 195 0
172 195 0
174 197 0
173 196 0
173 196 0
174 197 0
173 196 0
173 195 0
166 189 0
170 193 0
171 194 0
170 193 0
171 195 0
172 196 0
172 195 0
170 193 0
171 194 0
171 194 0
172 195 0
169 192 0
169 193 0
167 190 0
169 192 0
168 189 0
171 195 0
167 191 0
168 191 0
171 193 0
162 186 0
165 187 0
161 184 0
171 194 0
170 193 0
162 185 0
164 187 0
164 187 0
165 188 0
171 194 0
162 185 0
168 191 0
166 189 0
159 182 0
167 188 0
165 187 0
168 191 0
165 188 0
169 191 0
163 186 0
165 188 0
160 183 0
164 187 0
162 185 0
163 186 0
159 182 0
160 184 0
159 182 0
159 182 0
158 182 0
161 184 0
159 183 0
157 180 0
161 184 0
157 180 0
160 182 0
156 180 0
160 183 0
160 183 0
158 181 0
158 181 0
164 186 0
166 189 0
158 180 0
158 181 0
160 180 0
161 184 0
164 187 0
159 182 0
160 182 0
159 181 0
155 178 0
161 184 0
151 175 0
156 179 0
155 178 0
153 175 0
161 183 0
158 181 0
157 179 0
153 174 0
156 178 0
159 180 0
163 185 0
157 179 0
156 178 0
148 169 0
155 176 0
152 174 0
152 173 0
152 173 0
158 178 0
158 179 0
158 179 0
157 178 0
156 177 0
154 176 0
154 175 0
152 173 0
156 178 0
159 179 0
159 180 0
157 178 0
157 178 0
153 173 0
157 176 0
158 179 0
160 179 0
160 181 0
154 173 0
153 170 0
159 180 0
155 174 0
155 175 0
160 179 0
154 174 0
156 175 0
161 181 0
158 174 0
154 172 0
158 178 0
157 173 0
160 177 0
161 180 0
158 173 0
154 172 0
160 178 0
158 175 0
159 178 0
159 177 0
159 177 0
157 175 0
163 181 0
164 181 0
157 171 0
158 177 0
160 177 0
161 174 0
157 172 0
160 175 0
162 178 0
162 176 0
163 179 0
162 177 0
164 178 0
165 180 0
162 178 0
160 175 0
163 179 0
163 179 0
160 175 0
166 180 0
163 179 0
162 176 0
167 182 0
163 176 0
166 180 0
166 182 0
161 178 0
168 187 0
168 185 0
167 186 0
168 184 0
168 185 0
167 182 0
164 179 0
164 180 0
168 187 0
166 182 0
170 187 0
168 187 0
168 188 0
170 187 0
170 188 0
170 189 0
166 182 0
170 188 0
172 192 0
169 189 0
168 186 0
171 190 0
170 188 0
171 192 0
171 192 0
167 187 0
171 190 0
170 191 0
174 194 0
171 190 0
171 190 0
170 189 0
170 190 0
168 189 0
171 190 0
170 191 0
170 189 0
171 192 0
172 195 0
171 192 0
173 194 0
172 193 0
174 195 0
172 193 0
173 195 0
170 193 0
174 196 0
171 192 0
173 195 0
172 194 0
171 193 0
171 192 0
174 196 0
172 195 0
175 197 0
174 196 0
172 194 0
172 193 0
173 196 0
174 197 0
173 196 0
174 196 0
172 195 0
171 195 0
172 195 0
173 195 0
174 197 0
173 195 0
172 193 0
173 196 0
173 196 0
173 195 0
173 196 0
174 196 0
174 197 0
174 196 0
174 197 0
172 196 0
173 196 0
174 196 0
174 197 0
176 198 0
174 196 0
175 198 0
175 197 0
173 196 0
174 198 0
174 197 0
173 196 0
175 198 0
173 197 0
174 197 0
174 197 0
172 197 0
175 197 0
174 197 0
173 197 0
173 197 0
174 196 0
176 198 0
175 197 0
174 197 0
175 197 0
174 197 0
174 197 0
174 197 0
174 197 0
172 196 0
173 196 0
174 197 0
173 196 0
172 196 0
174 197 0
174 198 0
173 196 0
174 198 0
172 196 0
173 196 0
174 198 0
175 198 0
173 197 0
173 197 0
175 198 0
176 198 0
175 198 0
174 198 0
174 197 0
174 197 0
174 198 0
175 198 0
175 198 0
174 197 0
174 197 0
174 197 0
175 198 0
172 196 0
174 198 0
175 198 0
174 198 0
174 197 0
174 198 0
173 197 0
175 198 0
175 198 0
175 198 0
174 197 0
172 196 0
173 197 0
175 198 0
174 197 0
175 198 0
175 198 0
175 198 0
174 198 0
175 198 0
174 198 0
175 198 0
174 197 0
176 198 0
172 196 0
175 198 0
174 197 0
174 198 0
177 199 0
176 199 0
172 196 0
175 198 0
173 196 0
174 197 0
173 197 0
174 198 0
173 197 0
173 197 0
172 197 0
173 196 0
174 198 0
172 195 0
174 198 0
174 198 0
175 198 0
175 198 0
174 197 0
175 198 0
174 197 0
175 198 0
172 196 0
174 197 0
173 196 0
175 198 0
172 195 0
172 196 0
172 196 0
174 197 0
171 195 0
171 196 0
175 198 0
172 196 0
175 198 0
173 196 0
173 197 0
173 197 0
172 195 0
173 197 0
171 195 0
174 196 0
173 197 0
172 196 0
173 196 0
172 196 0
173 197 0
173 196 0
174 197 0
173 197 0
172 196 0
172 195 0
172 195 0
173 197 0
172 196 0
171 194 0
171 195 0
171 195 0
173 196 0
176 199 0
171 195 0
174 197 0
174 197 0
172 196 0
171 194 0
172 195 0
174 197 0
173 196 0
173 196 0
172 195 0
172 195 0
168 193 0
171 195 0
171 195 0
172 195 0
170 193 0
172 194 0
170 193 0
170 194 0
172 194 0
172 194 0
173 196 0
168 191 0
171 194 0
168 191 0
170 192 0
171 194 0
171 194 0
169 192 0
169 193 0
171 194 0
170 193 0
170 193 0
171 194 0
172 194 0
171 194 0
166 189 0
167 190 0
166 189 0
167 190 0
168 192 0
167 190 0
169 192 0
167 190 0
164 188 0
165 189 0
165 187 0
169 192 0
165 189 0
162 185 0
167 190 0
164 187 0
164 187 0
168 192 0
161 184 0
165 188 0
164 187 0
160 183 0
167 191 0
166 190 0
160 183 0
161 184 0
164 187 0
159 183 0
163 186 0
159 181 0
161 184 0
162 184 0
157 180 0
165 188 0
163 186 0
166 188 0
162 186 0
159 181 0
165 188 0
160 183 0
158 180 0
155 178 0
156 180 0
156 178 0
161 184 0
165 187 0
154 176 0
167 190 0
151 172 0
159 182 0
160 181 0
163 184 0
155 176 0
163 185 0
156 179 0
162 184 0
154 177 0
157 179 0
162 184 0
158 180 0
161 183 0
165 185 0
155 177 0
154 176 0
166 187 0
157 179 0
159 182 0
154 176 0
158 180 0
159 181 0
156 177 0
157 179 0
153 175 0
161 183 0
161 184 0
152 174 0
160 182 0
163 184 0
156 177 0
158 179 0
155 177 0
156 177 0
159 179 0
158 178 0
159 180 0
163 184 0
160 181 0
156 177 0
161 182 0
157 179 0
155 176 0
157 178 0
157 177 0
161 181 0
160 178 0
158 177 0
156 174 0
157 175 0
160 178 0
157 179 0
155 176 0
151 170 0
161 180 0
157 176 0
154 173 0
159 176 0
160 177 0
161 179 0
153 172 0
159 177 0
159 176 0
161 179 0
159 176 0
160 177 0
163 179 0
160 178 0
159 176 0
161 177 0
162 179 0
159 175 0
155 169 0
159 174 0
162 178 0
160 176 0
162 179 0
165 183 0
164 178 0
161 177 0
164 181 0
163 178 0
165 181 0
167 183 0
164 180 0
163 178 0
167 184 0
169 187 0
165 180 0
165 181 0
166 182 0
160 175 0
167 185 0
165 179 0
161 177 0
168 185 0
165 179 0
169 184 0
169 186 0
166 182 0
166 183 0
168 186 0
169 187 0
168 184 0
170 190 0
165 183 0
170 187 0
171 190 0
169 186 0
170 189 0
171 192 0
169 187 0
169 187 0
168 186 0
170 190 0
173 194 0
170 189 0
171 191 0
169 188 0
172 193 0
171 191 0
171 190 0
169 188 0
170 190 0
170 188 0
172 194 0
171 190 0
170 191 0
173 195 0
170 192 0
172 193 0
172 193 0
170 191 0
173 195 0
172 193 0
171 191 0
171 194 0
172 194 0
173 196 0
174 196 0
173 195 0
172 193 0
170 191 0
171 193 0
172 194 0
174 196 0
171 193 0
170 191 0
171 192 0
173 195 0
173 195 0
173 195 0
173 195 0
174 196 0
175 196 0
174 197 0
175 197 0
174 196 0
173 194 0
172 195 0
173 196 0
172 195 0
172 195 0
174 196 0
172 193 0
174 197 0
172 195 0
173 196 0
172 196 0
174 196 0
172 194 0
174 196 0
173 196 0
174 196 0
175 197 0
175 197 0
172 195 0
174 196 0
173 197 0
174 197 0
173 196 0
173 196 0
172 196 0
174 197 0
174 197 0
172 196 0
175 198 0
174 197 0
174 197 0
174 197 0
173 196 0
174 197 0
174 197 0
174 197 0
174 197 0
173 196 0
175 198 0
173 197 0
175 197 0
174 197 0
175 198 0
174 197 0
174 197 0
175 198 0
174 197 0
174 197 0
174 197 0
173 197 0
174 198 0
174 198 0
176 198 0
174 197 0
175 197 0
175 198 0
174 197 0
174 198 0
174 197 0
174 198 0
174 198 0
175 198 0
173 197 0
176 199 0
174 198 0
174 198 0
175 198 0
174 198 0
174 198 0
175 197 0
174 198 0
175 198 0
173 196 0
174 197 0
174 198 0
173 197 0
174 197 0
173 197 0
173 197 0
175 198 0
172 196 0
173 197 0
173 197 0
173 197 0
174 197 0
174 197 0
174 197 0
174 198 0
174 198 0
173 197 0
174 197 0
174 197 0
175 198 0
175 198 0
175 198 0
173 197 0
174 198 0
174 197 0
174 198 0
174 197 0
174 198 0
175 198 0
172 196 0
175 198 0
174 198 0
172 197 0
174 198 0
174 197 0
173 197 0
172 196 0
174 197 0
175 197 0
171 195 0
172 195 0
172 196 0
172 196 0
173 196 0
172 196 0
176 198 0
173 197 0
174 198 0
171 195 0
171 194 0
172 195 0
174 198 0
174 197 0
174 197 0
171 195 0
171 195 0
176 198 0
173 197 0
174 198 0
172 195 0
171 195 0
173 196 0
172 196 0
173 197 0
173 196 0
172 196 0
172 196 0
173 197 0
173 197 0
174 197 0
176 199 0
173 197 0
174 198 0
176 198 0
173 197 0
173 195 0
173 196 0
174 198 0
172 196 0
172 196 0
174 198 0
172 196 0
174 197 0
170 194 0
173 196 0
173 196 0
170 193 0
172 195 0
172 195 0
170 194 0
173 195 0
169 192 0
170 194 0
170 194 0
171 194 0
172 195 0
170 194 0
169 191 0
171 195 0
170 194 0
172 194 0
171 194 0
170 194 0
172 194 0
172 195 0
171 195 0
171 194 0
170 194 0
170 193 0
168 191 0
168 191 0
172 195 0
168 191 0
170 193 0
166 189 0
167 190 0
169 192 0
170 193 0
167 190 0
166 189 0
168 191 0
168 191 0
169 192 0
172 195 0
165 187 0
167 190 0
167 190 0
166 190 0
170 194 0
169 193 0
166 190 0
167 189 0
169 192 0
167 190 0
164 188 0
162 186 0
166 189 0
169 192 0
169 192 0
163 186 0
167 191 0
165 189 0
165 188 0
165 187 0
166 189 0
164 187 0
164 187 0
161 184 0
162 185 0
168 191 0
165 187 0
162 185 0
161 183 0
157 181 0
155 179 0
169 192 0
159 181 0
161 183 0
161 183 0
160 183 0
158 180 0
159 181 0
163 185 0
157 179 0
163 186 0
155 178 0
161 184 0
162 185 0
159 182 0
157 181 0
160 183 0
160 182 0
151 174 0
160 182 0
157 179 0
158 180 0
159 181 0
156 179 0
156 179 0
160 184 0
154 176 0
154 176 0
158 179 0
158 181 0
152 175 0
157 180 0
164 187 0
154 177 0
156 178 0
156 179 0
159 180 0
157 178 0
153 175 0
155 178 0
156 178 0
158 180 0
162 184 0
162 185 0
154 176 0
157 178 0
155 175 0
156 179 0
157 178 0
158 178 0
158 178 0
157 178 0
161 181 0
158 179 0
155 175 0
161 182 0
156 176 0
152 172 0
153 172 0
158 176 0
161 181 0
159 181 0
156 175 0
159 179 0
158 177 0
161 181 0
154 175 0
161 181 0
162 180 0
158 178 0
158 178 0
157 177 0
162 180 0
153 173 0
159 177 0
158 174 0
159 177 0
160 178 0
163 182 0
159 176 0
165 180 0
163 183 0
161 178 0
167 187 0
159 177 0
163 181 0
164 182 0
160 174 0
161 179 0
158 175 0
161 179 0
159 176 0
161 182 0
162 178 0
165 180 0
166 181 0
164 181 0
166 182 0
165 183 0
163 177 0
166 182 0
163 179 0
161 177 0
164 182 0
163 179 0
164 177 0
168 184 0
166 182 0
162 181 0
166 182 0
165 182 0
166 179 0
168 185 0
167 186 0
166 185 0
167 187 0
166 183 0
168 187 0
167 183 0
168 186 0
168 184 0
166 184 0
168 186 0
170 189 0
169 184 0
169 187 0
171 189 0
170 188 0
169 188 0
172 193 0
170 188 0
171 191 0
169 187 0
170 188 0
168 187 0
169 189 0
169 187 0
170 188 0
172 192 0
170 189 0
172 192 0
171 193 0
172 192 0
172 192 0
171 192 0
169 190 0
171 192 0
172 192 0
171 190 0
172 194 0
170 193 0
172 194 0
172 193 0
173 194 0
172 195 0
172 192 0
173 193 0
171 193 0
172 193 0
172 195 0
172 195 0
171 193 0
174 197 0
172 195 0
174 195 0
173 195 0
173 196 0
171 194 0
171 195 0
175 196 0
173 194 0
174 196 0
173 195 0
173 196 0
173 195 0
172 196 0
172 196 0
175 197 0
173 195 0
173 197 0
172 195 0
173 196 0
175 197 0
172 195 0
174 197 0
173 195 0
173 195 0
174 197 0
173 196 0
175 197 0
174 197 0
174 196 0
173 197 0
172 195 0
172 195 0
173 195 0
173 197 0
173 196 0
174 197 0
171 194 0
175 197 0
172 196 0
174 197 0
173 196 0
175 198 0
175 197 0
172 196 0
174 197 0
172 195 0
173 196 0
174 197 0
174 198 0
173 196 0
174 197 0
174 197 0
174 196 0
175 197 0
174 197 0
175 197 0
172 196 0
174 198 0
173 196 0
174 198 0
174 198 0
174 197 0
175 198 0
172 195 0
175 197 0
174 197 0
173 196 0
174 197 0
174 197 0
173 197 0
173 197 0
175 198 0
175 198 0
175 198 0
174 198 0
174 198 0
177 199 0
173 197 0
173 196 0
173 197 0
176 199 0
174 197 0
175 198 0
175 198 0
174 197 0
175 198 0
173 196 0
174 197 0
174 197 0
173 196 0
175 198 0
174 197 0
174 197 0
175 198 0
174 198 0
173 197 0
172 196 0
173 197 0
174 198 0
175 198 0
173 197 0
173 197 0
174 198 0
173 196 0
174 198 0
174 197 0
175 198 0
175 198 0
174 197 0
175 198 0
173 197 0
175 197 0
171 195 0
175 198 0
173 197 0
174 197 0
174 197 0
172 196 0
173 196 0
174 197 0
174 198 0
173 196 0
175 198 0
173 197 0
172 196 0
172 196 0
173 196 0
173 196 0
175 198 0
172 196 0
174 197 0
174 197 0
176 199 0
174 198 0
174 198 0
174 198 0
174 197 0
173 197 0
173 196 0
173 196 0
174 197 0
173 197 0
173 196 0
173 196 0
174 197 0
173 197 0
171 194 0
172 196 0
174 197 0
171 195 0
174 197 0
175 198 0
172 195 0
173 197 0
173 197 0
170 194 0
173 197 0
173 196 0
171 195 0
167 191 0
172 196 0
171 194 0
172 195 0
172 195 0
172 195 0
172 195 0
172 196 0
172 195 0
172 195 0
173 196 0
168 192 0
173 197 0
169 194 0
172 194 0
170 193 0
173 197 0
172 195 0
171 194 0
171 193 0
170 193 0
173 197 0
169 193 0
167 190 0
169 193 0
169 193 0
169 193 0
171 194 0
172 195 0
170 193 0
169 193 0
170 193 0
169 192 0
172 196 0
169 192 0
172 195 0
173 196 0
166 188 0
168 191 0
169 192 0
169 193 0
172 195 0
169 192 0
168 192 0
171 194 0
170 193 0
168 191 0
172 194 0
169 192 0
170 194 0
170 193 0
167 191 0
169 192 0
165 189 0
167 191 0
167 189 0
163 187 0
167 191 0
169 192 0
165 189 0
164 187 0
168 191 0
167 189 0
163 187 0
164 187 0
163 187 0
161 184 0
166 189 0
162 185 0
160 183 0
163 186 0
165 189 0
162 186 0
172 195 0
166 190 0
166 190 0
160 182 0
163 186 0
161 184 0
162 186 0
166 190 0
164 187 0
164 186 0
167 191 0
165 189 0
163 185 0
164 187 0
164 187 0
157 180 0
160 182 0
166 189 0
158 182 0
161 184 0
157 180 0
159 181 0
159 182 0
160 183 0
159 182 0
158 180 0
161 184 0
157 180 0
163 185 0
166 189 0
161 184 0
162 183 0
161 184 0
164 187 0
156 177 0
163 185 0
160 182 0
157 178 0
152 174 0
151 174 0
160 182 0
157 178 0
156 178 0
153 174 0
154 175 0
158 180 0
156 177 0
156 178 0
160 182 0
159 181 0
159 180 0
148 171 0
158 179 0
161 184 0
158 180 0
150 170 0
156 178 0
160 182 0
162 183 0
158 178 0
160 182 0
160 179 0
161 182 0
160 182 0
161 181 0
157 175 0
156 178 0
159 179 0
154 172 0
160 180 0
157 178 0
164 185 0
158 179 0
157 177 0
158 180 0
158 176 0
153 171 0
160 178 0
159 177 0
162 180 0
160 179 0
158 176 0
162 180 0
162 181 0
161 180 0
162 182 0
159 176 0
163 180 0
166 182 0
161 177 0
164 183 0
160 179 0
160 176 0
161 178 0
165 184 0
162 178 0
160 178 0
162 177 0
163 178 0
162 179 0
163 180 0
164 179 0
167 184 0
162 177 0
162 179 0
162 177 0
170 188 0
163 180 0
162 179 0
162 179 0
164 179 0
166 183 0
164 180 0
163 177 0
167 184 0
170 188 0
167 184 0
165 181 0
168 186 0
162 178 0
170 189 0
169 186 0
167 185 0
169 188 0
165 181 0
171 187 0
170 187 0
168 187 0
170 188 0
169 184 0
169 186 0
169 188 0
170 186 0
166 184 0
168 185 0
169 187 0
170 189 0
169 190 0
171 191 0
170 188 0
171 192 0
169 189 0
171 192 0
168 185 0
169 189 0
169 188 0
170 191 0
170 193 0
171 190 0
171 192 0
170 190 0
174 196 0
169 189 0
168 188 0
173 192 0
170 191 0
171 192 0
169 191 0
172 192 0
172 194 0
171 193 0
172 193 0
173 195 0
172 193 0
172 193 0
172 193 0
172 193 0
172 193 0
173 196 0
173 194 0
173 194 0
172 195 0
173 196 0
174 195 0
172 193 0
173 196 0
171 193 0
172 193 0
173 195 0
172 195 0
173 194 0
174 197 0
173 196 0
173 195 0
174 197 0
172 195 0
171 193 0
173 196 0
173 196 0
173 196 0
173 195 0
172 195 0
172 194 0
175 196 0
173 196 0
174 196 0
175 197 0
172 195 0
173 196 0
174 196 0
175 197 0
173 197 0
175 197 0
172 195 0
174 197 0
175 197 0
173 196 0
174 195 0
175 197 0
174 196 0
173 195 0
174 197 0
174 197 0
173 196 0
174 198 0
175 197 0
174 196 0
173 196 0
172 195 0
174 196 0
174 197 0
172 196 0
174 198 0
175 198 0
176 198 0
174 197 0
174 198 0
174 197 0
174 197 0
176 199 0
174 197 0
174 198 0
175 198 0
174 197 0
175 198 0
175 198 0
176 198 0
173 197 0
175 198 0
173 197 0
173 196 0
174 198 0
174 198 0
175 198 0
172 196 0
174 198 0
175 198 0
173 197 0
174 197 0
174 197 0
176 198 0
173 196 0
173 197 0
175 198 0
173 197 0
173 196 0
175 198 0
175 198 0
176 199 0
174 197 0
173 197 0
174 198 0
175 198 0
174 198 0
175 198 0
175 197 0
172 196 0
173 196 0
173 197 0
174 198 0
174 198 0
172 197 0
175 198 0
174 197 0
174 197 0
176 199 0
175 197 0
175 198 0
173 197 0
174 197 0
175 198 0
174 197 0
175 198 0
172 196 0
175 198 0
174 197 0
175 197 0
172 195 0
172 194 0
172 196 0
174 197 0
171 195 0
174 197 0
174 198 0
173 196 0
171 196 0
173 197 0
176 199 0
172 196 0
174 197 0
171 196 0
173 197 0
173 197 0
172 195 0
173 196 0
171 194 0
173 197 0
173 196 0
174 197 0
171 195 0
172 196 0
173 196 0
174 197 0
174 197 0
170 194 0
170 195 0
173 197 0
171 195 0
175 198 0
174 197 0
172 196 0
175 197 0
174 197 0
171 194 0
171 195 0
169 193 0
173 196 0
174 197 0
175 198 0
173 197 0
172 196 0
170 193 0
172 196 0
173 196 0
172 196 0
173 197 0
171 194 0
172 195 0
173 196 0
166 189 0
173 196 0
172 195 0
169 192 0
171 194 0
173 196 0
170 194 0
173 196 0
170 194 0
167 191 0
171 194 0
172 195 0
170 193 0
164 187 0
169 192 0
172 195 0
170 193 0
169 192 0
170 193 0
168 192 0
168 191 0
172 194 0
174 197 0
171 194 0
167 191 0
168 191 0
167 190 0
168 190 0
170 193 0
169 192 0
168 191 0
168 191 0
170 193 0
169 192 0
166 189 0
171 194 0
165 188 0
165 189 0
165 188 0
169 191 0
165 189 0
168 190 0
167 190 0
168 190 0
164 188 0
165 188 0
166 189 0
166 189 0
168 191 0
163 186 0
163 186 0
159 182 0
161 184 0
160 183 0
167 190 0
165 188 0
157 180 0
159 182 0
160 183 0
166 189 0
162 185 0
165 188 0
163 186 0
165 188 0
159 183 0
160 185 0
161 184 0
162 185 0
160 182 0
160 184 0
163 186 0
163 186 0
161 185 0
161 185 0
162 186 0
162 185 0
161 182 0
161 183 0
159 181 0
160 182 0
165 188 0
163 186 0
164 186 0
168 191 0
154 177 0
163 185 0
160 183 0
164 186 0
162 183 0
163 187 0
157 178 0
158 179 0
161 183 0
160 183 0
153 176 0
159 180 0
158 180 0
163 185 0
158 180 0
160 183 0
161 182 0
155 177 0
155 178 0
158 179 0
160 181 0
162 185 0
163 185 0
162 184 0
162 184 0
157 180 0
161 183 0
154 176 0
163 186 0
152 174 0
161 183 0
160 180 0
161 181 0
162 184 0
159 180 0
159 180 0
159 179 0
155 175 0
160 181 0
156 178 0
154 175 0
156 177 0
157 177 0
160 180 0
154 175 0
157 177 0
159 180 0
160 178 0
161 181 0
157 177 0
158 176 0
156 176 0
159 178 0
157 177 0
158 175 0
160 180 0
161 181 0
158 177 0
153 174 0
159 178 0
156 175 0
159 176 0
159 180 0
164 182 0
158 176 0
160 178 0
162 179 0
167 186 0
163 182 0
158 174 0
166 183 0
161 178 0
161 179 0
160 177 0
165 182 0
163 179 0
162 180 0
165 182 0
161 176 0
164 183 0
164 183 0
164 181 0
166 182 0
162 177 0
162 178 0
161 177 0
161 177 0
165 183 0
165 184 0
164 180 0
168 186 0
166 181 0
162 177 0
163 179 0
165 182 0
168 185 0
170 187 0
170 186 0
168 187 0
166 183 0
164 180 0
169 188 0
168 187 0
168 185 0
168 187 0
168 183 0
168 184 0
168 186 0
168 185 0
167 184 0
168 183 0
169 188 0
166 185 0
168 187 0
171 190 0
167 185 0
170 191 0
170 187 0
170 188 0
171 192 0
171 192 0
171 190 0
168 188 0
171 190 0
170 191 0
172 191 0
173 195 0
172 190 0
172 193 0
174 194 0
169 188 0
171 193 0
172 192 0
172 193 0
172 193 0
174 194 0
171 193 0
171 191 0
171 194 0
171 194 0
171 191 0
171 194 0
173 194 0
171 193 0
172 195 0
172 195 0
173 194 0
173 195 0
171 194 0
173 195 0
172 193 0
173 195 0
171 193 0
174 194 0
174 195 0
171 191 0
172 195 0
172 195 0
172 195 0
172 193 0
174 196 0
172 195 0
173 194 0
172 196 0
172 194 0
172 194 0
173 196 0
173 195 0
172 196 0
175 196 0
173 196 0
174 195 0
174 197 0
173 195 0
172 195 0
175 197 0
173 195 0
172 196 0
173 196 0
172 195 0
174 197 0
174 197 0
171 195 0
174 195 0
173 196 0
174 198 0
174 197 0
174 197 0
175 197 0
175 197 0
174 197 0
173 196 0
175 198 0
173 196 0
174 197 0
174 196 0
173 196 0
176 198 0
173 196 0
174 197 0
174 196 0
173 196 0
174 196 0
174 197 0
175 197 0
174 197 0
174 197 0
174 197 0
174 197 0
174 197 0
175 198 0
174 197 0
174 197 0
173 197 0
173 197 0
175 198 0
175 198 0
174 198 0
173 197 0
174 197 0
175 198 0
173 197 0
174 198 0
174 197 0
174 197 0
174 197 0
174 197 0
174 197 0
173 197 0
174 198 0
175 198 0
173 197 0
176 198 0
174 198 0
171 195 0
176 199 0
175 198 0
173 197 0
174 197 0
174 198 0
174 197 0
175 198 0
175 198 0
175 197 0
174 198 0
173 197 0
175 198 0
173 196 0
174 197 0
172 196 0
172 196 0
176 198 0
174 198 0
173 196 0
173 197 0
173 196 0
173 197 0
173 196 0
170 194 0
172 196 0
172 196 0
174 198 0
174 198 0
174 197 0
175 198 0
175 198 0
174 197 0
172 195 0
173 196 0
173 195 0
174 198 0
173 196 0
169 194 0
174 197 0
174 197 0
172 196 0
171 195 0
174 198 0
173 196 0
173 197 0
173 197 0
173 197 0
173 197 0
174 197 0
174 197 0
172 196 0
171 194 0
174 197 0
173 196 0
174 197 0
176 198 0
172 196 0
174 197 0
175 198 0
172 195 0
173 196 0
174 197 0
172 196 0
169 193 0
171 194 0
172 196 0
171 195 0
175 198 0
173 196 0
173 196 0
173 197 0
173 196 0
173 196 0
174 197 0
171 195 0
169 192 0
171 195 0
171 195 0
171 194 0
171 194 0
171 194 0
169 193 0
172 196 0
172 194 0
173 197 0
167 190 0
173 196 0
173 196 0
172 194 0
169 193 0
171 193 0
170 194 0
167 190 0
170 193 0
170 194 0
174 197 0
168 191 0
167 190 0
169 192 0
169 193 0
170 193 0
174 196 0
171 194 0
172 195 0
173 196 0
172 195 0
165 188 0
168 192 0
168 191 0
168 191 0
165 189 0
169 191 0
165 188 0
172 195 0
166 189 0
172 194 0
166 189 0
166 189 0
168 192 0
160 184 0
165 188 0
163 185 0
168 189 0
167 190 0
166 188 0
168 191 0
163 187 0
161 184 0
166 190 0
163 187 0
165 188 0
165 188 0
165 187 0
166 189 0
167 189 0
165 189 0
165 188 0
166 189 0
164 186 0
164 188 0
168 191 0
163 186 0
166 189 0
162 185 0
159 182 0
161 184 0
162 185 0
163 186 0
160 181 0
162 184 0
159 181 0
162 183 0
159 182 0
166 190 0
156 178 0
161 184 0
163 186 0
156 179 0
158 181 0
162 186 0
155 178 0
167 190 0
163 186 0
157 179 0
163 186 0
155 178 0
162 184 0
164 187 0
162 185 0
156 179 0
158 180 0
159 181 0
160 182 0
151 174 0
159 182 0
160 184 0
164 188 0
157 179 0
153 176 0
159 180 0
159 181 0
161 184 0
155 178 0
159 181 0
153 174 0
162 185 0
156 178 0
161 182 0
152 174 0
159 179 0
161 184 0
166 188 0
156 176 0
162 185 0
159 181 0
158 179 0
161 181 0
157 178 0
162 184 0
157 178 0
157 178 0
158 179 0
158 180 0
152 174 0
158 178 0
161 182 0
158 178 0
159 179 0
163 182 0
162 184 0
162 183 0
159 180 0
161 182 0
159 180 0
162 180 0
160 180 0
160 180 0
154 174 0
162 182 0
158 178 0
161 180 0
161 182 0
159 178 0
165 184 0
165 186 0
161 181 0
164 183 0
165 185 0
162 181 0
166 186 0
155 172 0
163 181 0
163 180 0
166 185 0
166 184 0
166 184 0
160 178 0
166 184 0
159 176 0
162 177 0
160 178 0
167 186 0
160 177 0
165 184 0
163 182 0
165 184 0
165 182 0
166 185 0
161 178 0
166 183 0
163 176 0
165 181 0
164 178 0
164 182 0
162 178 0
163 179 0
161 177 0
166 181 0
161 177 0
166 181 0
166 182 0
163 178 0
165 182 0
168 185 0
166 184 0
166 183 0
163 177 0
165 181 0
167 183 0
164 180 0
168 185 0
169 186 0
167 187 0
169 187 0
170 191 0
167 184 0
167 185 0
169 186 0
170 188 0
169 187 0
170 190 0
168 187 0
171 191 0
171 190 0
170 187 0
172 191 0
167 187 0
171 189 0
171 191 0
170 191 0
169 188 0
171 192 0
169 188 0
171 191 0
173 192 0
171 190 0
171 192 0
170 189 0
172 192 0
170 193 0
170 190 0
172 193 0
172 192 0
172 194 0
173 193 0
171 192 0
171 193 0
170 190 0
170 190 0
170 192 0
173 195 0
173 195 0
172 193 0
173 195 0
171 191 0
171 193 0
171 193 0
172 194 0
175 197 0
173 196 0
173 195 0
173 196 0
170 192 0
172 193 0
174 195 0
171 194 0
174 195 0
173 195 0
172 192 0
172 196 0
172 194 0
172 194 0
175 195 0
174 196 0
172 194 0
173 196 0
173 195 0
174 196 0
175 197 0
175 197 0
175 197 0
175 197 0
174 197 0
174 197 0
173 196 0
174 196 0
173 197 0
176 198 0
173 196 0
174 197 0
174 196 0
173 197 0
172 195 0
173 194 0
174 197 0
175 197 0
173 196 0
174 196 0
173 197 0
173 197 0
175 197 0
174 197 0
173 195 0
173 196 0
174 197 0
175 197 0
174 197 0
173 197 0
172 196 0
173 196 0
174 197 0
175 197 0
174 197 0
173 197 0
174 197 0
174 197 0
173 197 0
174 198 0
173 196 0
174 197 0
173 197 0
174 197 0
173 197 0
172 196 0
175 198 0
174 198 0
173 197 0
172 196 0
173 196 0
173 197 0
175 198 0
175 198 0
174 197 0
175 198 0
174 197 0
174 197 0
172 197 0
173 197 0
173 196 0
174 198 0
174 197 0
173 197 0
173 197 0
174 198 0
173 197 0
172 195 0
175 198 0
172 196 0
174 197 0
174 198 0
175 198 0
174 197 0
174 197 0
174 197 0
174 198 0
175 198 0
174 197 0
174 197 0
175 198 0
175 198 0
174 197 0
172 196 0
174 197 0
173 197 0
174 198 0
174 197 0
175 198 0
175 198 0
172 195 0
174 197 0
173 197 0
173 197 0
174 197 0
172 196 0
172 196 0
173 196 0
174 197 0
173 196 0
175 198 0
173 197 0
172 195 0
175 198 0
172 195 0
172 196 0
173 197 0
172 196 0
173 197 0
172 196 0
172 196 0
173 197 0
175 198 0
171 194 0
172 195 0
172 196 0
171 195 0
174 197 0
171 195 0
172 196 0
173 196 0
172 195 0
175 198 0
170 193 0
172 196 0
173 197 0
172 196 0
172 195 0
173 197 0
173 197 0
172 196 0
173 196 0
172 196 0
172 194 0
173 197 0
173 196 0
173 196 0
172 195 0
174 198 0
173 196 0
173 197 0
171 195 0
172 195 0
166 190 0
173 196 0
173 197 0
171 195 0
173 196 0
172 196 0
167 191 0
169 192 0
172 195 0
172 194 0
172 195 0
173 195 0
167 190 0
170 193 0
172 195 0
166 190 0
171 193 0
167 191 0
169 191 0
168 190 0
168 191 0
172 195 0
170 192 0
166 189 0
171 194 0
172 195 0
169 192 0
170 192 0
165 189 0
169 192 0
169 192 0
170 194 0
169 191 0
168 192 0
165 189 0
166 189 0
167 190 0
167 190 0
164 188 0
166 189 0
167 190 0
167 191 0
171 193 0
168 191 0
166 188 0
170 194 0
165 188 0
163 187 0
164 187 0
164 188 0
165 188 0
169 192 0
166 189 0
166 189 0
163 187 0
166 190 0
159 182 0
156 179 0
168 191 0
162 185 0
162 185 0
165 188 0
163 185 0
164 188 0
164 187 0
161 184 0
160 183 0
166 188 0
161 184 0
164 187 0
159 182 0
167 189 0
158 181 0
162 185 0
163 186 0
159 181 0
156 179 0
161 184 0
157 180 0
157 180 0
161 183 0
163 186 0
161 183 0
159 182 0
164 187 0
157 180 0
162 185 0
155 178 0
161 183 0
157 179 0
157 179 0
156 179 0
159 182 0
163 186 0
160 183 0
164 186 0
159 181 0
161 183 0
156 180 0
161 184 0
165 187 0
162 184 0
164 186 0
165 187 0
152 174 0
157 180 0
164 186 0
160 181 0
163 185 0
154 175 0
158 179 0
164 186 0
156 178 0
161 183 0
155 176 0
161 182 0
160 182 0
158 180 0
146 166 0
162 184 0
168 190 0
160 180 0
161 181 0
159 181 0
162 182 0
165 186 0
158 180 0
163 183 0
153 173 0
162 183 0
155 175 0
162 183 0
159 178 0
162 182 0
161 181 0
157 175 0
164 185 0
157 175 0
157 176 0
159 177 0
154 174 0
151 169 0
161 180 0
161 180 0
158 177 0
158 178 0
158 178 0
159 175 0
165 181 0
157 175 0
156 172 0
160 177 0
155 172 0
160 178 0
161 180 0
162 182 0
163 182 0
156 173 0
157 173 0
163 179 0
160 177 0
164 181 0
164 181 0
161 181 0
159 176 0
163 180 0
164 182 0
164 180 0
166 185 0
167 184 0
161 178 0
165 183 0
168 186 0
168 189 0
164 181 0
167 183 0
166 185 0
168 185 0
171 190 0
170 188 0
168 185 0
165 181 0
168 184 0
167 185 0
168 185 0
168 185 0
164 181 0
165 182 0
166 184 0
168 186 0
168 187 0
170 187 0
168 187 0
169 186 0
165 184 0
169 186 0
164 182 0
171 190 0
168 185 0
168 186 0
168 187 0
166 185 0
168 186 0
171 189 0
170 189 0
169 187 0
170 191 0
168 187 0
171 190 0
169 190 0
169 187 0
171 191 0
169 188 0
169 187 0
172 191 0
170 189 0
172 194 0
169 188 0
172 193 0
169 188 0
171 190 0
172 193 0
171 191 0
173 194 0
173 195 0
172 193 0
172 193 0
169 190 0
171 192 0
173 195 0
171 193 0
172 194 0
173 194 0
173 194 0
173 195 0
172 193 0
172 193 0
173 195 0
171 191 0
172 195 0
172 193 0
173 195 0
171 194 0
172 194 0
173 195 0
174 195 0
173 196 0
174 197 0
174 196 0
172 194 0
172 194 0
172 195 0
171 193 0
173 195 0
173 195 0
173 196 0
173 196 0
173 195 0
173 196 0
173 196 0
171 194 0
173 194 0
173 196 0
173 196 0
173 195 0
173 196 0
173 195 0
174 196 0
172 195 0
175 197 0
173 196 0
174 197 0
173 196 0
173 196 0
172 196 0
174 196 0
173 196 0
176 197 0
172 196 0
172 196 0
174 197 0
174 196 0
175 198 0
173 196 0
174 197 0
175 197 0
175 197 0
173 195 0
174 197 0
175 197 0
175 198 0
173 196 0
175 197 0
174 197 0
174 196 0
174 196 0
174 198 0
172 196 0
174 197 0
174 197 0
171 195 0
175 198 0
175 198 0
172 196 0
174 197 0
174 198 0
174 197 0
173 197 0
174 197 0
174 198 0
174 198 0
173 196 0
173 196 0
174 198 0
174 198 0
175 198 0
174 197 0
175 198 0
174 197 0
175 198 0
172 196 0
173 197 0
173 196 0
175 198 0
173 197 0
175 198 0
173 196 0
173 197 0
173 196 0
173 196 0
173 197 0
175 198 0
173 196 0
174 198 0
172 196 0
174 197 0
173 197 0
173 197 0
174 197 0
174 197 0
174 197 0
174 197 0
173 197 0
171 195 0
170 194 0
172 196 0
174 197 0
171 194 0
173 196 0
172 196 0
173 196 0
174 197 0
172 197 0
174 197 0
173 197 0
172 196 0
173 197 0
174 197 0
173 196 0
173 197 0
174 197 0
172 195 0
173 196 0
174 197 0
173 197 0
174 197 0
174 197 0
171 195 0
172 195 0
175 198 0
171 194 0
173 196 0
173 196 0
170 193 0
173 195 0
173 197 0
174 197 0
173 196 0
171 194 0
173 196 0
174 197 0
171 195 0
172 196 0
175 197 0
173 196 0
171 195 0
173 196 0
174 197 0
173 196 0
170 194 0
172 195 0
169 193 0
169 192 0
173 195 0
173 196 0
169 192 0
172 195 0
171 194 0
171 195 0
171 195 0
169 193 0
172 194 0
170 193 0
170 193 0
169 192 0
169 191 0
169 192 0
172 195 0
170 193 0
168 191 0
172 194 0
167 191 0
168 192 0
171 195 0
171 193 0
169 193 0
169 192 0
171 194 0
166 190 0
169 192 0
169 193 0
170 192 0
168 191 0
167 191 0
169 192 0
164 187 0
172 194 0
168 192 0
169 192 0
167 190 0
166 188 0
169 192 0
165 189 0
168 190 0
170 194 0
169 192 0
166 190 0
161 184 0
166 189 0
169 193 0
162 187 0
163 186 0
169 193 0
164 187 0
166 189 0
165 189 0
167 190 0
162 185 0
162 185 0
167 190 0
168 192 0
164 188 0
166 190 0
162 185 0
169 192 0
162 185 0
161 184 0
169 192 0
163 185 0
163 187 0
163 186 0
163 186 0
164 187 0
168 191 0
166 190 0
163 186 0
160 184 0
160 182 0
165 188 0
162 184 0
160 182 0
164 187 0
162 186 0
164 187 0
156 179 0
164 187 0
162 184 0
169 191 0
163 185 0
160 183 0
160 184 0
162 185 0
166 189 0
159 181 0
164 187 0
160 182 0
160 183 0
159 180 0
165 187 0
161 184 0
160 183 0
161 183 0
158 179 0
161 183 0
159 182 0
161 183 0
158 179 0
164 187 0
155 177 0
162 183 0
156 179 0
156 178 0
163 184 0
150 171 0
159 180 0
156 176 0
162 184 0
158 180 0
158 181 0
158 179 0
158 180 0
160 181 0
159 180 0
162 183 0
161 183 0
164 185 0
157 177 0
156 176 0
159 181 0
158 179 0
158 180 0
160 180 0
166 188 0
153 173 0
160 182 0
159 180 0
159 180 0
163 184 0
160 181 0
155 176 0
165 186 0
157 177 0
153 174 0
159 178 0
160 181 0
161 180 0
165 185 0
160 179 0
157 176 0
159 178 0
156 175 0
162 182 0
161 182 0
165 185 0
160 180 0
158 178 0
158 176 0
165 183 0
158 176 0
166 186 0
162 182 0
163 181 0
158 178 0
161 180 0
164 183 0
160 180 0
164 183 0
163 184 0
164 182 0
164 184 0
160 176 0
160 176 0
163 183 0
161 178 0
167 183 0
164 182 0
165 182 0
163 182 0
163 180 0
167 186 0
165 185 0
163 181 0
163 182 0
168 186 0
162 178 0
168 185 0
164 182 0
166 183 0
167 187 0
165 182 0
166 182 0
164 181 0
164 182 0
166 186 0
167 185 0
168 183 0
167 186 0
166 183 0
165 183 0
171 187 0
168 187 0
169 186 0
168 187 0
168 185 0
167 186 0
171 191 0
170 189 0
171 192 0
167 185 0
166 183 0
166 185 0
168 188 0
171 190 0
171 189 0
171 190 0
169 189 0
168 185 0
171 191 0
170 189 0
171 191 0
172 192 0
171 189 0
168 186 0
171 192 0
172 192 0
169 189 0
172 192 0
169 189 0
172 192 0
170 192 0
172 192 0
170 189 0
170 190 0
171 191 0
169 188 0
169 190 0
174 194 0
169 189 0
171 191 0
174 193 0
172 193 0
173 192 0
171 193 0
171 192 0
172 194 0
172 192 0
172 194 0
172 195 0
172 192 0
172 194 0
170 192 0
172 193 0
173 195 0
173 194 0
173 195 0
169 192 0
174 195 0
171 194 0
173 195 0
170 191 0
172 195 0
173 196 0
174 197 0
173 195 0
171 193 0
173 195 0
173 196 0
174 196 0
174 196 0
172 193 0
174 196 0
174 196 0
171 194 0
173 196 0
175 198 0
173 195 0
172 195 0
174 197 0
173 196 0
174 197 0
173 196 0
174 197 0
173 196 0
175 197 0
174 197 0
176 198 0
173 197 0
173 195 0
172 195 0
174 197 0
174 197 0
175 198 0
174 197 0
172 195 0
174 196 0
175 198 0
174 196 0
174 197 0
174 195 0
172 196 0
173 196 0
173 197 0
174 197 0
174 197 0
173 197 0
173 197 0
173 196 0
172 196 0
173 197 0
175 198 0
175 198 0
173 197 0
173 197 0
175 198 0
175 198 0
174 197 0
175 197 0
173 197 0
174 197 0
175 198 0
175 198 0
175 198 0
174 197 0
174 198 0
172 196 0
173 197 0
173 197 0
174 198 0
172 196 0
174 197 0
173 197 0
174 197 0
173 197 0
175 198 0
173 196 0
173 196 0
175 198 0
172 196 0
175 198 0
173 197 0
173 197 0
175 198 0
171 195 0
174 198 0
174 198 0
173 196 0
172 196 0
173 197 0
173 197 0
173 197 0
174 197 0
171 196 0
173 197 0
174 198 0
175 198 0
175 198 0
172 195 0
175 198 0
173 197 0
174 198 0
175 197 0
172 196 0
173 197 0
173 195 0
173 197 0
169 193 0
172 196 0
174 196 0
173 196 0
172 195 0
171 195 0
170 194 0
173 197 0
173 196 0
171 195 0
173 196 0
173 196 0
172 196 0
174 197 0
171 195 0
174 197 0
171 194 0
174 196 0
173 196 0
173 196 0
174 198 0
168 192 0
171 196 0
172 196 0
170 194 0
173 197 0
174 197 0
175 197 0
174 198 0
170 194 0
172 195 0
169 192 0
173 196 0
170 194 0
172 195 0
172 195 0
171 194 0
175 197 0
173 195 0
171 194 0
172 196 0
170 193 0
170 193 0
171 194 0
173 196 0
170 193 0
172 195 0
169 192 0
170 193 0
173 196 0
171 194 0
172 195 0
172 194 0
173 196 0
172 195 0
168 191 0
173 196 0
165 190 0
169 191 0
171 194 0
167 191 0
169 193 0
168 191 0
170 193 0
170 193 0
170 193 0
164 188 0
167 190 0
166 190 0
169 193 0
168 191 0
170 193 0
168 191 0
170 194 0
165 190 0
164 188 0
170 193 0
166 190 0
173 196 0
170 192 0
162 186 0
166 189 0
162 185 0
167 191 0
165 188 0
164 187 0
165 189 0
165 189 0
165 189 0
166 189 0
162 185 0
165 189 0
167 189 0
170 193 0
165 187 0
168 192 0
166 189 0
162 184 0
162 186 0
162 185 0
168 191 0
160 184 0
165 188 0
164 187 0
162 185 0
167 190 0
160 184 0
162 183 0
160 184 0
166 188 0
167 190 0
166 189 0
162 185 0
160 183 0
166 189 0
159 182 0
159 182 0
162 185 0
159 181 0
159 183 0
161 185 0
159 183 0
164 187 0
163 185 0
162 185 0
161 183 0
160 182 0
162 184 0
164 187 0
157 179 0
166 189 0
162 185 0
162 184 0
158 181 0
160 181 0
162 184 0
163 185 0
161 183 0
158 181 0
163 184 0
156 178 0
161 184 0
160 182 0
156 178 0
160 182 0
155 177 0
159 181 0
161 183 0
158 181 0
158 180 0
158 180 0
153 175 0
156 178 0
161 183 0
158 179 0
159 179 0
157 177 0
164 185 0
159 181 0
163 185 0
162 184 0
158 180 0
159 181 0
156 177 0
162 184 0
157 178 0
158 179 0
158 179 0
157 179 0
161 184 0
160 180 0
160 180 0
165 185 0
159 179 0
161 181 0
164 184 0
162 184 0
161 180 0
167 187 0
162 182 0
162 183 0
163 184 0
161 179 0
160 180 0
163 183 0
159 179 0
166 186 0
156 175 0
160 180 0
162 182 0
162 182 0
161 182 0
163 183 0
162 181 0
163 181 0
162 180 0
158 176 0
160 177 0
161 180 0
165 183 0
162 182 0
163 185 0
160 176 0
164 182 0
158 177 0
158 173 0
166 185 0
164 180 0
162 180 0
163 182 0
163 180 0
165 183 0
165 183 0
166 182 0
162 180 0
166 185 0
163 179 0
165 182 0
164 181 0
164 181 0
165 183 0
162 181 0
168 184 0
171 192 0
167 187 0
162 175 0
168 187 0
165 182 0
166 184 0
164 178 0
166 182 0
168 185 0
167 185 0
168 184 0
169 186 0
168 187 0
165 184 0
170 187 0
167 184 0
165 185 0
167 184 0
172 190 0
167 186 0
169 187 0
172 190 0
171 191 0
167 186 0
166 184 0
166 183 0
167 186 0
169 188 0
172 192 0
170 190 0
171 189 0
169 189 0
171 191 0
168 188 0
170 190 0
169 188 0
170 190 0
171 188 0
170 191 0
168 189 0
172 193 0
168 187 0
167 186 0
170 192 0
171 192 0
172 192 0
169 189 0
171 190 0
171 190 0
171 193 0
172 194 0
169 190 0
171 193 0
173 194 0
171 191 0
170 191 0
171 193 0
171 194 0
174 196 0
172 194 0
171 193 0
171 192 0
174 196 0
172 195 0
174 193 0
172 194 0
172 195 0
173 195 0
172 193 0
170 192 0
172 194 0
171 192 0
174 196 0
173 195 0
174 195 0
172 194 0
173 194 0
174 197 0
171 193 0
174 197 0
172 195 0
174 195 0
173 196 0
171 193 0
172 194 0
173 195 0
174 197 0
173 196 0
173 195 0
172 195 0
171 194 0
173 195 0
175 198 0
174 197 0
173 196 0
174 197 0
174 197 0
173 197 0
174 196 0
171 196 0
174 195 0
176 198 0
174 196 0
175 197 0
174 197 0
172 195 0
174 197 0
173 197 0
172 194 0
175 197 0
174 197 0
173 195 0
172 194 0
175 197 0
173 196 0
174 197 0
172 196 0
173 197 0
172 196 0
174 198 0
175 198 0
174 197 0
173 197 0
174 197 0
174 197 0
175 198 0
172 196 0
172 196 0
172 197 0
172 195 0
172 196 0
173 197 0
174 198 0
174 197 0
171 195 0
174 197 0
174 198 0
173 197 0
174 198 0
173 197 0
175 198 0
172 196 0
173 197 0
173 197 0
172 196 0
173 197 0
174 198 0
174 198 0
175 198 0
173 197 0
174 197 0
173 196 0
173 196 0
172 196 0
175 198 0
175 198 0
173 196 0
173 196 0
173 197 0
173 196 0
174 196 0
173 195 0
173 196 0
174 197 0
174 197 0
172 195 0
172 196 0
171 195 0
173 197 0
173 197 0
172 196 0
174 197 0
175 198 0
172 197 0
174 197 0
174 198 0
173 196 0
175 198 0
174 197 0
172 195 0
169 194 0
173 196 0
174 197 0
175 198 0
171 195 0
173 196 0
172 195 0
170 194 0
172 196 0
173 196 0
173 196 0
172 196 0
174 197 0
171 195 0
172 196 0
174 196 0
174 197 0
174 197 0
172 195 0
170 194 0
171 195 0
174 197 0
171 194 0
172 196 0
172 196 0
172 194 0
172 196 0
170 194 0
172 195 0
170 193 0
171 194 0
172 195 0
170 192 0
172 195 0
170 193 0
167 190 0
171 194 0
169 193 0
173 196 0
169 192 0
170 193 0
170 193 0
170 194 0
172 196 0
170 194 0
171 194 0
173 195 0
170 194 0
169 192 0
172 195 0
167 191 0
167 190 0
170 194 0
170 193 0
171 194 0
168 192 0
170 193 0
165 189 0
167 191 0
170 192 0
170 194 0
170 193 0
166 189 0
165 188 0
169 192 0
170 194 0
167 190 0
169 192 0
168 191 0
163 187 0
164 187 0
167 190 0
168 191 0
165 188 0
169 193 0
169 193 0
167 191 0
168 192 0
168 192 0
162 184 0
168 191 0
164 187 0
164 187 0
167 190 0
167 190 0
163 187 0
167 191 0
166 189 0
164 187 0
163 186 0
164 188 0
163 186 0
163 186 0
165 189 0
166 189 0
160 184 0
164 188 0
166 189 0
161 184 0
162 184 0
164 188 0
157 180 0
161 186 0
161 184 0
165 189 0
166 189 0
166 190 0
170 192 0
166 189 0
162 185 0
159 182 0
164 187 0
164 186 0
155 178 0
161 184 0
166 188 0
164 187 0
162 186 0
164 186 0
161 183 0
163 186 0
163 187 0
165 189 0
161 185 0
158 181 0
160 183 0
166 187 0
163 186 0
158 179 0
161 183 0
159 182 0
161 184 0
157 181 0
158 181 0
158 180 0
166 189 0
162 184 0
155 178 0
160 183 0
162 185 0
162 183 0
158 179 0
160 181 0
160 183 0
164 185 0
159 181 0
158 180 0
156 178 0
160 181 0
157 180 0
162 184 0
160 184 0
160 181 0
159 182 0
160 181 0
159 182 0
163 186 0
164 186 0
161 183 0
162 185 0
160 182 0
160 182 0
160 180 0
161 181 0
158 178 0
158 178 0
163 184 0
161 182 0
157 180 0
163 185 0
161 183 0
163 184 0
159 180 0
167 188 0
158 180 0
158 178 0
161 183 0
152 174 0
161 182 0
163 183 0
162 183 0
162 184 0
156 174 0
163 184 0
163 183 0
165 185 0
162 182 0
162 181 0
156 175 0
157 178 0
161 180 0
158 177 0
162 182 0
160 179 0
163 184 0
159 179 0
164 183 0
161 181 0
161 179 0
162 181 0
163 181 0
163 182 0
165 184 0
161 179 0
159 177 0
164 182 0
164 181 0
162 181 0
164 183 0
166 185 0
162 179 0
163 181 0
163 181 0
159 177 0
164 183 0
168 185 0
164 182 0
169 189 0
164 179 0
164 184 0
164 184 0
162 179 0
166 185 0
165 182 0
168 186 0
164 181 0
167 184 0
167 186 0
164 180 0
169 186 0
170 187 0
170 189 0
167 183 0
168 185 0
166 187 0
167 186 0
170 187 0
166 183 0
168 187 0
168 186 0
169 186 0
168 186 0
169 188 0
168 185 0
169 186 0
168 185 0
166 183 0
170 189 0
170 189 0
170 188 0
168 186 0
169 188 0
169 188 0
172 191 0
170 189 0
168 188 0
169 187 0
171 190 0
171 190 0
171 191 0
171 190 0
171 193 0
170 191 0
171 191 0
172 194 0
171 192 0
172 192 0
171 190 0
171 192 0
170 190 0
171 191 0
172 193 0
171 190 0
171 192 0
170 190 0
173 194 0
172 192 0
173 193 0
171 194 0
171 192 0
174 195 0
170 191 0
172 195 0
174 196 0
173 195 0
169 192 0
173 194 0
173 195 0
171 193 0
172 194 0
173 194 0
171 193 0
172 195 0
173 195 0
175 197 0
173 194 0
172 194 0
171 194 0
174 196 0
172 195 0
172 194 0
173 195 0
172 195 0
172 195 0
174 196 0
174 197 0
173 196 0
175 197 0
173 196 0
174 197 0
174 196 0
172 196 0
172 194 0
173 196 0
173 196 0
174 196 0
175 197 0
174 197 0
173 196 0
172 196 0
174 195 0
173 196 0
174 197 0
173 196 0
175 198 0
175 197 0
173 196 0
173 196 0
174 197 0
172 196 0
173 196 0
173 196 0
174 196 0
173 196 0
174 197 0
174 197 0
174 196 0
173 195 0
174 198 0
173 197 0
175 198 0
174 197 0
174 198 0
173 197 0
174 198 0
174 197 0
174 197 0
173 197 0
173 197 0
172 197 0
175 198 0
174 198 0
173 197 0
174 198 0
172 196 0
174 198 0
174 197 0
172 196 0
173 197 0
172 196 0
173 197 0
176 198 0
172 196 0
173 196 0
175 198 0
174 198 0
172 196 0
175 198 0
171 196 0
174 198 0
173 197 0
174 197 0
175 198 0
174 198 0
169 194 0
172 196 0
172 196 0
174 197 0
173 196 0
173 196 0
173 196 0
174 197 0
173 196 0
172 195 0
174 197 0
175 198 0
173 196 0
174 198 0
174 197 0
174 197 0
174 197 0
172 195 0
172 196 0
175 198 0
170 194 0
172 196 0
174 197 0
173 196 0
172 196 0
173 196 0
172 196 0
174 198 0
173 196 0
173 197 0
171 195 0
173 196 0
171 195 0
173 196 0
170 194 0
172 196 0
173 196 0
172 196 0
173 197 0
172 195 0
173 196 0
171 194 0
171 195 0
170 194 0
173 195 0
174 197 0
172 195 0
175 198 0
170 193 0
173 196 0
174 196 0
170 194 0
173 196 0
173 197 0
171 193 0
171 195 0
173 196 0
173 195 0
171 194 0
174 196 0
171 194 0
167 191 0
170 193 0
170 195 0
172 195 0
169 193 0
169 192 0
168 192 0
170 193 0
169 192 0
171 194 0
168 191 0
169 191 0
167 190 0
169 193 0
171 194 0
167 190 0
169 193 0
168 191 0
170 193 0
168 192 0
166 190 0
169 192 0
169 193 0
169 192 0
171 194 0
169 192 0
169 192 0
169 192 0
169 193 0
161 185 0
171 194 0
171 195 0
167 190 0
168 190 0
163 186 0
166 187 0
170 193 0
166 190 0
164 188 0
166 189 0
168 191 0
168 191 0
162 185 0
165 188 0
166 188 0
162 185 0
169 192 0
165 188 0
165 188 0
166 189 0
168 192 0
164 187 0
167 190 0
168 191 0
165 188 0
161 184 0
164 187 0
164 187 0
164 187 0
167 189 0
161 185 0
169 192 0
163 187 0
169 192 0
161 183 0
167 189 0
163 187 0
161 184 0
163 186 0
167 190 0
159 183 0
163 186 0
162 184 0
166 189 0
166 189 0
167 190 0
166 190 0
167 189 0
162 185 0
159 182 0
168 191 0
164 187 0
169 192 0
156 179 0
161 184 0
160 183 0
160 183 0
162 185 0
165 188 0
163 185 0
163 185 0
157 180 0
163 186 0
164 187 0
163 186 0
159 181 0
159 182 0
161 182 0
163 184 0
158 181 0
159 180 0
157 179 0
160 182 0
158 181 0
156 179 0
159 182 0
165 187 0
156 179 0
158 179 0
155 177 0
166 188 0
161 182 0
158 180 0
155 177 0
157 178 0
162 183 0
160 182 0
161 183 0
166 188 0
156 176 0
160 182 0
160 182 0
158 180 0
154 175 0
164 187 0
159 180 0
169 190 0
159 180 0
157 179 0
161 183 0
157 178 0
161 182 0
155 176 0
160 181 0
157 178 0
157 180 0
162 184 0
163 185 0
161 182 0
162 182 0
162 182 0
162 181 0
159 177 0
161 182 0
163 183 0
162 183 0
165 187 0
160 180 0
159 181 0
160 179 0
160 178 0
158 178 0
158 178 0
158 177 0
158 178 0
158 177 0
166 184 0
161 180 0
162 181 0
157 178 0
162 180 0
159 179 0
163 184 0
163 182 0
164 184 0
162 181 0
165 186 0
160 180 0
161 179 0
163 181 0
165 182 0
162 183 0
165 185 0
166 187 0
166 185 0
163 181 0
166 183 0
165 182 0
162 180 0
159 176 0
160 178 0
161 177 0
165 182 0
168 187 0
165 184 0
164 183 0
165 182 0
164 182 0
167 186 0
165 183 0
164 183 0
168 189 0
165 182 0
164 183 0
167 185 0
167 185 0
167 185 0
166 183 0
165 183 0
168 186 0
168 183 0
168 187 0
167 186 0
167 182 0
168 188 0
167 185 0
171 187 0
165 184 0
168 187 0
163 179 0
169 187 0
168 188 0
169 188 0
169 186 0
169 189 0
169 187 0
170 188 0
171 189 0
173 194 0
167 187 0
168 187 0
166 187 0
170 188 0
170 189 0
171 190 0
171 191 0
170 191 0
169 190 0
171 193 0
168 190 0
170 189 0
169 191 0
171 191 0
168 188 0
168 187 0
172 194 0
171 191 0
170 189 0
170 190 0
169 191 0
169 188 0
173 193 0
172 193 0
172 194 0
170 192 0
169 192 0
171 194 0
170 193 0
171 193 0
172 194 0
170 191 0
172 193 0
170 192 0
171 192 0
173 194 0
172 194 0
170 193 0
170 192 0
172 194 0
172 193 0
172 196 0
170 193 0
171 193 0
172 194 0
172 194 0
172 195 0
173 196 0
174 195 0
174 196 0
171 195 0
173 195 0
173 195 0
172 193 0
172 194 0
171 194 0
171 194 0
173 195 0
172 194 0
173 195 0
174 197 0
173 195 0
172 195 0
172 194 0
174 196 0
173 196 0
173 197 0
174 197 0
172 195 0
175 197 0
173 195 0
174 196 0
171 193 0
172 196 0
174 196 0
173 197 0
174 197 0
172 195 0
173 197 0
174 197 0
174 197 0
173 195 0
175 198 0
173 196 0
175 198 0
174 197 0
173 197 0
173 197 0
173 197 0
174 197 0
174 198 0
174 197 0
173 197 0
174 197 0
174 197 0
172 195 0
174 197 0
175 198 0
176 198 0
175 198 0
172 196 0
174 197 0
176 199 0
175 198 0
173 197 0
175 197 0
173 197 0
175 198 0
173 196 0
172 196 0
172 196 0
175 198 0
175 198 0
174 197 0
174 197 0
174 198 0
173 197 0
173 197 0
174 197 0
175 198 0
174 197 0
174 198 0
174 198 0
174 197 0
173 196 0
173 197 0
173 197 0
175 198 0
173 196 0
173 196 0
173 196 0
172 196 0
171 195 0
172 196 0
174 197 0
173 197 0
171 194 0
174 197 0
172 196 0
172 196 0
173 197 0
171 194 0
173 197 0
173 196 0
172 196 0
173 197 0
171 195 0
171 195 0
172 196 0
173 196 0
172 196 0
172 196 0
173 197 0
170 194 0
172 196 0
174 197 0
172 195 0
172 196 0
175 198 0
172 196 0
171 195 0
171 195 0
173 196 0
169 193 0
174 197 0
171 195 0
172 196 0
170 193 0
171 194 0
174 197 0
172 196 0
172 195 0
172 196 0
171 194 0
174 197 0
170 194 0
174 196 0
171 195 0
171 195 0
171 195 0
174 197 0
174 197 0
171 194 0
168 192 0
169 192 0
171 194 0
171 194 0
171 195 0
169 192 0
169 192 0
172 196 0
167 190 0
172 195 0
169 192 0
166 190 0
170 194 0
172 195 0
173 196 0
167 189 0
173 195 0
166 190 0
168 192 0
169 192 0
171 195 0
171 193 0
171 195 0
166 189 0
168 191 0
165 189 0
170 194 0
169 192 0
169 191 0
162 185 0
166 188 0
170 193 0
167 190 0
169 192 0
163 185 0
169 192 0
169 191 0
168 192 0
166 190 0
164 187 0
166 190 0
165 189 0
167 190 0
163 186 0
167 190 0
166 190 0
158 181 0
163 186 0
168 191 0
163 187 0
165 189 0
167 191 0
169 192 0
165 189 0
167 191 0
164 188 0
161 184 0
170 192 0
166 189 0
167 190 0
167 190 0
167 189 0
164 188 0
166 190 0
162 186 0
165 189 0
165 188 0
160 183 0
163 185 0
158 181 0
160 182 0
163 186 0
157 179 0
161 185 0
169 192 0
162 185 0
163 187 0
160 183 0
161 183 0
159 182 0
163 186 0
159 181 0
162 184 0
164 187 0
165 188 0
160 183 0
159 181 0
158 180 0
159 182 0
164 187 0
165 187 0
159 183 0
167 189 0
161 184 0
162 184 0
162 185 0
160 183 0
164 187 0
156 179 0
156 179 0
160 183 0
158 181 0
166 188 0
165 187 0
160 182 0
163 186 0
163 184 0
158 179 0
164 186 0
152 173 0
164 186 0
158 178 0
162 183 0
160 181 0
168 189 0
161 183 0
159 181 0
161 182 0
162 185 0
156 178 0
160 181 0
164 187 0
158 180 0
158 178 0
157 180 0
161 183 0
154 172 0
165 186 0
158 178 0
162 184 0
156 178 0
155 176 0
161 183 0
162 183 0
161 182 0
163 183 0
159 179 0
160 181 0
161 183 0
165 186 0
162 184 0
165 185 0
160 179 0
161 181 0
164 186 0
160 180 0
163 184 0
159 179 0
163 185 0
165 185 0
163 184 0
160 179 0
167 188 0
163 183 0
160 181 0
162 182 0
163 183 0
163 183 0
162 183 0
163 183 0
158 177 0
158 178 0
165 186 0
163 182 0
163 182 0
167 184 0
162 181 0
160 179 0
166 184 0
165 186 0
166 185 0
165 184 0
164 183 0
164 183 0
168 189 0
166 184 0
164 183 0
165 185 0
164 184 0
167 188 0
161 178 0
166 181 0
167 185 0
160 179 0
161 179 0
166 183 0
169 186 0
165 181 0
165 182 0
164 182 0
165 182 0
169 187 0
169 188 0
167 186 0
167 185 0
164 182 0
168 185 0
167 184 0
166 185 0
166 184 0
166 185 0
167 187 0
168 187 0
166 183 0
167 186 0
167 184 0
168 186 0
168 187 0
170 189 0
167 184 0
168 186 0
169 188 0
169 186 0
165 185 0
167 186 0
170 189 0
171 191 0
171 190 0
172 193 0
168 185 0
169 189 0
170 190 0
169 189 0
173 193 0
168 188 0
169 190 0
170 190 0
171 191 0
170 191 0
173 194 0
172 192 0
168 187 0
168 189 0
171 189 0
170 190 0
172 194 0
172 193 0
171 191 0
174 194 0
173 194 0
172 194 0
171 192 0
169 189 0
172 194 0
173 194 0
174 195 0
173 194 0
171 193 0
172 193 0
173 194 0
172 194 0
170 192 0
170 191 0
169 190 0
174 196 0
170 192 0
171 193 0
174 195 0
172 194 0
171 193 0
171 194 0
172 194 0
172 195 0
172 195 0
172 193 0
173 195 0
172 194 0
170 193 0
171 193 0
172 195 0
173 194 0
173 195 0
173 196 0
173 196 0
174 196 0
175 197 0
173 195 0
173 196 0
172 193 0
172 195 0
173 196 0
171 192 0
173 195 0
172 195 0
172 194 0
174 197 0
173 196 0
173 196 0
172 195 0
173 196 0
172 196 0
172 194 0
172 196 0
173 195 0
173 195 0
173 197 0
174 196 0
174 197 0
172 195 0
173 195 0
173 196 0
175 198 0
174 197 0
174 198 0
174 197 0
175 198 0
175 197 0
174 197 0
174 197 0
174 197 0
175 198 0
172 196 0
172 196 0
174 196 0
173 197 0
173 197 0
176 199 0
173 197 0
173 196 0
174 197 0
174 197 0
173 196 0
172 196 0
174 198 0
172 196 0
173 197 0
173 196 0
174 197 0
174 198 0
175 198 0
175 198 0
172 196 0
174 197 0
175 198 0
175 198 0
173 197 0
173 197 0
174 198 0
171 194 0
173 196 0
173 196 0
173 197 0
174 198 0
173 197 0
174 197 0
173 197 0
172 195 0
173 196 0
172 195 0
174 197 0
172 196 0
174 198 0
174 198 0
172 196 0
175 198 0
173 197 0
173 197 0
172 196 0
175 197 0
173 197 0
170 194 0
172 195 0
171 195 0
172 195 0
173 197 0
172 196 0
171 194 0
171 195 0
171 195 0
174 197 0
172 195 0
170 194 0
173 196 0
174 197 0
173 195 0
170 194 0
169 193 0
170 194 0
172 196 0
174 197 0
171 194 0
172 195 0
172 197 0
173 197 0
170 193 0
173 195 0
173 196 0
171 194 0
173 196 0
173 196 0
169 193 0
170 194 0
169 193 0
171 194 0
169 193 0
174 197 0
171 194 0
172 196 0
170 193 0
171 194 0
167 190 0
172 195 0
172 196 0
174 196 0
173 196 0
171 195 0
170 193 0
168 192 0
171 193 0
169 192 0
171 193 0
171 194 0
170 193 0
168 190 0
173 196 0
167 190 0
171 194 0
170 193 0
170 194 0
165 188 0
165 189 0
168 191 0
163 188 0
170 193 0
170 194 0
166 189 0
167 190 0
167 190 0
166 189 0
171 194 0
167 190 0
168 191 0
168 191 0
164 187 0
164 188 0
168 191 0
169 192 0
168 192 0
165 188 0
168 192 0
164 186 0
163 187 0
173 195 0
171 195 0
167 191 0
167 191 0
165 189 0
162 185 0
168 190 0
163 187 0
167 190 0
169 192 0
164 187 0
164 186 0
161 185 0
164 188 0
164 187 0
161 185 0
166 189 0
166 189 0
168 191 0
165 188 0
162 185 0
161 184 0
169 191 0
163 186 0
162 186 0
160 183 0
164 185 0
162 185 0
159 182 0
154 176 0
164 187 0
165 188 0
159 182 0
168 191 0
163 186 0
166 188 0
167 190 0
159 182 0
163 186 0
164 186 0
165 188 0
163 186 0
163 185 0
160 183 0
167 189 0
162 185 0
170 193 0
160 184 0
163 186 0
160 183 0
162 186 0
165 187 0
157 179 0
158 180 0
163 186 0
157 180 0
159 182 0
161 184 0
163 186 0
160 182 0
162 184 0
165 186 0
157 179 0
162 185 0
165 187 0
162 185 0
159 181 0
162 185 0
159 182 0
157 178 0
166 189 0
160 181 0
161 183 0
161 183 0
158 180 0
161 184 0
162 184 0
164 187 0
159 180 0
161 183 0
163 185 0
167 190 0
157 177 0
158 180 0
164 186 0
160 179 0
164 187 0
167 189 0
162 184 0
156 177 0
162 183 0
157 177 0
159 180 0
165 187 0
156 177 0
160 181 0
163 183 0
164 185 0
163 185 0
156 175 0
157 177 0
155 174 0
164 185 0
160 181 0
165 184 0
163 182 0
161 180 0
163 184 0
160 181 0
164 184 0
158 176 0
163 183 0
161 182 0
165 188 0
162 181 0
162 182 0
161 180 0
160 179 0
158 177 0
162 182 0
159 178 0
163 183 0
161 180 0
167 186 0
166 185 0
159 178 0
163 182 0
164 182 0
160 180 0
165 184 0
161 179 0
162 182 0
165 183 0
159 176 0
165 183 0
163 183 0
165 184 0
167 185 0
159 177 0
167 187 0
163 182 0
166 183 0
162 180 0
169 189 0
166 184 0
166 184 0
169 187 0
163 181 0
164 182 0
163 180 0
167 184 0
166 185 0
166 184 0
168 186 0
167 185 0
165 184 0
168 187 0
165 183 0
169 187 0
166 184 0
168 187 0
169 188 0
167 188 0
167 186 0
168 187 0
168 188 0
168 185 0
166 181 0
167 187 0
170 188 0
169 190 0
169 189 0
173 192 0
166 181 0
171 191 0
168 187 0
170 188 0
170 190 0
171 190 0
170 189 0
170 188 0
172 193 0
174 193 0
168 189 0
172 194 0
169 187 0
171 192 0
170 190 0
170 190 0
171 192 0
172 192 0
170 190 0
171 189 0
170 190 0
170 189 0
171 192 0
172 192 0
172 193 0
170 191 0
172 193 0
174 196 0
170 191 0
173 195 0
172 192 0
171 193 0
173 194 0
171 190 0
172 194 0
170 191 0
173 195 0
170 192 0
172 193 0
172 193 0
172 193 0
172 193 0
171 192 0
172 193 0
173 194 0
170 191 0
172 194 0
172 195 0
174 196 0
174 197 0
170 193 0
173 195 0
172 194 0
170 192 0
173 195 0
173 194 0
172 195 0
172 195 0
171 193 0
174 195 0
172 194 0
171 194 0
173 196 0
173 195 0
172 195 0
175 196 0
173 195 0
174 196 0
173 196 0
172 194 0
172 195 0
173 197 0
173 195 0
174 197 0
174 196 0
174 195 0
174 196 0
172 194 0
174 196 0
174 195 0
173 196 0
174 196 0
174 197 0
172 195 0
174 197 0
172 194 0
175 198 0
174 197 0
173 196 0
173 197 0
174 197 0
171 195 0
172 196 0
171 194 0
175 198 0
174 197 0
175 197 0
174 198 0
174 197 0
174 197 0
174 197 0
174 198 0
173 197 0
174 197 0
172 196 0
174 197 0
174 197 0
176 198 0
174 198 0
173 196 0
173 197 0
173 196 0
173 196 0
175 198 0
172 196 0
172 196 0
172 196 0
174 197 0
174 196 0
172 196 0
171 194 0
172 196 0
175 198 0
173 197 0
173 196 0
175 198 0
172 196 0
173 197 0
175 197 0
174 197 0
175 198 0
173 197 0
172 196 0
174 198 0
173 196 0
175 198 0
172 196 0
175 198 0
172 196 0
173 196 0
171 195 0
173 196 0
173 196 0
170 195 0
171 195 0
172 196 0
174 197 0
171 196 0
171 193 0
172 196 0
173 197 0
171 195 0
172 195 0
172 196 0
171 195 0
173 196 0
172 197 0
172 195 0
172 196 0
173 195 0
172 196 0
173 196 0
173 197 0
173 196 0
171 194 0
171 194 0
176 198 0
172 196 0
173 197 0
170 193 0
170 193 0
172 195 0
172 195 0
171 195 0
168 191 0
175 197 0
172 196 0
172 196 0
172 195 0
174 197 0
166 190 0
170 194 0
169 193 0
173 196 0
171 194 0
169 192 0
168 192 0
168 192 0
171 194 0
169 192 0
168 192 0
170 194 0
170 194 0
169 192 0
170 193 0
166 190 0
169 191 0
171 195 0
170 192 0
170 193 0
170 193 0
173 196 0
171 193 0
165 189 0
169 192 0
166 189 0
169 193 0
168 193 0
161 185 0
169 191 0
166 190 0
169 192 0
168 190 0
165 188 0
167 189 0
170 193 0
167 190 0
171 194 0
169 193 0
167 190 0
165 188 0
169 193 0
166 189 0
169 192 0
165 189 0
168 192 0
169 192 0
171 193 0
166 190 0
166 188 0
171 194 0
167 190 0
165 188 0
168 190 0
161 185 0
167 190 0
168 191 0
166 189 0
160 183 0
166 188 0
169 193 0
168 191 0
160 183 0
169 193 0
167 190 0
164 187 0
159 183 0
165 189 0
166 188 0
164 187 0
166 189 0
165 188 0
161 184 0
160 183 0
168 190 0
164 187 0
165 188 0
162 185 0
160 182 0
162 186 0
160 183 0
162 186 0
167 190 0
160 183 0
160 184 0
164 186 0
163 186 0
168 191 0
168 191 0
164 187 0
162 185 0
162 185 0
162 184 0
159 182 0
161 184 0
161 184 0
164 187 0
161 184 0
165 187 0
160 182 0
167 189 0
157 180 0
159 183 0
160 182 0
164 186 0
162 186 0
164 187 0
159 181 0
159 181 0
162 183 0
164 186 0
164 187 0
163 186 0
158 180 0
164 186 0
161 182 0
161 183 0
159 180 0
163 185 0
164 185 0
161 184 0
155 177 0
164 185 0
164 186 0
159 181 0
165 187 0
166 188 0
158 180 0
159 182 0
162 184 0
164 187 0
165 188 0
154 176 0
162 185 0
159 180 0
161 182 0
162 184 0
161 184 0
159 181 0
158 179 0
157 179 0
158 180 0
155 176 0
166 188 0
162 182 0
163 184 0
160 180 0
164 185 0
161 179 0
159 180 0
163 184 0
158 179 0
163 183 0
152 172 0
165 186 0
154 176 0
160 181 0
162 182 0
162 182 0
160 180 0
159 180 0
161 179 0
160 180 0
161 181 0
166 187 0
166 186 0
166 183 0
161 180 0
164 184 0
161 181 0
164 183 0
164 182 0
162 181 0
166 186 0
165 183 0
162 181 0
165 183 0
161 179 0
164 183 0
164 183 0
169 188 0
164 184 0
168 187 0
169 187 0
162 180 0
165 183 0
164 180 0
165 184 0
160 176 0
161 179 0
166 183 0
165 181 0
165 183 0
165 185 0
165 184 0
166 186 0
165 187 0
167 183 0
163 180 0
166 185 0
164 182 0
165 184 0
162 179 0
165 183 0
166 184 0
169 189 0
168 186 0
171 190 0
167 185 0
164 184 0
169 188 0
168 187 0
166 183 0
166 184 0
168 187 0
166 184 0
169 189 0
168 186 0
168 186 0
165 182 0
170 191 0
169 188 0
170 190 0
170 191 0
171 191 0
168 186 0
167 185 0
168 187 0
172 192 0
170 188 0
168 187 0
168 188 0
168 186 0
167 186 0
167 184 0
170 189 0
171 190 0
172 192 0
172 192 0
168 187 0
170 191 0
170 190 0
170 189 0
171 193 0
169 188 0
171 191 0
169 190 0
170 191 0
172 193 0
168 188 0
171 192 0
171 192 0
171 192 0
173 194 0
173 195 0
171 192 0
171 193 0
172 192 0
171 191 0
172 194 0
172 193 0
172 193 0
172 193 0
172 193 0
171 192 0
173 195 0
170 192 0
173 194 0
173 194 0
173 196 0
171 192 0
172 193 0
173 195 0
172 194 0
174 197 0
169 191 0
173 195 0
171 193 0
173 195 0
172 194 0
172 194 0
172 195 0
175 198 0
172 195 0
173 195 0
172 194 0
173 193 0
172 194 0
173 195 0
173 196 0
173 194 0
174 194 0
172 195 0
174 196 0
173 195 0
172 196 0
173 196 0
171 195 0
173 196 0
174 196 0
174 197 0
173 196 0
172 193 0
175 197 0
173 196 0
174 198 0
171 196 0
172 196 0
174 197 0
172 196 0
172 196 0
173 196 0
174 197 0
174 198 0
172 196 0
174 197 0
174 198 0
173 196 0
172 196 0
173 197 0
174 197 0
173 196 0
171 195 0
172 196 0
175 198 0
171 195 0
174 198 0
174 198 0
174 198 0
174 197 0
172 195 0
172 196 0
172 196 0
173 196 0
175 198 0
173 197 0
174 197 0
172 195 0
174 197 0
172 196 0
172 195 0
172 196 0
172 196 0
172 197 0
174 197 0
173 197 0
172 196 0
174 198 0
173 196 0
170 194 0
173 197 0
172 196 0
172 196 0
174 197 0
174 197 0
172 195 0
175 198 0
171 195 0
172 196 0
172 196 0
171 195 0
172 196 0
171 195 0
174 197 0
174 197 0
172 195 0
171 195 0
174 197 0
173 196 0
170 194 0
174 196 0
172 196 0
171 195 0
172 195 0
171 194 0
171 194 0
172 196 0
175 198 0
174 198 0
172 196 0
173 197 0
171 194 0
170 193 0
172 196 0
173 197 0
171 194 0
174 197 0
171 194 0
170 194 0
172 195 0
174 197 0
174 197 0
171 194 0
173 197 0
173 195 0
171 193 0
168 191 0
170 194 0
169 192 0
171 194 0
169 192 0
170 194 0
170 194 0
173 195 0
169 193 0
169 193 0
174 197 0
170 194 0
172 196 0
168 191 0
171 193 0
170 194 0
168 191 0
168 191 0
169 193 0
172 195 0
169 192 0
171 195 0
172 194 0
167 191 0
171 193 0
168 192 0
169 192 0
168 190 0
167 191 0
172 195 0
169 192 0
164 186 0
165 188 0
168 191 0
168 191 0
170 193 0
168 192 0
167 190 0
168 191 0
171 194 0
168 192 0
166 189 0
167 190 0
166 188 0
166 189 0
169 192 0
165 189 0
167 191 0
167 189 0
169 191 0
165 188 0
164 188 0
168 191 0
168 192 0
161 185 0
161 185 0
164 186 0
168 190 0
169 191 0
169 192 0
165 188 0
162 186 0
171 193 0
169 192 0
168 192 0
160 182 0
160 183 0
165 189 0
167 189 0
164 187 0
167 189 0
165 188 0
165 189 0
165 188 0
167 189 0
156 179 0
169 192 0
163 186 0
162 185 0
164 187 0
164 186 0
167 190 0
166 189 0
161 185 0
157 180 0
162 185 0
167 190 0
160 183 0
165 188 0
164 187 0
165 188 0
167 190 0
166 189 0
159 182 0
161 183 0
165 189 0
164 187 0
161 183 0
158 181 0
162 184 0
163 187 0
160 183 0
163 185 0
163 184 0
164 185 0
165 187 0
159 181 0
162 185 0
158 179 0
163 185 0
162 185 0
163 185 0
163 187 0
161 183 0
157 180 0
163 186 0
165 187 0
160 181 0
154 178 0
163 186 0
160 182 0
155 177 0
158 180 0
159 182 0
161 183 0
163 185 0
161 184 0
161 183 0
158 180 0
160 182 0
158 178 0
160 182 0
164 186 0
157 179 0
162 183 0
160 181 0
156 178 0
158 179 0
158 181 0
161 182 0
165 187 0
165 186 0
160 182 0
158 180 0
166 188 0
163 184 0
160 179 0
166 188 0
161 184 0
161 181 0
157 179 0
164 186 0
164 185 0
160 181 0
162 182 0
161 182 0
160 181 0
162 183 0
160 179 0
168 187 0
164 185 0
165 185 0
156 177 0
161 183 0
159 178 0
160 181 0
165 187 0
163 184 0
162 182 0
163 182 0
169 189 0
166 187 0
164 186 0
164 184 0
164 183 0
157 179 0
155 173 0
164 181 0
155 173 0
167 187 0
162 182 0
164 183 0
162 182 0
166 186 0
165 184 0
163 182 0
168 189 0
161 179 0
161 181 0
163 181 0
165 182 0
162 182 0
169 187 0
163 178 0
163 182 0
166 185 0
164 181 0
165 185 0
167 187 0
165 183 0
163 182 0
167 187 0
167 187 0
167 185 0
162 179 0
163 183 0
168 187 0
169 188 0
171 190 0
168 189 0
165 183 0
166 185 0
167 185 0
170 187 0
169 188 0
168 187 0
165 184 0
164 180 0
164 183 0
167 186 0
167 184 0
171 190 0
168 188 0
164 185 0
169 189 0
169 186 0
166 183 0
170 190 0
169 189 0
170 191 0
170 190 0
169 189 0
168 184 0
165 185 0
169 189 0
170 190 0
171 189 0
170 192 0
167 186 0
171 192 0
171 191 0
169 188 0
172 191 0
171 193 0
169 189 0
173 194 0
170 190 0
170 189 0
169 190 0
168 188 0
171 190 0
171 191 0
171 193 0
170 188 0
170 192 0
171 191 0
173 192 0
170 190 0
169 190 0
172 193 0
170 191 0
171 193 0
172 192 0
172 192 0
174 195 0
171 193 0
170 191 0
171 193 0
172 193 0
173 194 0
174 195 0
171 192 0
171 194 0
173 194 0
172 195 0
171 192 0
170 193 0
171 193 0
173 195 0
173 196 0
172 194 0
175 196 0
172 194 0
175 197 0
172 194 0
174 196 0
174 196 0
174 196 0
173 195 0
173 194 0
172 194 0
172 194 0
171 194 0
172 194 0
174 196 0
173 196 0
175 197 0
172 193 0
174 197 0
173 196 0
173 195 0
174 196 0
172 194 0
173 197 0
173 195 0
173 197 0
173 195 0
173 196 0
171 194 0
174 197 0
174 197 0
174 198 0
174 197 0
174 198 0
172 196 0
172 197 0
174 197 0
175 198 0
172 196 0
173 197 0
175 197 0
174 197 0
174 198 0
174 198 0
173 196 0
172 196 0
174 197 0
174 197 0
173 196 0
174 197 0
174 198 0
173 197 0
173 197 0
173 196 0
171 195 0
173 197 0
173 197 0
171 195 0
172 196 0
172 196 0
172 196 0
172 195 0
173 197 0
173 197 0
174 197 0
169 193 0
171 194 0
175 198 0
172 195 0
174 197 0
173 195 0
172 195 0
174 197 0
175 198 0
173 196 0
173 197 0
173 197 0
173 196 0
173 197 0
173 196 0
172 196 0
171 194 0
171 195 0
170 195 0
173 197 0
170 193 0
175 198 0
173 196 0
173 197 0
170 194 0
174 197 0
171 195 0
171 194 0
171 195 0
172 196 0
172 195 0
173 196 0
174 197 0
172 196 0
170 194 0
171 194 0
173 196 0
173 196 0
173 196 0
172 195 0
174 197 0
172 195 0
170 194 0
172 196 0
171 194 0
174 197 0
172 196 0
169 193 0
174 197 0
174 196 0
171 195 0
173 196 0
171 194 0
169 192 0
171 195 0
172 195 0
165 189 0
169 192 0
170 194 0
171 195 0
171 193 0
171 194 0
170 193 0
171 194 0
165 188 0
168 192 0
170 193 0
170 193 0
167 190 0
169 193 0
170 193 0
168 191 0
168 192 0
171 194 0
172 196 0
168 192 0
173 196 0
168 192 0
167 190 0
172 195 0
170 194 0
168 192 0
169 193 0
170 194 0
164 187 0
163 186 0
169 193 0
170 193 0
167 192 0
169 192 0
165 188 0
167 191 0
166 190 0
168 191 0
166 189 0
167 190 0
171 194 0
167 189 0
168 191 0
164 188 0
166 190 0
161 184 0
167 190 0
168 191 0
161 185 0
166 188 0
169 193 0
165 188 0
165 189 0
167 191 0
167 191 0
168 192 0
163 186 0
164 187 0
165 189 0
159 183 0
162 185 0
168 192 0
166 189 0
164 186 0
166 189 0
160 183 0
160 182 0
166 188 0
163 186 0
165 188 0
166 189 0
165 187 0
164 188 0
158 182 0
165 187 0
164 186 0
155 178 0
165 189 0
163 187 0
160 184 0
166 189 0
170 193 0
158 180 0
163 186 0
157 180 0
160 183 0
162 184 0
157 180 0
161 184 0
162 185 0
167 189 0
161 183 0
160 183 0
161 184 0
159 181 0
163 186 0
167 190 0
160 182 0
157 181 0
160 183 0
163 185 0
158 181 0
166 189 0
153 175 0
160 182 0
157 179 0
161 183 0
160 182 0
164 187 0
161 183 0
161 183 0
168 191 0
159 182 0
160 182 0
159 182 0
159 180 0
164 186 0
160 182 0
164 188 0
164 186 0
156 178 0
165 188 0
157 178 0
159 182 0
159 181 0
160 182 0
162 184 0
158 180 0
160 181 0
166 189 0
163 186 0
162 185 0
162 184 0
159 180 0
161 182 0
160 180 0
164 186 0
157 178 0
162 185 0
157 180 0
160 182 0
161 182 0
165 188 0
160 181 0
164 186 0
163 186 0
162 182 0
166 189 0
167 189 0
160 180 0
162 183 0
162 184 0
159 179 0
164 183 0
166 188 0
163 182 0
160 181 0
160 180 0
157 177 0
163 183 0
164 185 0
162 183 0
163 183 0
165 185 0
157 178 0
164 185 0
162 183 0
166 185 0
164 183 0
160 180 0
161 180 0
164 184 0
162 182 0
166 186 0
167 186 0
168 188 0
157 175 0
166 186 0
164 185 0
166 183 0
168 189 0
162 181 0
166 185 0
165 184 0
164 180 0
164 184 0
168 187 0
167 186 0
166 184 0
166 186 0
161 177 0
167 187 0
162 182 0
165 184 0
165 185 0
164 182 0
168 187 0
169 190 0
164 180 0
163 181 0
170 188 0
165 181 0
164 182 0
166 186 0
168 187 0
165 183 0
167 186 0
167 183 0
169 189 0
167 185 0
168 186 0
167 183 0
166 187 0
167 185 0
164 183 0
169 186 0
169 187 0
169 188 0
165 184 0
166 185 0
167 187 0
169 187 0
166 184 0
164 181 0
167 186 0
170 190 0
167 187 0
170 190 0
169 189 0
169 190 0
168 186 0
168 185 0
170 189 0
168 187 0
167 187 0
166 185 0
170 189 0
170 190 0
170 191 0
172 192 0
171 191 0
171 190 0
171 190 0
171 190 0
171 191 0
169 190 0
171 190 0
170 190 0
171 192 0
170 191 0
171 192 0
171 192 0
169 190 0
170 191 0
171 192 0
170 191 0
172 192 0
171 194 0
171 192 0
169 190 0
170 192 0
172 194 0
170 190 0
172 194 0
170 191 0
172 193 0
172 195 0
171 192 0
173 193 0
172 193 0
171 193 0
171 193 0
171 192 0
172 192 0
171 192 0
172 194 0
172 193 0
171 193 0
173 194 0
174 195 0
171 195 0
173 195 0
171 192 0
174 197 0
173 196 0
173 194 0
174 196 0
174 195 0
173 195 0
173 195 0
171 193 0
173 194 0
172 195 0
173 197 0
174 196 0
172 195 0
171 193 0
172 194 0
171 193 0
170 194 0
173 196 0
172 194 0
172 194 0
173 195 0
174 196 0
173 195 0
173 196 0
174 196 0
173 195 0
171 195 0
172 196 0
175 198 0
172 196 0
173 197 0
173 197 0
173 196 0
173 197 0
174 197 0
174 198 0
174 198 0
172 196 0
173 196 0
172 197 0
174 198 0
173 197 0
172 196 0
173 196 0
174 197 0
174 197 0
176 198 0
171 196 0
176 199 0
174 198 0
174 197 0
174 197 0
171 195 0
174 197 0
172 196 0
174 196 0
172 196 0
174 197 0
174 197 0
175 198 0
172 196 0
174 197 0
173 197 0
173 196 0
172 195 0
171 195 0
174 197 0
171 194 0
173 197 0
175 198 0
172 195 0
173 197 0
172 196 0
170 194 0
174 198 0
172 195 0
172 195 0
174 196 0
171 194 0
173 196 0
174 197 0
171 195 0
170 194 0
169 193 0
174 197 0
169 193 0
174 197 0
173 196 0
174 197 0
172 196 0
174 197 0
174 197 0
171 195 0
172 195 0
174 197 0
174 197 0
169 193 0
170 193 0
173 196 0
172 194 0
173 196 0
172 195 0
171 194 0
172 195 0
171 193 0
171 195 0
171 194 0
170 193 0
172 195 0
170 194 0
170 193 0
171 194 0
172 195 0
171 195 0
171 193 0
172 196 0
171 194 0
173 196 0
171 194 0
164 187 0
168 191 0
171 195 0
171 194 0
170 194 0
166 189 0
166 190 0
173 196 0
170 193 0
169 192 0
168 192 0
166 190 0
171 195 0
167 191 0
171 194 0
171 195 0
169 192 0
168 192 0
169 192 0
171 194 0
171 195 0
169 192 0
171 194 0
169 192 0
170 193 0
168 192 0
166 189 0
163 186 0
163 187 0
165 189 0
170 193 0
169 192 0
165 188 0
163 186 0
170 194 0
163 186 0
168 192 0
167 190 0
166 189 0
169 192 0
169 192 0
169 191 0
165 189 0
171 195 0
163 186 0
167 191 0
168 191 0
165 187 0
164 187 0
166 189 0
167 191 0
161 184 0
163 186 0
161 185 0
165 187 0
165 188 0
160 183 0
164 188 0
169 193 0
165 188 0
166 189 0
166 189 0
167 189 0
163 186 0
163 186 0
164 188 0
167 190 0
164 188 0
167 191 0
164 187 0
166 190 0
160 184 0
164 188 0
167 190 0
165 187 0
164 187 0
165 187 0
163 186 0
167 190 0
167 190 0
166 190 0
165 188 0
171 194 0
165 188 0
164 187 0
161 184 0
165 188 0
163 186 0
161 183 0
164 188 0
160 183 0
164 188 0
168 189 0
159 183 0
164 186 0
166 189 0
164 188 0
161 184 0
168 190 0
164 187 0
164 187 0
160 183 0
161 185 0
161 183 0
160 182 0
158 179 0
159 182 0
163 185 0
161 184 0
155 177 0
164 187 0
165 186 0
159 181 0
163 185 0
160 183 0
163 184 0
163 185 0
164 188 0
165 188 0
164 186 0
156 178 0
161 182 0
161 183 0
160 182 0
162 185 0
163 186 0
165 187 0
160 180 0
165 186 0
156 177 0
165 187 0
165 188 0
156 177 0
157 178 0
162 185 0
161 184 0
163 185 0
162 183 0
161 183 0
161 184 0
164 184 0
162 183 0
167 188 0
160 180 0
162 182 0
163 182 0
160 182 0
159 179 0
167 189 0
157 179 0
157 178 0
167 189 0
156 175 0
159 180 0
160 179 0
159 179 0
162 182 0
162 182 0
167 190 0
166 186 0
163 184 0
165 185 0
165 183 0
163 183 0
164 184 0
160 181 0
162 180 0
162 183 0
165 187 0
162 183 0
160 179 0
162 182 0
158 177 0
163 182 0
162 181 0
158 178 0
165 186 0
163 181 0
169 188 0
165 185 0
167 187 0
161 179 0
165 185 0
164 183 0
157 176 0
164 181 0
165 185 0
162 183 0
164 182 0
165 183 0
166 187 0
166 185 0
166 185 0
164 182 0
168 188 0
168 186 0
162 181 0
167 185 0
167 186 0
169 187 0
168 186 0
165 183 0
169 189 0
161 179 0
168 189 0
164 181 0
165 185 0
167 186 0
169 188 0
164 183 0
168 189 0
166 185 0
163 181 0
167 185 0
168 188 0
169 187 0
165 182 0
167 186 0
166 185 0
170 191 0
171 190 0
163 181 0
172 191 0
171 190 0
172 190 0
169 188 0
169 188 0
171 191 0
170 190 0
170 190 0
169 188 0
169 187 0
171 190 0
170 189 0
167 183 0
170 188 0
169 190 0
170 191 0
170 189 0
170 190 0
172 194 0
169 188 0
169 189 0
170 190 0
171 192 0
171 192 0
172 192 0
170 191 0
169 190 0
169 190 0
170 190 0
171 191 0
172 192 0
172 192 0
171 192 0
171 192 0
172 192 0
170 189 0
169 188 0
172 193 0
169 191 0
171 193 0
171 194 0
172 194 0
173 195 0
171 193 0
171 193 0
171 193 0
169 190 0
173 193 0
169 192 0
172 193 0
172 194 0
171 192 0
172 193 0
173 194 0
173 194 0
172 194 0
171 192 0
173 194 0
174 196 0
171 194 0
171 193 0
173 196 0
174 195 0
174 195 0
176 197 0
173 196 0
173 195 0
174 197 0
171 193 0
174 195 0
172 194 0
172 195 0
172 195 0
172 194 0
175 197 0
173 195 0
174 197 0
175 197 0
173 194 0
174 195 0
174 197 0
175 197 0
174 196 0
173 196 0
172 195 0
173 196 0
172 196 0
174 197 0
174 197 0
173 197 0
173 196 0
173 197 0
174 198 0
173 197 0
176 199 0
173 196 0
173 197 0
174 197 0
174 198 0
173 197 0
174 197 0
173 196 0
173 197 0
172 195 0
171 195 0
174 197 0
173 197 0
172 196 0
174 197 0
171 195 0
173 197 0
173 196 0
172 196 0
174 197 0
172 196 0
171 194 0
172 195 0
170 194 0
175 197 0
172 195 0
172 196 0
174 197 0
175 198 0
172 196 0
175 198 0
174 197 0
175 198 0
172 196 0
175 198 0
174 197 0
172 196 0
176 198 0
172 196 0
173 196 0
173 196 0
171 194 0
171 195 0
170 194 0
171 195 0
173 196 0
173 197 0
175 197 0
171 194 0
170 193 0
172 196 0
171 194 0
173 197 0
171 195 0
173 196 0
171 194 0
174 197 0
172 196 0
171 194 0
174 196 0
172 195 0
170 193 0
172 195 0
175 197 0
174 197 0
172 194 0
172 196 0
168 192 0
168 192 0
169 192 0
170 194 0
172 195 0
173 196 0
172 195 0
169 192 0
173 196 0
169 192 0
172 195 0
170 194 0
171 194 0
169 193 0
172 195 0
171 194 0
170 194 0
173 196 0
169 193 0
172 196 0
172 195 0
171 195 0
173 197 0
168 190 0
168 191 0
169 191 0
171 194 0
172 195 0
168 191 0
172 195 0
170 193 0
170 194 0
167 191 0
168 192 0
163 187 0
171 195 0
167 191 0
167 191 0
167 191 0
169 193 0
162 184 0
164 188 0
169 193 0
170 194 0
166 190 0
164 187 0
166 189 0
161 185 0
168 191 0
166 191 0
170 193 0
162 186 0
168 191 0
169 192 0
169 192 0
167 191 0
165 188 0
169 192 0
166 188 0
162 185 0
167 189 0
170 193 0
166 189 0
166 189 0
171 194 0
164 188 0
165 188 0
164 187 0
166 190 0
163 186 0
165 188 0
166 189 0
165 189 0
165 187 0
164 187 0
164 187 0
163 186 0
165 188 0
162 185 0
167 191 0
165 187 0
169 192 0
169 193 0
163 186 0
159 182 0
164 188 0
163 187 0
164 186 0
163 185 0
161 185 0
165 188 0
169 191 0
165 187 0
162 184 0
159 182 0
162 185 0
161 185 0
160 183 0
155 178 0
159 182 0
166 189 0
162 185 0
164 187 0
161 184 0
166 189 0
166 189 0
166 189 0
164 185 0
163 186 0
161 183 0
162 185 0
157 179 0
161 184 0
165 187 0
160 181 0
162 183 0
164 187 0
166 188 0
165 188 0
162 185 0
163 185 0
157 179 0
161 183 0
161 182 0
165 187 0
160 182 0
165 189 0
160 183 0
160 183 0
161 182 0
162 184 0
165 188 0
168 190 0
159 180 0
163 185 0
165 187 0
158 180 0
161 183 0
162 184 0
164 186 0
166 190 0
161 183 0
158 180 0
163 186 0
165 188 0
162 183 0
160 183 0
159 179 0
158 178 0
161 184 0
165 187 0
162 184 0
163 185 0
167 189 0
163 184 0
165 187 0
160 181 0
163 186 0
160 182 0
163 183 0
162 183 0
162 183 0
162 183 0
162 185 0
153 174 0
167 187 0
167 187 0
161 183 0
158 180 0
163 185 0
161 182 0
163 184 0
163 182 0
164 184 0
159 180 0
164 185 0
166 187 0
161 181 0
167 188 0
165 185 0
164 186 0
160 177 0
160 180 0
160 179 0
156 176 0
166 187 0
166 187 0
169 189 0
164 184 0
162 182 0
165 184 0
165 183 0
158 179 0
164 182 0
158 176 0
163 184 0
159 177 0
166 183 0
164 183 0
163 181 0
163 181 0
168 188 0
164 181 0
166 185 0
165 184 0
162 182 0
166 184 0
164 183 0
164 183 0
164 184 0
165 183 0
165 183 0
166 185 0
168 190 0
164 182 0
169 188 0
164 184 0
165 184 0
165 184 0
167 186 0
169 188 0
165 184 0
165 185 0
166 185 0
166 185 0
167 184 0
167 186 0
167 186 0
162 180 0
170 189 0
166 183 0
169 187 0
171 192 0
167 186 0
169 189 0
165 184 0
170 189 0
169 187 0
164 180 0
167 184 0
166 184 0
169 189 0
170 191 0
168 189 0
168 189 0
169 188 0
168 188 0
170 188 0
166 186 0
169 189 0
169 187 0
166 185 0
167 187 0
171 192 0
169 187 0
169 190 0
171 190 0
170 191 0
170 190 0
168 187 0
172 192 0
170 190 0
170 190 0
167 185 0
170 188 0
168 187 0
170 189 0
170 189 0
170 191 0
173 194 0
171 191 0
169 190 0
173 194 0
170 189 0
170 190 0
170 191 0
171 190 0
170 191 0
171 193 0
169 191 0
172 192 0
173 194 0
171 193 0
170 191 0
169 190 0
171 192 0
171 192 0
172 193 0
171 193 0
172 194 0
170 191 0
173 195 0
174 197 0
172 193 0
173 195 0
172 195 0
172 194 0
172 194 0
173 195 0
171 193 0
171 192 0
173 194 0
173 194 0
173 196 0
172 194 0
174 196 0
173 195 0
172 194 0
174 196 0
173 195 0
172 194 0
172 196 0
173 196 0
172 193 0
171 193 0
175 198 0
174 196 0
173 195 0
174 197 0
174 196 0
173 195 0
174 195 0
174 196 0
174 198 0
173 196 0
173 196 0
172 196 0
176 198 0
173 196 0
174 197 0
175 198 0
176 198 0
176 199 0
175 198 0
170 195 0
174 198 0
174 197 0
176 198 0
171 195 0
174 197 0
175 198 0
172 196 0
175 198 0
174 197 0
173 196 0
174 197 0
172 196 0
174 197 0
174 198 0
174 197 0
175 198 0
172 196 0
172 196 0
173 196 0
174 197 0
172 195 0
171 195 0
172 196 0
177 199 0
175 198 0
174 197 0
172 195 0
174 198 0
174 197 0
172 196 0
174 197 0
171 194 0
171 195 0
173 197 0
174 197 0
173 196 0
172 196 0
173 197 0
174 197 0
174 196 0
173 197 0
171 195 0
170 193 0
172 196 0
171 195 0
171 194 0
171 194 0
171 195 0
173 195 0
171 194 0
173 196 0
172 195 0
173 197 0
171 195 0
170 194 0
173 197 0
171 195 0
172 195 0
174 197 0
171 195 0
172 195 0
170 192 0
170 193 0
173 195 0
171 195 0
170 194 0
171 195 0
174 197 0
169 193 0
172 195 0
173 196 0
170 194 0
170 194 0
171 194 0
171 194 0
169 192 0
172 196 0
169 192 0
168 191 0
170 194 0
170 193 0
171 194 0
170 193 0
170 194 0
169 192 0
171 194 0
172 196 0
167 190 0
165 188 0
168 192 0
169 193 0
167 191 0
171 194 0
169 193 0
169 193 0
170 193 0
169 192 0
168 192 0
167 190 0
171 193 0
168 190 0
167 191 0
170 193 0
167 190 0
170 193 0
165 188 0
165 189 0
168 191 0
167 191 0
166 190 0
168 190 0
166 189 0
166 189 0
168 191 0
167 190 0
166 189 0
165 188 0
170 193 0
166 190 0
169 192 0
168 192 0
172 195 0
168 191 0
166 189 0
162 186 0
166 190 0
166 189 0
165 188 0
166 189 0
164 188 0
165 188 0
169 192 0
164 188 0
168 192 0
169 191 0
167 190 0
165 189 0
163 186 0
165 188 0
166 190 0
168 190 0
166 189 0
161 185 0
163 185 0
166 189 0
168 190 0
161 184 0
166 189 0
162 186 0
167 190 0
165 189 0
165 188 0
166 189 0
164 187 0
162 185 0
165 188 0
165 188 0
161 183 0
164 186 0
165 188 0
164 187 0
164 187 0
164 188 0
157 180 0
164 187 0
165 188 0
164 187 0
163 186 0
165 188 0
164 187 0
165 188 0
160 183 0
161 185 0
162 185 0
167 190 0
162 185 0
165 187 0
157 179 0
167 191 0
164 186 0
165 187 0
162 185 0
160 182 0
166 188 0
165 187 0
165 188 0
164 186 0
158 180 0
163 185 0
160 183 0
164 186 0
166 189 0
164 186 0
163 187 0
166 189 0
161 184 0
162 184 0
166 188 0
163 184 0
157 179 0
156 179 0
162 185 0
166 188 0
163 187 0
161 184 0
162 184 0
167 190 0
164 186 0
166 189 0
161 183 0
164 186 0
160 183 0
163 185 0
164 186 0
161 183 0
164 184 0
158 179 0
160 181 0
164 185 0
159 181 0
161 183 0
160 182 0
155 177 0
166 188 0
162 184 0
164 188 0
158 179 0
160 182 0
161 183 0
159 180 0
164 184 0
164 185 0
161 181 0
160 181 0
164 185 0
163 184 0
157 178 0
166 187 0
166 187 0
164 185 0
157 179 0
162 183 0
165 185 0
163 182 0
166 187 0
167 189 0
161 183 0
163 183 0
161 183 0
164 185 0
163 185 0
161 182 0
164 182 0
163 183 0
164 185 0
162 181 0
160 180 0
163 182 0
169 190 0
160 178 0
162 183 0
166 187 0
165 185 0
162 180 0
165 185 0
160 179 0
162 183 0
162 181 0
166 184 0
165 186 0
167 186 0
166 185 0
167 187 0
166 185 0
163 182 0
170 190 0
166 186 0
161 180 0
160 179 0
170 190 0
167 186 0
166 186 0
165 183 0
163 181 0
168 187 0
166 186 0
165 183 0
167 186 0
167 184 0
168 188 0
169 188 0
164 183 0
168 187 0
172 191 0
167 186 0
166 182 0
166 184 0
165 182 0
165 183 0
171 191 0
167 187 0
169 189 0
165 184 0
169 188 0
168 188 0
168 189 0
167 186 0
170 189 0
170 188 0
165 184 0
169 188 0
171 192 0
169 188 0
169 188 0
167 187 0
168 186 0
170 190 0
167 187 0
169 189 0
170 190 0
170 189 0
170 189 0
170 188 0
167 187 0
171 190 0
170 190 0
170 190 0
169 189 0
172 191 0
172 192 0
170 191 0
170 190 0
171 192 0
171 192 0
171 191 0
169 189 0
170 190 0
171 192 0
171 191 0
172 192 0
172 193 0
172 193 0
174 194 0
172 193 0
173 194 0
172 191 0
172 194 0
173 194 0
171 192 0
171 193 0
171 193 0
172 192 0
170 192 0
170 192 0
172 191 0
172 194 0
172 193 0
173 194 0
170 191 0
172 194 0
172 194 0
174 196 0
174 196 0
172 194 0
172 192 0
171 193 0
173 196 0
172 192 0
173 195 0
171 192 0
170 192 0
172 195 0
175 197 0
174 195 0
171 193 0
172 194 0
173 195 0
173 193 0
173 195 0
173 195 0
172 194 0
172 193 0
173 196 0
174 196 0
171 193 0
172 194 0
174 195 0
173 194 0
173 195 0
174 197 0
176 198 0
172 196 0
173 197 0
174 197 0
173 196 0
171 195 0
175 198 0
174 197 0
171 195 0
174 197 0
174 198 0
173 196 0
173 197 0
174 197 0
173 196 0
172 196 0
172 196 0
173 197 0
173 195 0
173 197 0
173 196 0
174 197 0
171 195 0
169 193 0
174 197 0
172 196 0
171 195 0
173 197 0
172 195 0
169 193 0
174 198 0
173 197 0
172 195 0
174 197 0
173 197 0
172 196 0
174 197 0
171 195 0
171 195 0
171 195 0
173 196 0
172 196 0
173 197 0
173 197 0
172 195 0
174 198 0
173 196 0
170 193 0
172 196 0
170 194 0
173 196 0
173 197 0
171 195 0
169 193 0
171 194 0
170 194 0
174 197 0
168 192 0
175 198 0
172 196 0
171 195 0
175 198 0
172 195 0
170 193 0
174 196 0
169 193 0
172 196 0
170 194 0
172 196 0
173 196 0
174 197 0
172 195 0
170 195 0
171 194 0
171 194 0
173 195 0
174 197 0
173 197 0
174 196 0
169 193 0
171 194 0
169 192 0
171 195 0
171 195 0
171 194 0
172 194 0
171 194 0
170 194 0
167 191 0
171 194 0
172 196 0
169 192 0
169 193 0
165 189 0
170 194 0
169 192 0
169 193 0
170 193 0
169 193 0
171 193 0
169 193 0
168 191 0
172 195 0
167 190 0
172 195 0
172 196 0
165 188 0
169 192 0
166 190 0
168 192 0
169 193 0
170 192 0
168 192 0
170 193 0
169 192 0
167 190 0
165 188 0
170 193 0
167 190 0
166 190 0
169 193 0
169 192 0
171 194 0
169 191 0
167 190 0
170 193 0
165 188 0
165 189 0
169 192 0
167 191 0
166 189 0
162 185 0
167 190 0
169 192 0
165 187 0
165 188 0
166 190 0
162 185 0
167 191 0
166 190 0
167 190 0
167 190 0
160 184 0
169 192 0
167 190 0
168 191 0
165 188 0
166 190 0
160 182 0
160 184 0
166 190 0
166 190 0
167 189 0
165 189 0
167 190 0
166 189 0
164 185 0
168 192 0
165 187 0
166 188 0
166 190 0
164 187 0
163 185 0
163 185 0
161 185 0
164 187 0
163 187 0
165 188 0
160 182 0
163 184 0
159 182 0
163 187 0
164 187 0
166 189 0
166 189 0
162 185 0
159 183 0
164 186 0
159 181 0
169 190 0
163 185 0
162 184 0
161 184 0
164 188 0
164 186 0
164 187 0
164 185 0
164 187 0
164 188 0
163 185 0
164 186 0
166 190 0
162 184 0
162 186 0
165 188 0
163 185 0
168 191 0
163 186 0
159 181 0
160 182 0
167 190 0
163 188 0
159 181 0
165 188 0
162 185 0
163 185 0
162 184 0
160 182 0
157 179 0
162 184 0
163 185 0
163 185 0
158 181 0
162 184 0
165 186 0
162 185 0
162 183 0
167 188 0
162 184 0
160 182 0
158 181 0
163 185 0
157 180 0
162 184 0
158 181 0
166 188 0
163 183 0
162 185 0
161 181 0
161 181 0
167 187 0
164 186 0
157 178 0
161 182 0
160 182 0
165 186 0
163 185 0
162 183 0
163 184 0
158 180 0
164 186 0
162 184 0
160 180 0
165 185 0
166 188 0
165 187 0
165 184 0
160 181 0
162 182 0
160 178 0
168 189 0
164 183 0
159 179 0
164 184 0
163 185 0
163 182 0
163 182 0
167 188 0
165 185 0
161 181 0
163 184 0
159 179 0
167 188 0
164 182 0
164 184 0
162 181 0
165 186 0
162 181 0
168 190 0
164 184 0
165 185 0
167 186 0
167 188 0
165 185 0
163 180 0
160 178 0
162 183 0
160 179 0
164 184 0
168 189 0
168 187 0
167 188 0
165 185 0
161 181 0
161 182 0
166 186 0
165 184 0
166 186 0
168 186 0
166 187 0
165 183 0
164 184 0
170 190 0
159 176 0
166 184 0
167 186 0
166 184 0
168 187 0
167 185 0
168 188 0
162 180 0
167 184 0
164 183 0
166 186 0
164 182 0
162 179 0
167 185 0
166 184 0
169 190 0
166 185 0
164 182 0
168 186 0
167 186 0
167 184 0
168 185 0
168 186 0
168 186 0
170 189 0
168 186 0
168 188 0
171 191 0
171 191 0
168 188 0
169 189 0
169 186 0
168 186 0
166 185 0
170 190 0
171 190 0
169 191 0
169 187 0
170 189 0
170 189 0
169 188 0
172 192 0
171 190 0
170 190 0
170 190 0
165 184 0
167 188 0
171 190 0
171 193 0
170 189 0
172 193 0
171 191 0
171 191 0
173 195 0
171 192 0
170 190 0
170 191 0
171 190 0
172 194 0
171 193 0
172 193 0
171 191 0
171 192 0
173 191 0
170 191 0
174 194 0
171 192 0
171 192 0
171 192 0
172 194 0
171 192 0
173 194 0
172 193 0
172 193 0
171 193 0
169 189 0
171 193 0
173 194 0
173 195 0
170 191 0
174 197 0
169 190 0
175 196 0
173 196 0
173 195 0
173 195 0
173 196 0
174 196 0
173 194 0
172 194 0
171 193 0
173 195 0
172 194 0
173 195 0
172 194 0
171 193 0
173 194 0
173 194 0
174 196 0
172 194 0
173 195 0
173 195 0
174 197 0
172 195 0
174 196 0
173 195 0
175 198 0
174 197 0
172 196 0
172 196 0
174 197 0
173 196 0
175 198 0
172 196 0
174 197 0
174 197 0
171 195 0
173 196 0
173 196 0
173 196 0
173 197 0
174 197 0
172 196 0
170 195 0
172 196 0
172 196 0
173 197 0
175 198 0
173 196 0
171 195 0
171 194 0
174 197 0
172 196 0
173 197 0
175 198 0
174 198 0
173 197 0
173 196 0
173 196 0
172 194 0
170 194 0
171 195 0
173 196 0
171 195 0
171 194 0
172 195 0
174 197 0
172 196 0
171 194 0
170 193 0
173 195 0
172 195 0
173 197 0
172 196 0
173 197 0
171 195 0
172 195 0
172 195 0
172 196 0
172 196 0
172 196 0
170 195 0
170 194 0
171 195 0
172 195 0
173 196 0
171 194 0
171 194 0
172 195 0
170 193 0
170 194 0
170 194 0
166 191 0
168 191 0
172 195 0
172 196 0
169 193 0
172 196 0
169 193 0
169 192 0
172 195 0
175 198 0
171 194 0
172 195 0
172 195 0
171 194 0
167 191 0
170 193 0
166 189 0
173 196 0
171 194 0
169 192 0
171 194 0
172 195 0
170 194 0
171 194 0
166 190 0
170 192 0
169 192 0
170 194 0
168 191 0
167 190 0
171 194 0
168 192 0
167 191 0
169 193 0
169 193 0
171 194 0
168 190 0
171 194 0
168 191 0
168 192 0
167 191 0
167 191 0
174 196 0
167 190 0
168 191 0
168 191 0
168 192 0
166 190 0
171 194 0
168 191 0
169 191 0
169 192 0
167 190 0
166 190 0
170 193 0
169 192 0
165 188 0
169 192 0
164 188 0
165 188 0
168 191 0
166 189 0
168 191 0
167 191 0
163 186 0
166 190 0
167 190 0
167 189 0
171 194 0
166 189 0
172 195 0
170 193 0
168 191 0
166 190 0
170 194 0
168 192 0
169 192 0
166 190 0
164 188 0
165 188 0
159 182 0
168 192 0
163 186 0
167 190 0
162 186 0
167 190 0
165 189 0
170 192 0
164 188 0
166 188 0
163 186 0
160 183 0
165 188 0
160 183 0
161 185 0
157 181 0
161 184 0
166 189 0
167 190 0
166 189 0
165 187 0
160 184 0
165 189 0
165 188 0
161 184 0
165 188 0
166 189 0
166 189 0
164 187 0
163 186 0
169 193 0
164 186 0
164 186 0
161 185 0
160 182 0
162 186 0
157 180 0
164 186 0
166 189 0
162 185 0
158 180 0
161 184 0
164 187 0
165 187 0
157 179 0
165 187 0
160 182 0
157 180 0
164 186 0
164 187 0
161 182 0
166 189 0
166 189 0
161 184 0
163 187 0
159 181 0
163 186 0
163 186 0
167 188 0
159 181 0
164 187 0
161 184 0
163 186 0
162 184 0
162 184 0
164 188 0
169 192 0
165 188 0
157 178 0
157 178 0
165 188 0
161 184 0
159 180 0
158 180 0
156 177 0
160 182 0
161 182 0
159 180 0
163 185 0
165 186 0
159 181 0
162 184 0
161 182 0
162 185 0
166 189 0
163 184 0
164 185 0
157 178 0
163 184 0
162 184 0
163 183 0
163 184 0
159 182 0
164 185 0
162 183 0
165 185 0
161 182 0
166 187 0
167 190 0
160 181 0
157 177 0
165 187 0
168 190 0
165 186 0
162 183 0
163 184 0
169 190 0
157 177 0
160 182 0
161 183 0
163 186 0
162 182 0
162 182 0
160 179 0
164 185 0
162 181 0
166 186 0
165 185 0
166 187 0
163 183 0
162 183 0
161 181 0
163 184 0
161 180 0
168 188 0
163 181 0
161 178 0
163 183 0
164 183 0
164 184 0
165 186 0
166 185 0
161 179 0
162 182 0
167 185 0
158 178 0
165 184 0
165 185 0
165 184 0
164 183 0
165 185 0
164 185 0
162 182 0
170 190 0
160 177 0
162 181 0
167 185 0
167 186 0
166 184 0
164 183 0
166 187 0
167 186 0
167 186 0
169 187 0
168 189 0
166 185 0
167 185 0
166 185 0
161 180 0
167 188 0
167 186 0
166 186 0
168 187 0
164 183 0
164 181 0
161 180 0
166 185 0
168 188 0
166 187 0
170 189 0
170 191 0
165 185 0
169 189 0
170 189 0
168 189 0
166 185 0
170 189 0
168 188 0
168 187 0
169 189 0
168 186 0
168 189 0
166 186 0
172 190 0
171 190 0
171 192 0
168 188 0
170 190 0
168 190 0
169 189 0
171 192 0
170 191 0
171 191 0
169 190 0
171 189 0
168 188 0
169 189 0
171 190 0
171 191 0
172 192 0
171 192 0
169 187 0
171 190 0
171 191 0
174 194 0
169 189 0
170 189 0
170 192 0
170 192 0
172 192 0
172 193 0
170 191 0
169 189 0
173 194 0
172 194 0
171 192 0
170 192 0
171 192 0
169 190 0
171 194 0
171 192 0
169 189 0
173 194 0
172 192 0
171 192 0
172 192 0
173 193 0
171 192 0
172 192 0
174 196 0
173 194 0
172 193 0
171 193 0
172 193 0
172 195 0
173 193 0
171 193 0
172 194 0
174 196 0
172 195 0
173 196 0
171 193 0
172 193 0
172 194 0
172 195 0
173 196 0
174 195 0
173 195 0
173 196 0
173 194 0
173 196 0
173 196 0
173 196 0
173 195 0
171 196 0
173 196 0
173 196 0
173 196 0
174 197 0
173 196 0
172 196 0
174 197 0
173 196 0
172 195 0
172 196 0
171 195 0
173 196 0
172 196 0
172 196 0
171 195 0
175 198 0
174 197 0
174 197 0
173 197 0
174 197 0
172 196 0
173 196 0
175 198 0
171 194 0
174 197 0
174 197 0
171 195 0
172 195 0
172 196 0
172 196 0
174 197 0
173 196 0
172 196 0
173 196 0
173 197 0
172 196 0
172 195 0
172 196 0
171 195 0
173 197 0
175 198 0
170 194 0
173 197 0
171 194 0
174 197 0
174 197 0
173 196 0
173 196 0
173 195 0
172 196 0
173 196 0
172 196 0
173 196 0
175 198 0
171 195 0
170 194 0
171 193 0
171 195 0
172 195 0
172 196 0
174 197 0
171 195 0
171 194 0
172 196 0
174 196 0
171 193 0
174 196 0
171 193 0
172 195 0
172 196 0
174 197 0
172 195 0
175 198 0
170 193 0
171 194 0
169 192 0
169 193 0
173 196 0
171 194 0
171 194 0
171 194 0
172 195 0
171 194 0
168 190 0
172 196 0
173 196 0
169 193 0
171 194 0
173 196 0
168 192 0
167 191 0
170 194 0
170 194 0
169 193 0
172 195 0
173 197 0
169 193 0
170 193 0
170 193 0
173 196 0
170 193 0
168 191 0
172 195 0
170 193 0
173 196 0
168 191 0
167 190 0
169 193 0
172 195 0
170 193 0
168 191 0
167 191 0
168 191 0
169 192 0
170 192 0
164 188 0
165 188 0
166 190 0
169 192 0
168 191 0
169 191 0
164 186 0
168 191 0
164 188 0
167 191 0
165 189 0
168 191 0
168 191 0
164 187 0
163 186 0
167 190 0
167 189 0
168 192 0
167 190 0
165 187 0
164 186 0
165 188 0
169 193 0
164 187 0
164 186 0
168 192 0
166 190 0
161 184 0
166 189 0
163 185 0
161 185 0
164 186 0
166 190 0
166 189 0
164 188 0
160 183 0
169 192 0
169 192 0
165 189 0
169 192 0
164 188 0
163 186 0
166 190 0
168 190 0
164 187 0
166 188 0
166 189 0
167 189 0
167 190 0
163 186 0
165 188 0
167 191 0
160 183 0
163 186 0
163 186 0
161 184 0
164 187 0
161 184 0
167 190 0
163 185 0
164 187 0
168 190 0
165 188 0
161 183 0
167 191 0
164 187 0
168 192 0
163 186 0
165 189 0
167 190 0
166 189 0
164 186 0
166 190 0
157 179 0
161 184 0
160 183 0
161 183 0
164 188 0
161 183 0
163 186 0
165 188 0
166 189 0
161 184 0
162 185 0
165 187 0
164 186 0
162 185 0
160 184 0
165 188 0
162 185 0
164 187 0
160 183 0
167 188 0
162 185 0
160 182 0
162 185 0
160 183 0
165 188 0
164 186 0
157 179 0
164 185 0
164 187 0
165 187 0
164 186 0
163 186 0
163 186 0
161 183 0
162 183 0
166 189 0
161 184 0
160 182 0
164 187 0
166 187 0
162 185 0
166 187 0
164 186 0
159 181 0
162 183 0
163 184 0
162 184 0
160 182 0
162 182 0
157 178 0
158 181 0
165 189 0
166 188 0
162 184 0
155 176 0
158 177 0
161 183 0
160 181 0
164 186 0
161 182 0
162 183 0
165 186 0
164 184 0
161 181 0
166 189 0
163 184 0
163 185 0
162 183 0
163 184 0
165 187 0
169 191 0
167 187 0
166 186 0
163 183 0
162 183 0
166 185 0
163 184 0
165 187 0
166 187 0
162 183 0
164 184 0
165 186 0
168 190 0
163 184 0
165 186 0
161 179 0
166 186 0
165 185 0
163 183 0
160 181 0
162 182 0
162 183 0
165 184 0
167 186 0
163 182 0
163 181 0
162 182 0
163 184 0
161 178 0
168 188 0
167 186 0
162 182 0
166 183 0
168 187 0
169 188 0
167 186 0
168 188 0
167 185 0
168 186 0
166 182 0
167 185 0
164 182 0
163 182 0
165 186 0
165 185 0
170 188 0
170 187 0
169 190 0
168 187 0
171 189 0
166 184 0
169 189 0
169 188 0
166 184 0
166 183 0
163 182 0
168 186 0
166 185 0
169 187 0
167 187 0
168 186 0
168 185 0
172 189 0
165 185 0
170 191 0
162 182 0
169 187 0
168 187 0
170 189 0
172 193 0
167 187 0
171 192 0
172 193 0
170 189 0
170 189 0
167 186 0
170 191 0
170 190 0
171 190 0
168 186 0
169 189 0
171 190 0
171 191 0
170 191 0
169 191 0
172 193 0
168 188 0
170 189 0
172 193 0
168 188 0
172 191 0
171 192 0
171 191 0
171 189 0
172 190 0
169 191 0
172 193 0
172 193 0
171 192 0
171 192 0
172 194 0
169 191 0
171 192 0
171 194 0
171 191 0
170 192 0
172 194 0
172 194 0
173 195 0
171 191 0
172 193 0
172 194 0
171 192 0
171 194 0
172 193 0
173 195 0
173 196 0
173 195 0
172 194 0
172 194 0
172 194 0
171 191 0
171 193 0
173 195 0
172 193 0
171 194 0
174 195 0
171 192 0
170 191 0
171 193 0
172 193 0
173 195 0
171 194 0
172 194 0
172 194 0
171 194 0
171 195 0
172 194 0
171 194 0
172 195 0
174 197 0
173 196 0
174 198 0
171 196 0
172 196 0
171 195 0
174 197 0
172 195 0
173 197 0
174 197 0
173 196 0
175 198 0
170 194 0
175 198 0
171 195 0
175 198 0
174 198 0
171 195 0
175 198 0
171 195 0
170 194 0
173 197 0
176 199 0
172 196 0
173 197 0
173 196 0
174 196 0
175 198 0
171 194 0
173 196 0
171 195 0
173 196 0
173 196 0
173 197 0
173 197 0
173 196 0
171 195 0
172 195 0
172 196 0
171 195 0
174 197 0
171 195 0
174 196 0
173 195 0
170 193 0
173 196 0
174 197 0
173 196 0
173 196 0
173 196 0
170 194 0
172 196 0
173 196 0
174 196 0
171 195 0
171 194 0
172 194 0
171 195 0
173 197 0
172 196 0
170 194 0
171 194 0
169 192 0
171 195 0
172 195 0
174 197 0
172 195 0
171 194 0
172 196 0
171 194 0
169 192 0
175 197 0
172 194 0
173 196 0
171 194 0
172 195 0
170 194 0
170 194 0
172 195 0
172 195 0
168 192 0
167 191 0
169 192 0
169 192 0
171 194 0
172 195 0
170 193 0
171 194 0
170 192 0
172 195 0
169 192 0
170 194 0
169 193 0
167 190 0
170 194 0
168 191 0
168 191 0
171 194 0
170 192 0
172 196 0
166 190 0
169 193 0
170 193 0
168 192 0
171 194 0
172 195 0
165 188 0
168 192 0
166 190 0
170 193 0
166 190 0
167 191 0
171 195 0
168 191 0
166 189 0
166 190 0
165 187 0
164 188 0
166 189 0
169 192 0
163 187 0
169 193 0
171 194 0
164 187 0
166 189 0
170 193 0
168 191 0
166 189 0
167 190 0
168 193 0
167 189 0
169 192 0
168 191 0
168 192 0
169 192 0
167 190 0
164 188 0
163 186 0
168 191 0
167 191 0
169 193 0
167 192 0
171 194 0
167 189 0
165 189 0
167 190 0
168 192 0
164 188 0
172 196 0
166 189 0
171 194 0
169 192 0
168 191 0
163 186 0
169 192 0
163 186 0
163 186 0
165 189 0
166 189 0
164 187 0
165 189 0
167 190 0
165 188 0
164 187 0
165 188 0
163 186 0
162 185 0
160 184 0
163 186 0
157 179 0
164 187 0
163 185 0
162 185 0
172 194 0
160 184 0
161 184 0
164 187 0
167 190 0
155 177 0
164 187 0
168 191 0
162 183 0
160 182 0
169 192 0
160 182 0
160 182 0
163 186 0
160 182 0
168 190 0
157 179 0
163 185 0
164 187 0
162 186 0
162 184 0
162 184 0
166 188 0
161 185 0
163 185 0
164 187 0
164 187 0
164 187 0
159 182 0
169 192 0
160 183 0
165 187 0
163 186 0
161 184 0
167 190 0
159 181 0
162 186 0
165 187 0
163 186 0
154 175 0
163 187 0
164 187 0
161 183 0
158 179 0
160 183 0
170 190 0
163 184 0
163 185 0
164 187 0
165 187 0
168 189 0
168 191 0
165 188 0
161 184 0
160 182 0
161 184 0
164 186 0
160 183 0
163 186 0
156 178 0
162 184 0
163 186 0
159 180 0
163 185 0
161 183 0
166 186 0
164 186 0
166 188 0
164 185 0
157 179 0
163 184 0
162 183 0
161 180 0
162 182 0
163 186 0
163 184 0
162 184 0
164 185 0
162 183 0
167 187 0
163 184 0
165 184 0
161 182 0
165 186 0
159 181 0
163 183 0
163 182 0
162 185 0
166 188 0
159 180 0
164 184 0
160 179 0
160 180 0
163 183 0
163 183 0
163 184 0
161 182 0
164 184 0
167 189 0
162 183 0
162 184 0
165 185 0
161 182 0
163 182 0
161 180 0
167 188 0
163 182 0
164 183 0
164 185 0
167 187 0
164 183 0
160 179 0
166 186 0
159 177 0
161 180 0
164 184 0
168 189 0
162 183 0
167 186 0
168 187 0
164 182 0
163 182 0
162 181 0
165 185 0
163 182 0
165 184 0
171 191 0
171 188 0
164 183 0
165 185 0
163 181 0
165 184 0
167 187 0
169 187 0
168 186 0
166 184 0
165 184 0
168 188 0
166 186 0
166 186 0
168 187 0
165 185 0
171 191 0
170 188 0
167 185 0
168 187 0
169 190 0
165 182 0
164 182 0
165 186 0
169 189 0
169 189 0
169 190 0
168 187 0
169 188 0
166 185 0
169 187 0
166 183 0
169 191 0
169 187 0
170 190 0
172 191 0
172 190 0
171 189 0
169 189 0
171 192 0
171 192 0
168 188 0
169 189 0
171 190 0
171 191 0
170 191 0
170 189 0
170 189 0
170 189 0
163 185 0
169 190 0
169 191 0
169 187 0
168 189 0
171 191 0
171 192 0
169 189 0
170 191 0
170 191 0
170 190 0
173 192 0
169 189 0
171 191 0
172 193 0
170 191 0
172 193 0
169 189 0
170 193 0
171 194 0
171 190 0
171 194 0
171 192 0
172 193 0
171 191 0
169 191 0
171 193 0
171 192 0
170 193 0
171 192 0
169 190 0
173 195 0
172 194 0
172 193 0
171 191 0
171 192 0
172 192 0
172 194 0
173 194 0
171 192 0
172 194 0
173 197 0
173 196 0
171 193 0
172 195 0
172 195 0
171 192 0
171 193 0
173 196 0
171 193 0
173 196 0
172 195 0
173 196 0
173 196 0
175 198 0
173 196 0
175 198 0
175 198 0
174 197 0
175 198 0
174 198 0
173 196 0
174 197 0
174 197 0
171 195 0
174 198 0
173 197 0
172 196 0
172 196 0
172 196 0
172 196 0
172 195 0
171 195 0
174 198 0
172 196 0
174 197 0
174 197 0
169 193 0
174 197 0
170 194 0
175 198 0
174 197 0
174 197 0
173 197 0
171 196 0
172 196 0
173 196 0
173 196 0
172 196 0
173 197 0
172 195 0
170 194 0
172 196 0
171 195 0
171 194 0
171 194 0
169 193 0
175 197 0
169 193 0
171 194 0
173 196 0
172 195 0
173 196 0
172 195 0
170 193 0
171 195 0
173 196 0
172 196 0
173 196 0
171 196 0
172 196 0
172 196 0
172 195 0
171 194 0
172 195 0
172 196 0
171 194 0
171 195 0
173 196 0
169 193 0
169 193 0
173 197 0
170 194 0
169 193 0
173 196 0
171 194 0
169 193 0
170 194 0
169 192 0
170 193 0
168 192 0
171 194 0
174 197 0
170 193 0
175 198 0
169 192 0
167 190 0
168 192 0
170 193 0
170 194 0
167 192 0
169 192 0
167 190 0
167 191 0
170 193 0
168 191 0
164 188 0
169 192 0
167 190 0
172 194 0
170 193 0
172 195 0
168 191 0
170 194 0
169 193 0
171 194 0
170 194 0
170 193 0
170 194 0
168 191 0
169 191 0
168 191 0
164 188 0
166 190 0
167 191 0
164 187 0
166 189 0
169 193 0
168 192 0
167 190 0
169 192 0
167 191 0
167 190 0
161 184 0
167 190 0
171 195 0
162 187 0
166 189 0
167 189 0
167 191 0
167 190 0
166 190 0
169 192 0
168 192 0
164 187 0
160 184 0
167 191 0
165 189 0
162 186 0
167 190 0
166 190 0
167 191 0
168 191 0
161 185 0
169 192 0
165 188 0
163 186 0
166 191 0
166 189 0
169 192 0
163 187 0
169 192 0
165 188 0
167 191 0
164 188 0
166 190 0
165 187 0
166 188 0
164 186 0
164 186 0
167 190 0
163 187 0
165 188 0
164 186 0
168 192 0
164 188 0
165 189 0
162 185 0
164 188 0
165 187 0
158 181 0
164 186 0
161 183 0
162 185 0
165 188 0
166 189 0
168 190 0
162 185 0
163 185 0
162 185 0
164 187 0
163 186 0
163 185 0
165 188 0
162 185 0
163 184 0
164 187 0
161 184 0
168 191 0
162 184 0
162 184 0
165 189 0
166 188 0
161 184 0
162 184 0
164 187 0
159 182 0
166 188 0
163 185 0
163 186 0
157 179 0
157 179 0
169 192 0
165 187 0
163 185 0
162 185 0
163 185 0
164 186 0
162 184 0
160 183 0
163 185 0
164 188 0
166 188 0
163 184 0
157 180 0
163 186 0
160 182 0
161 183 0
155 178 0
167 188 0
162 185 0
163 185 0
166 189 0
169 191 0
161 183 0
162 184 0
158 181 0
165 187 0
160 181 0
159 181 0
164 186 0
160 183 0
167 188 0
162 184 0
159 181 0
163 184 0
162 184 0
166 188 0
163 185 0
164 185 0
164 187 0
161 184 0
164 185 0
161 182 0
166 186 0
165 186 0
168 190 0
165 187 0
164 186 0
165 187 0
162 183 0
164 186 0
157 177 0
168 187 0
165 188 0
165 186 0
165 187 0
163 183 0
160 180 0
158 178 0
157 179 0
162 183 0
161 183 0
163 185 0
162 182 0
165 184 0
164 186 0
162 183 0
164 185 0
161 181 0
166 187 0
168 187 0
171 192 0
163 184 0
164 184 0
164 185 0
162 183 0
166 186 0
160 180 0
160 181 0
164 183 0
165 184 0
164 186 0
160 180 0
165 186 0
167 187 0
164 184 0
165 186 0
168 187 0
166 187 0
167 188 0
166 183 0
160 179 0
164 184 0
168 188 0
165 187 0
164 182 0
167 186 0
169 190 0
169 188 0
167 187 0
166 186 0
165 185 0
163 184 0
167 186 0
167 186 0
167 187 0
165 186 0
164 181 0
168 186 0
170 190 0
169 188 0
170 190 0
170 190 0
167 187 0
168 186 0
169 190 0
171 192 0
169 191 0
169 190 0
165 184 0
169 190 0
169 189 0
167 185 0
167 185 0
168 187 0
170 190 0
167 184 0
169 187 0
166 183 0
167 186 0
167 186 0
166 186 0
170 190 0
171 189 0
166 185 0
168 187 0
169 188 0
169 189 0
168 186 0
169 188 0
165 182 0
169 188 0
169 189 0
170 189 0
171 191 0
172 191 0
171 191 0
170 189 0
171 191 0
173 193 0
169 188 0
171 190 0
170 191 0
171 192 0
171 191 0
170 191 0
171 192 0
168 188 0
170 188 0
172 191 0
172 194 0
170 192 0
171 192 0
173 193 0
170 192 0
169 189 0
173 194 0
171 191 0
172 193 0
171 192 0
171 193 0
173 193 0
173 193 0
173 193 0
173 192 0
173 193 0
172 192 0
172 193 0
172 194 0
175 196 0
170 192 0
169 191 0
170 192 0
173 194 0
171 193 0
171 193 0
172 193 0
172 193 0
172 193 0
173 194 0
172 192 0
175 195 0
172 192 0
171 192 0
173 194 0
171 193 0
172 193 0
171 193 0
172 196 0
173 195 0
172 195 0
172 194 0
173 196 0
174 197 0
173 196 0
174 197 0
173 196 0
171 194 0
169 194 0
175 198 0
171 195 0
173 196 0
172 196 0
174 197 0
173 197 0
173 196 0
175 198 0
172 195 0
174 197 0
173 197 0
173 196 0
172 196 0
172 196 0
173 197 0
173 197 0
174 197 0
172 196 0
172 196 0
171 195 0
173 196 0
172 195 0
173 196 0
174 197 0
174 197 0
173 197 0
170 194 0
170 194 0
174 197 0
172 196 0
172 195 0
170 192 0
172 196 0
170 194 0
172 195 0
174 197 0
174 197 0
174 197 0
169 192 0
172 196 0
173 196 0
171 194 0
174 197 0
172 195 0
172 196 0
171 195 0
172 195 0
172 196 0
173 195 0
171 195 0
172 194 0
170 194 0
174 197 0
170 193 0
171 194 0
170 192 0
171 195 0
167 191 0
170 194 0
172 195 0
172 195 0
170 194 0
172 196 0
172 195 0
170 193 0
171 194 0
174 196 0
172 195 0
168 191 0
173 196 0
168 191 0
169 193 0
171 194 0
171 194 0
173 197 0
166 191 0
172 195 0
169 192 0
168 191 0
169 192 0
174 197 0
170 193 0
168 193 0
171 194 0
170 194 0
168 190 0
168 191 0
167 191 0
168 193 0
167 191 0
168 191 0
174 197 0
169 193 0
164 188 0
171 194 0
167 190 0
169 192 0
168 192 0
167 190 0
168 192 0
162 186 0
168 193 0
164 188 0
168 192 0
168 191 0
170 193 0
168 191 0
165 189 0
171 194 0
161 185 0
167 190 0
169 192 0
170 194 0
166 189 0
173 196 0
167 189 0
167 190 0
165 188 0
168 192 0
167 191 0
170 192 0
165 188 0
166 189 0
164 187 0
170 193 0
165 188 0
164 188 0
163 185 0
164 188 0
164 187 0
169 192 0
166 190 0
167 191 0
169 192 0
171 194 0
162 185 0
164 188 0
170 193 0
169 192 0
164 187 0
166 190 0
165 188 0
162 185 0
163 186 0
167 191 0
165 187 0
169 193 0
165 188 0
167 190 0
168 191 0
163 186 0
168 192 0
166 190 0
165 188 0
165 189 0
167 190 0
165 188 0
161 184 0
168 192 0
163 188 0
162 185 0
163 187 0
166 189 0
165 187 0
166 188 0
168 190 0
163 185 0
165 187 0
163 187 0
165 187 0
163 185 0
166 188 0
164 186 0
168 192 0
160 182 0
162 183 0
160 180 0
159 181 0
162 183 0
161 183 0
163 186 0
161 185 0
167 191 0
169 191 0
166 189 0
157 180 0
159 182 0
164 187 0
165 187 0
161 184 0
164 187 0
165 188 0
165 187 0
168 190 0
167 190 0
165 189 0
166 188 0
163 184 0
167 189 0
163 185 0
153 174 0
164 186 0
163 186 0
162 185 0
165 188 0
162 184 0
163 185 0
157 179 0
166 186 0
164 187 0
161 183 0
164 186 0
163 185 0
160 182 0
163 184 0
163 186 0
162 184 0
156 177 0
162 183 0
167 190 0
163 185 0
152 173 0
161 182 0
160 182 0
164 185 0
165 187 0
164 184 0
159 182 0
165 186 0
166 189 0
166 187 0
159 181 0
161 182 0
163 184 0
164 185 0
162 184 0
162 184 0
164 185 0
164 186 0
161 183 0
160 180 0
160 181 0
162 184 0
159 181 0
164 185 0
165 186 0
161 181 0
163 182 0
160 181 0
167 186 0
159 182 0
167 188 0
169 190 0
162 183 0
163 185 0
168 188 0
158 178 0
164 185 0
164 184 0
161 181 0
162 181 0
159 180 0
166 186 0
165 186 0
167 188 0
164 185 0
163 186 0
158 178 0
162 182 0
164 186 0
165 185 0
166 185 0
168 187 0
166 186 0
164 184 0
161 183 0
165 186 0
165 185 0
166 187 0
160 179 0
167 187 0
161 182 0
168 189 0
166 186 0
162 181 0
164 183 0
167 187 0
170 189 0
166 188 0
163 181 0
162 181 0
169 189 0
165 182 0
168 187 0
163 182 0
163 182 0
164 184 0
166 187 0
165 186 0
166 186 0
168 186 0
168 189 0
167 187 0
167 186 0
166 184 0
168 188 0
167 188 0
165 184 0
162 180 0
165 186 0
166 186 0
171 190 0
165 184 0
165 182 0
166 186 0
169 187 0
164 182 0
169 188 0
172 192 0
168 187 0
169 189 0
168 187 0
168 187 0
171 191 0
169 190 0
170 191 0
168 188 0
168 188 0
169 188 0
168 186 0
168 187 0
166 185 0
169 188 0
173 192 0
171 191 0
172 193 0
172 193 0
168 187 0
169 188 0
169 189 0
170 190 0
171 191 0
170 189 0
173 193 0
171 189 0
169 189 0
170 189 0
167 189 0
169 189 0
170 189 0
168 190 0
169 189 0
168 188 0
172 193 0
168 189 0
171 192 0
168 189 0
172 191 0
171 192 0
172 194 0
173 194 0
172 193 0
172 192 0
171 192 0
169 192 0
171 191 0
172 192 0
171 194 0
170 191 0
170 193 0
171 192 0
170 189 0
172 194 0
170 190 0
171 192 0
172 194 0
169 190 0
172 194 0
173 195 0
171 191 0
172 193 0
172 193 0
172 193 0
173 195 0
173 195 0
173 195 0
173 196 0
176 196 0
174 195 0
173 194 0
172 192 0
172 194 0
171 192 0
173 196 0
173 196 0
174 197 0
173 197 0
172 196 0
174 197 0
170 194 0
172 196 0
174 197 0
172 196 0
173 197 0
173 196 0
171 194 0
173 197 0
174 197 0
174 197 0
172 196 0
173 195 0
173 197 0
174 197 0
172 196 0
174 197 0
175 198 0
172 196 0
172 196 0
172 196 0
172 195 0
172 195 0
171 195 0
174 196 0
172 195 0
171 195 0
175 198 0
174 197 0
173 196 0
174 197 0
174 197 0
175 198 0
173 196 0
170 194 0
173 195 0
171 195 0
171 195 0
173 197 0
174 198 0
172 196 0
172 195 0
171 195 0
173 195 0
172 195 0
172 196 0
174 197 0
172 195 0
171 193 0
173 196 0
174 196 0
171 194 0
173 196 0
172 195 0
170 194 0
173 196 0
171 194 0
170 194 0
172 196 0
167 191 0
169 193 0
171 194 0
173 196 0
171 195 0
173 196 0
170 194 0
170 194 0
172 196 0
170 193 0
171 194 0
169 193 0
172 196 0
172 195 0
171 193 0
166 189 0
174 197 0
171 194 0
170 193 0
171 193 0
169 192 0
170 193 0
169 193 0
167 191 0
168 192 0
171 195 0
170 192 0
169 191 0
171 194 0
171 195 0
168 192 0
169 192 0
169 193 0
170 193 0
169 192 0
170 194 0
170 194 0
172 195 0
167 191 0
170 193 0
171 194 0
169 193 0
166 190 0
170 193 0
169 191 0
171 193 0
164 187 0
167 191 0
167 191 0
168 191 0
171 195 0
168 192 0
164 188 0
164 186 0
167 190 0
166 189 0
164 188 0
169 192 0
169 192 0
162 186 0
166 190 0
167 191 0
167 191 0
165 189 0
165 188 0
166 188 0
162 186 0
164 188 0
167 191 0
170 193 0
165 188 0
168 191 0
166 188 0
165 189 0
170 193 0
164 187 0
170 193 0
166 189 0
162 186 0
165 189 0
165 188 0
170 193 0
162 186 0
160 184 0
162 185 0
166 188 0
166 189 0
163 186 0
167 190 0
166 189 0
166 189 0
166 190 0
169 192 0
166 190 0
169 191 0
158 182 0
168 191 0
161 185 0
162 185 0
165 189 0
164 186 0
169 192 0
166 189 0
164 187 0
164 187 0
167 190 0
162 185 0
169 192 0
160 183 0
167 189 0
161 185 0
163 187 0
164 188 0
167 190 0
165 187 0
168 191 0
166 188 0
167 190 0
165 189 0
168 191 0
165 189 0
167 189 0
166 190 0
164 188 0
157 180 0
163 186 0
164 186 0
160 183 0
160 183 0
166 187 0
163 188 0
156 179 0
170 192 0
163 184 0
166 189 0
164 187 0
166 188 0
163 185 0
162 185 0
159 182 0
164 186 0
161 183 0
161 184 0
162 184 0
161 184 0
161 183 0
165 186 0
164 187 0
162 184 0
166 189 0
160 182 0
166 189 0
160 183 0
159 181 0
163 186 0
158 181 0
164 187 0
162 184 0
166 188 0
163 185 0
164 186 0
167 190 0
163 185 0
161 183 0
168 190 0
162 183 0
162 184 0
164 183 0
163 185 0
158 180 0
162 185 0
163 186 0
161 183 0
163 184 0
165 186 0
161 183 0
162 184 0
161 184 0
163 184 0
160 182 0
166 187 0
166 188 0
165 188 0
164 184 0
162 183 0
159 179 0
156 177 0
165 186 0
163 185 0
164 186 0
164 185 0
162 183 0
164 184 0
169 191 0
163 185 0
163 184 0
166 187 0
163 184 0
163 185 0
158 178 0
164 185 0
168 189 0
162 183 0
163 184 0
160 180 0
166 186 0
166 185 0
163 184 0
166 188 0
167 188 0
160 181 0
163 182 0
162 182 0
164 185 0
162 182 0
159 177 0
164 184 0
167 188 0
163 184 0
167 187 0
165 186 0
166 185 0
160 179 0
164 186 0
159 178 0
166 187 0
165 186 0
159 180 0
169 190 0
170 191 0
164 183 0
160 179 0
166 187 0
168 188 0
168 187 0
166 183 0
164 183 0
165 185 0
165 184 0
168 188 0
162 180 0
167 186 0
169 188 0
168 189 0
169 189 0
163 181 0
168 189 0
168 189 0
166 186 0
163 185 0
166 187 0
170 190 0
165 185 0
168 186 0
168 189 0
167 185 0
168 186 0
167 185 0
169 188 0
164 184 0
169 189 0
167 186 0
170 190 0
168 187 0
168 188 0
170 189 0
170 191 0
169 188 0
167 186 0
169 189 0
173 192 0
168 188 0
172 191 0
169 188 0
171 190 0
165 185 0
170 191 0
170 189 0
170 188 0
169 189 0
170 190 0
169 188 0
171 191 0
171 191 0
173 194 0
170 189 0
168 189 0
167 186 0
171 192 0
169 190 0
169 190 0
170 191 0
169 191 0
169 189 0
168 189 0
171 191 0
169 191 0
171 191 0
172 192 0
171 191 0
170 188 0
169 190 0
171 192 0
169 189 0
171 193 0
169 189 0
170 192 0
172 192 0
169 189 0
171 192 0
171 192 0
172 192 0
171 191 0
169 191 0
171 192 0
171 193 0
172 193 0
173 194 0
170 191 0
170 192 0
170 194 0
173 196 0
171 195 0
171 194 0
171 193 0
172 193 0
172 195 0
170 192 0
173 194 0
171 192 0
170 193 0
173 194 0
174 195 0
171 194 0
173 195 0
171 193 0
173 196 0
175 198 0
174 198 0
173 196 0
172 196 0
173 197 0
175 198 0
172 196 0
173 196 0
174 197 0
175 198 0
171 195 0
172 195 0
172 196 0
170 193 0
171 194 0
175 198 0
172 195 0
171 195 0
170 195 0
173 197 0
173 196 0
170 194 0
175 198 0
173 197 0
172 196 0
170 194 0
172 196 0
169 194 0
172 196 0
173 196 0
175 197 0
172 195 0
171 195 0
170 194 0
172 195 0
174 197 0
174 197 0
168 191 0
172 195 0
173 196 0
173 196 0
175 198 0
174 197 0
173 196 0
171 195 0
173 196 0
174 197 0
170 193 0
173 196 0
172 196 0
173 196 0
171 195 0
172 196 0
170 193 0
174 198 0
172 196 0
172 195 0
172 196 0
173 196 0
171 195 0
170 193 0
166 190 0
171 194 0
172 195 0
166 189 0
171 194 0
171 195 0
169 193 0
171 195 0
167 190 0
173 197 0
168 190 0
171 195 0
169 192 0
168 192 0
169 192 0
171 194 0
170 193 0
170 193 0
170 193 0
168 191 0
166 190 0
171 194 0
170 194 0
171 194 0
172 195 0
173 196 0
169 192 0
171 194 0
169 192 0
166 189 0
173 196 0
170 193 0
168 192 0
165 189 0
169 193 0
170 193 0
166 190 0
167 191 0
167 191 0
168 192 0
168 191 0
165 187 0
165 188 0
170 193 0
171 194 0
167 190 0
167 190 0
168 192 0
168 192 0
169 193 0
169 192 0
168 192 0
166 190 0
166 189 0
165 188 0
165 188 0
168 191 0
167 191 0
167 191 0
165 188 0
171 194 0
167 190 0
171 194 0
166 189 0
170 193 0
166 189 0
166 189 0
166 190 0
166 190 0
168 192 0
165 188 0
165 188 0
166 188 0
168 192 0
167 189 0
165 189 0
163 187 0
167 189 0
166 190 0
162 187 0
165 188 0
165 187 0
163 187 0
163 186 0
163 186 0
163 187 0
167 190 0
165 188 0
164 187 0
165 189 0
164 187 0
157 181 0
164 188 0
166 190 0
162 185 0
163 186 0
166 190 0
166 189 0
162 185 0
168 191 0
169 191 0
165 189 0
165 188 0
165 188 0
163 185 0
162 187 0
164 187 0
164 186 0
170 192 0
161 183 0
166 189 0
166 189 0
166 189 0
165 188 0
165 188 0
163 186 0
164 187 0
159 182 0
163 184 0
162 185 0
167 190 0
166 189 0
164 187 0
163 183 0
163 186 0
164 187 0
166 188 0
165 188 0
164 185 0
165 187 0
159 181 0
160 182 0
164 187 0
156 178 0
168 191 0
166 188 0
166 189 0
162 185 0
154 176 0
161 184 0
160 181 0
160 183 0
164 186 0
158 180 0
163 185 0
155 177 0
165 187 0
161 184 0
159 181 0
164 187 0
163 186 0
159 181 0
165 187 0
161 183 0
161 182 0
161 183 0
161 182 0
165 188 0
166 187 0
166 188 0
168 191 0
159 182 0
167 191 0
162 184 0
165 187 0
162 184 0
164 186 0
167 188 0
164 186 0
166 188 0
166 189 0
155 177 0
158 181 0
163 184 0
159 181 0
161 180 0
164 186 0
162 184 0
168 191 0
157 177 0
162 182 0
166 186 0
168 190 0
166 186 0
163 186 0
163 185 0
165 186 0
162 184 0
165 187 0
163 182 0
162 184 0
167 189 0
162 184 0
160 181 0
166 188 0
165 186 0
161 181 0
163 184 0
166 187 0
164 185 0
156 176 0
161 183 0
162 182 0
164 184 0
166 187 0
162 183 0
159 180 0
163 185 0
163 183 0
167 187 0
162 183 0
163 184 0
159 178 0
163 182 0
161 180 0
167 188 0
160 179 0
165 186 0
165 185 0
166 185 0
165 183 0
167 186 0
166 186 0
166 185 0
170 190 0
167 186 0
162 181 0
163 181 0
167 188 0
167 188 0
165 186 0
165 186 0
161 182 0
164 184 0
168 187 0
164 185 0
167 187 0
164 184 0
163 181 0
166 183 0
166 187 0
167 188 0
163 181 0
167 186 0
167 185 0
166 186 0
166 185 0
164 185 0
165 186 0
166 185 0
169 188 0
166 186 0
167 186 0
168 188 0
171 192 0
166 184 0
168 189 0
167 185 0
168 188 0
169 190 0
163 181 0
170 190 0
166 187 0
167 186 0
169 187 0
170 192 0
168 188 0
169 190 0
171 192 0
167 189 0
170 187 0
169 187 0
168 187 0
172 191 0
166 185 0
169 187 0
170 189 0
169 189 0
169 189 0
166 185 0
166 184 0
167 185 0
169 190 0
167 188 0
170 189 0
167 188 0
170 190 0
171 191 0
170 189 0
168 187 0
172 192 0
168 190 0
172 192 0
170 190 0
171 190 0
170 192 0
171 192 0
171 192 0
170 192 0
168 189 0
169 188 0
172 192 0
171 193 0
171 190 0
170 190 0
172 192 0
170 192 0
172 193 0
171 191 0
173 194 0
172 194 0
170 191 0
170 190 0
173 194 0
171 193 0
171 191 0
170 192 0
171 192 0
172 194 0
172 193 0
172 192 0
172 193 0
172 192 0
172 193 0
173 193 0
170 189 0
172 193 0
173 193 0
170 193 0
172 193 0
170 191 0
171 191 0
170 191 0
171 193 0
170 189 0
172 194 0
171 192 0
171 193 0
170 194 0
171 195 0
174 197 0
171 194 0
171 196 0
172 196 0
174 197 0
172 195 0
174 198 0
175 198 0
171 194 0
173 196 0
173 196 0
172 196 0
170 194 0
171 194 0
172 195 0
171 195 0
171 195 0
174 197 0
173 197 0
173 196 0
172 196 0
172 196 0
173 195 0
172 196 0
174 198 0
174 198 0
173 195 0
173 197 0
174 197 0
174 196 0
172 195 0
173 196 0
172 196 0
171 195 0
172 195 0
171 195 0
172 196 0
171 194 0
171 195 0
174 197 0
171 195 0
173 196 0
173 197 0
174 197 0
173 196 0
170 194 0
173 196 0
172 195 0
170 193 0
172 195 0
172 195 0
173 195 0
171 195 0
174 197 0
171 195 0
169 193 0
175 198 0
170 194 0
171 195 0
170 193 0
168 192 0
169 193 0
173 196 0
174 197 0
171 194 0
173 196 0
169 193 0
171 196 0
168 191 0
171 195 0
173 196 0
167 190 0
173 197 0
166 190 0
169 192 0
170 193 0
171 195 0
169 193 0
171 193 0
167 191 0
167 191 0
169 192 0
169 192 0
170 193 0
167 190 0
172 196 0
171 194 0
171 194 0
171 193 0
167 190 0
171 195 0
170 193 0
171 195 0
166 190 0
171 193 0
166 190 0
168 192 0
171 193 0
170 194 0
169 193 0
167 189 0
174 196 0
170 194 0
165 188 0
169 193 0
167 189 0
171 194 0
165 189 0
169 192 0
171 195 0
169 192 0
171 194 0
167 190 0
170 194 0
167 191 0
168 192 0
169 192 0
162 186 0
170 193 0
166 189 0
172 194 0
166 189 0
170 193 0
168 192 0
168 192 0
169 192 0
167 190 0
166 189 0
168 191 0
167 191 0
167 190 0
168 191 0
168 192 0
170 193 0
167 189 0
164 187 0
165 187 0
168 190 0
168 191 0
165 188 0
167 191 0
166 189 0
166 190 0
163 186 0
164 188 0
165 188 0
167 191 0
164 187 0
171 194 0
164 186 0
165 188 0
164 187 0
165 188 0
169 192 0
163 186 0
166 189 0
163 186 0
166 189 0
167 190 0
166 189 0
158 180 0
167 191 0
163 186 0
163 186 0
165 188 0
165 188 0
162 185 0
165 189 0
162 186 0
164 187 0
168 191 0
162 185 0
167 191 0
166 188 0
163 186 0
164 187 0
167 190 0
164 186 0
165 188 0
158 181 0
167 190 0
164 188 0
160 182 0
165 188 0
164 187 0
166 189 0
159 183 0
163 186 0
160 183 0
164 187 0
163 186 0
160 183 0
163 187 0
168 190 0
162 185 0
165 187 0
162 186 0
162 184 0
159 182 0
160 182 0
165 187 0
161 183 0
156 179 0
164 186 0
151 173 0
161 183 0
160 182 0
167 190 0
160 184 0
165 186 0
161 182 0
162 185 0
168 191 0
169 192 0
159 181 0
162 184 0
165 189 0
161 183 0
162 184 0
160 181 0
168 191 0
167 190 0
163 186 0
163 186 0
162 184 0
156 177 0
163 184 0
164 186 0
164 187 0
164 186 0
163 183 0
166 189 0
162 184 0
162 184 0
161 182 0
155 177 0
159 180 0
166 188 0
164 187 0
163 184 0
159 180 0
162 182 0
159 180 0
162 183 0
157 179 0
163 184 0
164 187 0
160 182 0
160 182 0
162 182 0
162 183 0
161 182 0
163 184 0
163 185 0
163 184 0
164 185 0
164 185 0
166 188 0
163 184 0
161 183 0
163 187 0
168 190 0
157 176 0
166 188 0
162 183 0
167 187 0
157 177 0
165 185 0
166 187 0
160 180 0
164 185 0
168 188 0
167 188 0
159 180 0
165 186 0
165 184 0
166 186 0
167 188 0
166 187 0
164 184 0
169 188 0
164 184 0
168 188 0
165 184 0
163 184 0
165 186 0
161 181 0
164 183 0
166 185 0
165 181 0
164 185 0
164 183 0
164 184 0
163 182 0
164 184 0
161 180 0
161 181 0
167 188 0
168 189 0
162 182 0
165 186 0
163 182 0
165 185 0
168 187 0
170 189 0
163 182 0
164 182 0
165 185 0
162 180 0
166 186 0
167 186 0
171 193 0
167 185 0
166 187 0
166 186 0
164 185 0
171 191 0
168 187 0
166 183 0
163 182 0
161 179 0
167 185 0
171 189 0
169 188 0
166 185 0
170 189 0
166 184 0
166 185 0
168 189 0
168 187 0
164 184 0
169 190 0
167 187 0
168 188 0
168 187 0
167 186 0
168 188 0
168 188 0
170 189 0
169 190 0
169 190 0
172 192 0
167 185 0
168 187 0
170 188 0
169 189 0
169 188 0
167 186 0
170 189 0
172 189 0
171 190 0
169 190 0
170 191 0
169 186 0
170 189 0
168 187 0
172 192 0
170 187 0
171 191 0
172 192 0
169 192 0
169 188 0
169 189 0
170 193 0
171 191 0
171 191 0
170 193 0
170 192 0
169 189 0
169 190 0
171 193 0
172 195 0
173 193 0
171 192 0
172 191 0
171 192 0
171 189 0
170 192 0
171 192 0
173 195 0
170 190 0
173 195 0
170 191 0
173 193 0
172 193 0
173 194 0
171 191 0
172 192 0
171 193 0
171 193 0
173 195 0
173 196 0
172 194 0
174 195 0
172 193 0
173 194 0
173 195 0
171 192 0
173 197 0
174 197 0
172 196 0
172 197 0
174 197 0
174 198 0
174 197 0
172 196 0
173 196 0
174 197 0
171 196 0
174 198 0
172 195 0
175 198 0
171 196 0
172 196 0
173 196 0
172 195 0
172 196 0
173 197 0
174 197 0
172 195 0
169 193 0
173 197 0
172 196 0
172 196 0
173 197 0
175 198 0
173 197 0
172 196 0
175 198 0
168 193 0
174 197 0
171 194 0
172 196 0
172 196 0
170 194 0
172 195 0
171 195 0
172 196 0
171 194 0
170 194 0
172 196 0
172 195 0
169 193 0
171 195 0
172 196 0
173 197 0
172 195 0
171 194 0
171 194 0
173 196 0
172 195 0
172 196 0
172 196 0
172 195 0
170 194 0
169 194 0
171 195 0
171 195 0
170 193 0
174 197 0
170 193 0
171 194 0
170 193 0
172 196 0
172 195 0
173 196 0
173 195 0
168 192 0
172 195 0
169 192 0
167 191 0
173 196 0
166 189 0
169 191 0
170 194 0
168 191 0
173 196 0
167 191 0
168 192 0
170 193 0
169 192 0
171 194 0
170 193 0
168 192 0
169 192 0
168 191 0
168 191 0
171 193 0
166 189 0
167 192 0
167 192 0
166 190 0
168 192 0
169 193 0
169 192 0
167 190 0
172 195 0
168 190 0
169 193 0
167 190 0
168 193 0
170 193 0
168 192 0
167 190 0
169 193 0
167 191 0
171 194 0
166 189 0
165 188 0
167 190 0
168 192 0
168 192 0
172 195 0
165 189 0
169 192 0
164 188 0
168 190 0
167 190 0
166 189 0
169 192 0
169 191 0
167 190 0
164 187 0
174 197 0
172 195 0
166 189 0
167 192 0
168 191 0
170 192 0
164 188 0
167 189 0
167 191 0
167 190 0
166 189 0
166 190 0
169 192 0
166 188 0
163 187 0
163 187 0
168 191 0
163 186 0
160 184 0
163 187 0
166 190 0
167 190 0
168 191 0
163 186 0
163 187 0
164 187 0
165 188 0
166 188 0
164 187 0
157 181 0
164 187 0
165 188 0
160 184 0
165 188 0
158 181 0
165 188 0
166 189 0
167 189 0
161 184 0
163 185 0
166 188 0
162 185 0
167 190 0
167 191 0
166 188 0
164 187 0
167 190 0
165 189 0
170 192 0
165 188 0
163 187 0
159 183 0
162 185 0
164 186 0
165 188 0
164 187 0
166 189 0
166 188 0
162 185 0
164 187 0
168 191 0
165 188 0
163 188 0
164 186 0
162 185 0
163 186 0
166 189 0
162 185 0
166 190 0
161 185 0
160 182 0
163 185 0
162 184 0
164 188 0
161 184 0
162 185 0
162 185 0
164 188 0
169 192 0
159 181 0
164 188 0
158 180 0
161 184 0
161 182 0
163 185 0
160 182 0
162 184 0
165 188 0
166 188 0
160 182 0
163 184 0
167 190 0
160 182 0
161 183 0
163 185 0
161 181 0
164 187 0
165 186 0
163 186 0
159 180 0
164 186 0
164 186 0
162 184 0
165 186 0
164 186 0
161 181 0
163 185 0
161 182 0
162 184 0
161 181 0
161 182 0
164 186 0
163 184 0
168 191 0
159 181 0
163 186 0
169 191 0
167 189 0
165 187 0
161 182 0
165 188 0
165 185 0
164 187 0
157 177 0
165 185 0
161 184 0
165 186 0
165 186 0
170 190 0
166 187 0
161 181 0
163 184 0
160 181 0
166 188 0
167 189 0
166 188 0
166 188 0
171 192 0
166 189 0
163 185 0
164 184 0
168 189 0
165 185 0
164 185 0
168 188 0
163 184 0
165 187 0
161 182 0
165 186 0
165 185 0
163 184 0
165 184 0
164 185 0
164 186 0
162 181 0
165 185 0
171 192 0
167 187 0
162 181 0
164 185 0
168 187 0
164 184 0
165 185 0
167 189 0
166 187 0
165 185 0
162 182 0
166 185 0
168 190 0
169 187 0
168 188 0
164 183 0
167 189 0
167 187 0
163 183 0
166 186 0
166 185 0
168 188 0
166 184 0
166 185 0
166 184 0
168 186 0
169 190 0
166 183 0
170 190 0
169 188 0
166 186 0
164 184 0
168 188 0
163 182 0
165 185 0
169 189 0
169 186 0
165 185 0
167 186 0
166 185 0
170 189 0
165 185 0
169 188 0
168 187 0
169 189 0
169 190 0
165 183 0
167 186 0
166 186 0
164 185 0
167 184 0
168 187 0
168 187 0
166 185 0
172 190 0
170 190 0
170 191 0
169 186 0
168 188 0
169 187 0
167 186 0
168 185 0
167 187 0
169 188 0
170 191 0
169 187 0
167 187 0
169 189 0
169 189 0
170 191 0
170 191 0
170 190 0
167 187 0
167 188 0
170 191 0
171 192 0
172 191 0
171 192 0
168 189 0
169 190 0
172 194 0
171 192 0
170 190 0
169 187 0
170 190 0
172 190 0
172 192 0
171 190 0
172 193 0
170 191 0
171 193 0
170 191 0
171 190 0
171 193 0
172 195 0
169 189 0
170 194 0
171 191 0
171 192 0
171 191 0
173 192 0
170 190 0
168 188 0
171 193 0
172 194 0
172 194 0
172 194 0
173 195 0
174 195 0
172 193 0
171 192 0
172 194 0
171 193 0
173 194 0
173 194 0
174 195 0
174 195 0
172 193 0
170 190 0
173 196 0
172 196 0
172 196 0
172 195 0
174 197 0
172 196 0
172 196 0
172 195 0
172 196 0
172 196 0
173 196 0
174 197 0
172 195 0
173 196 0
174 198 0
170 195 0
169 193 0
173 196 0
172 196 0
171 194 0
172 196 0
173 197 0
175 198 0
169 193 0
174 197 0
173 196 0
174 197 0
173 196 0
172 195 0
173 196 0
170 194 0
171 194 0
169 193 0
173 196 0
172 196 0
171 194 0
170 193 0
172 195 0
173 197 0
172 195 0
172 195 0
174 197 0
171 195 0
169 192 0
171 194 0
169 192 0
172 196 0
173 196 0
172 196 0
171 195 0
168 191 0
171 194 0
170 193 0
166 190 0
172 195 0
172 195 0
171 194 0
172 195 0
173 196 0
172 195 0
172 196 0
170 193 0
172 196 0
172 195 0
173 196 0
171 195 0
174 197 0
175 198 0
170 194 0
169 192 0
169 194 0
166 189 0
167 191 0
169 192 0
168 192 0
169 192 0
171 194 0
172 195 0
169 192 0
167 190 0
168 192 0
170 193 0
171 194 0
168 192 0
168 192 0
169 193 0
167 190 0
169 193 0
168 191 0
170 193 0
173 195 0
170 193 0
167 191 0
168 192 0
170 193 0
171 195 0
165 189 0
168 191 0
169 194 0
169 192 0
169 193 0
165 189 0
167 190 0
167 191 0
165 189 0
171 194 0
171 194 0
166 188 0
167 190 0
169 193 0
169 192 0
170 193 0
168 191 0
171 194 0
170 193 0
171 194 0
164 187 0
165 189 0
164 188 0
170 193 0
167 190 0
164 187 0
165 189 0
169 193 0
166 189 0
165 188 0
168 192 0
168 191 0
163 187 0
167 191 0
165 188 0
165 188 0
168 192 0
166 190 0
168 191 0
164 187 0
168 191 0
167 191 0
165 188 0
168 192 0
167 190 0
165 188 0
163 187 0
169 192 0
162 185 0
164 187 0
163 186 0
164 187 0
164 188 0
164 188 0
168 192 0
166 189 0
168 192 0
167 189 0
166 189 0
164 186 0
166 190 0
168 190 0
163 185 0
162 185 0
165 188 0
165 188 0
165 187 0
169 192 0
166 190 0
164 187 0
167 190 0
162 185 0
166 189 0
161 184 0
164 186 0
162 185 0
166 190 0
163 185 0
167 190 0
166 188 0
165 188 0
165 189 0
162 186 0
167 189 0
159 182 0
168 192 0
163 185 0
164 187 0
166 189 0
164 186 0
168 192 0
170 192 0
163 184 0
164 187 0
168 189 0
164 187 0
163 186 0
164 186 0
164 185 0
168 191 0
164 187 0
165 188 0
166 189 0
164 187 0
161 183 0
167 189 0
166 189 0
164 186 0
159 182 0
162 185 0
160 183 0
160 182 0
162 185 0
166 188 0
165 188 0
157 179 0
165 189 0
160 183 0
159 182 0
161 183 0
164 186 0
164 186 0
166 188 0
161 184 0
161 183 0
163 184 0
164 186 0
162 185 0
166 188 0
164 188 0
161 183 0
164 186 0
166 187 0
163 185 0
164 187 0
163 186 0
165 187 0
164 186 0
157 179 0
158 181 0
165 186 0
168 190 0
166 187 0
163 185 0
156 178 0
167 189 0
166 186 0
157 179 0
162 184 0
168 190 0
167 188 0
167 189 0
162 184 0
167 189 0
157 179 0
162 184 0
165 186 0
164 186 0
157 178 0
166 187 0
166 187 0
162 183 0
165 186 0
161 183 0
165 184 0
163 184 0
169 191 0
164 185 0
167 187 0
163 184 0
165 185 0
166 187 0
163 184 0
166 186 0
165 186 0
168 190 0
165 187 0
163 184 0
164 185 0
167 188 0
164 185 0
165 185 0
168 189 0
165 186 0
167 188 0
166 185 0
161 180 0
164 185 0
164 183 0
159 177 0
165 185 0
164 183 0
165 185 0
167 189 0
168 187 0
165 185 0
162 183 0
164 186 0
164 184 0
165 186 0
162 182 0
169 189 0
167 188 0
161 180 0
168 187 0
164 183 0
167 188 0
168 186 0
167 187 0
164 182 0
165 185 0
169 190 0
165 183 0
167 185 0
165 182 0
164 183 0
168 188 0
166 184 0
163 183 0
168 189 0
165 183 0
163 183 0
167 187 0
169 188 0
167 187 0
168 186 0
168 186 0
164 182 0
167 187 0
168 188 0
166 185 0
169 188 0
167 188 0
166 184 0
167 186 0
169 188 0
166 186 0
167 184 0
170 191 0
167 186 0
171 191 0
167 186 0
171 191 0
170 191 0
169 191 0
169 187 0
169 187 0
167 187 0
169 189 0
170 190 0
165 184 0
171 191 0
170 191 0
164 184 0
171 190 0
168 188 0
170 190 0
168 188 0
169 189 0
169 190 0
170 190 0
170 188 0
171 191 0
171 191 0
171 191 0
170 189 0
166 186 0
169 189 0
171 193 0
172 193 0
171 190 0
171 193 0
171 192 0
172 192 0
170 191 0
170 191 0
167 186 0
172 192 0
171 191 0
172 193 0
171 193 0
168 189 0
171 191 0
171 192 0
169 192 0
169 189 0
171 191 0
173 194 0
171 191 0
170 191 0
172 192 0
172 193 0
171 192 0
172 194 0
173 195 0
172 193 0
170 192 0
172 193 0
173 193 0
173 194 0
172 192 0
171 192 0
171 192 0
171 191 0
174 197 0
170 194 0
174 198 0
171 195 0
171 195 0
174 198 0
171 195 0
172 195 0
174 197 0
171 195 0
173 197 0
174 197 0
173 196 0
174 197 0
173 196 0
171 195 0
172 195 0
168 192 0
174 198 0
172 196 0
174 197 0
173 197 0
174 197 0
172 195 0
171 194 0
172 195 0
174 197 0
172 196 0
171 195 0
176 198 0
174 197 0
174 198 0
171 195 0
173 197 0
171 195 0
172 195 0
172 196 0
173 197 0
173 196 0
173 197 0
172 196 0
171 195 0
169 193 0
171 194 0
170 193 0
169 192 0
171 195 0
171 194 0
172 196 0
170 195 0
170 193 0
170 194 0
173 196 0
170 194 0
173 196 0
169 193 0
166 190 0
171 194 0
174 197 0
173 196 0
172 196 0
171 193 0
171 194 0
172 195 0
170 194 0
172 195 0
170 194 0
170 193 0
170 194 0
170 193 0
167 191 0
170 193 0
171 194 0
172 195 0
170 194 0
171 195 0
170 193 0
170 193 0
171 194 0
168 192 0
167 190 0
171 194 0
174 197 0
175 198 0
169 192 0
166 190 0
172 195 0
169 193 0
171 195 0
171 194 0
173 195 0
168 191 0
171 193 0
171 194 0
171 194 0
171 195 0
172 195 0
170 193 0
166 189 0
168 191 0
165 189 0
163 187 0
167 190 0
172 196 0
167 190 0
166 189 0
168 191 0
167 191 0
168 192 0
168 192 0
168 190 0
168 191 0
170 192 0
168 191 0
163 187 0
168 192 0
166 189 0
168 191 0
167 191 0
169 191 0
167 191 0
162 185 0
167 191 0
163 186 0
164 188 0
167 190 0
169 194 0
166 188 0
164 187 0
166 190 0
167 190 0
167 189 0
166 189 0
168 191 0
159 182 0
167 190 0
167 190 0
167 190 0
167 190 0
165 188 0
165 189 0
163 186 0
164 188 0
166 190 0
164 188 0
167 191 0
167 190 0
167 189 0
170 193 0
165 189 0
169 191 0
160 183 0
161 184 0
165 189 0
167 190 0
166 189 0
167 191 0
162 185 0
165 187 0
168 192 0
164 187 0
165 189 0
166 189 0
163 185 0
166 189 0
163 185 0
164 187 0
164 187 0
163 186 0
161 184 0
165 188 0
159 181 0
165 189 0
163 187 0
159 182 0
165 188 0
162 185 0
169 191 0
163 186 0
167 190 0
160 183 0
161 184 0
161 184 0
169 192 0
161 183 0
163 186 0
162 186 0
164 188 0
161 184 0
164 186 0
162 185 0
161 183 0
164 186 0
162 185 0
158 180 0
164 186 0
161 185 0
162 184 0
163 186 0
167 189 0
168 191 0
166 187 0
161 184 0
163 185 0
164 187 0
161 183 0
163 186 0
163 186 0
159 182 0
160 183 0
166 189 0
163 184 0
158 180 0
163 186 0
162 185 0
167 189 0
166 188 0
166 188 0
162 183 0
167 190 0
169 191 0
167 190 0
167 189 0
161 185 0
163 186 0
164 187 0
164 186 0
159 181 0
161 183 0
162 184 0
168 189 0
166 189 0
161 183 0
163 186 0
162 185 0
158 180 0
163 187 0
159 181 0
161 183 0
167 188 0
163 185 0
159 180 0
163 185 0
166 188 0
163 186 0
165 188 0
158 179 0
167 187 0
163 186 0
163 184 0
166 188 0
161 183 0
160 183 0
167 188 0
168 189 0
165 187 0
163 185 0
160 182 0
158 178 0
161 184 0
163 183 0
166 187 0
166 187 0
165 186 0
164 186 0
165 186 0
164 185 0
167 189 0
162 184 0
166 186 0
164 184 0
164 184 0
162 183 0
167 188 0
169 188 0
168 186 0
164 182 0
168 189 0
164 183 0
165 183 0
164 185 0
165 186 0
162 182 0
168 187 0
165 187 0
167 188 0
163 180 0
167 187 0
165 185 0
167 187 0
162 182 0
165 184 0
167 185 0
162 182 0
165 185 0
167 187 0
165 185 0
165 184 0
168 188 0
168 188 0
168 188 0
163 183 0
165 185 0
165 185 0
167 188 0
165 183 0
169 189 0
166 183 0
166 188 0
165 185 0
169 189 0
166 186 0
167 187 0
164 183 0
169 188 0
166 185 0
166 185 0
169 188 0
168 188 0
170 191 0
168 188 0
167 186 0
166 184 0
166 186 0
167 188 0
169 188 0
167 187 0
169 188 0
167 187 0
166 184 0
165 183 0
169 190 0
166 185 0
167 188 0
167 188 0
167 188 0
168 187 0
170 188 0
173 192 0
168 187 0
169 190 0
167 184 0
170 190 0
169 189 0
167 187 0
171 191 0
167 188 0
172 192 0
168 186 0
167 185 0
167 186 0
169 190 0
170 191 0
166 186 0
170 189 0
168 188 0
169 188 0
168 188 0
170 192 0
170 191 0
170 189 0
169 190 0
171 193 0
169 190 0
169 191 0
169 189 0
168 189 0
174 194 0
170 193 0
171 191 0
170 192 0
170 191 0
172 193 0
168 189 0
171 191 0
170 191 0
170 189 0
170 191 0
172 191 0
171 191 0
170 192 0
171 191 0
171 192 0
172 193 0
171 190 0
172 194 0
171 193 0
169 189 0
171 193 0
171 193 0
172 193 0
171 193 0
171 193 0
171 193 0
172 192 0
172 194 0
172 192 0
174 197 0
174 195 0
172 195 0
172 196 0
174 197 0
173 197 0
172 196 0
174 197 0
173 197 0
175 197 0
171 195 0
173 196 0
172 195 0
173 197 0
172 196 0
172 195 0
174 197 0
174 197 0
173 196 0
173 196 0
171 195 0
171 195 0
172 196 0
171 195 0
172 195 0
173 197 0
173 196 0
172 196 0
172 196 0
170 193 0
173 197 0
168 193 0
171 194 0
173 196 0
174 197 0
173 196 0
174 197 0
174 197 0
169 192 0
173 196 0
172 196 0
173 197 0
173 197 0
173 196 0
173 196 0
172 195 0
173 197 0
171 194 0
169 193 0
173 196 0
168 192 0
171 195 0
171 194 0
171 195 0
170 194 0
171 194 0
170 194 0
172 195 0
172 194 0
171 194 0
171 195 0
172 195 0
170 194 0
169 192 0
170 193 0
169 193 0
169 193 0
172 195 0
169 193 0
172 195 0
172 196 0
172 194 0
171 194 0
175 198 0
169 193 0
163 186 0
170 193 0
169 192 0
170 194 0
170 194 0
169 192 0
168 191 0
169 193 0
168 191 0
166 190 0
167 191 0
170 193 0
169 193 0
170 194 0
171 194 0
168 192 0
172 196 0
169 192 0
169 192 0
169 193 0
171 195 0
166 190 0
170 194 0
171 194 0
169 192 0
169 193 0
171 193 0
167 190 0
170 193 0
166 189 0
170 193 0
169 193 0
168 192 0
171 195 0
168 192 0
170 193 0
167 190 0
166 190 0
169 192 0
167 191 0
169 192 0
170 193 0
169 192 0
168 191 0
168 191 0
168 190 0
166 190 0
165 188 0
169 192 0
174 197 0
170 194 0
168 191 0
166 189 0
168 191 0
163 187 0
169 193 0
166 190 0
163 186 0
166 189 0
165 188 0
166 189 0
166 190 0
166 189 0
164 187 0
163 186 0
166 189 0
167 190 0
164 188 0
167 190 0
167 190 0
167 190 0
162 185 0
170 194 0
165 188 0
161 185 0
166 190 0
166 190 0
168 191 0
166 189 0
167 191 0
162 185 0
163 187 0
165 188 0
164 187 0
163 186 0
168 190 0
168 191 0
164 187 0
165 188 0
165 189 0
163 186 0
161 186 0
164 187 0
163 186 0
166 189 0
159 182 0
168 192 0
161 185 0
159 183 0
167 191 0
165 187 0
168 191 0
169 192 0
162 185 0
165 187 0
165 188 0
161 183 0
167 189 0
167 190 0
163 186 0
160 183 0
166 189 0
159 183 0
164 188 0
163 185 0
159 181 0
161 184 0
169 192 0
160 182 0
162 184 0
163 185 0
168 192 0
162 184 0
170 192 0
167 190 0
161 184 0
166 188 0
165 188 0
163 185 0
167 189 0
159 181 0
164 187 0
167 190 0
163 186 0
165 187 0
164 188 0
158 180 0
162 185 0
159 183 0
164 186 0
167 189 0
162 184 0
159 181 0
162 185 0
165 188 0
164 187 0
163 187 0
163 185 0
163 186 0
160 184 0
162 185 0
162 185 0
159 181 0
162 184 0
167 190 0
162 184 0
162 183 0
164 186 0
165 186 0
162 184 0
162 182 0
161 182 0
164 186 0
164 185 0
160 181 0
162 184 0
162 185 0
163 185 0
167 190 0
163 186 0
161 182 0
162 184 0
159 182 0
166 188 0
167 189 0
164 186 0
164 186 0
165 187 0
163 185 0
164 185 0
162 184 0
165 186 0
160 182 0
167 189 0
166 187 0
166 187 0
168 189 0
162 184 0
168 191 0
160 182 0
167 189 0
164 186 0
160 182 0
166 187 0
166 187 0
164 183 0
164 185 0
163 181 0
165 187 0
167 187 0
167 188 0
163 182 0
167 189 0
167 188 0
165 186 0
163 187 0
166 186 0
167 187 0
167 188 0
165 186 0
167 187 0
167 188 0
165 186 0
166 188 0
165 186 0
163 182 0
164 184 0
164 185 0
161 182 0
166 186 0
165 186 0
161 183 0
162 181 0
165 185 0
169 189 0
164 183 0
168 190 0
167 185 0
163 182 0
165 185 0
165 185 0
166 184 0
158 178 0
168 189 0
166 187 0
163 185 0
164 185 0
166 187 0
166 184 0
163 185 0
168 188 0
164 182 0
168 187 0
163 183 0
166 189 0
167 185 0
167 186 0
169 188 0
166 187 0
167 185 0
165 185 0
168 190 0
166 186 0
168 185 0
170 190 0
167 189 0
167 188 0
164 183 0
166 186 0
167 186 0
164 182 0
168 190 0
168 189 0
167 188 0
166 185 0
166 185 0
165 185 0
166 187 0
166 184 0
168 187 0
172 190 0
167 187 0
171 191 0
167 186 0
171 190 0
166 186 0
167 187 0
169 190 0
168 187 0
167 186 0
170 190 0
167 186 0
167 187 0
167 185 0
170 190 0
169 189 0
169 189 0
170 189 0
170 192 0
167 188 0
165 185 0
169 190 0
169 191 0
171 191 0
170 191 0
170 191 0
170 189 0
170 189 0
170 189 0
172 193 0
171 192 0
170 191 0
171 192 0
170 193 0
170 189 0
170 190 0
172 193 0
171 191 0
168 188 0
171 191 0
171 193 0
170 192 0
172 194 0
170 192 0
169 190 0
171 191 0
170 192 0
168 189 0
170 193 0
172 194 0
173 194 0
172 192 0
172 193 0
171 193 0
171 193 0
172 193 0
172 194 0
171 190 0
172 195 0
169 193 0
173 197 0
174 197 0
172 196 0
171 195 0
171 194 0
173 196 0
171 195 0
171 195 0
171 195 0
173 197 0
172 196 0
174 197 0
173 196 0
174 197 0
172 195 0
169 193 0
172 195 0
172 196 0
170 194 0
173 196 0
172 195 0
173 196 0
169 192 0
172 196 0
174 198 0
171 195 0
171 194 0
172 195 0
169 192 0
173 196 0
172 195 0
171 194 0
170 194 0
170 194 0
170 194 0
171 195 0
171 195 0
172 195 0
173 196 0
172 195 0
174 197 0
170 194 0
172 195 0
174 196 0
174 197 0
169 193 0
173 195 0
171 195 0
168 192 0
171 195 0
170 193 0
172 195 0
171 194 0
170 194 0
170 193 0
170 194 0
170 193 0
170 193 0
172 195 0
171 194 0
171 195 0
171 194 0
169 193 0
173 197 0
170 193 0
171 195 0
170 194 0
168 192 0
169 192 0
165 188 0
169 193 0
166 190 0
168 192 0
168 192 0
171 194 0
166 189 0
172 195 0
169 193 0
170 193 0
168 192 0
168 191 0
172 195 0
171 194 0
167 190 0
168 191 0
174 196 0
170 193 0
168 192 0
171 194 0
172 196 0
166 190 0
167 191 0
168 192 0
166 190 0
169 191 0
164 187 0
168 191 0
170 193 0
169 192 0
168 192 0
170 193 0
170 194 0
169 193 0
167 191 0
167 191 0
169 192 0
168 192 0
169 192 0
168 191 0
167 191 0
168 192 0
169 192 0
167 190 0
165 188 0
168 192 0
167 191 0
170 194 0
167 191 0
167 191 0
166 190 0
166 189 0
167 190 0
171 195 0
167 191 0
164 188 0
164 188 0
168 191 0
167 190 0
168 191 0
167 189 0
162 185 0
164 188 0
166 191 0
166 188 0
169 193 0
166 190 0
170 193 0
162 187 0
164 187 0
166 189 0
168 191 0
168 191 0
168 191 0
165 190 0
161 184 0
166 190 0
165 189 0
166 190 0
168 190 0
164 186 0
167 190 0
168 190 0
168 191 0
161 185 0
165 187 0
166 188 0
166 188 0
167 191 0
164 188 0
162 186 0
165 187 0
163 186 0
168 191 0
164 187 0
163 186 0
166 188 0
164 188 0
160 183 0
159 182 0
161 184 0
166 189 0
165 189 0
165 188 0
163 185 0
164 187 0
169 192 0
163 186 0
166 187 0
162 185 0
165 188 0
163 186 0
166 188 0
159 181 0
161 184 0
167 189 0
162 185 0
163 186 0
167 190 0
160 184 0
163 186 0
165 187 0
161 183 0
166 187 0
161 184 0
168 191 0
162 184 0
166 189 0
161 183 0
161 183 0
161 184 0
163 184 0
163 186 0
162 184 0
162 184 0
164 186 0
163 184 0
161 184 0
164 186 0
164 186 0
166 188 0
164 185 0
160 183 0
165 186 0
160 183 0
164 187 0
163 185 0
164 186 0
164 186 0
162 185 0
159 181 0
156 178 0
162 184 0
160 182 0
164 186 0
161 182 0
159 182 0
154 177 0
161 184 0
162 185 0
163 186 0
162 186 0
164 185 0
163 185 0
161 182 0
165 187 0
163 185 0
163 185 0
163 184 0
168 189 0
162 183 0
166 188 0
163 185 0
167 190 0
160 180 0
158 179 0
163 183 0
165 185 0
164 186 0
162 184 0
166 187 0
165 186 0
167 189 0
162 183 0
165 187 0
162 183 0
165 187 0
164 184 0
166 188 0
166 188 0
166 186 0
165 186 0
163 184 0
165 188 0
164 186 0
161 180 0
166 188 0
162 183 0
162 184 0
162 184 0
168 187 0
164 186 0
164 186 0
159 180 0
166 186 0
164 184 0
164 185 0
167 188 0
161 184 0
163 184 0
166 187 0
167 188 0
159 181 0
169 189 0
160 182 0
169 190 0
166 187 0
165 187 0
166 187 0
165 186 0
163 184 0
171 192 0
166 186 0
165 185 0
165 186 0
164 185 0
164 184 0
163 183 0
167 187 0
169 190 0
165 185 0
171 191 0
165 186 0
162 184 0
164 184 0
167 187 0
167 186 0
158 177 0
170 190 0
168 187 0
161 182 0
168 187 0
168 189 0
169 189 0
169 191 0
167 188 0
168 187 0
166 188 0
168 189 0
167 187 0
169 189 0
165 186 0
163 184 0
163 179 0
164 183 0
163 180 0
161 177 0
170 188 0
169 189 0
168 186 0
171 191 0
164 183 0
168 188 0
168 189 0
170 191 0
166 186 0
170 190 0
166 188 0
169 189 0
169 188 0
169 186 0
165 183 0
169 188 0
170 190 0
168 187 0
167 187 0
168 189 0
168 187 0
169 190 0
173 193 0
168 189 0
168 187 0
168 189 0
169 188 0
166 184 0
172 190 0
169 189 0
168 188 0
169 189 0
168 188 0
171 192 0
172 191 0
171 193 0
171 193 0
169 190 0
172 192 0
170 189 0
168 188 0
171 192 0
169 192 0
169 190 0
169 189 0
169 189 0
171 190 0
170 192 0
170 190 0
169 190 0
173 195 0
171 191 0
172 193 0
169 188 0
166 188 0
172 193 0
171 193 0
171 192 0
168 190 0
170 192 0
169 189 0
171 191 0
172 194 0
171 192 0
170 191 0
170 190 0
172 195 0
171 191 0
171 193 0
171 193 0
173 195 0
171 191 0
174 198 0
171 195 0
172 196 0
173 196 0
172 195 0
172 196 0
172 196 0
172 196 0
171 195 0
172 196 0
173 196 0
173 196 0
175 198 0
171 195 0
172 196 0
172 196 0
171 194 0
173 196 0
171 195 0
173 196 0
173 195 0
171 195 0
173 196 0
174 196 0
168 192 0
171 195 0
174 196 0
170 194 0
171 194 0
173 196 0
171 195 0
171 194 0
175 198 0
170 194 0
169 192 0
173 196 0
170 194 0
175 198 0
172 195 0
172 195 0
172 195 0
171 194 0
173 196 0
172 195 0
173 196 0
175 198 0
173 196 0
169 193 0
172 195 0
171 195 0
170 194 0
171 194 0
171 195 0
170 194 0
173 196 0
169 193 0
173 195 0
169 192 0
170 194 0
167 191 0
173 195 0
168 192 0
170 193 0
166 188 0
170 193 0
170 194 0
173 196 0
171 193 0
169 191 0
170 194 0
169 193 0
167 191 0
167 191 0
171 194 0
169 193 0
169 192 0
170 193 0
168 191 0
170 194 0
169 191 0
171 195 0
171 194 0
168 191 0
172 196 0
171 194 0
167 191 0
164 188 0
167 190 0
166 189 0
168 192 0
164 187 0
171 194 0
169 192 0
164 188 0
169 193 0
167 190 0
165 188 0
169 192 0
164 187 0
169 193 0
171 194 0
169 193 0
168 192 0
164 187 0
172 195 0
170 193 0
169 192 0
168 192 0
170 193 0
167 190 0
169 192 0
167 189 0
165 189 0
166 189 0
170 194 0
172 194 0
172 196 0
170 195 0
162 186 0
167 190 0
166 190 0
167 191 0
164 187 0
166 190 0
168 191 0
164 187 0
161 184 0
166 190 0
167 191 0
165 189 0
168 191 0
165 189 0
168 191 0
168 191 0
166 188 0
166 189 0
163 186 0
166 190 0
167 191 0
164 188 0
168 191 0
167 190 0
163 186 0
168 192 0
169 192 0
168 191 0
164 188 0
169 192 0
159 182 0
162 186 0
167 190 0
166 189 0
171 193 0
167 190 0
164 188 0
169 192 0
162 185 0
171 194 0
169 191 0
166 189 0
166 190 0
160 182 0
163 185 0
165 188 0
167 190 0
165 189 0
165 188 0
164 187 0
163 186 0
161 185 0
166 190 0
162 186 0
167 190 0
157 181 0
165 189 0
164 186 0
163 187 0
166 188 0
163 187 0
164 188 0
164 186 0
167 190 0
166 189 0
162 185 0
161 184 0
160 183 0
160 182 0
169 191 0
167 190 0
163 186 0
164 187 0
162 184 0
162 185 0
163 185 0
164 186 0
167 190 0
163 185 0
168 191 0
167 191 0
168 190 0
164 188 0
164 187 0
164 186 0
165 188 0
169 192 0
168 191 0
160 182 0
168 191 0
165 187 0
162 184 0
163 186 0
163 184 0
163 184 0
166 188 0
163 186 0
163 185 0
169 192 0
162 185 0
161 183 0
161 183 0
163 185 0
160 183 0
167 189 0
162 184 0
166 188 0
162 186 0
161 182 0
162 184 0
164 187 0
160 182 0
164 187 0
166 188 0
162 184 0
158 180 0
165 187 0
165 188 0
160 181 0
164 186 0
162 183 0
167 189 0
166 187 0
165 187 0
162 183 0
161 183 0
163 184 0
167 189 0
162 184 0
165 186 0
166 188 0
159 179 0
166 187 0
160 181 0
165 187 0
163 185 0
166 187 0
168 190 0
168 191 0
163 186 0
163 185 0
157 178 0
167 188 0
166 187 0
159 180 0
166 187 0
162 184 0
164 187 0
165 186 0
163 183 0
162 182 0
165 186 0
165 186 0
168 188 0
164 183 0
164 185 0
163 183 0
166 188 0
169 189 0
160 181 0
165 188 0
169 189 0
160 181 0
163 183 0
164 185 0
166 187 0
167 187 0
165 186 0
165 185 0
166 187 0
164 184 0
164 184 0
163 184 0
165 186 0
165 185 0
169 189 0
166 188 0
168 189 0
165 188 0
165 186 0
165 187 0
166 186 0
168 190 0
165 185 0
169 190 0
166 187 0
165 186 0
164 185 0
166 188 0
169 191 0
162 181 0
169 191 0
170 189 0
168 185 0
164 184 0
161 182 0
164 182 0
171 190 0
167 187 0
163 183 0
162 182 0
166 185 0
165 185 0
170 191 0
169 189 0
164 183 0
168 188 0
163 181 0
168 187 0
171 192 0
170 189 0
166 187 0
167 188 0
166 185 0
167 186 0
168 187 0
169 190 0
166 184 0
165 184 0
167 187 0
169 189 0
167 186 0
167 187 0
165 185 0
168 187 0
167 185 0
168 188 0
170 189 0
166 187 0
172 191 0
168 186 0
172 192 0
166 188 0
168 187 0
169 189 0
164 184 0
168 190 0
168 187 0
167 189 0
168 188 0
171 192 0
170 190 0
170 191 0
166 186 0
170 188 0
171 191 0
169 190 0
170 190 0
167 187 0
171 192 0
167 186 0
170 191 0
171 192 0
171 192 0
167 188 0
173 194 0
169 190 0
170 192 0
172 191 0
170 192 0
172 192 0
171 193 0
170 190 0
173 192 0
172 193 0
171 190 0
173 192 0
168 189 0
170 190 0
171 193 0
169 188 0
170 190 0
171 190 0
171 192 0
172 194 0
171 191 0
170 191 0
171 191 0
172 194 0
172 193 0
172 194 0
171 192 0
171 194 0
170 194 0
173 196 0
171 195 0
170 193 0
174 197 0
171 195 0
170 193 0
171 194 0
173 196 0
172 196 0
173 197 0
174 197 0
172 196 0
172 196 0
173 196 0
173 197 0
168 192 0
171 194 0
172 195 0
174 198 0
172 195 0
173 196 0
174 197 0
173 196 0
171 195 0
171 194 0
173 196 0
173 196 0
169 193 0
173 196 0
173 195 0
169 193 0
170 194 0
169 194 0
171 195 0
172 195 0
173 196 0
172 196 0
171 195 0
169 193 0
174 196 0
171 195 0
173 196 0
174 196 0
173 197 0
170 194 0
170 194 0
171 194 0
170 194 0
173 196 0
171 195 0
171 193 0
170 194 0
168 191 0
171 194 0
170 194 0
170 193 0
170 193 0
172 195 0
170 194 0
168 191 0
171 194 0
167 191 0
170 193 0
170 193 0
170 195 0
167 190 0
170 193 0
173 196 0
168 192 0
167 191 0
170 195 0
169 192 0
166 189 0
168 192 0
168 191 0
170 194 0
174 197 0
166 188 0
171 194 0
167 191 0
170 193 0
170 194 0
165 189 0
170 194 0
170 194 0
171 195 0
170 193 0
166 189 0
167 190 0
167 189 0
169 191 0
168 190 0
169 192 0
167 192 0
168 192 0
170 194 0
170 193 0
172 196 0
171 195 0
171 194 0
169 191 0
168 192 0
169 192 0
166 189 0
169 194 0
167 191 0
164 187 0
168 192 0
167 190 0
166 189 0
168 192 0
167 191 0
165 188 0
166 189 0
168 193 0
169 192 0
172 195 0
167 191 0
169 192 0
166 189 0
165 189 0
169 193 0
164 187 0
166 189 0
169 191 0
168 191 0
166 189 0
162 185 0
169 192 0
167 191 0
164 186 0
161 185 0
165 188 0
170 194 0
169 193 0
166 189 0
168 191 0
169 192 0
166 188 0
164 187 0
165 189 0
168 192 0
166 188 0
165 187 0
169 193 0
166 189 0
168 191 0
165 189 0
164 188 0
168 192 0
166 189 0
170 193 0
167 191 0
165 189 0
161 184 0
160 182 0
166 190 0
163 187 0
163 185 0
166 189 0
165 189 0
166 189 0
162 184 0
160 184 0
167 189 0
169 191 0
166 188 0
170 193 0
167 191 0
159 181 0
165 188 0
161 184 0
172 195 0
159 182 0
166 189 0
161 183 0
163 186 0
162 185 0
155 177 0
160 183 0
160 183 0
166 189 0
161 184 0
168 191 0
163 186 0
161 183 0
164 187 0
167 189 0
162 184 0
165 187 0
164 186 0
167 190 0
169 191 0
167 189 0
162 184 0
165 188 0
166 188 0
162 184 0
167 191 0
164 186 0
163 185 0
162 184 0
166 190 0
161 184 0
158 181 0
164 187 0
161 182 0
161 185 0
160 181 0
165 186 0
162 183 0
164 186 0
160 183 0
163 187 0
166 188 0
158 182 0
160 183 0
168 190 0
164 186 0
166 187 0
167 188 0
166 188 0
166 188 0
163 185 0
164 187 0
166 189 0
165 187 0
162 184 0
164 187 0
164 184 0
158 180 0
163 185 0
166 187 0
163 183 0
169 191 0
165 187 0
162 185 0
163 185 0
167 189 0
157 179 0
164 186 0
158 179 0
165 188 0
164 186 0
166 187 0
163 184 0
163 185 0
164 185 0
161 183 0
164 185 0
157 180 0
162 184 0
158 179 0
163 184 0
167 187 0
163 184 0
165 186 0
161 181 0
162 182 0
165 185 0
168 189 0
162 183 0
163 184 0
162 183 0
165 186 0
162 184 0
166 186 0
161 183 0
162 185 0
163 184 0
164 185 0
162 183 0
166 185 0
164 184 0
166 186 0
162 183 0
164 185 0
161 182 0
161 182 0
165 186 0
168 189 0
163 185 0
160 179 0
167 187 0
159 180 0
163 182 0
165 185 0
166 187 0
160 180 0
167 190 0
166 186 0
166 186 0
166 186 0
167 186 0
161 182 0
165 185 0
164 183 0
158 178 0
165 185 0
164 184 0
164 184 0
164 185 0
163 183 0
170 190 0
165 186 0
166 187 0
166 186 0
163 183 0
164 183 0
166 186 0
171 190 0
165 187 0
167 186 0
166 187 0
167 187 0
168 187 0
168 187 0
169 189 0
169 190 0
169 189 0
168 187 0
170 188 0
165 184 0
169 190 0
169 187 0
166 185 0
166 186 0
169 189 0
165 184 0
166 186 0
169 189 0
169 189 0
165 184 0
168 188 0
169 190 0
168 186 0
165 184 0
168 188 0
164 185 0
167 186 0
168 188 0
169 188 0
169 189 0
171 191 0
169 191 0
171 188 0
171 191 0
171 191 0
168 190 0
170 189 0
167 187 0
171 194 0
165 185 0
171 193 0
168 186 0
171 192 0
167 185 0
171 192 0
170 191 0
169 188 0
169 189 0
170 190 0
169 188 0
169 190 0
170 191 0
169 189 0
172 194 0
170 191 0
169 190 0
170 192 0
172 191 0
169 189 0
167 186 0
172 193 0
172 192 0
170 190 0
172 192 0
172 193 0
170 191 0
170 192 0
168 187 0
172 194 0
170 190 0
172 194 0
168 188 0
169 190 0
172 193 0
172 192 0
171 191 0
174 196 0
171 191 0
169 190 0
171 192 0
170 192 0
171 192 0
172 194 0
171 193 0
172 192 0
175 198 0
174 198 0
171 194 0
172 196 0
174 197 0
172 196 0
172 196 0
172 196 0
170 194 0
172 195 0
173 196 0
171 196 0
174 198 0
172 196 0
171 195 0
169 193 0
172 195 0
169 193 0
171 195 0
174 197 0
172 196 0
172 195 0
173 197 0
171 195 0
171 194 0
174 197 0
171 195 0
172 196 0
172 195 0
172 196 0
170 193 0
173 196 0
174 196 0
175 198 0
174 197 0
173 196 0
169 191 0
169 193 0
171 195 0
173 196 0
169 193 0
171 194 0
174 196 0
172 196 0
171 194 0
172 195 0
173 196 0
170 193 0
171 194 0
170 193 0
169 193 0
169 192 0
169 192 0
172 195 0
171 194 0
168 192 0
168 192 0
167 190 0
168 192 0
171 194 0
171 194 0
168 191 0
169 193 0
167 191 0
172 196 0
170 194 0
172 195 0
169 192 0
167 191 0
168 192 0
171 194 0
171 195 0
170 193 0
170 194 0
168 191 0
166 188 0
168 192 0
169 193 0
169 192 0
171 194 0
167 191 0
172 196 0
166 189 0
169 193 0
163 187 0
167 191 0
168 191 0
174 196 0
170 193 0
163 187 0
169 191 0
164 188 0
172 195 0
168 190 0
167 192 0
169 192 0
166 187 0
168 191 0
168 192 0
169 194 0
172 195 0
168 191 0
163 187 0
167 191 0
165 190 0
166 189 0
166 189 0
167 191 0
168 191 0
168 192 0
167 190 0
166 189 0
168 191 0
170 193 0
168 191 0
167 191 0
167 189 0
165 189 0
167 190 0
163 186 0
166 189 0
167 191 0
170 193 0
163 187 0
166 190 0
163 186 0
170 193 0
169 192 0
166 189 0
166 189 0
162 185 0
169 192 0
167 190 0
163 186 0
167 190 0
165 189 0
164 187 0
165 187 0
167 190 0
161 185 0
167 190 0
167 190 0
168 191 0
165 187 0
167 190 0
170 193 0
167 191 0
165 189 0
167 190 0
168 191 0
165 187 0
169 192 0
165 189 0
166 189 0
166 189 0
165 188 0
165 188 0
167 191 0
164 186 0
165 189 0
163 187 0
169 191 0
163 186 0
163 186 0
165 187 0
163 186 0
167 190 0
166 190 0
163 186 0
162 184 0
168 192 0
169 192 0
168 191 0
161 183 0
167 190 0
166 190 0
162 184 0
163 186 0
168 191 0
167 190 0
164 187 0
169 190 0
164 186 0
163 185 0
164 187 0
167 190 0
167 191 0
161 185 0
164 186 0
165 188 0
159 182 0
163 185 0
162 185 0
164 186 0
169 191 0
166 188 0
165 187 0
167 190 0
165 187 0
159 181 0
160 183 0
162 185 0
162 185 0
167 190 0
162 185 0
164 184 0
164 187 0
155 176 0
164 187 0
160 182 0
165 186 0
165 189 0
160 181 0
162 184 0
159 181 0
159 182 0
161 183 0
157 180 0
158 178 0
162 185 0
162 184 0
157 178 0
165 186 0
162 184 0
161 183 0
167 191 0
162 184 0
162 183 0
165 187 0
164 187 0
168 191 0
162 186 0
164 186 0
167 190 0
165 187 0
159 181 0
168 191 0
163 186 0
166 189 0
164 184 0
167 190 0
164 186 0
167 188 0
162 183 0
163 185 0
162 185 0
162 184 0
161 183 0
161 182 0
161 183 0
160 182 0
167 190 0
168 190 0
163 184 0
162 184 0
164 186 0
166 188 0
166 187 0
165 187 0
162 184 0
161 183 0
166 188 0
164 184 0
167 188 0
163 183 0
160 182 0
161 183 0
164 186 0
171 192 0
165 187 0
165 187 0
167 188 0
164 186 0
164 185 0
161 184 0
166 188 0
160 181 0
162 183 0
169 190 0
165 185 0
166 187 0
166 187 0
164 184 0
160 179 0
162 181 0
164 186 0
165 184 0
163 184 0
165 185 0
162 182 0
163 184 0
168 188 0
164 186 0
165 184 0
170 191 0
165 187 0
169 190 0
165 186 0
164 185 0
163 182 0
162 181 0
168 191 0
170 190 0
166 186 0
163 183 0
160 180 0
167 187 0
166 186 0
164 184 0
162 183 0
164 184 0
168 190 0
163 183 0
169 190 0
165 186 0
169 188 0
165 185 0
169 189 0
167 186 0
165 186 0
167 187 0
162 182 0
164 183 0
164 184 0
164 184 0
169 189 0
166 186 0
165 184 0
167 187 0
169 188 0
168 188 0
168 187 0
165 184 0
172 192 0
167 185 0
171 191 0
168 188 0
172 192 0
171 190 0
164 183 0
168 186 0
165 185 0
168 188 0
168 187 0
167 187 0
165 186 0
167 188 0
169 190 0
169 190 0
169 189 0
166 187 0
170 190 0
168 186 0
170 191 0
168 190 0
170 191 0
170 191 0
168 188 0
169 189 0
167 187 0
169 188 0
171 190 0
172 192 0
170 188 0
172 192 0
171 189 0
168 188 0
170 189 0
170 190 0
170 190 0
169 190 0
168 189 0
170 191 0
169 189 0
169 187 0
168 188 0
172 192 0
168 188 0
171 192 0
172 192 0
170 190 0
170 193 0
171 190 0
172 194 0
170 191 0
170 191 0
170 192 0
169 190 0
168 190 0
170 191 0
167 188 0
170 190 0
172 193 0
171 191 0
172 193 0
171 193 0
171 192 0
169 191 0
172 192 0
171 191 0
171 195 0
176 199 0
172 195 0
172 196 0
175 198 0
172 195 0
173 196 0
171 195 0
168 193 0
171 195 0
172 195 0
174 197 0
171 195 0
170 194 0
172 195 0
171 195 0
172 195 0
171 194 0
172 195 0
173 196 0
173 195 0
172 195 0
169 193 0
172 196 0
172 196 0
170 193 0
172 196 0
172 195 0
172 196 0
171 195 0
170 193 0
171 195 0
171 195 0
172 196 0
173 196 0
169 192 0
172 196 0
168 191 0
171 195 0
169 192 0
173 196 0
169 191 0
171 194 0
170 193 0
169 192 0
169 193 0
172 196 0
172 194 0
171 195 0
171 194 0
172 196 0
173 197 0
172 195 0
168 192 0
172 197 0
169 193 0
169 193 0
168 191 0
172 196 0
168 192 0
169 192 0
168 192 0
168 192 0
168 192 0
169 192 0
172 195 0
170 193 0
169 193 0
167 190 0
167 192 0
168 191 0
171 195 0
169 193 0
170 194 0
170 194 0
170 194 0
171 195 0
169 193 0
169 193 0
170 193 0
169 193 0
171 194 0
170 194 0
168 190 0
165 189 0
168 191 0
170 195 0
167 190 0
171 194 0
169 193 0
170 194 0
170 193 0
168 191 0
170 193 0
170 194 0
169 192 0
170 194 0
167 191 0
166 190 0
169 192 0
163 187 0
169 192 0
164 188 0
167 191 0
170 194 0
168 192 0
168 192 0
162 185 0
167 189 0
164 187 0
169 193 0
167 190 0
168 190 0
167 191 0
165 189 0
168 191 0
164 187 0
170 194 0
166 190 0
169 192 0
164 188 0
167 191 0
166 189 0
172 195 0
172 195 0
168 191 0
168 190 0
165 188 0
165 189 0
165 187 0
160 183 0
164 186 0
163 187 0
170 194 0
167 190 0
168 191 0
168 191 0
169 193 0
165 188 0
171 195 0
168 191 0
165 189 0
163 186 0
164 187 0
164 187 0
168 190 0
167 190 0
167 191 0
164 187 0
169 191 0
170 193 0
165 188 0
170 193 0
164 187 0
169 191 0
166 189 0
168 190 0
166 188 0
162 186 0
167 190 0
161 183 0
166 189 0
164 186 0
167 190 0
163 185 0
163 187 0
165 188 0
162 186 0
162 185 0
166 189 0
163 186 0
167 190 0
166 189 0
166 189 0
162 185 0
166 188 0
166 190 0
161 183 0
162 185 0
163 186 0
160 183 0
162 184 0
165 188 0
162 185 0
166 189 0
161 184 0
161 183 0
165 187 0
168 189 0
163 186 0
165 189 0
166 188 0
163 186 0
159 183 0
165 188 0
166 189 0
166 190 0
161 185 0
165 187 0
162 185 0
166 188 0
161 185 0
165 188 0
165 187 0
162 184 0
168 190 0
165 188 0
163 184 0
165 187 0
162 186 0
167 189 0
164 184 0
164 186 0
165 188 0
166 188 0
163 186 0
165 187 0
162 184 0
162 185 0
164 186 0
163 185 0
160 181 0
159 180 0
166 189 0
166 189 0
164 186 0
163 186 0
162 185 0
162 183 0
165 188 0
163 186 0
165 187 0
162 186 0
161 183 0
167 189 0
165 188 0
165 187 0
163 185 0
162 183 0
163 187 0
164 185 0
165 189 0
165 186 0
167 189 0
167 189 0
167 190 0
163 185 0
164 186 0
163 185 0
166 187 0
166 189 0
163 186 0
165 188 0
167 188 0
163 186 0
165 187 0
162 183 0
162 185 0
164 186 0
168 189 0
167 189 0
165 187 0
166 186 0
167 190 0
163 184 0
165 187 0
161 184 0
165 184 0
163 185 0
160 181 0
165 186 0
161 181 0
163 184 0
165 186 0
166 187 0
164 185 0
159 181 0
163 185 0
167 189 0
161 182 0
165 185 0
164 185 0
164 183 0
167 188 0
159 179 0
158 177 0
167 187 0
164 185 0
162 183 0
164 186 0
161 179 0
163 183 0
169 189 0
166 185 0
163 182 0
162 184 0
166 186 0
162 180 0
166 187 0
163 184 0
164 184 0
167 189 0
163 184 0
165 186 0
164 184 0
166 186 0
166 187 0
164 184 0
168 189 0
167 191 0
166 187 0
165 185 0
166 186 0
164 182 0
166 187 0
166 185 0
169 190 0
161 181 0
166 186 0
164 184 0
163 182 0
161 182 0
165 185 0
166 186 0
166 185 0
168 189 0
169 189 0
166 184 0
162 181 0
168 189 0
172 192 0
165 185 0
168 187 0
166 185 0
165 185 0
166 186 0
165 186 0
167 188 0
165 185 0
168 187 0
166 186 0
172 192 0
166 185 0
169 189 0
168 188 0
169 190 0
171 191 0
169 186 0
166 186 0
167 186 0
170 190 0
170 190 0
167 186 0
170 191 0
169 189 0
166 187 0
170 191 0
170 189 0
170 188 0
171 191 0
167 187 0
168 187 0
172 192 0
170 190 0
170 191 0
171 190 0
170 191 0
166 186 0
172 192 0
165 185 0
169 189 0
173 192 0
170 191 0
169 188 0
170 188 0
170 190 0
172 192 0
171 192 0
169 188 0
171 192 0
168 186 0
172 192 0
172 194 0
169 189 0
173 195 0
169 190 0
171 191 0
173 193 0
168 189 0
170 191 0
170 188 0
169 191 0
170 190 0
169 190 0
171 192 0
170 189 0
170 189 0
170 191 0
171 194 0
169 192 0
174 197 0
173 197 0
172 196 0
171 195 0
173 196 0
172 196 0
172 195 0
172 196 0
173 197 0
171 194 0
171 195 0
172 195 0
174 197 0
172 195 0
171 194 0
173 196 0
170 194 0
171 194 0
171 194 0
172 195 0
174 197 0
173 197 0
171 195 0
168 192 0
172 195 0
172 195 0
169 193 0
172 196 0
173 197 0
170 193 0
171 194 0
172 195 0
172 195 0
174 197 0
172 195 0
174 196 0
172 195 0
171 194 0
171 194 0
168 192 0
172 196 0
170 194 0
171 195 0
172 195 0
171 195 0
172 195 0
174 197 0
172 195 0
174 197 0
170 194 0
169 193 0
169 193 0
171 195 0
172 195 0
169 193 0
171 194 0
171 195 0
171 194 0
171 194 0
168 191 0
172 196 0
170 193 0
172 195 0
169 192 0
170 194 0
171 195 0
174 197 0
172 195 0
170 193 0
168 192 0
169 192 0
170 194 0
172 195 0
172 195 0
172 195 0
171 194 0
164 189 0
172 195 0
168 191 0
169 192 0
170 194 0
166 190 0
167 190 0
169 192 0
170 193 0
168 191 0
170 193 0
167 191 0
171 194 0
165 188 0
169 192 0
168 192 0
172 195 0
172 194 0
171 194 0
171 195 0
173 197 0
170 194 0
166 190 0
162 185 0
170 193 0
165 189 0
171 195 0
165 188 0
172 195 0
167 190 0
166 189 0
168 191 0
168 191 0
165 188 0
170 194 0
168 191 0
169 193 0
167 191 0
164 187 0
168 191 0
168 192 0
170 193 0
169 192 0
169 192 0
169 193 0
168 190 0
164 187 0
162 187 0
164 187 0
167 190 0
165 188 0
168 193 0
165 188 0
162 184 0
169 192 0
169 192 0
164 187 0
166 190 0
170 193 0
170 192 0
167 191 0
168 192 0
166 190 0
167 191 0
166 188 0
160 184 0
170 192 0
161 185 0
167 191 0
165 190 0
167 191 0
168 191 0
169 192 0
164 186 0
165 189 0
166 188 0
163 186 0
166 190 0
166 190 0
164 188 0
166 189 0
167 190 0
163 185 0
166 189 0
163 187 0
165 188 0
163 186 0
165 188 0
164 188 0
166 189 0
167 191 0
163 186 0
165 189 0
165 188 0
160 184 0
166 189 0
166 190 0
161 184 0
167 190 0
167 189 0
162 186 0
167 190 0
167 191 0
164 187 0
160 183 0
168 190 0
167 190 0
166 189 0
161 185 0
162 185 0
164 187 0
162 185 0
157 180 0
168 191 0
165 188 0
162 185 0
166 188 0
166 189 0
168 191 0
164 187 0
168 192 0
160 182 0
163 187 0
162 183 0
166 189 0
163 185 0
166 189 0
164 187 0
166 189 0
155 177 0
164 186 0
158 181 0
166 188 0
166 190 0
168 191 0
163 186 0
166 189 0
164 185 0
156 179 0
162 184 0
165 188 0
166 189 0
160 183 0
164 186 0
163 186 0
167 188 0
161 184 0
164 186 0
165 186 0
162 183 0
166 189 0
162 183 0
164 186 0
164 187 0
166 189 0
158 180 0
164 186 0
161 184 0
163 184 0
162 184 0
164 187 0
163 185 0
169 190 0
165 187 0
169 192 0
165 186 0
166 187 0
166 188 0
164 185 0
166 188 0
168 189 0
166 189 0
164 185 0
162 183 0
167 189 0
162 185 0
165 188 0
164 184 0
164 185 0
164 184 0
163 183 0
166 188 0
166 187 0
166 183 0
166 186 0
165 186 0
162 184 0
169 191 0
161 182 0
160 183 0
163 185 0
168 189 0
164 185 0
167 187 0
164 186 0
162 184 0
161 184 0
168 191 0
164 186 0
169 192 0
162 181 0
166 187 0
163 185 0
164 185 0
159 181 0
162 183 0
163 183 0
169 190 0
165 188 0
165 187 0
163 184 0
166 186 0
166 186 0
166 189 0
164 184 0
169 191 0
165 186 0
162 182 0
165 185 0
163 183 0
167 188 0
164 185 0
171 191 0
165 184 0
165 185 0
169 190 0
166 188 0
168 189 0
170 191 0
165 185 0
166 187 0
164 184 0
167 187 0
166 186 0
165 186 0
162 182 0
164 183 0
167 189 0
168 187 0
167 187 0
163 182 0
165 183 0
167 187 0
168 190 0
165 185 0
166 186 0
166 186 0
168 187 0
168 189 0
170 189 0
167 186 0
169 190 0
165 184 0
167 188 0
168 190 0
168 189 0
170 192 0
168 189 0
169 191 0
169 189 0
169 189 0
167 185 0
167 188 0
169 188 0
165 185 0
167 187 0
170 190 0
171 190 0
167 186 0
168 187 0
170 190 0
170 191 0
169 189 0
167 187 0
171 191 0
165 184 0
167 189 0
169 189 0
166 187 0
166 186 0
170 190 0
167 188 0
170 190 0
165 185 0
168 187 0
170 188 0
171 190 0
167 186 0
165 182 0
164 184 0
167 188 0
172 193 0
169 191 0
171 192 0
167 188 0
170 190 0
168 189 0
167 188 0
172 192 0
168 188 0
172 192 0
167 188 0
172 193 0
171 193 0
167 186 0
170 191 0
170 190 0
170 190 0
169 190 0
169 188 0
172 191 0
170 190 0
173 194 0
170 191 0
170 192 0
171 189 0
173 195 0
170 189 0
173 194 0
169 190 0
169 191 0
169 191 0
171 191 0
173 195 0
174 197 0
172 195 0
171 194 0
171 194 0
173 196 0
172 195 0
172 197 0
172 196 0
172 195 0
174 197 0
172 196 0
174 197 0
171 195 0
171 195 0
172 196 0
169 193 0
174 197 0
174 197 0
173 196 0
173 196 0
172 196 0
169 192 0
171 193 0
174 196 0
172 195 0
168 192 0
173 196 0
171 194 0
175 198 0
172 195 0
171 195 0
172 196 0
172 195 0
171 195 0
171 194 0
169 193 0
168 191 0
173 196 0
170 194 0
170 193 0
170 194 0
170 194 0
170 193 0
172 195 0
170 195 0
169 193 0
168 193 0
171 194 0
170 195 0
172 195 0
173 196 0
171 195 0
171 194 0
169 192 0
173 196 0
172 196 0
170 194 0
173 196 0
170 193 0
171 194 0
171 195 0
166 189 0
169 193 0
173 196 0
167 190 0
173 197 0
171 194 0
168 191 0
170 193 0
170 193 0
171 194 0
169 191 0
168 192 0
167 191 0
168 192 0
168 191 0
170 193 0
169 193 0
169 193 0
169 192 0
167 191 0
167 191 0
170 193 0
169 193 0
168 192 0
168 191 0
168 192 0
170 194 0
165 189 0
170 193 0
166 189 0
169 192 0
171 194 0
170 193 0
164 188 0
168 191 0
167 190 0
170 194 0
165 189 0
170 193 0
169 192 0
168 192 0
164 187 0
164 187 0
167 191 0
167 190 0
170 193 0
166 191 0
169 193 0
166 190 0
167 191 0
165 189 0
169 191 0
167 190 0
165 188 0
166 189 0
167 191 0
169 193 0
168 191 0
169 193 0
168 191 0
163 187 0
165 188 0
164 188 0
168 191 0
167 190 0
166 189 0
167 189 0
167 191 0
171 193 0
169 193 0
165 188 0
164 188 0
167 189 0
165 188 0
166 189 0
170 193 0
167 190 0
167 191 0
165 188 0
167 190 0
164 186 0
168 193 0
163 186 0
162 186 0
166 189 0
165 188 0
162 185 0
160 183 0
165 188 0
169 192 0
163 187 0
166 188 0
167 191 0
165 188 0
166 189 0
166 190 0
168 191 0
156 178 0
165 186 0
168 191 0
162 184 0
162 185 0
165 188 0
166 188 0
163 186 0
164 188 0
168 191 0
162 186 0
160 183 0
166 190 0
163 186 0
163 186 0
169 192 0
166 189 0
166 189 0
165 188 0
163 185 0
164 186 0
167 190 0
158 180 0
159 180 0
164 188 0
166 189 0
165 187 0
168 190 0
164 187 0
169 192 0
163 186 0
159 181 0
165 187 0
163 186 0
168 191 0
165 189 0
166 188 0
164 187 0
166 188 0
169 192 0
166 189 0
167 190 0
165 187 0
162 183 0
163 186 0
164 186 0
168 189 0
163 186 0
168 190 0
165 186 0
160 182 0
165 188 0
161 183 0
161 183 0
160 183 0
160 182 0
162 185 0
168 191 0
168 190 0
160 183 0
160 182 0
168 188 0
163 185 0
166 188 0
162 186 0
162 184 0
162 184 0
168 192 0
165 185 0
165 187 0
171 193 0
161 183 0
164 186 0
165 187 0
163 187 0
162 183 0
167 189 0
162 184 0
165 188 0
167 190 0
166 188 0
163 185 0
166 188 0
163 186 0
169 192 0
165 188 0
159 181 0
161 183 0
163 185 0
165 187 0
160 183 0
163 184 0
162 184 0
162 183 0
164 186 0
160 182 0
163 184 0
167 190 0
164 186 0
168 191 0
164 186 0
164 185 0
165 186 0
164 185 0
162 186 0
161 181 0
164 184 0
167 189 0
165 187 0
159 181 0
163 184 0
162 183 0
160 183 0
160 179 0
163 184 0
164 185 0
165 187 0
164 184 0
161 183 0
167 188 0
164 185 0
162 184 0
166 187 0
164 185 0
162 182 0
166 188 0
170 190 0
166 188 0
168 189 0
166 188 0
162 185 0
167 187 0
166 188 0
163 184 0
162 183 0
164 185 0
169 189 0
166 187 0
160 180 0
161 181 0
164 183 0
167 189 0
161 181 0
164 184 0
162 182 0
167 188 0
167 186 0
165 185 0
164 183 0
165 186 0
168 189 0
167 190 0
170 191 0
164 185 0
160 180 0
167 187 0
166 185 0
167 187 0
165 186 0
166 186 0
164 185 0
166 186 0
164 184 0
165 184 0
168 187 0
167 186 0
166 186 0
162 180 0
167 187 0
168 187 0
167 189 0
167 186 0
168 188 0
166 186 0
167 187 0
160 179 0
170 191 0
168 188 0
168 187 0
165 184 0
167 188 0
170 189 0
170 191 0
170 190 0
168 189 0
165 185 0
165 184 0
167 189 0
167 186 0
168 187 0
170 192 0
170 189 0
169 189 0
168 188 0
168 188 0
171 192 0
168 189 0
167 186 0
168 188 0
165 186 0
170 188 0
165 183 0
168 189 0
170 190 0
169 190 0
169 190 0
167 187 0
169 190 0
169 188 0
170 190 0
169 189 0
170 191 0
169 188 0
167 186 0
165 183 0
171 190 0
168 188 0
170 189 0
169 188 0
170 190 0
170 189 0
170 191 0
167 187 0
169 189 0
173 195 0
169 187 0
170 190 0
169 190 0
170 190 0
171 192 0
172 194 0
168 189 0
170 193 0
171 191 0
169 191 0
172 193 0
171 193 0
169 190 0
169 188 0
169 190 0
171 191 0
169 190 0
174 197 0
171 195 0
172 195 0
171 195 0
171 196 0
171 195 0
173 197 0
174 197 0
169 193 0
171 195 0
171 195 0
171 195 0
172 195 0
172 195 0
171 195 0
171 195 0
172 196 0
174 197 0
169 193 0
173 195 0
169 192 0
173 196 0
168 192 0
172 196 0
173 196 0
172 195 0
169 193 0
170 193 0
171 193 0
172 195 0
173 196 0
169 193 0
170 194 0
170 194 0
171 195 0
169 193 0
171 195 0
170 194 0
172 196 0
169 192 0
173 196 0
171 195 0
174 197 0
170 193 0
174 197 0
168 192 0
172 196 0
169 193 0
171 195 0
168 192 0
168 192 0
170 194 0
172 196 0
168 190 0
170 194 0
168 192 0
172 195 0
169 193 0
167 190 0
171 194 0
167 191 0
172 195 0
167 191 0
167 190 0
172 195 0
171 195 0
167 190 0
169 193 0
168 192 0
171 194 0
171 195 0
167 190 0
170 193 0
168 191 0
172 195 0
167 190 0
167 191 0
170 194 0
170 193 0
168 193 0
169 194 0
168 192 0
166 189 0
165 189 0
168 191 0
166 190 0
170 193 0
167 191 0
168 192 0
167 191 0
169 192 0
170 193 0
166 189 0
167 190 0
165 189 0
171 194 0
165 188 0
170 194 0
167 191 0
168 191 0
170 193 0
170 193 0
171 195 0
169 192 0
165 187 0
167 191 0
168 192 0
170 193 0
164 187 0
165 189 0
162 186 0
164 187 0
168 191 0
166 190 0
171 194 0
166 190 0
164 187 0
167 190 0
170 194 0
165 189 0
166 189 0
166 190 0
169 193 0
164 188 0
167 191 0
166 189 0
168 192 0
168 191 0
165 189 0
163 186 0
169 192 0
165 186 0
170 193 0
164 187 0
171 193 0
166 190 0
168 191 0
167 191 0
165 188 0
166 189 0
165 188 0
168 191 0
167 191 0
164 188 0
163 185 0
168 190 0
164 188 0
166 190 0
168 191 0
167 189 0
162 186 0
166 190 0
164 187 0
163 187 0
166 189 0
162 186 0
167 190 0
165 188 0
164 186 0
161 184 0
165 188 0
163 186 0
167 191 0
165 188 0
162 184 0
167 192 0
163 186 0
167 192 0
163 186 0
159 182 0
160 183 0
166 189 0
170 193 0
167 190 0
166 189 0
164 188 0
161 184 0
161 185 0
165 189 0
162 185 0
168 191 0
164 188 0
164 186 0
163 186 0
166 189 0
166 189 0
163 185 0
160 182 0
166 189 0
163 185 0
163 186 0
163 186 0
166 187 0
164 187 0
163 185 0
167 189 0
163 185 0
160 183 0
167 189 0
167 190 0
167 189 0
167 190 0
162 185 0
164 187 0
159 182 0
169 192 0
162 186 0
164 187 0
166 190 0
166 189 0
162 184 0
162 184 0
162 184 0
163 186 0
162 184 0
161 185 0
166 188 0
166 189 0
167 191 0
169 191 0
166 189 0
163 186 0
162 185 0
163 186 0
167 188 0
158 181 0
161 184 0
163 186 0
169 192 0
166 188 0
163 184 0
165 188 0
163 186 0
166 189 0
165 186 0
162 185 0
166 188 0
162 182 0
163 185 0
166 187 0
165 187 0
167 189 0
166 187 0
162 186 0
163 186 0
162 183 0
164 187 0
164 185 0
168 188 0
165 187 0
165 186 0
166 187 0
166 189 0
166 187 0
164 185 0
165 187 0
160 181 0
163 184 0
159 180 0
167 190 0
162 184 0
167 188 0
163 186 0
163 185 0
170 192 0
162 185 0
165 187 0
166 189 0
167 188 0
163 185 0
166 188 0
162 181 0
167 188 0
164 184 0
165 186 0
164 184 0
167 189 0
163 185 0
167 186 0
161 181 0
162 185 0
163 184 0
162 182 0
160 180 0
163 184 0
165 185 0
163 184 0
166 187 0
166 187 0
167 188 0
165 185 0
165 185 0
161 183 0
165 186 0
163 185 0
167 186 0
169 190 0
166 186 0
163 182 0
170 190 0
167 187 0
165 186 0
165 184 0
164 184 0
168 187 0
169 189 0
164 184 0
166 185 0
166 186 0
164 185 0
165 185 0
168 189 0
168 190 0
165 185 0
169 189 0
163 183 0
166 187 0
160 180 0
161 180 0
167 186 0
166 188 0
168 190 0
165 186 0
164 182 0
163 181 0
164 183 0
168 188 0
165 186 0
167 189 0
168 188 0
168 187 0
168 187 0
167 187 0
169 189 0
162 179 0
165 185 0
167 188 0
166 187 0
165 183 0
172 191 0
166 187 0
162 181 0
165 186 0
167 187 0
168 188 0
167 187 0
165 186 0
165 184 0
168 189 0
168 188 0
170 190 0
171 192 0
168 188 0
172 193 0
167 187 0
167 186 0
168 187 0
169 190 0
172 191 0
171 192 0
165 185 0
165 185 0
168 188 0
171 190 0
170 189 0
170 188 0
168 189 0
171 193 0
165 184 0
171 193 0
171 192 0
172 193 0
170 191 0
171 191 0
167 186 0
171 191 0
170 190 0
171 193 0
169 188 0
168 188 0
170 192 0
168 189 0
169 191 0
170 192 0
168 189 0
170 188 0
170 189 0
168 188 0
172 193 0
169 188 0
166 187 0
173 194 0
168 187 0
170 191 0
169 190 0
172 193 0
167 188 0
172 193 0
170 191 0
173 195 0
170 193 0
172 196 0
172 196 0
173 197 0
170 194 0
171 195 0
170 194 0
171 194 0
174 197 0
172 196 0
171 194 0
173 195 0
174 196 0
171 195 0
171 194 0
171 194 0
170 194 0
174 197 0
166 189 0
174 197 0
171 194 0
172 195 0
172 195 0
172 195 0
170 194 0
174 196 0
171 195 0
168 192 0
169 192 0
174 197 0
172 195 0
170 194 0
170 194 0
171 195 0
173 196 0
170 193 0
169 193 0
172 196 0
170 193 0
174 197 0
169 192 0
169 192 0
166 190 0
173 197 0
174 197 0
171 195 0
167 189 0
170 194 0
170 193 0
168 191 0
168 192 0
170 193 0
173 196 0
171 194 0
170 192 0
170 194 0
171 194 0
168 192 0
169 193 0
171 194 0
172 195 0
166 189 0
170 194 0
166 190 0
167 192 0
170 193 0
171 195 0
168 191 0
170 194 0
170 194 0
168 192 0
169 192 0
172 195 0
166 189 0
171 195 0
169 192 0
168 191 0
166 190 0
170 193 0
169 193 0
169 192 0
170 194 0
172 195 0
171 194 0
164 188 0
170 193 0
166 189 0
167 191 0
165 188 0
169 193 0
169 192 0
172 195 0
169 193 0
171 194 0
169 192 0
166 190 0
171 194 0
166 190 0
172 195 0
168 191 0
163 187 0
168 192 0
166 190 0
168 193 0
166 189 0
170 193 0
169 193 0
164 188 0
170 194 0
165 188 0
172 195 0
170 194 0
167 191 0
168 192 0
167 192 0
163 187 0
168 192 0
164 186 0
171 194 0
168 191 0
170 193 0
162 186 0
164 187 0
170 194 0
170 192 0
160 182 0
168 191 0
169 193 0
168 192 0
166 189 0
167 190 0
168 191 0
169 192 0
168 191 0
169 193 0
165 188 0
167 191 0
162 185 0
165 189 0
161 185 0
168 192 0
167 190 0
167 189 0
167 190 0
167 190 0
169 191 0
167 191 0
164 187 0
167 191 0
167 190 0
164 186 0
165 188 0
163 186 0
168 190 0
167 189 0
169 192 0
168 191 0
165 188 0
166 190 0
158 181 0
168 190 0
163 186 0
163 185 0
158 181 0
167 190 0
167 190 0
163 186 0
165 188 0
173 195 0
164 186 0
164 186 0
168 191 0
168 191 0
165 189 0
168 190 0
161 183 0
166 188 0
159 183 0
161 184 0
158 180 0
160 181 0
160 183 0
162 184 0
168 191 0
163 187 0
163 186 0
163 187 0
165 188 0
165 186 0
160 183 0
163 185 0
162 185 0
165 187 0
161 183 0
167 190 0
165 187 0
164 186 0
164 187 0
165 189 0
165 189 0
164 187 0
160 182 0
161 182 0
165 188 0
164 186 0
168 191 0
164 187 0
169 192 0
163 185 0
167 190 0
164 187 0
165 188 0
164 187 0
164 187 0
169 191 0
168 190 0
167 189 0
166 189 0
164 186 0
160 183 0
166 187 0
161 183 0
167 189 0
165 188 0
164 185 0
164 185 0
167 189 0
166 189 0
162 184 0
167 188 0
165 187 0
168 190 0
165 187 0
162 184 0
160 183 0
163 186 0
165 188 0
163 185 0
164 187 0
163 184 0
166 188 0
159 181 0
162 185 0
162 183 0
164 186 0
164 186 0
164 186 0
164 186 0
159 181 0
166 187 0
167 187 0
164 186 0
165 186 0
163 185 0
162 184 0
164 187 0
164 186 0
160 182 0
163 184 0
160 183 0
163 184 0
169 189 0
167 188 0
166 187 0
163 186 0
160 181 0
168 190 0
170 191 0
162 182 0
166 189 0
162 183 0
165 187 0
167 188 0
167 188 0
163 184 0
164 187 0
163 185 0
166 186 0
162 181 0
165 187 0
163 185 0
170 191 0
161 183 0
169 190 0
165 187 0
166 190 0
167 188 0
165 186 0
163 185 0
170 190 0
164 185 0
165 186 0
165 185 0
167 188 0
167 186 0
164 184 0
166 186 0
166 186 0
163 183 0
164 186 0
166 185 0
165 183 0
167 188 0
168 188 0
170 191 0
168 189 0
164 183 0
164 184 0
165 185 0
168 190 0
162 182 0
166 187 0
167 188 0
165 184 0
170 193 0
168 188 0
168 186 0
170 191 0
166 187 0
163 184 0
167 188 0
168 188 0
164 184 0
168 189 0
167 185 0
168 187 0
170 188 0
166 187 0
165 185 0
166 184 0
167 187 0
164 184 0
163 183 0
170 189 0
166 187 0
167 187 0
167 186 0
168 189 0
164 182 0
168 186 0
171 191 0
166 185 0
165 185 0
169 188 0
166 185 0
169 186 0
167 185 0
168 188 0
168 185 0
168 188 0
168 188 0
170 190 0
165 186 0
167 187 0
168 189 0
170 191 0
170 189 0
167 188 0
169 191 0
164 184 0
167 188 0
169 189 0
167 188 0
169 189 0
170 191 0
167 185 0
168 188 0
169 188 0
168 190 0
171 193 0
169 189 0
168 188 0
167 188 0
169 188 0
169 190 0
171 192 0
170 190 0
167 187 0
171 192 0
170 190 0
169 188 0
170 189 0
171 191 0
171 192 0
170 191 0
172 192 0
164 184 0
169 189 0
170 190 0
170 191 0
168 187 0
169 190 0
171 193 0
167 187 0
169 190 0
169 191 0
168 188 0
170 191 0
168 189 0
173 194 0
172 195 0
174 197 0
172 196 0
172 195 0
171 195 0
173 196 0
173 196 0
168 192 0
173 196 0
171 195 0
174 197 0
171 194 0
172 195 0
169 192 0
172 195 0
170 194 0
171 195 0
172 196 0
171 195 0
171 194 0
172 195 0
171 195 0
172 195 0
172 195 0
172 196 0
173 196 0
169 192 0
170 193 0
170 194 0
170 194 0
168 192 0
173 197 0
171 195 0
172 195 0
173 197 0
169 192 0
169 193 0
170 193 0
173 196 0
170 193 0
170 193 0
172 196 0
169 193 0
172 196 0
173 196 0
171 194 0
173 197 0
170 193 0
171 195 0
171 194 0
171 195 0
171 194 0
171 193 0
172 195 0
164 188 0
169 192 0
170 194 0
171 195 0
167 191 0
171 194 0
171 195 0
168 192 0
168 192 0
173 197 0
171 194 0
170 194 0
169 193 0
169 192 0
168 192 0
167 190 0
167 190 0
170 193 0
169 194 0
169 192 0
170 192 0
171 194 0
170 193 0
169 193 0
167 189 0
172 195 0
169 192 0
170 192 0
170 193 0
166 190 0
169 192 0
171 194 0
167 190 0
172 195 0
165 189 0
169 192 0
168 191 0
167 190 0
165 188 0
170 193 0
169 193 0
166 189 0
169 192 0
168 192 0
170 194 0
169 192 0
168 191 0
167 191 0
168 191 0
162 186 0
168 192 0
168 191 0
169 192 0
163 187 0
164 188 0
169 192 0
166 189 0
165 188 0
165 188 0
171 194 0
164 187 0
165 189 0
170 194 0
167 191 0
166 191 0
165 188 0
169 192 0
168 192 0
163 188 0
167 190 0
162 186 0
166 190 0
168 191 0
168 191 0
168 190 0
169 192 0
166 188 0
163 186 0
163 186 0
167 190 0
168 191 0
167 190 0
167 190 0
165 189 0
164 186 0
168 191 0
168 191 0
166 189 0
167 191 0
168 191 0
166 190 0
164 187 0
168 192 0
166 189 0
164 187 0
164 185 0
166 188 0
167 190 0
165 189 0
166 189 0
170 193 0
168 191 0
167 190 0
162 186 0
169 191 0
167 191 0
164 187 0
166 189 0
165 188 0
163 186 0
165 189 0
160 180 0
168 191 0
162 185 0
169 192 0
166 189 0
165 188 0
167 190 0
164 187 0
167 190 0
169 191 0
166 190 0
171 193 0
167 189 0
165 189 0
161 184 0
163 187 0
160 183 0
164 188 0
159 182 0
168 191 0
162 186 0
166 188 0
161 185 0
165 186 0
163 186 0
166 188 0
165 188 0
157 180 0
168 191 0
164 186 0
158 181 0
160 183 0
163 185 0
163 186 0
163 186 0
162 185 0
165 187 0
163 186 0
161 183 0
165 187 0
168 190 0
166 187 0
162 186 0
163 187 0
170 193 0
165 188 0
166 189 0
163 185 0
165 187 0
161 184 0
160 182 0
165 189 0
167 190 0
160 182 0
162 184 0
167 189 0
165 187 0
166 188 0
164 187 0
164 186 0
160 183 0
166 189 0
164 186 0
167 190 0
161 184 0
163 186 0
166 188 0
165 188 0
163 184 0
165 186 0
164 186 0
166 190 0
169 191 0
167 189 0
169 191 0
163 186 0
160 183 0
161 182 0
160 182 0
166 188 0
157 179 0
159 179 0
164 186 0
162 183 0
169 191 0
168 190 0
163 184 0
163 184 0
161 183 0
161 182 0
162 183 0
166 188 0
165 185 0
161 181 0
164 186 0
162 183 0
162 183 0
165 186 0
166 189 0
165 186 0
158 179 0
164 186 0
161 182 0
162 183 0
161 181 0
169 191 0
166 187 0
164 185 0
165 187 0
166 187 0
162 182 0
162 185 0
163 183 0
167 188 0
167 188 0
166 187 0
165 185 0
165 187 0
161 182 0
166 187 0
165 187 0
168 189 0
167 188 0
160 181 0
167 187 0
161 181 0
168 189 0
163 184 0
167 187 0
167 187 0
163 183 0
164 185 0
167 187 0
162 184 0
164 184 0
165 185 0
165 187 0
164 185 0
168 189 0
159 178 0
160 181 0
165 185 0
170 191 0
164 185 0
168 189 0
163 184 0
165 186 0
167 187 0
167 188 0
166 186 0
165 186 0
166 187 0
167 188 0
167 188 0
168 189 0
164 185 0
166 186 0
168 187 0
163 181 0
164 184 0
169 190 0
165 185 0
167 187 0
168 190 0
170 190 0
163 182 0
166 185 0
169 190 0
168 188 0
164 186 0
167 187 0
167 188 0
167 187 0
169 190 0
167 186 0
166 185 0
165 185 0
171 193 0
170 189 0
167 187 0
170 189 0
167 188 0
166 188 0
168 188 0
169 190 0
168 189 0
172 193 0
167 188 0
164 183 0
167 187 0
168 188 0
163 181 0
166 184 0
167 187 0
167 186 0
170 188 0
169 190 0
171 191 0
169 188 0
169 192 0
170 191 0
167 187 0
170 189 0
169 191 0
169 190 0
167 188 0
170 190 0
169 189 0
168 188 0
168 189 0
166 185 0
173 192 0
170 190 0
171 192 0
171 191 0
168 190 0
170 191 0
170 192 0
169 190 0
170 191 0
169 189 0
168 188 0
167 190 0
170 191 0
167 189 0
170 192 0
169 189 0
167 187 0
172 194 0
174 195 0
171 190 0
171 192 0
172 192 0
170 189 0
171 192 0
173 196 0
172 196 0
169 192 0
173 197 0
174 198 0
172 196 0
172 194 0
171 195 0
170 195 0
172 196 0
173 196 0
172 195 0
171 194 0
171 195 0
171 195 0
170 193 0
173 196 0
172 195 0
172 195 0
170 194 0
174 197 0
170 194 0
167 190 0
172 196 0
168 192 0
173 196 0
169 192 0
170 193 0
172 195 0
174 197 0
171 194 0
168 191 0
171 194 0
168 191 0
168 191 0
170 193 0
172 194 0
168 191 0
165 189 0
171 194 0
170 194 0
172 195 0
173 196 0
172 195 0
172 196 0
169 193 0
169 192 0
169 193 0
170 194 0
170 193 0
171 194 0
173 196 0
172 195 0
169 192 0
167 190 0
168 192 0
165 189 0
168 191 0
169 192 0
171 194 0
169 193 0
170 194 0
170 194 0
168 192 0
167 190 0
165 188 0
167 190 0
166 190 0
170 193 0
171 195 0
170 194 0
167 190 0
171 195 0
169 192 0
171 194 0
165 188 0
169 193 0
173 196 0
170 193 0
171 195 0
169 193 0
172 195 0
172 195 0
165 189 0
168 191 0
171 194 0
166 189 0
170 192 0
167 191 0
168 191 0
165 190 0
168 191 0
168 191 0
170 193 0
167 191 0
172 196 0
172 195 0
165 188 0
170 195 0
169 193 0
164 188 0
163 186 0
164 188 0
167 190 0
170 194 0
169 192 0
168 192 0
166 190 0
168 191 0
167 191 0
169 192 0
169 192 0
166 190 0
167 191 0
171 194 0
164 187 0
165 188 0
169 192 0
171 195 0
169 193 0
169 192 0
166 189 0
171 194 0
167 190 0
167 191 0
170 194 0
163 187 0
171 193 0
167 190 0
165 189 0
170 193 0
164 188 0
168 191 0
167 189 0
164 187 0
161 185 0
166 189 0
168 191 0
167 190 0
168 191 0
169 191 0
168 191 0
166 190 0
167 191 0
165 188 0
171 193 0
166 189 0
167 190 0
170 193 0
168 192 0
166 189 0
164 186 0
169 191 0
164 187 0
167 188 0
166 189 0
168 191 0
165 187 0
160 182 0
171 194 0
166 188 0
165 187 0
168 192 0
165 188 0
164 186 0
163 186 0
156 180 0
168 191 0
164 187 0
164 187 0
162 186 0
161 184 0
167 190 0
162 185 0
166 189 0
164 187 0
164 186 0
166 189 0
164 188 0
166 189 0
168 190 0
170 192 0
168 192 0
161 184 0
164 186 0
168 192 0
166 189 0
163 186 0
162 186 0
164 185 0
164 187 0
163 186 0
162 184 0
160 182 0
168 190 0
162 186 0
161 183 0
165 187 0
165 189 0
165 189 0
162 186 0
166 189 0
164 188 0
162 185 0
165 189 0
168 191 0
163 185 0
164 186 0
164 186 0
167 190 0
167 189 0
162 185 0
158 180 0
168 191 0
168 190 0
168 191 0
164 186 0
157 179 0
165 186 0
160 182 0
164 188 0
166 188 0
158 180 0
162 185 0
167 191 0
166 189 0
162 183 0
159 181 0
164 187 0
163 185 0
167 189 0
165 188 0
159 181 0
166 188 0
161 183 0
160 182 0
161 183 0
166 188 0
163 184 0
161 183 0
166 187 0
165 186 0
165 186 0
165 186 0
162 185 0
168 189 0
159 181 0
163 185 0
164 185 0
162 185 0
160 182 0
165 186 0
167 189 0
163 185 0
164 186 0
163 184 0
169 191 0
165 188 0
166 189 0
163 186 0
162 184 0
163 185 0
167 189 0
167 189 0
162 184 0
162 184 0
166 187 0
169 192 0
162 184 0
166 186 0
164 186 0
164 186 0
166 187 0
164 186 0
166 188 0
168 191 0
165 187 0
164 185 0
168 191 0
166 187 0
161 181 0
168 190 0
163 184 0
167 188 0
164 185 0
167 191 0
168 190 0
164 184 0
165 187 0
169 189 0
168 190 0
165 185 0
166 189 0
164 186 0
164 185 0
162 184 0
164 184 0
168 191 0
166 187 0
165 186 0
162 182 0
162 183 0
168 188 0
160 180 0
168 191 0
167 188 0
165 183 0
168 192 0
168 190 0
166 188 0
168 189 0
166 187 0
167 189 0
167 188 0
168 189 0
166 188 0
166 187 0
159 178 0
166 187 0
165 185 0
168 190 0
163 181 0
164 184 0
167 189 0
166 185 0
164 181 0
167 187 0
164 184 0
171 191 0
168 188 0
170 191 0
165 184 0
167 186 0
165 185 0
169 189 0
165 183 0
167 187 0
165 186 0
169 189 0
170 188 0
164 183 0
166 186 0
168 189 0
168 189 0
166 186 0
167 186 0
169 188 0
165 185 0
164 184 0
171 190 0
167 186 0
167 188 0
171 192 0
169 189 0
169 189 0
169 189 0
165 184 0
169 191 0
167 187 0
168 188 0
169 189 0
167 188 0
170 189 0
168 188 0
168 187 0
168 189 0
171 192 0
166 187 0
171 192 0
166 186 0
170 189 0
168 189 0
169 189 0
172 191 0
170 191 0
167 187 0
168 187 0
169 189 0
170 189 0
170 193 0
172 193 0
169 190 0
172 194 0
168 188 0
168 189 0
172 192 0
168 189 0
169 190 0
172 193 0
171 190 0
173 193 0
169 189 0
172 194 0
169 190 0
169 190 0
172 194 0
170 191 0
172 192 0
170 190 0
170 191 0
171 194 0
174 197 0
173 196 0
172 196 0
170 194 0
172 195 0
172 196 0
172 196 0
169 192 0
172 196 0
168 192 0
172 196 0
171 194 0
173 196 0
172 196 0
171 194 0
175 198 0
171 194 0
172 195 0
173 196 0
172 196 0
172 196 0
171 195 0
172 196 0
171 194 0
170 194 0
167 191 0
168 192 0
171 195 0
170 194 0
173 196 0
170 194 0
171 194 0
172 195 0
170 194 0
171 195 0
168 192 0
168 191 0
170 194 0
167 190 0
171 194 0
171 195 0
172 195 0
172 195 0
172 194 0
170 194 0
170 192 0
173 195 0
168 192 0
169 193 0
169 192 0
169 193 0
169 192 0
168 192 0
172 196 0
170 193 0
170 194 0
170 194 0
173 197 0
170 193 0
170 193 0
171 194 0
172 194 0
167 192 0
170 193 0
169 193 0
168 192 0
167 190 0
168 192 0
164 187 0
172 195 0
168 192 0
172 196 0
168 191 0
168 191 0
172 195 0
171 195 0
170 193 0
170 194 0
166 190 0
168 191 0
165 188 0
169 192 0
167 191 0
170 193 0
170 194 0
170 193 0
169 192 0
170 194 0
173 196 0
164 187 0
170 193 0
166 189 0
170 194 0
165 189 0
169 192 0
165 189 0
170 193 0
169 192 0
168 191 0
168 191 0
165 189 0
165 187 0
167 191 0
166 188 0
163 187 0
165 188 0
164 187 0
166 189 0
170 194 0
170 194 0
166 189 0
163 187 0
169 192 0
167 190 0
164 187 0
165 187 0
168 191 0
169 192 0
167 190 0
169 192 0
165 189 0
166 189 0
167 190 0
164 187 0
172 195 0
164 187 0
164 186 0
163 187 0
163 187 0
170 193 0
168 191 0
167 190 0
168 192 0
169 193 0
168 192 0
162 185 0
166 188 0
167 190 0
163 188 0
167 190 0
165 188 0
163 186 0
163 187 0
168 192 0
168 192 0
168 191 0
161 184 0
167 188 0
167 190 0
166 189 0
167 190 0
165 187 0
167 191 0
171 194 0
167 191 0
167 189 0
165 188 0
167 189 0
161 182 0
168 190 0
162 187 0
163 186 0
166 188 0
165 187 0
165 188 0
163 186 0
163 187 0
160 182 0
167 190 0
164 187 0
168 191 0
167 190 0
162 184 0
169 192 0
166 187 0
160 182 0
165 189 0
162 185 0
167 190 0
164 187 0
165 187 0
166 189 0
165 188 0
167 190 0
165 187 0
169 191 0
165 188 0
162 184 0
167 190 0
167 190 0
161 184 0
160 183 0
165 189 0
165 187 0
163 186 0
167 189 0
164 187 0
164 186 0
163 187 0
166 189 0
167 191 0
160 183 0
165 189 0
166 189 0
163 186 0
164 187 0
166 188 0
166 189 0
157 179 0
161 183 0
168 190 0
166 190 0
159 181 0
166 189 0
166 188 0
163 185 0
168 189 0
165 188 0
159 181 0
161 184 0
161 183 0
164 186 0
163 185 0
165 187 0
164 187 0
162 184 0
168 191 0
163 187 0
164 186 0
166 189 0
164 188 0
164 185 0
163 185 0
162 184 0
169 190 0
160 182 0
166 189 0
164 186 0
164 185 0
162 184 0
159 182 0
168 190 0
165 185 0
165 187 0
163 187 0
164 187 0
164 186 0
162 183 0
165 187 0
158 180 0
165 186 0
162 184 0
165 187 0
164 187 0
166 187 0
162 184 0
164 183 0
166 188 0
163 185 0
166 188 0
161 183 0
160 181 0
165 188 0
162 183 0
166 188 0
160 182 0
163 186 0
162 183 0
171 193 0
166 188 0
169 192 0
163 185 0
166 188 0
168 190 0
166 187 0
164 186 0
166 187 0
167 190 0
159 178 0
163 184 0
162 180 0
166 187 0
165 186 0
166 187 0
164 185 0
165 187 0
165 185 0
163 185 0
166 187 0
163 183 0
171 192 0
166 188 0
168 189 0
167 189 0
168 189 0
167 188 0
166 186 0
161 181 0
165 186 0
167 187 0
167 187 0
160 181 0
163 185 0
166 187 0
167 186 0
167 187 0
165 185 0
164 185 0
165 185 0
172 192 0
167 187 0
167 188 0
166 187 0
163 183 0
163 184 0
167 188 0
166 188 0
165 185 0
168 187 0
166 187 0
167 187 0
164 184 0
164 183 0
166 186 0
168 188 0
167 186 0
170 191 0
165 187 0
164 181 0
167 188 0
170 190 0
166 186 0
163 183 0
168 188 0
169 190 0
168 188 0
170 192 0
166 186 0
169 189 0
172 193 0
171 190 0
164 183 0
170 189 0
170 190 0
168 188 0
168 188 0
167 187 0
166 187 0
163 184 0
170 191 0
167 188 0
162 181 0
168 187 0
166 186 0
170 190 0
168 188 0
169 189 0
170 191 0
168 189 0
170 191 0
171 191 0
171 192 0
170 190 0
168 188 0
170 192 0
167 186 0
171 191 0
166 185 0
169 190 0
170 190 0
167 188 0
168 187 0
167 188 0
172 192 0
169 191 0
165 185 0
168 189 0
170 189 0
169 188 0
172 192 0
169 190 0
168 188 0
168 188 0
167 187 0
170 193 0
167 186 0
171 190 0
170 188 0
170 190 0
168 187 0
171 192 0
172 191 0
168 189 0
168 189 0
169 188 0
168 186 0
171 191 0
172 193 0
168 188 0
171 194 0
173 196 0
174 197 0
174 197 0
170 194 0
171 194 0
172 196 0
172 195 0
170 194 0
174 198 0
169 193 0
170 193 0
170 193 0
173 196 0
172 195 0
170 194 0
171 194 0
170 194 0
172 195 0
170 193 0
170 193 0
170 194 0
170 194 0
171 195 0
171 194 0
174 197 0
171 195 0
171 193 0
171 193 0
172 196 0
170 194 0
169 193 0
171 194 0
174 196 0
167 190 0
172 195 0
171 195 0
173 196 0
171 194 0
172 195 0
167 191 0
174 197 0
170 194 0
173 195 0
172 195 0
166 189 0
170 193 0
169 191 0
171 194 0
170 194 0
170 193 0
171 194 0
171 195 0
170 193 0
170 193 0
168 192 0
171 193 0
168 192 0
168 191 0
170 194 0
167 191 0
169 193 0
167 190 0
167 191 0
168 192 0
171 194 0
171 194 0
165 189 0
170 193 0
167 190 0
168 191 0
170 194 0
166 189 0
169 192 0
169 193 0
169 192 0
168 192 0
169 193 0
170 194 0
169 193 0
167 190 0
163 187 0
171 195 0
167 191 0
170 194 0
169 192 0
163 186 0
165 188 0
165 188 0
169 192 0
169 192 0
165 188 0
170 194 0
168 191 0
168 191 0
169 192 0
170 193 0
170 193 0
165 188 0
166 190 0
171 195 0
168 192 0
166 189 0
167 191 0
169 193 0
170 193 0
167 191 0
168 191 0
167 191 0
167 190 0
164 186 0
170 193 0
170 193 0
169 192 0
169 192 0
170 193 0
171 194 0
168 191 0
170 193 0
170 193 0
167 192 0
167 191 0
168 190 0
168 190 0
169 192 0
166 189 0
163 186 0
166 190 0
171 195 0
169 192 0
167 189 0
165 188 0
164 187 0
167 191 0
170 193 0
167 191 0
169 193 0
162 186 0
167 190 0
168 191 0
165 189 0
172 194 0
163 187 0
173 195 0
167 191 0
168 191 0
169 193 0
166 189 0
168 192 0
166 190 0
170 192 0
167 190 0
168 192 0
165 189 0
171 194 0
166 188 0
165 188 0
167 190 0
166 189 0
164 187 0
168 191 0
168 190 0
165 189 0
164 187 0
165 189 0
167 191 0
166 189 0
162 185 0
160 184 0
171 193 0
167 191 0
166 189 0
166 189 0
166 188 0
163 187 0
166 189 0
165 188 0
163 187 0
161 185 0
163 185 0
165 187 0
167 190 0
168 191 0
163 185 0
168 192 0
160 184 0
163 186 0
162 183 0
158 181 0
164 187 0
162 185 0
168 191 0
168 191 0
169 192 0
164 187 0
167 190 0
165 187 0
163 186 0
162 184 0
171 193 0
161 184 0
166 188 0
162 185 0
170 194 0
166 188 0
165 189 0
165 187 0
165 188 0
166 190 0
164 187 0
167 190 0
165 188 0
163 186 0
163 184 0
160 181 0
162 184 0
167 190 0
164 187 0
164 187 0
163 187 0
160 182 0
169 192 0
163 187 0
169 192 0
165 188 0
160 183 0
165 187 0
161 184 0
161 183 0
167 189 0
165 188 0
163 184 0
166 188 0
165 187 0
168 190 0
168 190 0
162 184 0
164 187 0
166 188 0
165 187 0
167 188 0
164 186 0
166 188 0
168 190 0
161 185 0
164 186 0
165 186 0
164 185 0
166 188 0
162 183 0
165 188 0
163 186 0
167 189 0
165 187 0
167 188 0
166 188 0
164 186 0
165 186 0
166 188 0
164 186 0
166 187 0
172 195 0
166 188 0
165 187 0
163 185 0
164 185 0
165 188 0
161 182 0
167 188 0
164 186 0
168 189 0
160 182 0
171 192 0
167 189 0
165 187 0
164 185 0
170 192 0
170 191 0
165 187 0
165 187 0
170 191 0
163 185 0
164 185 0
166 187 0
164 187 0
167 189 0
166 187 0
166 186 0
163 183 0
166 186 0
165 189 0
167 188 0
168 188 0
167 189 0
168 190 0
167 189 0
163 184 0
167 188 0
165 186 0
164 186 0
163 185 0
168 190 0
167 187 0
166 186 0
166 187 0
163 183 0
166 184 0
164 185 0
164 185 0
167 187 0
171 191 0
165 186 0
169 191 0
169 191 0
166 187 0
167 188 0
162 184 0
164 185 0
167 188 0
166 189 0
168 188 0
163 183 0
165 186 0
169 190 0
166 188 0
166 185 0
166 186 0
166 188 0
165 186 0
169 189 0
168 187 0
165 184 0
171 192 0
168 189 0
166 187 0
162 183 0
167 187 0
167 186 0
164 186 0
166 185 0
167 188 0
166 186 0
169 189 0
168 189 0
167 186 0
169 192 0
166 184 0
170 189 0
165 185 0
166 185 0
168 189 0
166 185 0
166 185 0
165 184 0
165 185 0
166 183 0
172 193 0
166 187 0
166 185 0
166 186 0
169 189 0
168 189 0
167 188 0
168 189 0
167 188 0
169 189 0
169 189 0
167 187 0
167 188 0
171 193 0
168 186 0
170 187 0
170 192 0
170 189 0
168 190 0
169 188 0
168 186 0
171 192 0
168 188 0
170 190 0
166 186 0
169 189 0
169 190 0
164 184 0
169 191 0
172 193 0
165 185 0
169 190 0
169 189 0
168 189 0
171 191 0
171 191 0
167 187 0
169 190 0
169 191 0
169 189 0
167 186 0
168 190 0
171 192 0
170 190 0
171 195 0
172 195 0
172 196 0
172 196 0
173 196 0
174 197 0
171 194 0
171 195 0
171 195 0
169 193 0
170 193 0
171 195 0
170 193 0
171 193 0
168 191 0
174 197 0
171 195 0
169 191 0
171 195 0
174 197 0
171 195 0
171 194 0
172 195 0
171 195 0
169 193 0
170 193 0
174 197 0
169 193 0
170 194 0
170 193 0
172 195 0
172 196 0
172 196 0
170 195 0
169 192 0
168 193 0
170 193 0
169 191 0
170 193 0
168 192 0
171 195 0
165 188 0
167 192 0
171 194 0
167 191 0
167 190 0
170 193 0
169 192 0
169 193 0
170 193 0
169 192 0
172 194 0
169 192 0
170 193 0
171 194 0
171 193 0
167 190 0
171 195 0
171 194 0
171 194 0
167 191 0
170 194 0
169 193 0
172 195 0
168 191 0
167 189 0
167 190 0
167 190 0
170 193 0
168 191 0
171 195 0
169 192 0
172 197 0
170 194 0
169 192 0
170 193 0
170 193 0
170 194 0
165 188 0
170 194 0
168 190 0
167 190 0
169 193 0
167 190 0
172 196 0
171 193 0
167 190 0
169 192 0
170 193 0
167 190 0
170 193 0
171 194 0
169 192 0
169 192 0
171 195 0
167 191 0
170 193 0
162 185 0
169 193 0
167 191 0
163 186 0
166 188 0
170 193 0
166 190 0
164 188 0
166 189 0
165 188 0
168 191 0
170 193 0
167 190 0
170 193 0
166 187 0
167 190 0
168 191 0
168 191 0
169 191 0
169 193 0
167 190 0
171 195 0
169 192 0
168 192 0
164 187 0
165 188 0
170 192 0
166 189 0
168 191 0
170 193 0
167 191 0
170 193 0
167 190 0
168 191 0
166 190 0
165 188 0
165 187 0
166 188 0
163 187 0
167 190 0
164 187 0
170 192 0
167 190 0
162 184 0
163 186 0
165 188 0
164 187 0
167 190 0
166 188 0
167 190 0
162 185 0
167 190 0
165 188 0
166 188 0
167 190 0
162 186 0
164 187 0
161 184 0
163 186 0
167 191 0
167 190 0
168 191 0
161 183 0
167 191 0
164 186 0
161 184 0
165 188 0
165 189 0
166 189 0
167 190 0
165 188 0
164 186 0
168 192 0
161 184 0
168 191 0
161 184 0
166 188 0
165 188 0
163 185 0
167 189 0
166 189 0
169 192 0
165 188 0
166 188 0
164 186 0
165 188 0
165 188 0
164 187 0
161 183 0
166 189 0
167 189 0
164 186 0
165 188 0
162 184 0
164 188 0
169 192 0
163 184 0
166 188 0
164 186 0
167 189 0
165 188 0
166 188 0
165 188 0
163 186 0
166 188 0
172 194 0
170 193 0
165 188 0
164 187 0
159 181 0
162 186 0
164 187 0
165 186 0
162 184 0
162 184 0
161 184 0
165 186 0
166 188 0
165 188 0
164 188 0
164 185 0
163 185 0
167 189 0
164 186 0
170 193 0
164 187 0
162 185 0
164 186 0
165 188 0
165 188 0
162 185 0
167 189 0
166 190 0
165 189 0
166 188 0
160 182 0
164 185 0
165 187 0
167 189 0
158 179 0
168 191 0
163 185 0
166 188 0
160 183 0
160 182 0
168 190 0
166 187 0
165 186 0
164 186 0
163 185 0
165 189 0
163 187 0
166 188 0
166 188 0
162 184 0
160 181 0
161 182 0
166 188 0
163 184 0
165 187 0
163 184 0
167 188 0
164 187 0
159 180 0
169 191 0
166 189 0
163 185 0
169 190 0
161 182 0
168 190 0
165 187 0
167 187 0
167 189 0
167 189 0
168 189 0
167 189 0
165 187 0
164 186 0
167 188 0
167 188 0
165 186 0
162 184 0
162 183 0
167 188 0
163 184 0
159 181 0
166 188 0
167 188 0
166 188 0
164 187 0
163 185 0
167 189 0
164 185 0
164 186 0
165 184 0
169 190 0
168 189 0
165 187 0
165 186 0
159 180 0
166 187 0
167 186 0
169 190 0
164 186 0
166 187 0
164 186 0
167 188 0
167 189 0
164 186 0
165 184 0
166 189 0
164 186 0
169 190 0
169 190 0
166 187 0
168 190 0
163 183 0
165 184 0
167 188 0
167 187 0
166 188 0
161 182 0
166 186 0
163 182 0
166 187 0
167 187 0
170 189 0
163 185 0
167 187 0
167 188 0
162 182 0
165 183 0
168 188 0
165 185 0
164 185 0
163 185 0
168 189 0
164 183 0
171 192 0
169 191 0
166 187 0
165 185 0
169 190 0
170 192 0
171 191 0
167 187 0
163 183 0
168 188 0
166 185 0
170 189 0
164 185 0
165 185 0
168 190 0
168 187 0
166 183 0
166 187 0
169 189 0
167 189 0
169 190 0
164 184 0
166 184 0
169 189 0
170 191 0
168 185 0
168 187 0
168 188 0
169 188 0
168 189 0
170 190 0
168 188 0
168 189 0
173 193 0
166 186 0
169 188 0
167 188 0
167 186 0
169 187 0
168 188 0
168 188 0
168 188 0
168 189 0
167 187 0
166 185 0
169 190 0
170 189 0
169 190 0
168 187 0
168 188 0
171 190 0
169 190 0
169 187 0
169 189 0
169 189 0
169 189 0
171 193 0
171 191 0
168 190 0
169 190 0
169 189 0
171 191 0
168 187 0
169 189 0
170 191 0
167 191 0
173 197 0
174 197 0
173 195 0
171 194 0
173 196 0
172 196 0
172 196 0
169 192 0
173 196 0
171 195 0
173 196 0
173 196 0
173 197 0
171 194 0
170 194 0
172 196 0
170 195 0
169 193 0
171 193 0
170 194 0
173 195 0
171 195 0
170 193 0
168 191 0
172 195 0
171 195 0
172 195 0
169 193 0
170 193 0
168 191 0
171 194 0
174 197 0
170 194 0
170 194 0
170 193 0
169 193 0
172 196 0
172 196 0
171 194 0
172 195 0
170 194 0
167 191 0
171 193 0
171 194 0
169 193 0
169 193 0
170 193 0
170 194 0
170 193 0
173 195 0
169 193 0
172 196 0
171 195 0
168 192 0
169 192 0
168 191 0
167 191 0
170 192 0
171 193 0
169 192 0
171 194 0
166 189 0
164 186 0
167 190 0
167 190 0
170 194 0
169 193 0
170 194 0
169 192 0
167 190 0
168 192 0
168 192 0
169 193 0
167 191 0
172 195 0
168 190 0
171 194 0
171 194 0
166 190 0
162 186 0
165 189 0
167 191 0
168 191 0
172 194 0
168 193 0
168 192 0
169 192 0
167 190 0
173 196 0
167 190 0
170 193 0
172 195 0
166 190 0
168 191 0
166 189 0
169 192 0
164 188 0
168 191 0
169 192 0
170 194 0
166 189 0
163 186 0
169 192 0
169 191 0
164 187 0
163 186 0
167 190 0
169 192 0
170 193 0
166 190 0
168 192 0
166 190 0
164 187 0
170 193 0
169 191 0
171 193 0
165 188 0
165 188 0
167 191 0
166 189 0
168 192 0
169 192 0
165 189 0
165 188 0
165 188 0
168 191 0
170 194 0
164 187 0
168 192 0
164 186 0
168 191 0
164 188 0
166 189 0
165 189 0
170 193 0
168 190 0
161 185 0
165 187 0
166 189 0
166 189 0
166 189 0
167 191 0
166 189 0
168 191 0
167 190 0
169 192 0
162 184 0
166 189 0
164 187 0
166 188 0
163 185 0
167 190 0
168 190 0
165 188 0
167 190 0
167 189 0
159 182 0
160 184 0
168 190 0
166 190 0
164 187 0
168 191 0
169 192 0
161 184 0
166 190 0
168 190 0
168 191 0
165 189 0
166 190 0
161 184 0
164 188 0
164 186 0
165 188 0
165 189 0
167 189 0
163 186 0
163 185 0
162 185 0
166 189 0
171 192 0
165 188 0
158 181 0
161 185 0
166 190 0
164 187 0
167 190 0
163 186 0
166 188 0
163 186 0
167 189 0
160 183 0
166 188 0
164 186 0
168 191 0
162 184 0
166 188 0
167 189 0
165 188 0
164 188 0
169 191 0
165 188 0
168 190 0
163 184 0
166 189 0
163 185 0
165 187 0
164 186 0
165 187 0
160 184 0
162 185 0
165 187 0
166 188 0
166 188 0
166 188 0
161 184 0
164 188 0
162 186 0
168 192 0
165 189 0
167 190 0
164 187 0
165 187 0
164 186 0
165 187 0
161 184 0
166 189 0
165 188 0
168 191 0
161 184 0
163 184 0
165 188 0
165 187 0
163 185 0
162 184 0
164 187 0
167 190 0
166 188 0
166 188 0
164 186 0
165 188 0
163 185 0
163 184 0
165 187 0
167 190 0
166 189 0
168 188 0
166 188 0
163 184 0
162 186 0
162 184 0
168 190 0
167 188 0
166 189 0
165 187 0
164 187 0
168 190 0
163 185 0
163 186 0
163 186 0
169 191 0
163 185 0
163 185 0
154 175 0
167 189 0
162 185 0
167 188 0
166 187 0
164 186 0
162 183 0
162 184 0
164 185 0
162 184 0
159 181 0
168 190 0
166 189 0
164 185 0
166 186 0
168 190 0
164 184 0
162 185 0
162 183 0
161 183 0
165 185 0
165 187 0
166 188 0
159 180 0
160 179 0
166 188 0
164 185 0
168 189 0
166 186 0
167 189 0
167 188 0
165 186 0
160 180 0
165 186 0
167 187 0
166 187 0
165 187 0
168 189 0
167 189 0
170 192 0
170 190 0
168 190 0
160 181 0
169 190 0
168 189 0
169 190 0
166 186 0
165 183 0
167 186 0
164 183 0
170 192 0
167 188 0
163 182 0
165 185 0
164 182 0
167 189 0
165 185 0
168 188 0
165 186 0
168 189 0
165 185 0
164 186 0
166 187 0
167 186 0
167 186 0
164 184 0
169 189 0
169 189 0
169 186 0
166 187 0
164 185 0
164 185 0
163 182 0
164 185 0
171 192 0
166 186 0
167 188 0
167 189 0
166 186 0
163 182 0
167 189 0
164 184 0
168 189 0
165 185 0
166 187 0
166 189 0
169 189 0
168 189 0
165 185 0
169 190 0
169 189 0
169 187 0
172 191 0
168 188 0
168 190 0
169 188 0
170 190 0
170 193 0
169 189 0
167 186 0
167 188 0
168 189 0
169 191 0
167 186 0
168 189 0
169 188 0
168 188 0
168 189 0
168 190 0
167 186 0
170 192 0
169 190 0
169 188 0
169 190 0
166 187 0
168 188 0
171 191 0
170 190 0
170 190 0
172 193 0
171 192 0
169 190 0
173 195 0
170 190 0
169 188 0
171 191 0
170 188 0
168 188 0
165 185 0
167 187 0
168 188 0
169 190 0
170 191 0
170 191 0
166 188 0
170 191 0
170 190 0
173 197 0
172 195 0
172 195 0
172 195 0
171 195 0
172 196 0
171 195 0
173 197 0
173 196 0
171 194 0
172 196 0
169 192 0
169 193 0
172 196 0
169 192 0
171 195 0
172 196 0
171 194 0
170 194 0
174 197 0
170 194 0
169 192 0
170 194 0
172 195 0
169 193 0
173 196 0
171 194 0
172 194 0
169 192 0
171 195 0
170 193 0
170 194 0
170 194 0
170 193 0
168 191 0
171 196 0
172 195 0
171 195 0
167 192 0
168 192 0
171 194 0
168 191 0
167 191 0
166 191 0
170 194 0
169 193 0
172 195 0
169 193 0
168 192 0
174 197 0
172 196 0
170 194 0
171 195 0
171 195 0
169 192 0
168 192 0
167 190 0
170 193 0
170 193 0
165 189 0
165 188 0
168 191 0
166 190 0
172 195 0
167 189 0
167 190 0
171 194 0
169 192 0
168 191 0
167 191 0
170 193 0
170 193 0
168 191 0
164 188 0
171 193 0
168 190 0
167 190 0
170 192 0
171 195 0
167 190 0
168 192 0
167 190 0
169 193 0
170 193 0
168 190 0
166 189 0
168 192 0
171 194 0
168 192 0
165 189 0
165 189 0
170 193 0
169 192 0
166 189 0
169 191 0
164 187 0
167 191 0
169 192 0
167 189 0
167 189 0
169 193 0
170 192 0
167 191 0
166 190 0
170 192 0
164 187 0
169 193 0
170 194 0
170 193 0
166 189 0
168 191 0
168 192 0
169 193 0
166 189 0
168 191 0
170 193 0
165 188 0
170 193 0
165 188 0
166 189 0
166 189 0
166 191 0
166 189 0
170 192 0
162 185 0
168 192 0
161 184 0
169 191 0
170 193 0
164 186 0
162 185 0
170 194 0
165 189 0
169 192 0
165 188 0
167 190 0
166 189 0
165 188 0
166 189 0
167 190 0
168 191 0
163 187 0
170 192 0
168 191 0
160 184 0
163 186 0
164 188 0
166 189 0
161 184 0
163 186 0
168 191 0
165 187 0
169 192 0
163 187 0
164 187 0
168 191 0
166 189 0
167 191 0
161 184 0
164 187 0
165 188 0
167 190 0
169 192 0
162 184 0
170 193 0
163 185 0
168 192 0
169 192 0
160 183 0
166 189 0
166 189 0
165 188 0
169 191 0
161 185 0
166 189 0
163 187 0
161 184 0
165 188 0
166 189 0
167 190 0
169 192 0
163 185 0
162 185 0
164 187 0
160 184 0
159 182 0
163 186 0
168 191 0
170 193 0
164 186 0
166 190 0
164 185 0
167 190 0
163 185 0
165 187 0
165 188 0
163 187 0
162 184 0
161 185 0
164 187 0
165 189 0
158 181 0
163 185 0
165 187 0
168 190 0
165 188 0
163 185 0
164 186 0
163 186 0
168 191 0
166 188 0
167 191 0
164 188 0
166 189 0
166 189 0
167 189 0
169 192 0
169 192 0
164 186 0
164 188 0
162 185 0
169 193 0
168 190 0
167 190 0
166 190 0
167 189 0
165 187 0
162 184 0
167 189 0
166 189 0
164 187 0
162 183 0
167 188 0
164 188 0
164 186 0
161 182 0
167 188 0
165 186 0
161 182 0
167 189 0
166 188 0
167 188 0
165 187 0
160 182 0
163 186 0
168 190 0
164 187 0
164 186 0
168 190 0
161 182 0
161 184 0
166 188 0
162 184 0
164 186 0
161 183 0
163 183 0
164 186 0
164 187 0
167 189 0
164 187 0
167 189 0
163 183 0
163 186 0
164 187 0
169 190 0
164 186 0
167 190 0
165 187 0
165 187 0
167 190 0
167 187 0
162 182 0
165 186 0
165 186 0
168 190 0
167 188 0
168 189 0
164 186 0
166 188 0
163 185 0
164 184 0
169 191 0
165 187 0
164 185 0
167 187 0
163 184 0
163 185 0
164 184 0
159 179 0
166 187 0
162 183 0
168 190 0
166 187 0
167 188 0
167 187 0
165 185 0
167 189 0
167 189 0
163 183 0
165 186 0
170 191 0
165 188 0
161 181 0
164 184 0
165 187 0
167 187 0
166 189 0
160 180 0
167 188 0
166 189 0
164 186 0
169 188 0
165 186 0
164 186 0
164 183 0
166 186 0
166 186 0
162 182 0
166 186 0
164 186 0
168 189 0
169 189 0
165 186 0
167 187 0
168 189 0
165 186 0
170 190 0
166 186 0
166 188 0
167 187 0
168 188 0
164 185 0
168 188 0
169 190 0
166 186 0
162 180 0
165 185 0
166 187 0
168 188 0
164 183 0
167 190 0
170 190 0
165 185 0
169 190 0
167 187 0
162 182 0
169 189 0
165 185 0
166 187 0
167 187 0
167 187 0
167 187 0
170 191 0
171 192 0
171 190 0
167 187 0
166 184 0
168 188 0
166 188 0
171 190 0
170 191 0
172 192 0
169 190 0
168 187 0
165 185 0
169 189 0
170 191 0
167 187 0
168 187 0
166 187 0
166 185 0
170 189 0
168 188 0
171 191 0
167 187 0
168 188 0
169 190 0
169 190 0
169 188 0
166 187 0
167 188 0
169 189 0
170 192 0
170 191 0
169 189 0
171 193 0
169 189 0
167 188 0
169 190 0
168 188 0
167 188 0
170 190 0
167 186 0
169 188 0
167 187 0
170 191 0
169 189 0
168 190 0
169 190 0
167 187 0
170 193 0
174 197 0
173 196 0
171 194 0
171 195 0
172 195 0
172 196 0
170 194 0
169 192 0
170 194 0
173 197 0
168 191 0
170 193 0
171 195 0
171 195 0
171 195 0
173 196 0
170 194 0
172 195 0
172 195 0
167 191 0
171 194 0
171 195 0
171 195 0
173 196 0
169 193 0
172 195 0
174 197 0
173 196 0
168 192 0
168 193 0
170 193 0
172 196 0
172 195 0
171 194 0
171 195 0
173 196 0
171 195 0
170 194 0
172 196 0
169 193 0
172 196 0
170 193 0
169 193 0
167 191 0
172 195 0
171 195 0
170 193 0
171 195 0
171 194 0
171 195 0
167 191 0
172 194 0
169 193 0
172 196 0
170 193 0
167 190 0
170 192 0
169 192 0
169 192 0
168 191 0
168 192 0
165 188 0
170 192 0
166 190 0
167 191 0
168 192 0
170 193 0
167 190 0
169 193 0
167 190 0
168 192 0
168 192 0
169 192 0
169 193 0
168 191 0
168 192 0
166 190 0
171 195 0
168 192 0
164 187 0
167 190 0
170 194 0
169 193 0
168 191 0
170 193 0
163 186 0
168 191 0
167 191 0
168 191 0
170 193 0
171 194 0
169 193 0
170 193 0
169 192 0
171 194 0
170 194 0
166 189 0
167 190 0
171 194 0
166 189 0
167 190 0
168 192 0
170 193 0
167 190 0
166 189 0
170 194 0
163 185 0
169 193 0
166 189 0
164 187 0
167 190 0
167 190 0
168 191 0
170 193 0
168 192 0
169 192 0
166 189 0
170 193 0
163 186 0
163 186 0
164 187 0
165 188 0
164 187 0
164 188 0
171 193 0
165 187 0
169 191 0
170 193 0
171 194 0
169 193 0
162 185 0
167 190 0
164 186 0
164 187 0
167 190 0
166 189 0
165 189 0
163 185 0
169 191 0
165 188 0
164 186 0
167 190 0
167 189 0
165 187 0
166 189 0
165 188 0
167 191 0
165 188 0
162 185 0
164 186 0
167 191 0
165 189 0
168 192 0
168 190 0
165 187 0
161 185 0
168 191 0
166 189 0
170 193 0
164 188 0
166 189 0
165 188 0
168 192 0
165 187 0
168 191 0
166 189 0
166 190 0
165 188 0
167 189 0
163 185 0
167 189 0
166 189 0
161 183 0
169 192 0
163 186 0
158 181 0
166 187 0
167 190 0
159 181 0
169 192 0
166 189 0
164 187 0
162 184 0
170 192 0
165 188 0
160 182 0
163 184 0
161 184 0
163 186 0
162 184 0
162 184 0
167 190 0
164 186 0
164 187 0
166 189 0
165 187 0
167 191 0
167 189 0
166 190 0
166 188 0
168 190 0
162 184 0
166 189 0
164 187 0
161 184 0
172 194 0
163 185 0
167 189 0
165 187 0
164 186 0
163 187 0
166 189 0
161 182 0
164 187 0
162 185 0
163 186 0
167 190 0
164 186 0
168 190 0
164 187 0
163 185 0
163 186 0
163 184 0
164 185 0
163 186 0
167 191 0
164 186 0
165 187 0
166 188 0
167 191 0
169 192 0
165 187 0
166 189 0
165 188 0
165 186 0
164 187 0
168 191 0
163 185 0
164 185 0
169 191 0
161 183 0
163 184 0
160 182 0
166 189 0
165 188 0
163 185 0
163 185 0
166 188 0
167 189 0
163 185 0
168 189 0
167 188 0
167 188 0
164 185 0
164 185 0
162 185 0
168 191 0
164 185 0
165 186 0
164 186 0
164 186 0
165 187 0
162 183 0
167 188 0
162 184 0
161 183 0
170 191 0
162 184 0
163 185 0
160 181 0
163 184 0
166 189 0
165 186 0
166 188 0
168 189 0
166 187 0
168 190 0
163 184 0
167 189 0
162 184 0
168 189 0
166 187 0
168 189 0
165 188 0
164 186 0
168 191 0
170 193 0
164 185 0
165 187 0
165 187 0
164 185 0
164 186 0
165 186 0
166 187 0
162 184 0
164 186 0
165 184 0
167 188 0
165 187 0
168 189 0
163 184 0
160 180 0
166 187 0
164 184 0
169 189 0
162 183 0
166 187 0
167 187 0
164 185 0
165 187 0
164 186 0
167 188 0
168 189 0
161 183 0
165 186 0
162 184 0
170 191 0
167 188 0
164 185 0
170 191 0
166 189 0
165 185 0
168 188 0
165 185 0
165 185 0
168 189 0
168 190 0
167 186 0
167 188 0
167 188 0
168 188 0
163 182 0
168 190 0
163 183 0
168 188 0
169 189 0
167 187 0
166 187 0
164 183 0
165 186 0
168 186 0
169 187 0
166 185 0
169 190 0
168 187 0
164 185 0
167 186 0
165 188 0
164 185 0
165 187 0
169 189 0
168 191 0
166 185 0
168 189 0
168 188 0
166 187 0
167 186 0
166 186 0
167 188 0
170 190 0
166 185 0
168 190 0
167 189 0
166 187 0
167 188 0
170 188 0
170 190 0
162 181 0
166 187 0
166 188 0
169 189 0
167 188 0
168 188 0
169 189 0
166 187 0
168 188 0
170 190 0
168 189 0
170 189 0
169 189 0
167 188 0
168 188 0
167 185 0
172 191 0
170 189 0
170 191 0
171 190 0
168 188 0
170 188 0
169 189 0
168 188 0
170 192 0
165 186 0
166 186 0
169 188 0
170 189 0
170 191 0
171 192 0
170 191 0
169 193 0
170 194 0
169 191 0
170 193 0
171 194 0
171 195 0
169 193 0
171 195 0
172 195 0
172 196 0
172 195 0
173 197 0
168 192 0
172 196 0
171 195 0
172 195 0
167 191 0
171 194 0
172 196 0
171 194 0
172 195 0
169 192 0
173 196 0
169 194 0
170 194 0
171 195 0
170 193 0
172 196 0
172 195 0
173 196 0
171 195 0
170 194 0
173 196 0
171 195 0
169 192 0
169 194 0
173 196 0
170 193 0
167 191 0
169 193 0
169 192 0
168 191 0
167 191 0
169 193 0
170 193 0
172 195 0
169 193 0
169 192 0
169 192 0
170 193 0
170 194 0
170 193 0
172 195 0
171 195 0
168 192 0
168 190 0
166 189 0
170 193 0
169 192 0
168 192 0
170 193 0
170 194 0
167 190 0
165 188 0
169 192 0
172 196 0
171 194 0
169 193 0
170 193 0
170 194 0
168 192 0
171 194 0
173 197 0
165 189 0
172 196 0
167 190 0
166 190 0
169 191 0
171 194 0
169 193 0
171 195 0
171 194 0
169 192 0
170 193 0
164 188 0
166 189 0
171 194 0
170 193 0
171 194 0
170 193 0
167 191 0
164 187 0
169 193 0
162 185 0
167 191 0
165 187 0
171 194 0
173 196 0
165 189 0
167 192 0
167 191 0
168 191 0
169 193 0
168 192 0
166 189 0
168 190 0
165 188 0
169 192 0
170 192 0
168 191 0
173 196 0
166 189 0
168 190 0
164 187 0
165 188 0
170 193 0
169 192 0
169 192 0
168 192 0
165 190 0
168 191 0
164 187 0
168 191 0
168 192 0
167 190 0
168 192 0
167 190 0
169 192 0
169 192 0
165 188 0
167 191 0
168 191 0
167 190 0
164 186 0
165 188 0
165 189 0
166 189 0
166 190 0
168 192 0
163 186 0
163 186 0
164 187 0
167 190 0
167 189 0
166 190 0
165 188 0
166 190 0
168 191 0
165 188 0
167 190 0
167 190 0
164 187 0
166 189 0
166 189 0
168 191 0
165 189 0
165 188 0
165 188 0
162 184 0
161 185 0
171 194 0
168 192 0
168 191 0
168 191 0
164 186 0
166 188 0
163 186 0
167 190 0
169 191 0
161 184 0
162 185 0
168 190 0
171 193 0
161 184 0
165 188 0
162 184 0
164 188 0
163 187 0
168 190 0
163 185 0
162 184 0
164 187 0
163 186 0
167 191 0
168 190 0
165 188 0
168 192 0
160 183 0
161 183 0
165 187 0
165 189 0
159 182 0
168 191 0
165 189 0
168 191 0
166 188 0
162 185 0
161 184 0
162 185 0
160 185 0
166 189 0
166 187 0
165 189 0
166 189 0
163 185 0
168 190 0
164 187 0
162 186 0
161 184 0
166 190 0
164 186 0
165 188 0
168 191 0
161 184 0
165 187 0
166 189 0
165 187 0
163 186 0
158 180 0
160 183 0
165 188 0
162 185 0
167 189 0
164 186 0
159 182 0
166 188 0
162 184 0
169 190 0
165 186 0
165 187 0
165 188 0
164 187 0
163 185 0
165 187 0
165 188 0
161 182 0
167 189 0
160 182 0
164 186 0
167 189 0
161 183 0
161 183 0
163 185 0
166 188 0
167 190 0
158 180 0
159 181 0
168 192 0
168 191 0
163 186 0
166 187 0
165 187 0
162 186 0
169 191 0
163 185 0
171 193 0
162 185 0
163 185 0
166 188 0
164 187 0
164 186 0
162 185 0
167 188 0
164 186 0
164 186 0
161 184 0
168 191 0
162 183 0
162 184 0
166 188 0
167 188 0
166 187 0
165 186 0
162 184 0
169 190 0
167 187 0
164 187 0
165 186 0
164 185 0
166 187 0
162 184 0
168 187 0
165 187 0
166 186 0
168 190 0
170 192 0
166 188 0
157 177 0
165 186 0
162 183 0
162 182 0
165 187 0
163 184 0
168 191 0
161 182 0
166 188 0
165 186 0
165 186 0
166 186 0
167 188 0
164 185 0
168 188 0
165 185 0
164 184 0
160 181 0
165 187 0
164 184 0
164 185 0
167 190 0
160 180 0
166 187 0
169 192 0
166 187 0
162 183 0
165 187 0
166 186 0
163 183 0
164 182 0
164 185 0
168 188 0
168 189 0
161 183 0
169 190 0
169 190 0
166 187 0
166 185 0
166 187 0
166 186 0
169 190 0
167 187 0
167 185 0
166 185 0
162 181 0
170 191 0
163 185 0
166 186 0
170 190 0
168 189 0
170 191 0
168 188 0
165 186 0
164 185 0
166 186 0
168 190 0
169 189 0
165 186 0
166 185 0
169 189 0
163 182 0
168 188 0
164 183 0
170 191 0
166 185 0
164 185 0
163 182 0
166 186 0
169 190 0
169 188 0
168 190 0
168 189 0
168 187 0
169 190 0
170 190 0
172 193 0
168 189 0
170 191 0
168 188 0
169 190 0
165 184 0
169 191 0
171 192 0
166 185 0
170 188 0
170 191 0
170 192 0
169 189 0
168 188 0
169 191 0
168 188 0
170 190 0
171 189 0
171 191 0
168 190 0
169 187 0
168 189 0
168 187 0
172 193 0
169 190 0
171 192 0
171 191 0
169 190 0
172 191 0
166 187 0
171 191 0
167 187 0
166 184 0
167 187 0
167 186 0
172 193 0
170 190 0
169 193 0
173 196 0
170 194 0
173 196 0
172 196 0
170 194 0
170 195 0
170 194 0
175 197 0
170 194 0
170 194 0
170 194 0
174 197 0
170 194 0
169 193 0
169 192 0
172 194 0
173 197 0
169 193 0
171 195 0
169 193 0
171 195 0
172 196 0
172 194 0
172 195 0
172 195 0
170 193 0
168 192 0
171 194 0
168 192 0
171 195 0
169 193 0
173 196 0
171 194 0
169 193 0
169 192 0
167 192 0
167 190 0
167 191 0
170 194 0
171 194 0
169 193 0
172 196 0
170 193 0
172 195 0
164 188 0
169 193 0
167 191 0
171 193 0
169 192 0
171 195 0
168 191 0
171 194 0
169 192 0
169 192 0
164 188 0
165 189 0
170 192 0
171 194 0
166 189 0
172 196 0
171 194 0
169 192 0
167 190 0
167 190 0
166 190 0
168 192 0
168 191 0
168 191 0
171 194 0
170 193 0
170 193 0
168 191 0
168 190 0
166 189 0
171 193 0
168 193 0
169 193 0
170 193 0
167 190 0
168 192 0
166 190 0
166 190 0
167 190 0
172 196 0
164 187 0
172 195 0
170 194 0
169 192 0
172 195 0
169 193 0
170 195 0
168 191 0
166 189 0
169 192 0
166 189 0
170 192 0
170 193 0
171 193 0
163 186 0
167 190 0
165 188 0
170 194 0
166 190 0
170 193 0
161 184 0
170 193 0
166 189 0
164 187 0
170 192 0
168 190 0
167 190 0
164 188 0
168 191 0
171 194 0
164 187 0
169 193 0
168 190 0
163 187 0
166 188 0
166 189 0
169 192 0
167 189 0
167 191 0
164 188 0
166 189 0
164 188 0
165 189 0
167 191 0
168 192 0
167 191 0
171 193 0
161 185 0
168 190 0
167 191 0
168 191 0
166 189 0
168 192 0
166 190 0
166 188 0
161 184 0
168 191 0
163 186 0
169 192 0
167 190 0
167 190 0
168 191 0
167 189 0
164 188 0
165 189 0
163 186 0
166 190 0
165 188 0
166 190 0
167 190 0
162 185 0
165 188 0
167 190 0
169 191 0
170 193 0
164 187 0
167 191 0
164 187 0
168 191 0
165 189 0
166 188 0
165 189 0
159 182 0
167 190 0
165 188 0
162 186 0
165 190 0
164 188 0
163 186 0
165 189 0
168 190 0
167 189 0
166 190 0
160 183 0
161 184 0
164 186 0
163 186 0
168 191 0
164 187 0
168 191 0
167 190 0
165 187 0
164 185 0
162 185 0
160 183 0
164 187 0
160 184 0
160 183 0
163 186 0
163 185 0
168 190 0
163 185 0
166 189 0
166 189 0
166 188 0
162 184 0
166 189 0
165 188 0
158 180 0
164 187 0
164 186 0
168 190 0
162 184 0
156 178 0
165 188 0
164 187 0
167 190 0
163 186 0
159 181 0
163 186 0
162 184 0
160 183 0
164 186 0
165 187 0
170 193 0
166 188 0
165 188 0
164 187 0
168 189 0
169 189 0
167 189 0
167 189 0
161 183 0
164 186 0
167 190 0
166 190 0
164 186 0
164 187 0
159 181 0
165 188 0
169 192 0
161 181 0
163 185 0
164 187 0
163 186 0
162 183 0
161 184 0
164 185 0
161 184 0
167 188 0
165 187 0
161 183 0
163 185 0
167 189 0
165 186 0
167 189 0
168 189 0
163 185 0
166 188 0
165 186 0
169 191 0
165 186 0
166 188 0
160 181 0
165 186 0
163 184 0
166 188 0
166 188 0
167 189 0
164 186 0
161 182 0
164 186 0
166 188 0
164 186 0
165 187 0
166 188 0
165 186 0
170 193 0
165 186 0
167 189 0
160 183 0
167 189 0
164 186 0
165 185 0
168 190 0
167 187 0
166 187 0
167 187 0
160 180 0
167 187 0
167 189 0
166 188 0
167 189 0
162 183 0
167 187 0
162 182 0
167 187 0
165 186 0
168 190 0
166 188 0
166 188 0
165 187 0
164 186 0
167 188 0
166 187 0
165 186 0
166 187 0
159 180 0
167 188 0
167 190 0
162 181 0
167 188 0
166 187 0
167 188 0
171 192 0
164 185 0
165 186 0
168 189 0
166 188 0
165 188 0
165 187 0
163 183 0
165 184 0
168 190 0
164 182 0
168 189 0
167 187 0
164 187 0
169 190 0
166 186 0
171 192 0
167 185 0
170 193 0
167 187 0
165 187 0
170 191 0
166 187 0
166 184 0
165 183 0
168 188 0
168 189 0
168 189 0
164 184 0
163 182 0
169 188 0
169 189 0
169 189 0
169 188 0
167 187 0
163 184 0
167 188 0
166 187 0
163 182 0
170 190 0
167 188 0
170 189 0
167 185 0
169 189 0
167 186 0
169 190 0
167 188 0
167 186 0
169 189 0
168 189 0
166 185 0
173 191 0
167 186 0
169 190 0
167 187 0
164 183 0
170 189 0
168 187 0
167 188 0
162 182 0
164 184 0
168 189 0
168 189 0
169 189 0
168 188 0
164 184 0
167 186 0
166 187 0
170 191 0
172 191 0
171 191 0
164 183 0
168 186 0
171 191 0
169 188 0
165 185 0
171 191 0
172 192 0
167 187 0
169 187 0
168 188 0
169 190 0
168 188 0
167 187 0
166 186 0
171 190 0
164 185 0
169 193 0
169 190 0
171 192 0
173 195 0
172 195 0
171 195 0
171 195 0
170 194 0
174 197 0
171 195 0
173 197 0
170 194 0
168 191 0
172 195 0
170 194 0
168 192 0
168 191 0
170 195 0
170 193 0
170 193 0
173 196 0
173 196 0
168 192 0
174 197 0
169 193 0
169 193 0
170 193 0
168 192 0
170 195 0
169 192 0
164 188 0
172 195 0
173 195 0
167 191 0
167 191 0
171 194 0
168 191 0
173 195 0
168 192 0
169 193 0
172 195 0
170 193 0
169 192 0
167 191 0
172 196 0
169 192 0
172 195 0
169 192 0
167 191 0
170 193 0
171 194 0
166 190 0
168 191 0
168 191 0
171 194 0
170 193 0
173 196 0
170 193 0
170 192 0
171 194 0
170 194 0
169 192 0
167 190 0
168 191 0
169 193 0
167 190 0
172 196 0
172 195 0
171 194 0
169 192 0
168 191 0
166 190 0
168 191 0
172 196 0
166 188 0
168 191 0
171 195 0
168 192 0
168 191 0
170 193 0
170 193 0
172 195 0
166 190 0
169 193 0
168 191 0
166 189 0
165 188 0
168 192 0
170 193 0
166 189 0
168 191 0
168 191 0
167 190 0
168 191 0
173 196 0
164 188 0
167 191 0
170 193 0
167 192 0
167 191 0
171 194 0
169 192 0
170 194 0
168 191 0
168 192 0
165 189 0
168 192 0
168 190 0
169 191 0
166 188 0
169 191 0
167 191 0
168 192 0
161 184 0
167 190 0
167 190 0
170 193 0
168 191 0
169 193 0
166 189 0
164 187 0
165 188 0
169 192 0
168 191 0
166 189 0
163 185 0
166 190 0
165 189 0
171 194 0
169 192 0
162 185 0
165 188 0
168 192 0
164 188 0
168 192 0
167 191 0
170 193 0
165 189 0
166 189 0
168 191 0
167 190 0
161 184 0
166 187 0
163 187 0
164 187 0
163 187 0
166 189 0
163 186 0
168 191 0
165 189 0
167 190 0
167 191 0
170 192 0
162 185 0
165 189 0
167 190 0
166 188 0
170 193 0
169 193 0
169 192 0
160 182 0
161 184 0
165 188 0
163 187 0
166 189 0
167 190 0
163 187 0
166 189 0
163 187 0
166 190 0
163 186 0
164 187 0
169 192 0
166 188 0
163 185 0
166 189 0
169 192 0
163 186 0
165 188 0
166 189 0
168 191 0
170 193 0
162 186 0
168 190 0
165 188 0
164 186 0
164 187 0
171 192 0
165 186 0
163 186 0
166 188 0
163 186 0
166 188 0
169 192 0
162 184 0
161 184 0
160 183 0
164 188 0
169 191 0
165 189 0
165 188 0
161 183 0
163 185 0
158 181 0
164 188 0
168 192 0
162 184 0
165 188 0
161 184 0
165 188 0
167 190 0
166 189 0
160 183 0
161 183 0
161 183 0
168 192 0
170 192 0
163 185 0
165 187 0
167 190 0
170 192 0
164 187 0
164 186 0
165 187 0
167 190 0
165 187 0
166 187 0
165 187 0
164 187 0
164 187 0
168 192 0
164 185 0
162 184 0
167 190 0
163 185 0
164 186 0
165 187 0
166 189 0
166 188 0
169 191 0
167 189 0
164 186 0
162 184 0
164 186 0
163 185 0
164 187 0
162 182 0
164 186 0
160 181 0
168 190 0
169 191 0
163 186 0
161 184 0
162 185 0
163 184 0
164 186 0
163 185 0
160 182 0
162 185 0
163 184 0
163 185 0
167 190 0
163 185 0
166 189 0
164 186 0
164 185 0
166 188 0
165 187 0
162 184 0
167 190 0
169 191 0
162 185 0
164 186 0
160 181 0
162 184 0
166 187 0
168 189 0
166 188 0
166 188 0
167 188 0
168 191 0
162 183 0
169 189 0
167 188 0
165 187 0
165 186 0
163 184 0
169 191 0
167 189 0
165 188 0
163 185 0
164 186 0
163 185 0
166 186 0
164 186 0
166 187 0
160 181 0
165 186 0
166 188 0
165 186 0
166 188 0
166 188 0
165 187 0
164 185 0
167 189 0
162 181 0
163 185 0
163 182 0
167 189 0
166 188 0
163 182 0
164 186 0
167 189 0
160 180 0
167 186 0
166 186 0
163 183 0
165 184 0
163 181 0
167 189 0
164 182 0
166 187 0
166 186 0
165 186 0
167 188 0
169 190 0
165 186 0
165 185 0
167 189 0
168 190 0
167 186 0
166 186 0
167 187 0
163 184 0
167 189 0
165 186 0
166 186 0
167 188 0
166 186 0
168 190 0
167 186 0
165 184 0
169 189 0
169 188 0
165 184 0
162 183 0
165 186 0
169 191 0
171 191 0
170 191 0
167 187 0
162 181 0
168 188 0
169 189 0
168 190 0
164 184 0
164 185 0
169 190 0
164 185 0
169 189 0
166 187 0
169 190 0
168 187 0
168 188 0
169 191 0
168 190 0
165 187 0
168 189 0
167 188 0
170 193 0
169 189 0
166 185 0
169 187 0
169 189 0
168 189 0
170 190 0
170 191 0
165 184 0
166 186 0
169 191 0
164 185 0
167 187 0
172 192 0
168 188 0
170 191 0
167 189 0
164 184 0
170 191 0
171 190 0
167 188 0
171 191 0
169 190 0
170 189 0
172 193 0
169 190 0
168 186 0
164 186 0
169 190 0
170 191 0
166 189 0
171 191 0
163 182 0
169 189 0
169 190 0
171 194 0
170 193 0
172 196 0
172 195 0
172 195 0
174 197 0
173 196 0
171 195 0
173 196 0
167 191 0
169 193 0
169 192 0
172 194 0
168 191 0
171 195 0
171 194 0
172 195 0
172 195 0
169 193 0
170 194 0
170 193 0
173 196 0
169 192 0
168 192 0
171 195 0
172 196 0
170 193 0
171 194 0
171 195 0
171 195 0
170 192 0
169 192 0
173 196 0
169 193 0
167 191 0
169 193 0
168 191 0
169 193 0
170 194 0
172 195 0
166 190 0
169 193 0
170 194 0
169 192 0
172 196 0
173 197 0
170 194 0
173 197 0
169 192 0
171 194 0
169 192 0
168 191 0
167 191 0
167 191 0
168 192 0
172 195 0
168 193 0
171 194 0
171 195 0
167 192 0
171 194 0
170 194 0
173 196 0
166 190 0
168 192 0
171 195 0
170 193 0
170 193 0
172 195 0
173 195 0
169 193 0
166 191 0
167 191 0
168 191 0
170 193 0
169 192 0
172 195 0
163 187 0
171 194 0
168 191 0
165 188 0
172 195 0
167 190 0
166 190 0
169 192 0
169 193 0
169 192 0
168 192 0
165 188 0
169 192 0
167 190 0
165 188 0
170 193 0
168 191 0
167 190 0
172 196 0
169 193 0
171 194 0
167 190 0
167 190 0
168 192 0
169 192 0
168 192 0
172 196 0
166 189 0
167 190 0
166 190 0
167 190 0
170 193 0
160 183 0
166 189 0
167 189 0
168 191 0
166 189 0
169 193 0
162 186 0
164 186 0
164 188 0
166 190 0
169 193 0
162 186 0
166 189 0
167 190 0
163 186 0
167 190 0
162 185 0
168 192 0
167 190 0
167 190 0
170 192 0
166 188 0
167 190 0
159 181 0
168 192 0
167 191 0
170 194 0
165 188 0
170 193 0
166 189 0
166 190 0
159 183 0
169 193 0
170 192 0
162 185 0
167 190 0
170 193 0
160 183 0
167 190 0
165 189 0
164 187 0
168 191 0
167 190 0
163 187 0
168 191 0
165 187 0
168 191 0
162 186 0
169 193 0
167 190 0
164 187 0
164 187 0
161 183 0
165 188 0
161 183 0
167 190 0
162 185 0
165 188 0
168 191 0
167 190 0
167 191 0
171 193 0
165 187 0
163 187 0
169 192 0
166 189 0
167 190 0
166 190 0
165 188 0
163 186 0
165 188 0
166 189 0
161 184 0
168 191 0
163 185 0
168 191 0
167 189 0
160 182 0
163 186 0
161 183 0
169 191 0
165 189 0
169 191 0
167 191 0
160 182 0
165 187 0
167 189 0
163 186 0
166 188 0
162 185 0
170 192 0
164 187 0
164 187 0
165 188 0
164 188 0
163 186 0
165 188 0
165 188 0
166 189 0
161 184 0
163 186 0
159 181 0
170 193 0
167 189 0
164 187 0
166 187 0
164 185 0
165 188 0
166 188 0
166 188 0
165 188 0
168 191 0
165 187 0
166 188 0
167 190 0
166 189 0
166 188 0
164 186 0
164 187 0
162 184 0
163 184 0
161 183 0
163 186 0
164 185 0
168 190 0
163 187 0
164 187 0
169 192 0
165 187 0
167 188 0
160 181 0
162 183 0
164 185 0
167 188 0
167 190 0
167 190 0
166 188 0
166 188 0
165 187 0
162 185 0
163 186 0
167 189 0
163 186 0
166 187 0
165 187 0
163 186 0
166 187 0
161 182 0
160 182 0
166 189 0
168 191 0
164 186 0
163 183 0
167 189 0
162 185 0
170 191 0
165 187 0
168 189 0
162 184 0
166 188 0
163 184 0
163 185 0
169 191 0
165 187 0
160 181 0
166 189 0
160 181 0
166 188 0
168 189 0
167 190 0
168 190 0
164 186 0
164 186 0
167 189 0
166 189 0
163 185 0
166 188 0
165 189 0
164 187 0
166 189 0
163 182 0
163 185 0
167 190 0
162 183 0
167 190 0
166 189 0
169 190 0
165 185 0
165 186 0
165 187 0
167 188 0
166 188 0
167 188 0
164 186 0
167 187 0
161 183 0
165 185 0
161 181 0
167 188 0
166 188 0
162 181 0
164 186 0
164 186 0
163 182 0
170 191 0
166 189 0
164 185 0
169 189 0
167 187 0
166 187 0
163 185 0
170 192 0
170 192 0
166 184 0
164 185 0
166 187 0
165 185 0
167 188 0
167 189 0
164 184 0
167 190 0
164 185 0
170 191 0
167 189 0
165 186 0
166 186 0
167 189 0
167 189 0
166 187 0
167 190 0
165 184 0
164 184 0
165 187 0
167 189 0
167 187 0
168 188 0
166 188 0
163 184 0
168 188 0
167 188 0
168 189 0
168 187 0
166 187 0
169 191 0
171 193 0
172 193 0
171 191 0
164 183 0
165 186 0
168 189 0
168 187 0
167 188 0
167 187 0
168 188 0
168 189 0
164 184 0
171 192 0
167 186 0
166 186 0
172 193 0
167 186 0
168 189 0
169 189 0
168 189 0
166 186 0
168 187 0
166 186 0
168 187 0
168 187 0
170 192 0
167 185 0
168 187 0
167 188 0
167 189 0
169 190 0
171 191 0
167 188 0
165 186 0
169 190 0
168 187 0
171 192 0
168 188 0
170 190 0
171 193 0
171 191 0
169 188 0
166 187 0
169 187 0
166 185 0
171 191 0
169 190 0
171 195 0
172 196 0
174 197 0
171 194 0
172 195 0
172 195 0
166 190 0
172 196 0
171 195 0
170 194 0
172 195 0
171 194 0
170 194 0
170 194 0
167 190 0
172 195 0
170 193 0
173 196 0
170 193 0
171 195 0
170 194 0
169 193 0
168 192 0
168 192 0
173 195 0
172 195 0
171 194 0
170 194 0
170 194 0
168 192 0
170 193 0
170 193 0
167 190 0
173 196 0
169 192 0
172 195 0
172 194 0
169 193 0
170 194 0
169 192 0
170 194 0
169 193 0
170 194 0
172 195 0
167 191 0
171 195 0
171 194 0
171 195 0
169 191 0
168 191 0
170 193 0
169 193 0
166 190 0
169 192 0
170 193 0
171 194 0
171 193 0
169 193 0
166 190 0
165 189 0
171 193 0
165 188 0
166 190 0
165 189 0
172 195 0
165 189 0
168 191 0
170 194 0
169 193 0
171 195 0
172 194 0
168 193 0
167 190 0
170 193 0
170 193 0
172 195 0
168 192 0
170 194 0
170 193 0
167 191 0
172 197 0
168 192 0
162 185 0
169 193 0
170 194 0
165 188 0
165 188 0
170 194 0
165 188 0
166 190 0
168 192 0
167 190 0
166 189 0
168 191 0
163 187 0
171 196 0
169 193 0
169 192 0
168 191 0
169 192 0
170 193 0
169 191 0
170 193 0
168 191 0
168 191 0
167 191 0
165 189 0
167 190 0
170 193 0
165 189 0
169 193 0
171 195 0
169 192 0
169 193 0
166 191 0
167 191 0
164 188 0
163 187 0
169 192 0
163 186 0
167 190 0
169 191 0
166 190 0
165 188 0
169 191 0
165 189 0
164 186 0
162 185 0
168 191 0
167 190 0
163 186 0
169 192 0
163 186 0
166 190 0
169 193 0
167 189 0
169 192 0
167 191 0
166 188 0
169 192 0
166 188 0
165 187 0
164 186 0
167 190 0
166 191 0
163 186 0
168 192 0
165 188 0
165 188 0
168 192 0
169 192 0
166 189 0
169 192 0
166 190 0
165 189 0
166 189 0
167 189 0
169 192 0
170 194 0
169 193 0
161 184 0
165 188 0
164 188 0
170 193 0
167 190 0
161 184 0
162 185 0
163 186 0
163 185 0
168 191 0
165 188 0
165 188 0
163 187 0
163 187 0
168 190 0
166 189 0
165 188 0
164 187 0
169 192 0
162 186 0
161 185 0
164 187 0
167 189 0
164 187 0
166 188 0
168 191 0
163 186 0
160 181 0
165 188 0
163 186 0
166 188 0
164 187 0
166 188 0
163 185 0
165 188 0
160 182 0
166 190 0
162 184 0
165 189 0
163 186 0
164 187 0
165 188 0
162 185 0
165 186 0
164 188 0
167 189 0
166 189 0
166 189 0
168 191 0
162 184 0
163 184 0
167 190 0
167 190 0
163 186 0
165 187 0
164 186 0
167 190 0
164 186 0
168 192 0
169 192 0
163 187 0
161 184 0
168 190 0
167 190 0
168 188 0
162 185 0
167 190 0
163 185 0
164 188 0
163 183 0
164 188 0
162 185 0
163 186 0
165 185 0
166 189 0
166 187 0
166 188 0
163 185 0
167 188 0
161 183 0
165 186 0
165 188 0
163 186 0
167 190 0
164 187 0
164 186 0
165 188 0
166 187 0
162 183 0
161 184 0
167 189 0
167 189 0
167 190 0
165 187 0
166 187 0
163 185 0
166 188 0
160 182 0
165 187 0
166 188 0
163 184 0
164 186 0
165 187 0
163 186 0
166 189 0
161 183 0
165 186 0
170 190 0
166 185 0
161 182 0
165 186 0
162 183 0
167 188 0
166 188 0
165 187 0
163 185 0
161 183 0
162 183 0
166 187 0
164 185 0
161 182 0
170 191 0
168 190 0
161 183 0
167 189 0
167 188 0
165 187 0
165 187 0
165 187 0
164 185 0
164 186 0
168 190 0
166 188 0
164 184 0
168 190 0
165 186 0
163 184 0
166 187 0
161 182 0
162 184 0
168 191 0
165 186 0
170 192 0
161 181 0
169 190 0
167 188 0
163 184 0
166 188 0
166 188 0
163 184 0
166 189 0
165 186 0
164 184 0
166 187 0
165 186 0
164 185 0
167 188 0
169 189 0
169 190 0
163 183 0
168 188 0
166 187 0
166 187 0
165 184 0
165 185 0
164 184 0
164 185 0
171 192 0
168 190 0
165 186 0
167 187 0
168 191 0
166 186 0
164 186 0
166 186 0
168 189 0
165 185 0
168 188 0
166 187 0
169 189 0
161 181 0
168 188 0
166 186 0
169 189 0
170 190 0
165 187 0
164 184 0
169 188 0
165 182 0
167 186 0
165 186 0
166 187 0
169 192 0
169 190 0
166 186 0
169 189 0
163 185 0
168 188 0
167 186 0
169 190 0
166 186 0
169 190 0
168 187 0
169 189 0
167 187 0
170 192 0
170 191 0
168 187 0
171 191 0
167 188 0
168 187 0
168 188 0
164 185 0
168 188 0
169 190 0
165 186 0
173 192 0
167 188 0
169 190 0
173 193 0
169 188 0
170 191 0
168 190 0
170 191 0
172 193 0
172 191 0
168 188 0
170 191 0
169 190 0
168 188 0
174 194 0
169 190 0
167 189 0
170 191 0
170 192 0
168 192 0
165 185 0
169 190 0
173 193 0
168 187 0
170 193 0
171 195 0
172 196 0
170 194 0
172 195 0
173 196 0
172 195 0
173 196 0
170 193 0
170 193 0
170 194 0
169 193 0
171 193 0
171 194 0
169 193 0
173 196 0
168 192 0
173 196 0
172 195 0
169 192 0
172 195 0
171 194 0
172 195 0
170 193 0
171 194 0
168 191 0
171 193 0
170 193 0
171 194 0
169 192 0
171 194 0
170 193 0
170 194 0
173 195 0
170 194 0
169 193 0
170 193 0
170 193 0
171 194 0
169 192 0
169 192 0
167 192 0
171 194 0
171 194 0
166 189 0
165 190 0
170 192 0
166 188 0
170 193 0
171 194 0
168 192 0
169 193 0
169 193 0
170 193 0
172 195 0
170 193 0
171 194 0
169 193 0
168 191 0
164 188 0
168 191 0
169 193 0
164 187 0
171 194 0
168 190 0
165 188 0
171 195 0
168 190 0
169 192 0
167 190 0
170 194 0
168 192 0
168 192 0
169 193 0
168 191 0
168 191 0
169 191 0
169 192 0
168 191 0
169 193 0
170 193 0
166 191 0
170 194 0
165 188 0
169 191 0
171 193 0
167 191 0
171 194 0
168 190 0
163 186 0
170 193 0
168 191 0
167 191 0
170 193 0
169 192 0
168 191 0
163 186 0
171 195 0
166 190 0
168 190 0
169 192 0
166 190 0
167 190 0
165 189 0
169 192 0
166 190 0
167 191 0
166 190 0
170 193 0
168 192 0
169 193 0
168 191 0
163 186 0
168 191 0
166 189 0
167 191 0
164 188 0
163 186 0
169 192 0
169 192 0
169 193 0
168 191 0
170 193 0
165 188 0
162 186 0
169 192 0
167 191 0
165 189 0
165 188 0
166 189 0
164 188 0
165 188 0
163 187 0
168 191 0
166 190 0
168 190 0
168 191 0
166 190 0
165 189 0
166 189 0
167 188 0
165 189 0
164 187 0
168 189 0
166 189 0
164 188 0
166 189 0
163 186 0
165 189 0
168 192 0
167 190 0
168 191 0
164 188 0
170 192 0
170 193 0
168 191 0
169 191 0
167 190 0
162 185 0
167 189 0
167 190 0
167 190 0
166 189 0
169 193 0
168 191 0
165 188 0
167 190 0
167 191 0
161 184 0
166 188 0
165 187 0
169 191 0
161 183 0
168 190 0
162 186 0
167 190 0
166 190 0
169 191 0
165 187 0
168 191 0
167 190 0
164 187 0
167 191 0
162 186 0
167 189 0
172 195 0
162 185 0
164 188 0
164 187 0
164 186 0
169 192 0
162 186 0
163 187 0
166 189 0
164 187 0
165 188 0
167 190 0
162 185 0
168 190 0
167 189 0
160 183 0
162 185 0
162 186 0
162 184 0
166 189 0
170 193 0
164 187 0
167 191 0
162 185 0
164 186 0
160 183 0
162 184 0
166 188 0
165 187 0
160 183 0
164 187 0
168 191 0
159 182 0
165 187 0
162 184 0
164 186 0
163 183 0
160 181 0
165 188 0
161 182 0
169 193 0
162 185 0
170 193 0
164 186 0
163 185 0
161 184 0
163 185 0
164 186 0
165 188 0
164 187 0
163 186 0
166 189 0
166 188 0
160 184 0
166 187 0
168 189 0
170 193 0
162 184 0
161 183 0
167 188 0
158 178 0
168 190 0
165 186 0
162 184 0
164 187 0
170 191 0
165 186 0
166 188 0
162 184 0
166 188 0
162 186 0
162 186 0
166 188 0
163 184 0
164 185 0
166 187 0
165 188 0
167 189 0
159 181 0
168 191 0
166 187 0
165 186 0
168 190 0
168 191 0
162 185 0
166 186 0
166 188 0
167 189 0
166 188 0
163 184 0
163 185 0
169 192 0
166 188 0
163 184 0
167 190 0
169 190 0
164 185 0
168 189 0
165 186 0
165 187 0
165 186 0
169 190 0
170 192 0
165 188 0
163 185 0
164 187 0
166 187 0
167 187 0
166 188 0
166 188 0
167 189 0
165 188 0
168 188 0
167 190 0
158 180 0
170 192 0
164 183 0
167 188 0
163 185 0
167 189 0
164 185 0
167 189 0
164 185 0
165 186 0
164 186 0
167 188 0
164 184 0
165 186 0
164 185 0
166 188 0
162 183 0
167 188 0
164 185 0
168 189 0
167 188 0
163 182 0
167 188 0
165 186 0
170 190 0
167 188 0
164 185 0
165 185 0
167 188 0
168 187 0
165 186 0
169 190 0
164 184 0
161 183 0
169 191 0
169 189 0
167 186 0
166 187 0
169 188 0
167 188 0
171 193 0
169 190 0
165 185 0
169 190 0
167 186 0
168 190 0
169 188 0
166 186 0
168 188 0
165 187 0
169 190 0
165 184 0
166 187 0
166 185 0
167 187 0
165 184 0
167 187 0
167 187 0
167 188 0
168 189 0
167 188 0
169 191 0
170 190 0
168 188 0
165 187 0
166 186 0
164 184 0
164 185 0
168 189 0
165 187 0
167 186 0
169 190 0
164 185 0
169 188 0
166 185 0
168 187 0
170 193 0
167 187 0
168 189 0
168 190 0
169 191 0
168 188 0
169 188 0
169 189 0
167 187 0
165 184 0
172 192 0
167 189 0
169 189 0
165 185 0
170 190 0
167 188 0
170 189 0
171 189 0
169 190 0
172 192 0
169 191 0
171 192 0
169 190 0
168 188 0
170 189 0
169 192 0
172 196 0
171 194 0
170 193 0
169 193 0
171 195 0
169 193 0
166 190 0
172 196 0
170 194 0
173 197 0
171 193 0
165 189 0
171 195 0
170 194 0
170 194 0
172 195 0
170 193 0
167 191 0
169 193 0
167 191 0
171 194 0
169 193 0
169 192 0
170 194 0
171 194 0
171 194 0
169 192 0
171 195 0
170 193 0
167 191 0
169 192 0
169 193 0
171 194 0
170 193 0
176 198 0
169 192 0
168 192 0
168 191 0
171 194 0
171 193 0
168 192 0
172 195 0
172 195 0
167 191 0
168 191 0
171 195 0
168 192 0
169 192 0
171 194 0
166 189 0
168 192 0
170 193 0
172 196 0
170 193 0
168 191 0
162 185 0
169 193 0
168 191 0
168 191 0
168 192 0
168 191 0
167 190 0
172 195 0
169 193 0
170 194 0
168 191 0
171 194 0
168 192 0
169 194 0
169 193 0
169 191 0
170 193 0
168 191 0
165 188 0
168 191 0
168 191 0
170 193 0
164 187 0
170 193 0
163 187 0
167 190 0
170 193 0
168 191 0
171 195 0
166 190 0
169 193 0
166 188 0
164 187 0
167 190 0
169 191 0
169 192 0
168 191 0
172 196 0
167 191 0
167 191 0
172 194 0
170 192 0
168 192 0
165 188 0
168 193 0
165 188 0
167 190 0
164 187 0
167 190 0
169 192 0
169 192 0
166 188 0
167 191 0
167 190 0
167 190 0
169 192 0
168 191 0
168 191 0
167 190 0
168 191 0
167 190 0
168 191 0
171 194 0
162 185 0
166 189 0
165 189 0
169 192 0
166 190 0
165 188 0
166 189 0
165 188 0
169 192 0
166 189 0
169 192 0
165 190 0
160 183 0
166 189 0
168 192 0
167 191 0
165 188 0
173 196 0
166 188 0
166 190 0
167 190 0
163 186 0
165 189 0
164 188 0
169 191 0
167 189 0
166 189 0
165 188 0
164 187 0
166 189 0
158 182 0
171 194 0
165 188 0
164 187 0
169 193 0
163 186 0
162 185 0
167 191 0
169 191 0
170 194 0
168 191 0
167 190 0
167 190 0
166 189 0
162 185 0
163 187 0
168 192 0
167 190 0
168 190 0
164 187 0
158 180 0
165 188 0
169 191 0
166 188 0
166 188 0
165 188 0
168 190 0
166 188 0
163 186 0
168 191 0
168 190 0
162 186 0
161 184 0
165 188 0
161 184 0
163 185 0
166 189 0
167 191 0
165 188 0
166 189 0
165 188 0
166 190 0
166 188 0
157 179 0
167 189 0
165 188 0
166 189 0
169 192 0
163 185 0
164 186 0
164 187 0
166 187 0
164 187 0
163 187 0
169 192 0
166 188 0
170 192 0
164 186 0
166 189 0
170 193 0
165 188 0
164 187 0
164 187 0
169 192 0
167 190 0
166 190 0
164 186 0
165 187 0
168 191 0
167 189 0
162 184 0
170 192 0
165 187 0
164 187 0
164 187 0
167 190 0
164 187 0
164 186 0
163 185 0
170 193 0
164 185 0
167 189 0
169 192 0
168 191 0
159 181 0
168 190 0
165 189 0
163 186 0
163 185 0
162 184 0
169 192 0
162 184 0
165 187 0
166 188 0
163 186 0
161 184 0
163 185 0
165 187 0
169 191 0
162 184 0
165 186 0
165 185 0
166 188 0
169 190 0
161 182 0
166 187 0
160 181 0
169 189 0
168 190 0
167 190 0
168 191 0
164 187 0
166 188 0
167 188 0
167 188 0
163 183 0
165 186 0
165 187 0
166 188 0
164 187 0
167 188 0
168 191 0
164 186 0
165 187 0
163 186 0
166 187 0
168 190 0
167 189 0
166 187 0
165 187 0
163 186 0
163 184 0
166 188 0
166 188 0
161 182 0
166 187 0
159 181 0
168 189 0
164 187 0
167 189 0
165 186 0
166 187 0
161 182 0
165 187 0
167 187 0
165 186 0
170 193 0
169 190 0
164 185 0
164 185 0
162 183 0
170 191 0
161 182 0
165 186 0
164 185 0
159 180 0
165 186 0
164 185 0
164 186 0
167 188 0
168 188 0
168 190 0
168 190 0
167 187 0
163 185 0
166 187 0
164 185 0
163 184 0
167 188 0
167 188 0
163 185 0
167 188 0
164 184 0
169 190 0
167 188 0
169 190 0
166 186 0
165 185 0
165 186 0
164 184 0
168 190 0
167 188 0
164 184 0
170 193 0
164 184 0
167 190 0
166 187 0
168 189 0
168 190 0
166 185 0
167 187 0
167 188 0
170 190 0
169 190 0
168 189 0
165 183 0
166 186 0
165 185 0
169 191 0
165 185 0
167 188 0
169 189 0
166 189 0
170 190 0
166 187 0
169 189 0
166 186 0
165 185 0
165 185 0
167 188 0
168 190 0
168 189 0
167 187 0
168 188 0
169 191 0
172 194 0
168 189 0
166 187 0
166 187 0
171 192 0
163 182 0
165 185 0
170 192 0
169 189 0
170 190 0
170 190 0
170 190 0
165 185 0
166 186 0
168 189 0
169 191 0
165 184 0
168 188 0
169 190 0
170 189 0
163 183 0
166 186 0
168 190 0
167 189 0
168 187 0
171 192 0
166 187 0
168 188 0
168 187 0
170 190 0
167 188 0
168 188 0
170 191 0
170 190 0
168 187 0
162 182 0
170 193 0
172 195 0
172 195 0
173 196 0
171 195 0
167 191 0
171 194 0
169 193 0
172 195 0
172 195 0
170 193 0
171 195 0
173 196 0
165 189 0
168 191 0
172 195 0
171 194 0
172 196 0
170 193 0
165 189 0
174 197 0
170 193 0
169 194 0
172 195 0
171 196 0
171 194 0
171 195 0
169 193 0
170 193 0
172 195 0
169 192 0
172 195 0
170 193 0
170 193 0
173 196 0
172 195 0
170 194 0
167 191 0
166 188 0
169 193 0
168 192 0
171 194 0
169 193 0
169 193 0
173 196 0
171 195 0
170 193 0
167 191 0
167 190 0
170 194 0
172 196 0
172 195 0
171 194 0
167 190 0
172 195 0
170 193 0
170 193 0
165 188 0
168 192 0
167 190 0
170 193 0
170 193 0
166 190 0
171 194 0
171 193 0
165 189 0
169 193 0
166 189 0
170 193 0
168 192 0
168 192 0
168 191 0
170 194 0
170 194 0
163 187 0
166 190 0
167 191 0
169 193 0
171 195 0
168 192 0
169 192 0
170 192 0
166 189 0
166 190 0
170 193 0
167 190 0
168 191 0
167 190 0
166 189 0
170 193 0
169 192 0
165 189 0
167 191 0
167 190 0
169 192 0
167 190 0
165 188 0
167 189 0
167 191 0
167 190 0
167 192 0
166 189 0
166 190 0
168 191 0
168 191 0
163 186 0
167 191 0
167 191 0
164 188 0
166 190 0
164 186 0
170 193 0
167 190 0
168 191 0
163 185 0
166 189 0
161 185 0
168 192 0
169 191 0
168 192 0
164 187 0
170 193 0
167 190 0
168 191 0
163 187 0
166 189 0
166 189 0
171 195 0
169 192 0
164 187 0
170 193 0
165 188 0
169 192 0
161 184 0
165 189 0
169 192 0
168 192 0
167 189 0
165 188 0
165 189 0
166 189 0
167 189 0
164 187 0
167 191 0
163 187 0
166 190 0
169 192 0
162 185 0
169 191 0
166 189 0
163 186 0
167 190 0
166 190 0
163 188 0
162 184 0
169 192 0
169 193 0
167 189 0
166 189 0
168 191 0
167 190 0
165 188 0
167 190 0
165 188 0
161 186 0
163 186 0
169 193 0
164 188 0
164 186 0
166 189 0
168 191 0
168 191 0
162 185 0
167 190 0
169 192 0
163 186 0
169 192 0
166 188 0
170 192 0
162 185 0
167 190 0
167 189 0
165 188 0
165 187 0
168 191 0
166 189 0
163 185 0
164 186 0
165 189 0
164 187 0
163 186 0
168 191 0
167 189 0
169 192 0
170 194 0
165 188 0
167 189 0
166 188 0
168 190 0
163 187 0
166 189 0
163 184 0
163 187 0
162 185 0
164 186 0
168 191 0
167 190 0
163 186 0
160 182 0
168 190 0
167 190 0
161 184 0
168 191 0
167 190 0
166 189 0
166 189 0
166 188 0
164 187 0
162 183 0
160 183 0
168 190 0
162 185 0
164 186 0
170 193 0
168 192 0
169 192 0
169 192 0
168 191 0
163 185 0
167 190 0
164 186 0
167 189 0
165 187 0
158 182 0
164 188 0
163 186 0
162 184 0
159 179 0
164 185 0
166 188 0
168 191 0
167 190 0
166 189 0
161 181 0
165 185 0
165 189 0
166 187 0
166 188 0
163 185 0
163 185 0
163 185 0
163 185 0
165 188 0
167 189 0
166 188 0
164 186 0
164 186 0
164 185 0
163 184 0
166 188 0
164 186 0
162 184 0
170 193 0
168 191 0
168 191 0
164 186 0
163 187 0
164 186 0
167 189 0
164 184 0
164 187 0
158 180 0
164 185 0
165 187 0
169 191 0
169 192 0
167 189 0
166 188 0
163 185 0
162 184 0
165 189 0
166 188 0
169 190 0
167 189 0
166 186 0
166 187 0
160 181 0
162 182 0
164 186 0
165 187 0
162 183 0
169 190 0
166 187 0
164 186 0
166 187 0
167 188 0
165 187 0
165 188 0
167 189 0
164 184 0
169 191 0
162 183 0
165 188 0
169 190 0
163 184 0
160 180 0
164 184 0
170 191 0
167 189 0
165 187 0
168 189 0
168 189 0
168 190 0
163 185 0
167 188 0
164 186 0
165 186 0
163 183 0
169 190 0
163 184 0
162 181 0
167 187 0
162 183 0
171 192 0
166 188 0
167 188 0
165 186 0
167 188 0
167 188 0
167 190 0
166 186 0
164 183 0
161 182 0
168 189 0
167 188 0
168 188 0
164 183 0
167 190 0
165 184 0
164 186 0
168 190 0
167 186 0
164 185 0
168 186 0
167 188 0
170 190 0
169 189 0
168 189 0
163 185 0
166 186 0
163 183 0
168 189 0
168 187 0
164 186 0
169 189 0
171 193 0
168 189 0
169 191 0
162 181 0
168 189 0
171 192 0
168 189 0
166 186 0
167 189 0
169 188 0
164 184 0
169 191 0
168 189 0
167 188 0
168 187 0
167 185 0
168 188 0
169 191 0
168 189 0
171 191 0
167 188 0
168 187 0
170 191 0
168 189 0
167 186 0
169 188 0
165 187 0
167 189 0
169 188 0
167 188 0
169 190 0
172 193 0
166 186 0
166 186 0
168 189 0
169 190 0
168 188 0
169 190 0
167 185 0
170 190 0
166 186 0
172 192 0
169 189 0
165 184 0
170 190 0
173 196 0
171 195 0
170 194 0
174 197 0
172 195 0
172 195 0
172 195 0
169 193 0
170 193 0
171 195 0
172 195 0
169 193 0
167 191 0
175 197 0
169 192 0
166 189 0
172 195 0
168 193 0
171 194 0
170 193 0
173 196 0
170 193 0
170 192 0
170 193 0
168 192 0
169 192 0
173 196 0
170 194 0
171 195 0
169 193 0
168 191 0
169 193 0
173 196 0
171 195 0
171 194 0
172 195 0
172 195 0
170 193 0
168 191 0
168 193 0
169 192 0
172 196 0
170 194 0
164 187 0
170 193 0
171 194 0
170 193 0
169 193 0
170 193 0
172 195 0
167 190 0
167 191 0
168 191 0
172 196 0
166 190 0
169 193 0
169 193 0
168 191 0
170 193 0
170 194 0
167 191 0
168 192 0
170 193 0
169 193 0
168 192 0
170 194 0
168 192 0
167 190 0
171 193 0
169 192 0
169 192 0
167 190 0
173 195 0
170 193 0
169 193 0
167 191 0
169 192 0
168 190 0
167 190 0
167 190 0
167 190 0
169 192 0
168 191 0
172 195 0
165 189 0
173 197 0
167 190 0
164 187 0
171 194 0
166 190 0
164 188 0
170 192 0
168 190 0
163 187 0
167 190 0
166 190 0
168 191 0
169 192 0
167 190 0
167 190 0
165 189 0
164 187 0
167 191 0
166 190 0
172 196 0
167 191 0
164 187 0
169 193 0
165 188 0
167 191 0
165 188 0
165 188 0
169 192 0
165 188 0
170 192 0
169 193 0
169 191 0
167 190 0
162 186 0
168 191 0
169 193 0
166 189 0
167 191 0
167 190 0
164 186 0
168 191 0
169 192 0
170 193 0
165 188 0
170 192 0
167 190 0
168 190 0
168 191 0
163 187 0
167 191 0
170 192 0
168 192 0
165 188 0
161 184 0
162 185 0
164 188 0
164 187 0
166 190 0
164 187 0
168 190 0
167 190 0
163 186 0
166 189 0
167 191 0
167 191 0
169 192 0
171 194 0
165 188 0
165 188 0
165 189 0
165 189 0
158 181 0
170 193 0
167 190 0
167 189 0
166 188 0
167 190 0
165 188 0
168 190 0
166 190 0
165 187 0
162 185 0
165 187 0
167 190 0
161 183 0
165 188 0
162 184 0
167 189 0
164 188 0
171 194 0
165 188 0
168 191 0
168 191 0
166 189 0
164 187 0
165 189 0
162 184 0
162 186 0
164 187 0
166 189 0
165 187 0
170 192 0
162 185 0
166 189 0
164 186 0
170 193 0
163 185 0
166 188 0
162 184 0
161 183 0
166 189 0
166 189 0
166 187 0
164 186 0
170 193 0
168 190 0
162 185 0
163 186 0
167 191 0
164 188 0
163 186 0
166 188 0
166 186 0
166 188 0
163 185 0
164 187 0
164 186 0
163 187 0
165 187 0
162 184 0
167 189 0
163 185 0
167 189 0
164 186 0
167 190 0
161 185 0
159 182 0
165 188 0
162 185 0
160 182 0
162 186 0
164 186 0
163 186 0
164 186 0
168 191 0
163 186 0
170 191 0
166 190 0
165 186 0
161 185 0
169 191 0
162 185 0
164 188 0
162 184 0
161 184 0
163 186 0
169 192 0
167 189 0
163 186 0
164 185 0
164 185 0
168 190 0
163 184 0
164 187 0
163 185 0
162 184 0
168 189 0
168 190 0
162 185 0
162 183 0
162 184 0
164 186 0
165 185 0
164 187 0
163 185 0
167 190 0
161 181 0
168 190 0
164 186 0
168 190 0
164 186 0
165 186 0
161 182 0
164 184 0
162 184 0
166 187 0
163 184 0
166 188 0
165 187 0
168 190 0
165 186 0
169 191 0
166 188 0
162 183 0
166 186 0
157 179 0
164 187 0
161 182 0
164 186 0
171 192 0
165 188 0
167 189 0
167 189 0
164 187 0
167 189 0
162 184 0
166 188 0
165 186 0
165 187 0
165 186 0
165 186 0
167 190 0
164 185 0
163 184 0
165 187 0
164 184 0
166 187 0
164 186 0
165 185 0
167 188 0
164 186 0
168 190 0
166 187 0
169 191 0
161 182 0
163 185 0
165 186 0
161 180 0
166 187 0
164 185 0
167 189 0
165 187 0
165 185 0
166 188 0
165 186 0
165 186 0
168 189 0
168 191 0
168 188 0
165 187 0
170 192 0
163 183 0
169 189 0
164 185 0
167 187 0
163 185 0
161 182 0
169 190 0
165 185 0
167 187 0
169 189 0
168 188 0
166 188 0
166 187 0
167 187 0
167 187 0
166 186 0
168 188 0
166 188 0
168 189 0
169 191 0
168 188 0
169 190 0
168 189 0
166 187 0
169 189 0
164 185 0
167 188 0
167 187 0
168 187 0
168 189 0
164 184 0
166 188 0
163 184 0
168 190 0
168 187 0
168 190 0
163 183 0
165 185 0
171 192 0
166 186 0
168 189 0
168 189 0
167 188 0
170 189 0
166 188 0
166 187 0
170 191 0
170 191 0
168 188 0
169 189 0
168 189 0
170 191 0
170 191 0
169 188 0
170 190 0
170 190 0
166 186 0
166 187 0
167 189 0
170 190 0
167 188 0
170 190 0
169 189 0
170 192 0
171 192 0
171 191 0
170 190 0
169 189 0
168 190 0
170 191 0
165 186 0
170 190 0
166 183 0
169 188 0
170 193 0
170 194 0
170 194 0
169 192 0
168 191 0
168 191 0
171 194 0
171 193 0
171 195 0
171 195 0
169 192 0
171 194 0
172 196 0
171 196 0
171 195 0
172 195 0
171 195 0
170 193 0
171 194 0
169 193 0
171 194 0
171 195 0
170 193 0
168 192 0
173 195 0
168 191 0
171 194 0
170 193 0
170 194 0
170 193 0
172 196 0
168 191 0
170 193 0
169 193 0
168 192 0
169 192 0
169 193 0
167 191 0
168 192 0
170 193 0
170 193 0
171 194 0
167 190 0
170 194 0
167 190 0
172 195 0
170 193 0
170 194 0
166 190 0
169 193 0
170 193 0
170 193 0
168 191 0
169 193 0
169 192 0
166 190 0
168 191 0
169 192 0
168 191 0
165 190 0
169 192 0
168 191 0
173 196 0
167 192 0
164 187 0
170 193 0
168 191 0
170 193 0
169 192 0
167 191 0
167 191 0
167 191 0
171 195 0
171 194 0
167 191 0
165 189 0
169 192 0
169 192 0
164 188 0
168 191 0
170 194 0
169 192 0
169 191 0
165 189 0
167 190 0
167 191 0
165 189 0
167 191 0
169 193 0
166 189 0
167 191 0
166 189 0
167 191 0
169 193 0
169 192 0
169 193 0
166 190 0
170 193 0
167 190 0
170 194 0
172 195 0
167 191 0
168 191 0
167 191 0
165 189 0
165 188 0
163 185 0
168 191 0
166 190 0
163 187 0
167 190 0
167 191 0
169 193 0
166 189 0
164 188 0
164 188 0
166 189 0
168 191 0
164 187 0
168 190 0
168 192 0
166 189 0
165 188 0
169 192 0
167 190 0
164 187 0
169 191 0
169 192 0
170 193 0
169 192 0
166 190 0
165 189 0
167 191 0
170 192 0
169 193 0
165 188 0
167 189 0
169 193 0
168 191 0
167 189 0
163 185 0
169 192 0
164 187 0
166 189 0
165 187 0
165 188 0
170 193 0
163 186 0
168 190 0
169 193 0
165 188 0
166 188 0
165 190 0
168 192 0
162 185 0
168 191 0
166 189 0
167 191 0
167 190 0
160 183 0
170 193 0
166 190 0
165 189 0
168 192 0
162 185 0
163 185 0
170 192 0
164 187 0
168 191 0
160 184 0
166 188 0
167 191 0
168 190 0
164 188 0
164 186 0
168 190 0
167 191 0
169 192 0
169 191 0
165 188 0
164 185 0
167 191 0
163 186 0
164 186 0
166 189 0
167 190 0
168 192 0
163 186 0
164 187 0
168 191 0
167 190 0
166 189 0
168 191 0
159 183 0
165 188 0
163 186 0
166 189 0
165 188 0
161 185 0
164 186 0
167 190 0
167 188 0
163 185 0
168 191 0
164 188 0
162 184 0
166 189 0
164 187 0
165 187 0
159 181 0
165 187 0
167 190 0
166 189 0
168 191 0
156 177 0
167 189 0
164 187 0
161 182 0
164 186 0
166 188 0
165 187 0
164 186 0
168 190 0
160 183 0
168 190 0
165 187 0
166 189 0
166 189 0
165 188 0
161 184 0
164 186 0
162 184 0
166 188 0
162 182 0
160 182 0
166 188 0
165 187 0
163 185 0
163 186 0
163 186 0
165 188 0
165 186 0
164 186 0
169 191 0
161 183 0
165 187 0
164 186 0
168 189 0
166 188 0
161 183 0
167 190 0
169 193 0
162 183 0
166 188 0
165 186 0
164 185 0
166 189 0
167 188 0
168 189 0
159 181 0
169 191 0
163 185 0
163 184 0
166 186 0
169 191 0
159 181 0
165 188 0
166 188 0
167 189 0
167 189 0
166 188 0
166 188 0
165 186 0
168 190 0
161 182 0
165 186 0
160 181 0
167 188 0
166 188 0
159 181 0
165 185 0
165 186 0
165 187 0
167 188 0
163 185 0
163 184 0
161 183 0
168 190 0
169 191 0
169 190 0
164 185 0
165 187 0
164 185 0
171 195 0
165 185 0
167 189 0
166 188 0
167 189 0
167 190 0
168 191 0
167 189 0
161 181 0
165 185 0
166 188 0
165 187 0
168 191 0
171 194 0
168 190 0
164 185 0
164 187 0
167 189 0
169 192 0
169 190 0
169 191 0
165 187 0
163 184 0
165 188 0
165 185 0
165 186 0
165 185 0
165 186 0
165 186 0
165 187 0
165 186 0
166 187 0
165 186 0
167 189 0
163 183 0
168 190 0
167 188 0
168 189 0
168 189 0
166 188 0
168 189 0
165 187 0
165 186 0
164 184 0
167 188 0
166 188 0
163 185 0
163 183 0
165 186 0
164 186 0
171 192 0
165 186 0
166 186 0
164 186 0
165 188 0
167 188 0
167 186 0
167 188 0
167 189 0
164 183 0
167 187 0
166 186 0
167 188 0
165 186 0
169 190 0
166 187 0
166 186 0
167 187 0
170 190 0
164 186 0
167 189 0
167 188 0
166 188 0
166 186 0
167 187 0
165 183 0
168 189 0
167 189 0
165 186 0
170 191 0
170 191 0
168 187 0
166 187 0
170 191 0
171 190 0
167 186 0
166 187 0
167 187 0
170 191 0
170 191 0
169 189 0
168 185 0
169 188 0
170 191 0
169 189 0
171 191 0
162 183 0
165 186 0
168 189 0
169 191 0
164 184 0
169 189 0
168 189 0
169 190 0
167 187 0
168 189 0
169 187 0
171 194 0
170 194 0
169 193 0
171 194 0
172 196 0
169 193 0
169 192 0
166 190 0
170 194 0
173 196 0
170 194 0
170 194 0
168 192 0
170 194 0
171 194 0
171 194 0
174 196 0
172 195 0
170 193 0
167 191 0
172 196 0
169 193 0
169 193 0
168 191 0
169 192 0
170 193 0
167 191 0
171 194 0
171 194 0
170 193 0
168 191 0
172 194 0
174 197 0
168 190 0
168 191 0
167 191 0
168 190 0
173 196 0
167 190 0
169 192 0
168 192 0
170 193 0
164 187 0
168 190 0
166 190 0
167 189 0
171 194 0
169 193 0
170 193 0
169 193 0
170 193 0
166 190 0
170 193 0
170 194 0
168 191 0
170 192 0
170 194 0
170 193 0
171 194 0
167 190 0
169 193 0
168 192 0
167 191 0
168 192 0
170 193 0
170 194 0
165 189 0
171 194 0
170 193 0
168 190 0
167 191 0
166 189 0
173 196 0
165 189 0
169 192 0
169 191 0
168 191 0
169 193 0
168 192 0
169 190 0
169 193 0
167 191 0
168 191 0
167 191 0
169 193 0
171 194 0
169 192 0
170 193 0
167 190 0
165 189 0
166 188 0
169 192 0
168 190 0
167 191 0
166 189 0
170 193 0
168 192 0
166 190 0
166 190 0
165 189 0
167 189 0
160 184 0
169 192 0
166 188 0
167 191 0
168 190 0
167 190 0
165 190 0
170 193 0
166 189 0
164 188 0
171 194 0
164 187 0
168 192 0
162 186 0
168 191 0
171 195 0
168 191 0
166 189 0
161 184 0
167 190 0
170 193 0
164 188 0
170 194 0
167 190 0
170 194 0
168 192 0
167 191 0
167 190 0
166 190 0
166 189 0
166 189 0
167 190 0
168 192 0
168 192 0
167 190 0
169 192 0
168 192 0
161 185 0
168 191 0
164 187 0
168 192 0
168 191 0
167 191 0
169 191 0
164 187 0
167 190 0
166 189 0
167 191 0
172 195 0
164 187 0
167 190 0
165 188 0
164 187 0
168 190 0
168 191 0
169 193 0
166 188 0
166 190 0
163 187 0
168 190 0
168 192 0
163 185 0
164 187 0
166 190 0
170 193 0
162 187 0
166 189 0
161 184 0
166 190 0
167 190 0
166 189 0
161 184 0
165 188 0
166 190 0
164 187 0
165 188 0
165 187 0
163 186 0
166 189 0
171 194 0
164 186 0
163 187 0
169 192 0
166 189 0
164 188 0
168 191 0
161 185 0
167 190 0
166 187 0
164 188 0
168 191 0
166 189 0
166 189 0
167 189 0
165 188 0
165 188 0
169 192 0
167 191 0
172 194 0
169 191 0
168 191 0
161 184 0
164 186 0
162 185 0
163 186 0
163 186 0
166 189 0
164 187 0
163 186 0
166 189 0
165 186 0
159 183 0
164 187 0
162 185 0
166 189 0
161 183 0
162 186 0
162 184 0
160 183 0
161 184 0
158 181 0
165 189 0
164 188 0
169 190 0
164 188 0
165 188 0
166 187 0
166 189 0
164 186 0
165 186 0
169 192 0
166 187 0
166 187 0
164 187 0
165 188 0
170 192 0
163 186 0
164 186 0
166 188 0
166 189 0
170 191 0
166 188 0
165 188 0
165 188 0
166 187 0
169 191 0
162 185 0
166 188 0
168 190 0
163 184 0
166 189 0
166 188 0
163 187 0
167 188 0
169 190 0
164 187 0
168 191 0
166 188 0
167 190 0
166 187 0
169 191 0
163 186 0
169 191 0
165 186 0
161 183 0
166 189 0
163 186 0
167 189 0
170 192 0
163 185 0
169 191 0
162 185 0
168 191 0
165 186 0
163 184 0
167 188 0
163 185 0
166 187 0
163 183 0
165 188 0
165 187 0
162 183 0
168 188 0
163 182 0
162 183 0
161 183 0
163 184 0
164 185 0
164 185 0
168 191 0
165 185 0
165 186 0
170 191 0
163 186 0
165 186 0
168 191 0
165 187 0
165 187 0
164 184 0
165 187 0
166 188 0
162 184 0
164 185 0
163 185 0
168 190 0
167 188 0
164 184 0
166 188 0
165 187 0
166 188 0
167 188 0
164 186 0
160 181 0
168 189 0
167 188 0
165 187 0
165 186 0
169 192 0
165 186 0
167 190 0
168 191 0
165 185 0
166 187 0
168 189 0
166 186 0
168 189 0
164 185 0
166 188 0
166 187 0
169 191 0
166 184 0
165 187 0
166 187 0
168 189 0
167 190 0
166 187 0
168 189 0
169 190 0
166 187 0
167 188 0
167 186 0
166 187 0
167 186 0
167 188 0
168 188 0
167 188 0
167 188 0
165 186 0
167 188 0
168 188 0
167 187 0
172 194 0
168 189 0
166 186 0
167 185 0
168 187 0
170 192 0
170 191 0
165 186 0
166 187 0
165 184 0
168 186 0
168 188 0
166 185 0
169 189 0
164 185 0
168 189 0
165 187 0
169 191 0
169 190 0
165 186 0
167 186 0
168 189 0
166 188 0
169 192 0
171 190 0
164 185 0
166 187 0
167 188 0
167 187 0
167 187 0
165 185 0
168 189 0
167 187 0
169 190 0
165 185 0
167 187 0
169 190 0
167 186 0
169 190 0
171 191 0
169 191 0
167 186 0
170 191 0
169 189 0
171 190 0
166 187 0
169 187 0
169 191 0
169 193 0
171 194 0
173 195 0
169 193 0
167 190 0
173 196 0
169 192 0
174 197 0
169 192 0
171 194 0
171 195 0
169 193 0
170 194 0
169 193 0
170 194 0
169 193 0
168 191 0
169 193 0
171 194 0
169 194 0
168 193 0
168 192 0
170 194 0
173 196 0
168 191 0
167 191 0
171 194 0
173 195 0
169 193 0
168 193 0
170 193 0
168 191 0
169 193 0
171 194 0
171 194 0
170 193 0
173 196 0
171 194 0
169 192 0
168 191 0
169 194 0
171 194 0
172 195 0
170 193 0
165 188 0
171 194 0
167 191 0
164 188 0
169 193 0
168 191 0
169 193 0
173 196 0
167 191 0
170 193 0
169 193 0
171 194 0
167 192 0
171 195 0
171 195 0
167 191 0
168 191 0
173 196 0
169 192 0
166 191 0
169 193 0
170 193 0
168 192 0
164 187 0
168 192 0
163 186 0
168 191 0
167 191 0
171 195 0
170 194 0
164 187 0
163 187 0
171 194 0
164 187 0
167 190 0
166 189 0
173 197 0
166 190 0
163 186 0
166 189 0
164 187 0
168 191 0
163 186 0
169 193 0
168 192 0
166 190 0
168 191 0
166 190 0
165 188 0
166 189 0
169 193 0
164 188 0
160 183 0
167 190 0
168 191 0
166 188 0
163 187 0
166 188 0
171 194 0
170 194 0
166 191 0
165 187 0
168 191 0
167 190 0
169 192 0
167 189 0
169 192 0
165 188 0
170 193 0
168 191 0
167 191 0
168 191 0
166 189 0
166 190 0
169 192 0
164 186 0
171 195 0
165 186 0
170 192 0
163 184 0
164 186 0
166 190 0
171 194 0
167 190 0
168 191 0
168 192 0
167 190 0
170 193 0
167 190 0
161 185 0
165 189 0
163 186 0
166 189 0
164 188 0
169 192 0
170 193 0
167 190 0
166 189 0
168 193 0
161 184 0
168 191 0
168 191 0
165 189 0
165 188 0
169 193 0
166 188 0
165 188 0
168 192 0
167 189 0
165 189 0
170 192 0
162 184 0
162 184 0
167 190 0
167 189 0
167 191 0
168 191 0
164 187 0
166 189 0
167 189 0
166 189 0
165 187 0
162 185 0
163 186 0
168 191 0
167 190 0
165 188 0
169 192 0
169 192 0
168 192 0
165 187 0
163 186 0
163 186 0
167 189 0
166 190 0
163 185 0
165 189 0
167 190 0
168 190 0
162 185 0
166 189 0
168 190 0
163 187 0
164 187 0
165 188 0
163 186 0
162 185 0
166 189 0
167 190 0
168 191 0
165 188 0
163 187 0
167 189 0
164 186 0
165 187 0
162 184 0
166 189 0
165 187 0
159 182 0
168 190 0
164 187 0
164 186 0
165 189 0
168 190 0
164 187 0
162 186 0
166 188 0
164 185 0
165 187 0
159 183 0
168 191 0
166 189 0
164 188 0
163 186 0
161 184 0
164 187 0
167 190 0
165 187 0
165 187 0
163 184 0
169 193 0
163 185 0
162 183 0
160 183 0
169 192 0
170 192 0
165 189 0
168 191 0
162 184 0
162 184 0
161 182 0
165 189 0
164 187 0
165 188 0
169 191 0
166 190 0
164 187 0
161 184 0
166 188 0
166 188 0
169 192 0
167 189 0
167 189 0
167 189 0
167 189 0
161 183 0
167 190 0
167 188 0
165 187 0
161 184 0
162 184 0
168 191 0
165 187 0
166 188 0
167 190 0
166 188 0
162 185 0
162 184 0
168 189 0
164 186 0
168 189 0
163 184 0
164 186 0
166 187 0
167 190 0
166 189 0
165 188 0
166 187 0
162 184 0
166 187 0
165 186 0
167 190 0
166 189 0
162 184 0
166 187 0
169 191 0
165 186 0
164 185 0
166 188 0
165 186 0
170 191 0
163 185 0
165 186 0
165 186 0
165 186 0
161 182 0
163 184 0
165 186 0
164 184 0
166 189 0
165 186 0
165 184 0
165 186 0
167 189 0
163 183 0
167 187 0
167 188 0
167 187 0
166 187 0
167 187 0
166 188 0
165 184 0
163 184 0
159 181 0
164 185 0
168 189 0
165 186 0
164 186 0
166 186 0
168 189 0
169 191 0
167 186 0
167 186 0
164 185 0
164 186 0
167 189 0
159 179 0
164 185 0
166 186 0
164 185 0
168 189 0
166 188 0
162 183 0
166 186 0
170 191 0
167 188 0
167 188 0
168 190 0
167 188 0
169 191 0
167 189 0
164 185 0
169 190 0
165 185 0
169 190 0
166 188 0
166 186 0
165 184 0
166 187 0
169 190 0
171 191 0
165 186 0
166 186 0
164 184 0
167 189 0
170 192 0
169 190 0
169 190 0
171 191 0
169 189 0
166 184 0
164 183 0
168 186 0
166 185 0
166 187 0
170 190 0
167 186 0
169 190 0
169 190 0
168 190 0
165 185 0
168 189 0
171 192 0
167 188 0
170 190 0
171 193 0
169 188 0
166 187 0
168 189 0
164 185 0
169 190 0
168 191 0
169 188 0
171 193 0
169 190 0
168 189 0
166 186 0
172 191 0
170 189 0
168 188 0
168 188 0
169 189 0
164 184 0
163 182 0
170 190 0
168 188 0
167 190 0
171 191 0
164 183 0
170 191 0
171 191 0
168 190 0
169 190 0
169 190 0
169 188 0
170 190 0
172 196 0
172 195 0
172 196 0
172 196 0
170 193 0
171 194 0
170 194 0
169 193 0
172 194 0
171 193 0
170 193 0
170 193 0
171 193 0
173 196 0
171 195 0
167 191 0
170 193 0
171 194 0
167 190 0
173 196 0
167 191 0
170 194 0
164 188 0
171 194 0
173 195 0
172 195 0
170 194 0
168 192 0
168 192 0
173 196 0
172 196 0
167 191 0
168 192 0
170 194 0
170 194 0
168 192 0
166 189 0
169 192 0
171 195 0
164 188 0
171 194 0
169 193 0
173 196 0
171 195 0
170 193 0
170 193 0
166 189 0
169 192 0
172 195 0
172 196 0
172 195 0
169 192 0
168 192 0
168 192 0
169 192 0
171 195 0
163 186 0
170 193 0
168 191 0
167 191 0
169 193 0
169 192 0
168 191 0
164 187 0
169 192 0
164 188 0
173 196 0
169 191 0
169 193 0
166 190 0
169 192 0
169 191 0
169 192 0
169 192 0
169 192 0
168 191 0
167 191 0
168 191 0
166 190 0
169 192 0
166 189 0
170 194 0
167 190 0
167 190 0
166 190 0
165 190 0
168 191 0
170 193 0
169 192 0
166 190 0
165 189 0
166 190 0
168 190 0
171 193 0
167 190 0
170 193 0
167 191 0
167 190 0
167 189 0
170 194 0
167 191 0
167 190 0
168 191 0
169 193 0
170 193 0
165 188 0
166 189 0
168 191 0
169 192 0
169 191 0
170 193 0
167 191 0
167 190 0
165 189 0
165 188 0
163 186 0
169 192 0
165 187 0
168 190 0
162 186 0
164 187 0
166 190 0
166 190 0
167 190 0
167 190 0
167 191 0
169 191 0
166 189 0
168 191 0
169 192 0
167 190 0
167 190 0
164 186 0
166 189 0
166 190 0
166 189 0
166 190 0
165 189 0
171 194 0
168 191 0
166 188 0
168 191 0
163 186 0
161 184 0
164 187 0
166 190 0
168 191 0
165 188 0
167 189 0
162 186 0
169 191 0
160 183 0
166 189 0
167 190 0
165 188 0
168 192 0
167 191 0
169 192 0
163 186 0
159 183 0
165 188 0
166 190 0
168 191 0
166 189 0
164 187 0
167 189 0
163 185 0
163 186 0
164 187 0
167 190 0
163 186 0
164 187 0
166 190 0
169 192 0
165 188 0
169 192 0
159 181 0
173 196 0
161 183 0
168 191 0
163 187 0
165 189 0
169 191 0
165 187 0
167 189 0
165 189 0
163 185 0
161 184 0
169 192 0
163 187 0
166 188 0
165 188 0
168 191 0
163 185 0
166 188 0
166 189 0
169 192 0
162 185 0
165 188 0
169 192 0
166 188 0
165 187 0
167 190 0
167 189 0
165 186 0
161 185 0
161 184 0
167 188 0
165 186 0
163 185 0
167 190 0
163 185 0
164 186 0
163 185 0
160 182 0
162 183 0
170 193 0
168 190 0
161 184 0
161 184 0
167 190 0
167 189 0
163 186 0
166 190 0
167 189 0
161 184 0
166 188 0
164 187 0
165 188 0
160 183 0
167 188 0
166 189 0
165 188 0
166 189 0
165 188 0
168 191 0
168 191 0
159 180 0
165 187 0
166 188 0
163 185 0
166 187 0
166 188 0
170 192 0
163 186 0
163 184 0
164 186 0
163 185 0
163 184 0
164 187 0
164 186 0
163 185 0
164 187 0
166 187 0
166 189 0
165 187 0
166 188 0
163 185 0
163 186 0
167 188 0
165 186 0
167 189 0
165 187 0
165 188 0
163 186 0
167 189 0
165 187 0
164 187 0
169 191 0
165 185 0
164 187 0
164 185 0
162 183 0
165 188 0
164 185 0
165 188 0
167 190 0
165 187 0
167 190 0
167 188 0
167 188 0
166 188 0
169 191 0
168 189 0
164 186 0
164 186 0
163 185 0
167 189 0
166 188 0
167 190 0
168 188 0
163 185 0
168 192 0
162 183 0
164 185 0
166 187 0
163 182 0
168 190 0
163 186 0
165 187 0
169 190 0
166 189 0
164 186 0
167 188 0
163 185 0
168 188 0
167 187 0
168 191 0
165 186 0
165 185 0
167 189 0
163 185 0
167 189 0
170 191 0
168 191 0
167 189 0
167 188 0
166 188 0
163 184 0
166 187 0
166 188 0
163 185 0
166 186 0
161 181 0
162 182 0
168 187 0
162 184 0
162 183 0
167 187 0
169 191 0
168 190 0
166 187 0
168 190 0
168 189 0
163 184 0
166 185 0
163 185 0
168 189 0
165 187 0
167 187 0
161 182 0
165 185 0
170 190 0
168 189 0
166 186 0
172 193 0
170 192 0
163 181 0
170 192 0
168 189 0
165 186 0
167 187 0
166 186 0
169 190 0
166 187 0
166 186 0
166 186 0
166 185 0
169 189 0
170 192 0
168 188 0
165 186 0
166 188 0
167 188 0
164 187 0
167 188 0
169 188 0
168 189 0
166 188 0
168 189 0
164 185 0
169 190 0
165 187 0
169 188 0
171 191 0
168 189 0
166 186 0
169 191 0
170 192 0
170 191 0
167 188 0
170 191 0
172 193 0
167 189 0
171 190 0
164 184 0
165 185 0
164 185 0
171 191 0
169 188 0
169 190 0
169 190 0
170 190 0
168 190 0
168 189 0
170 189 0
165 188 0
166 186 0
169 190 0
167 188 0
169 192 0
171 195 0
171 194 0
173 196 0
170 193 0
169 193 0
169 193 0
169 193 0
172 196 0
170 193 0
167 191 0
169 193 0
169 193 0
170 193 0
170 193 0
171 194 0
168 192 0
169 193 0
173 196 0
172 195 0
170 193 0
171 194 0
170 194 0
169 193 0
165 189 0
168 192 0
171 195 0
173 196 0
166 188 0
170 193 0
165 188 0
171 194 0
170 194 0
168 192 0
172 195 0
169 193 0
168 191 0
172 195 0
169 193 0
170 194 0
173 196 0
166 189 0
171 194 0
166 189 0
166 189 0
169 193 0
167 191 0
169 192 0
170 193 0
167 191 0
167 191 0
169 193 0
167 191 0
169 192 0
172 195 0
167 191 0
165 189 0
171 194 0
168 192 0
166 189 0
170 194 0
168 192 0
168 191 0
166 190 0
169 194 0
172 195 0
169 192 0
167 191 0
169 192 0
171 194 0
170 194 0
171 194 0
168 191 0
173 196 0
169 192 0
170 193 0
168 192 0
169 192 0
165 188 0
166 189 0
166 189 0
169 191 0
170 193 0
169 192 0
165 188 0
170 193 0
169 193 0
164 188 0
166 189 0
162 186 0
168 191 0
168 191 0
167 190 0
168 192 0
163 186 0
169 193 0
169 192 0
170 193 0
168 191 0
165 188 0
169 193 0
168 191 0
167 190 0
168 191 0
172 194 0
160 183 0
164 188 0
166 189 0
165 189 0
168 190 0
165 189 0
170 193 0
169 193 0
165 189 0
171 194 0
172 196 0
167 191 0
164 188 0
170 193 0
160 183 0
164 187 0
167 191 0
164 188 0
164 187 0
167 191 0
166 189 0
167 189 0
166 188 0
165 188 0
166 188 0
169 192 0
166 188 0
160 184 0
169 192 0
166 189 0
167 189 0
161 185 0
170 194 0
165 189 0
166 189 0
166 190 0
165 188 0
163 186 0
167 189 0
168 192 0
167 191 0
167 189 0
166 190 0
168 191 0
165 189 0
164 187 0
169 192 0
164 188 0
165 189 0
169 193 0
165 187 0
163 185 0
165 188 0
165 189 0
164 185 0
160 184 0
165 189 0
163 187 0
168 191 0
166 189 0
166 189 0
161 184 0
162 186 0
162 184 0
164 187 0
167 190 0
162 186 0
166 190 0
165 188 0
161 185 0
162 184 0
165 188 0
162 186 0
160 183 0
168 191 0
164 188 0
166 189 0
166 189 0
168 193 0
164 187 0
169 192 0
162 186 0
168 190 0
163 187 0
169 191 0
165 187 0
161 184 0
165 188 0
170 193 0
167 189 0
169 191 0
166 189 0
166 188 0
165 188 0
165 188 0
166 189 0
167 189 0
166 189 0
167 191 0
161 183 0
168 191 0
164 186 0
163 186 0
164 187 0
160 183 0
167 189 0
165 186 0
160 183 0
165 189 0
169 191 0
168 191 0
165 186 0
166 189 0
161 183 0
167 190 0
164 185 0
165 189 0
168 190 0
163 185 0
167 190 0
166 188 0
163 186 0
168 191 0
164 185 0
165 187 0
168 190 0
167 190 0
163 185 0
164 186 0
167 191 0
166 188 0
164 186 0
162 183 0
165 188 0
165 187 0
164 185 0
166 189 0
170 193 0
165 185 0
164 187 0
166 190 0
164 185 0
164 186 0
166 189 0
167 188 0
168 190 0
163 185 0
164 187 0
167 190 0
163 185 0
166 187 0
170 193 0
160 182 0
165 187 0
169 191 0
166 189 0
171 192 0
166 189 0
165 186 0
168 188 0
165 189 0
165 188 0
164 185 0
164 185 0
165 188 0
163 185 0
168 189 0
165 187 0
161 183 0
165 188 0
167 188 0
164 185 0
167 188 0
165 186 0
166 188 0
166 187 0
169 191 0
170 192 0
164 186 0
167 190 0
162 183 0
168 190 0
166 188 0
167 190 0
165 187 0
161 184 0
167 186 0
164 187 0
167 190 0
168 188 0
167 189 0
163 186 0
165 186 0
161 183 0
166 185 0
167 188 0
165 186 0
166 188 0
165 187 0
167 187 0
166 188 0
169 190 0
164 185 0
165 185 0
167 189 0
165 187 0
166 187 0
164 185 0
164 184 0
167 188 0
164 185 0
168 188 0
165 187 0
166 188 0
166 188 0
168 191 0
165 187 0
167 188 0
164 183 0
165 186 0
166 187 0
165 185 0
168 188 0
167 186 0
166 187 0
168 190 0
163 184 0
169 191 0
165 186 0
167 187 0
167 187 0
171 191 0
165 185 0
168 189 0
165 187 0
167 188 0
169 190 0
166 188 0
165 186 0
165 186 0
168 190 0
167 187 0
167 188 0
167 187 0
164 185 0
166 185 0
167 186 0
165 186 0
169 191 0
166 187 0
168 189 0
170 191 0
171 192 0
168 190 0
165 186 0
164 185 0
164 185 0
164 183 0
164 183 0
165 185 0
169 190 0
168 187 0
167 188 0
165 185 0
162 182 0
167 185 0
167 188 0
167 189 0
164 184 0
170 188 0
167 186 0
167 189 0
168 185 0
170 189 0
164 184 0
167 187 0
163 183 0
168 189 0
169 191 0
169 189 0
169 189 0
172 193 0
168 188 0
169 189 0
169 190 0
171 192 0
170 192 0
172 192 0
166 187 0
168 189 0
166 186 0
167 188 0
166 187 0
169 190 0
168 186 0
170 194 0
169 193 0
173 196 0
169 192 0
172 195 0
169 193 0
169 193 0
170 194 0
171 195 0
170 194 0
169 192 0
166 190 0
167 190 0
169 192 0
171 194 0
169 192 0
173 196 0
169 193 0
171 194 0
168 191 0
169 192 0
169 192 0
169 192 0
172 194 0
171 195 0
171 194 0
169 193 0
170 193 0
173 196 0
168 191 0
169 193 0
170 192 0
170 193 0
172 196 0
171 194 0
168 192 0
171 194 0
168 192 0
170 193 0
167 191 0
168 192 0
169 193 0
171 194 0
170 194 0
169 192 0
170 193 0
167 191 0
169 192 0
167 191 0
168 191 0
168 192 0
170 193 0
171 194 0
170 193 0
171 194 0
168 191 0
170 193 0
169 192 0
172 195 0
168 191 0
166 190 0
172 196 0
165 189 0
170 194 0
170 193 0
168 192 0
169 193 0
171 195 0
167 190 0
170 193 0
166 190 0
167 191 0
169 193 0
167 191 0
168 191 0
168 192 0
168 193 0
170 194 0
169 193 0
171 193 0
168 193 0
169 191 0
169 193 0
165 188 0
166 190 0
170 193 0
171 195 0
170 193 0
170 195 0
166 190 0
165 188 0
169 192 0
167 190 0
168 192 0
170 192 0
169 192 0
163 187 0
164 188 0
168 192 0
169 192 0
166 190 0
164 187 0
168 191 0
164 187 0
167 191 0
166 190 0
170 192 0
163 185 0
163 186 0
167 190 0
167 191 0
167 191 0
170 193 0
165 187 0
170 192 0
168 191 0
165 187 0
165 188 0
169 191 0
166 189 0
168 191 0
171 194 0
170 193 0
161 184 0
163 186 0
168 192 0
167 189 0
166 190 0
169 191 0
163 187 0
166 190 0
170 193 0
169 192 0
164 188 0
169 191 0
164 187 0
166 190 0
169 192 0
169 193 0
169 192 0
167 189 0
168 191 0
166 189 0
167 190 0
169 191 0
167 191 0
163 188 0
168 191 0
165 189 0
166 188 0
164 187 0
167 190 0
168 191 0
165 188 0
163 187 0
165 188 0
165 188 0
163 186 0
167 191 0
168 191 0
166 189 0
167 190 0
168 190 0
167 189 0
168 192 0
162 185 0
168 192 0
163 186 0
164 187 0
167 190 0
165 188 0
165 187 0
168 190 0
167 190 0
163 186 0
165 188 0
167 189 0
168 190 0
166 189 0
165 187 0
165 188 0
163 185 0
161 185 0
165 188 0
165 188 0
169 192 0
164 187 0
161 183 0
169 192 0
165 188 0
168 192 0
163 185 0
166 188 0
169 192 0
163 185 0
164 187 0
167 189 0
165 188 0
165 188 0
169 191 0
167 190 0
168 191 0
167 191 0
162 184 0
166 188 0
168 192 0
172 194 0
165 189 0
166 188 0
165 188 0
166 188 0
170 193 0
163 186 0
161 184 0
166 188 0
168 192 0
167 190 0
158 179 0
161 184 0
167 190 0
166 189 0
166 188 0
158 180 0
163 184 0
164 187 0
156 179 0
165 187 0
166 187 0
165 188 0
168 191 0
167 189 0
167 189 0
164 186 0
160 183 0
163 185 0
163 185 0
165 187 0
167 189 0
164 188 0
158 180 0
167 191 0
168 190 0
165 186 0
164 185 0
168 190 0
161 182 0
165 187 0
167 189 0
164 186 0
165 188 0
159 181 0
162 184 0
165 188 0
163 184 0
168 191 0
166 189 0
166 188 0
161 182 0
160 182 0
165 187 0
169 191 0
166 188 0
163 186 0
159 180 0
164 186 0
163 184 0
162 185 0
165 187 0
168 189 0
165 188 0
169 191 0
169 191 0
166 190 0
162 183 0
163 185 0
166 188 0
162 185 0
165 188 0
166 188 0
166 187 0
166 188 0
159 180 0
166 188 0
165 185 0
167 189 0
166 187 0
168 190 0
168 188 0
166 188 0
164 187 0
167 189 0
170 192 0
168 190 0
161 182 0
167 187 0
164 185 0
162 184 0
165 187 0
164 186 0
161 184 0
161 181 0
169 190 0
169 190 0
162 185 0
167 188 0
169 190 0
166 188 0
168 187 0
166 188 0
163 184 0
167 189 0
170 191 0
162 183 0
168 190 0
162 183 0
169 192 0
167 190 0
164 185 0
164 185 0
170 191 0
166 186 0
170 191 0
165 186 0
167 187 0
165 187 0
167 188 0
168 189 0
162 184 0
168 190 0
168 189 0
166 188 0
167 189 0
169 189 0
163 182 0
167 188 0
167 187 0
168 188 0
168 187 0
169 190 0
164 184 0
164 186 0
170 190 0
168 190 0
168 190 0
166 187 0
167 189 0
168 188 0
166 186 0
169 191 0
160 180 0
168 188 0
168 189 0
168 188 0
167 187 0
168 188 0
168 190 0
168 189 0
164 184 0
167 188 0
166 186 0
165 187 0
168 187 0
169 189 0
169 189 0
167 187 0
168 189 0
169 190 0
170 190 0
168 189 0
167 187 0
165 187 0
169 188 0
168 190 0
167 185 0
169 188 0
171 194 0
164 185 0
166 186 0
167 188 0
167 188 0
163 182 0
170 191 0
170 191 0
166 186 0
168 189 0
168 188 0
171 190 0
171 193 0
166 186 0
166 188 0
169 190 0
167 187 0
170 191 0
166 185 0
166 189 0
165 185 0
168 189 0
167 188 0
170 191 0
169 188 0
169 192 0
171 195 0
170 194 0
170 193 0
168 191 0
169 193 0
168 192 0
170 194 0
168 192 0
169 193 0
168 192 0
170 194 0
170 193 0
170 194 0
172 195 0
170 193 0
171 195 0
170 193 0
171 194 0
172 195 0
170 194 0
171 194 0
168 192 0
171 194 0
167 189 0
169 193 0
170 193 0
167 191 0
171 194 0
169 193 0
170 192 0
173 195 0
171 194 0
169 194 0
170 193 0
168 192 0
172 195 0
170 193 0
172 195 0
171 194 0
171 193 0
168 191 0
168 193 0
168 191 0
166 191 0
168 192 0
165 189 0
168 192 0
170 193 0
168 192 0
171 195 0
166 189 0
167 191 0
170 193 0
171 194 0
169 192 0
166 190 0
168 192 0
169 193 0
168 192 0
170 193 0
170 195 0
169 192 0
168 191 0
167 191 0
166 190 0
169 192 0
169 192 0
164 187 0
167 191 0
171 194 0
167 190 0
169 192 0
168 192 0
166 189 0
165 188 0
168 192 0
165 189 0
167 190 0
164 187 0
170 192 0
167 190 0
165 188 0
171 194 0
169 193 0
166 189 0
169 192 0
170 193 0
165 188 0
169 193 0
170 193 0
166 189 0
171 194 0
161 184 0
170 193 0
166 190 0
164 188 0
167 190 0
166 189 0
168 192 0
167 191 0
168 191 0
171 195 0
166 189 0
169 192 0
169 191 0
167 190 0
169 192 0
165 188 0
168 191 0
172 195 0
165 188 0
167 190 0
169 192 0
164 188 0
167 190 0
167 190 0
165 186 0
166 189 0
165 188 0
167 191 0
163 187 0
172 195 0
168 192 0
169 192 0
168 192 0
167 191 0
165 189 0
169 192 0
167 190 0
168 192 0
166 190 0
167 191 0
164 187 0
166 189 0
167 190 0
165 187 0
170 192 0
168 192 0
166 189 0
165 189 0
163 187 0
166 190 0
163 187 0
168 192 0
167 190 0
166 189 0
164 187 0
166 190 0
170 193 0
166 188 0
162 186 0
168 191 0
160 183 0
166 189 0
168 191 0
162 185 0
167 190 0
166 189 0
163 186 0
171 194 0
161 183 0
166 190 0
164 187 0
161 185 0
165 188 0
168 190 0
164 187 0
165 188 0
167 190 0
170 193 0
159 181 0
169 192 0
165 188 0
165 187 0
167 190 0
165 188 0
165 189 0
168 193 0
162 185 0
167 190 0
166 189 0
165 189 0
170 193 0
166 188 0
163 185 0
167 190 0
165 189 0
162 185 0
163 188 0
167 190 0
161 184 0
168 191 0
166 188 0
163 186 0
165 188 0
167 189 0
165 188 0
169 192 0
165 187 0
167 189 0
167 189 0
162 185 0
164 185 0
166 189 0
164 187 0
166 189 0
168 190 0
169 191 0
168 192 0
167 189 0
164 187 0
164 187 0
163 186 0
159 181 0
166 188 0
166 187 0
169 192 0
169 190 0
167 188 0
166 188 0
164 187 0
165 188 0
165 188 0
166 188 0
163 184 0
163 185 0
166 188 0
165 188 0
164 186 0
164 187 0
161 184 0
165 187 0
168 191 0
163 186 0
168 190 0
161 183 0
165 187 0
164 187 0
164 186 0
167 189 0
159 182 0
164 186 0
161 182 0
167 189 0
169 192 0
163 185 0
165 187 0
164 185 0
164 186 0
168 191 0
161 182 0
166 188 0
168 191 0
166 188 0
167 188 0
160 183 0
164 186 0
161 182 0
166 189 0
164 186 0
159 180 0
167 190 0
167 188 0
165 188 0
165 187 0
166 189 0
163 183 0
165 187 0
163 185 0
163 186 0
168 190 0
164 185 0
163 183 0
161 183 0
167 188 0
165 186 0
169 192 0
162 184 0
166 187 0
171 193 0
164 187 0
161 183 0
167 187 0
165 187 0
163 184 0
169 190 0
166 187 0
157 179 0
163 184 0
169 190 0
167 190 0
168 191 0
163 184 0
166 188 0
168 190 0
162 184 0
168 190 0
159 180 0
162 184 0
162 183 0
167 189 0
163 184 0
166 188 0
165 187 0
168 188 0
169 191 0
165 186 0
163 185 0
167 189 0
166 188 0
166 189 0
167 189 0
168 189 0
171 192 0
170 192 0
163 183 0
163 185 0
167 189 0
163 183 0
164 185 0
166 187 0
161 181 0
166 189 0
168 187 0
166 186 0
166 188 0
167 189 0
169 191 0
167 187 0
166 187 0
167 186 0
163 183 0
167 187 0
169 190 0
166 187 0
167 189 0
165 187 0
164 184 0
167 187 0
167 188 0
170 192 0
165 186 0
166 186 0
161 183 0
171 192 0
166 187 0
167 187 0
168 190 0
169 192 0
166 187 0
165 187 0
168 190 0
169 190 0
166 186 0
167 186 0
167 188 0
170 190 0
171 193 0
168 190 0
166 188 0
164 185 0
164 184 0
163 183 0
168 188 0
165 188 0
169 189 0
168 190 0
170 192 0
168 188 0
167 188 0
168 189 0
170 191 0
170 190 0
166 187 0
166 186 0
165 185 0
165 187 0
166 187 0
167 188 0
168 189 0
170 191 0
171 192 0
166 186 0
167 190 0
167 187 0
168 188 0
169 190 0
170 190 0
168 188 0
166 185 0
170 191 0
160 179 0
167 187 0
171 192 0
170 192 0
169 189 0
166 186 0
170 192 0
169 189 0
171 195 0
170 193 0
169 192 0
170 193 0
168 191 0
172 196 0
169 191 0
172 195 0
172 195 0
170 194 0
169 192 0
167 190 0
170 194 0
168 193 0
169 193 0
168 191 0
168 192 0
166 190 0
168 192 0
166 189 0
170 193 0
170 193 0
172 195 0
172 196 0
169 191 0
171 193 0
168 192 0
170 193 0
171 194 0
167 190 0
170 193 0
166 190 0
171 194 0
172 195 0
168 192 0
171 194 0
168 192 0
168 192 0
171 194 0
168 190 0
170 193 0
170 193 0
171 195 0
166 188 0
167 192 0
169 193 0
171 193 0
164 188 0
169 192 0
167 191 0
169 193 0
170 193 0
165 189 0
167 190 0
167 190 0
166 189 0
169 193 0
168 191 0
168 192 0
167 190 0
163 186 0
169 194 0
170 193 0
168 191 0
170 193 0
171 195 0
170 193 0
169 192 0
170 194 0
169 192 0
171 194 0
170 194 0
167 189 0
169 194 0
170 193 0
168 191 0
167 191 0
169 192 0
172 195 0
171 193 0
165 189 0
166 189 0
167 190 0
165 189 0
168 191 0
168 192 0
166 191 0
167 190 0
167 190 0
163 186 0
167 190 0
170 192 0
169 192 0
165 189 0
163 185 0
165 190 0
168 191 0
166 190 0
171 194 0
169 192 0
167 191 0
168 191 0
168 191 0
167 189 0
169 192 0
167 191 0
170 192 0
167 191 0
167 190 0
166 189 0
166 190 0
168 191 0
169 192 0
167 189 0
168 192 0
161 184 0
166 189 0
168 190 0
163 187 0
166 191 0
169 192 0
167 190 0
165 188 0
172 195 0
168 192 0
163 186 0
166 190 0
168 192 0
167 190 0
166 189 0
166 189 0
162 184 0
167 190 0
172 194 0
166 188 0
163 185 0
165 188 0
165 188 0
172 194 0
164 187 0
168 191 0
165 188 0
163 185 0
170 193 0
165 188 0
165 189 0
163 186 0
166 189 0
164 185 0
164 187 0
166 189 0
164 187 0
166 189 0
162 184 0
168 190 0
161 185 0
164 188 0
166 188 0
162 185 0
168 192 0
168 191 0
165 188 0
166 189 0
168 192 0
165 188 0
167 191 0
167 191 0
170 192 0
167 190 0
166 189 0
164 185 0
161 184 0
164 187 0
163 187 0
167 191 0
163 186 0
171 192 0
162 185 0
166 188 0
168 191 0
163 186 0
165 188 0
167 191 0
161 185 0
164 187 0
165 188 0
167 190 0
166 190 0
161 183 0
167 190 0
163 185 0
169 191 0
163 187 0
163 187 0
166 188 0
163 185 0
166 189 0
164 186 0
165 187 0
160 183 0
164 185 0
164 187 0
167 190 0
167 189 0
170 192 0
165 189 0
165 187 0
166 189 0
165 188 0
163 185 0
163 187 0
169 192 0
164 186 0
166 188 0
162 185 0
168 191 0
167 190 0
165 188 0
166 187 0
162 184 0
163 185 0
166 189 0
163 187 0
164 186 0
163 185 0
166 187 0
165 186 0
170 192 0
165 188 0
168 191 0
165 188 0
165 187 0
167 190 0
168 191 0
166 189 0
166 190 0
164 187 0
162 184 0
164 187 0
163 184 0
163 185 0
162 185 0
163 185 0
163 186 0
166 189 0
164 186 0
168 190 0
163 185 0
168 190 0
171 194 0
168 191 0
167 189 0
166 187 0
164 186 0
163 185 0
166 189 0
166 188 0
167 189 0
166 188 0
155 177 0
160 182 0
166 188 0
161 183 0
164 186 0
165 187 0
167 189 0
166 188 0
163 185 0
166 188 0
164 186 0
164 186 0
164 187 0
162 183 0
165 188 0
167 190 0
166 189 0
167 188 0
165 188 0
166 188 0
161 183 0
165 187 0
165 187 0
160 181 0
165 187 0
165 188 0
161 182 0
164 187 0
169 192 0
165 188 0
165 186 0
166 188 0
165 186 0
170 192 0
163 185 0
170 190 0
167 187 0
164 186 0
167 188 0
168 188 0
164 185 0
167 188 0
166 188 0
166 188 0
167 190 0
166 189 0
166 189 0
164 185 0
169 191 0
161 181 0
163 184 0
164 184 0
169 190 0
167 188 0
162 185 0
164 187 0
166 186 0
169 188 0
164 184 0
164 185 0
166 188 0
166 187 0
164 185 0
164 184 0
168 190 0
170 190 0
164 185 0
167 189 0
164 185 0
166 187 0
166 185 0
163 185 0
165 187 0
171 193 0
168 189 0
165 185 0
167 189 0
168 188 0
167 187 0
164 185 0
161 180 0
165 188 0
166 187 0
168 189 0
166 188 0
168 190 0
165 185 0
168 191 0
168 188 0
172 193 0
167 188 0
168 187 0
166 186 0
162 182 0
167 189 0
164 185 0
168 186 0
168 189 0
166 184 0
167 187 0
166 186 0
168 189 0
168 188 0
168 188 0
165 185 0
166 188 0
167 186 0
166 186 0
168 189 0
169 187 0
165 184 0
168 188 0
167 187 0
165 184 0
168 188 0
171 192 0
168 190 0
167 188 0
170 191 0
168 187 0
166 189 0
167 188 0
170 192 0
168 188 0
166 184 0
169 190 0
168 189 0
169 191 0
168 189 0
168 189 0
170 192 0
165 187 0
168 189 0
171 192 0
170 189 0
168 189 0
167 188 0
170 192 0
169 190 0
168 189 0
168 188 0
169 194 0
169 193 0
168 192 0
167 191 0
170 194 0
168 192 0
170 192 0
169 194 0
171 193 0
170 194 0
172 195 0
171 194 0
172 196 0
170 194 0
173 195 0
171 194 0
170 193 0
170 193 0
171 194 0
171 195 0
169 192 0
172 195 0
170 193 0
169 193 0
170 193 0
171 194 0
171 195 0
167 190 0
170 193 0
170 193 0
164 188 0
171 194 0
170 194 0
171 195 0
170 194 0
170 194 0
167 191 0
166 190 0
168 191 0
172 196 0
173 197 0
172 195 0
167 191 0
171 194 0
171 194 0
167 190 0
171 194 0
170 194 0
167 192 0
169 191 0
168 191 0
169 192 0
168 192 0
171 194 0
170 194 0
171 194 0
171 194 0
169 193 0
170 194 0
170 194 0
168 192 0
166 188 0
167 191 0
168 191 0
169 193 0
166 190 0
170 194 0
169 193 0
168 192 0
171 194 0
169 192 0
164 188 0
169 192 0
169 192 0
165 189 0
170 193 0
168 192 0
170 193 0
167 190 0
168 191 0
172 196 0
168 192 0
167 190 0
167 190 0
166 189 0
168 192 0
169 193 0
169 192 0
165 187 0
169 192 0
167 191 0
166 189 0
168 191 0
168 191 0
166 190 0
166 189 0
163 187 0
168 191 0
164 187 0
170 193 0
166 189 0
169 193 0
169 193 0
167 191 0
168 191 0
170 193 0
165 188 0
168 191 0
164 187 0
165 189 0
166 190 0
166 189 0
167 191 0
166 190 0
165 188 0
163 187 0
169 192 0
165 188 0
167 191 0
160 183 0
164 186 0
165 188 0
164 187 0
167 189 0
169 193 0
164 188 0
167 190 0
170 192 0
162 186 0
166 189 0
169 192 0
167 190 0
167 191 0
163 186 0
168 191 0
169 192 0
165 188 0
167 190 0
165 188 0
167 190 0
164 187 0
161 185 0
168 192 0
165 188 0
169 193 0
165 189 0
166 189 0
164 187 0
168 191 0
165 189 0
167 189 0
166 188 0
167 189 0
166 189 0
169 192 0
167 191 0
168 192 0
161 184 0
163 187 0
165 188 0
162 185 0
165 188 0
166 188 0
167 189 0
164 188 0
165 188 0
164 187 0
168 191 0
168 192 0
166 190 0
163 186 0
167 189 0
164 186 0
164 187 0
167 190 0
168 190 0
167 190 0
165 188 0
168 191 0
163 186 0
167 190 0
164 187 0
165 188 0
164 187 0
169 192 0
172 194 0
166 189 0
165 188 0
167 190 0
167 189 0
166 188 0
164 187 0
165 188 0
167 190 0
166 189 0
162 184 0
169 192 0
166 189 0
166 189 0
167 190 0
158 180 0
170 193 0
167 190 0
167 190 0
166 189 0
164 187 0
164 186 0
167 190 0
164 186 0
166 188 0
165 187 0
163 185 0
164 187 0
168 191 0
167 190 0
168 191 0
166 188 0
161 183 0
165 188 0
165 188 0
165 186 0
161 183 0
169 191 0
165 188 0
168 190 0
167 189 0
162 185 0
161 184 0
167 189 0
166 189 0
166 189 0
165 187 0
168 190 0
163 184 0
163 185 0
161 184 0
169 190 0
169 191 0
166 188 0
164 186 0
164 186 0
162 183 0
163 186 0
170 191 0
166 188 0
163 185 0
167 190 0
164 187 0
157 179 0
163 185 0
159 181 0
167 190 0
169 191 0
169 191 0
161 181 0
168 191 0
161 184 0
168 190 0
169 192 0
167 189 0
164 186 0
167 190 0
167 189 0
161 183 0
167 189 0
166 188 0
164 186 0
164 185 0
166 188 0
166 187 0
167 188 0
161 182 0
164 186 0
164 186 0
169 190 0
163 185 0
169 190 0
165 186 0
168 191 0
167 189 0
166 188 0
164 187 0
166 188 0
164 185 0
168 190 0
163 186 0
166 187 0
166 188 0
168 190 0
164 185 0
169 191 0
167 186 0
164 186 0
167 189 0
164 186 0
167 190 0
162 184 0
169 192 0
164 185 0
165 186 0
165 186 0
166 188 0
167 188 0
167 190 0
166 190 0
167 190 0
168 190 0
166 187 0
166 189 0
166 188 0
168 189 0
165 186 0
167 189 0
161 183 0
161 182 0
164 184 0
168 190 0
167 189 0
162 184 0
166 187 0
168 190 0
169 191 0
167 188 0
167 189 0
167 188 0
164 184 0
167 187 0
166 188 0
168 190 0
164 184 0
170 190 0
167 186 0
166 187 0
161 182 0
170 191 0
166 186 0
164 185 0
166 186 0
167 188 0
162 185 0
168 190 0
167 188 0
166 186 0
168 190 0
163 185 0
164 185 0
165 186 0
168 188 0
167 188 0
166 187 0
164 185 0
166 188 0
166 186 0
168 189 0
167 189 0
165 186 0
169 189 0
167 187 0
169 189 0
166 187 0
167 188 0
166 187 0
167 187 0
165 185 0
169 189 0
166 186 0
167 187 0
166 188 0
167 187 0
166 187 0
172 192 0
169 188 0
168 188 0
169 188 0
170 189 0
166 188 0
165 186 0
168 189 0
166 186 0
167 188 0
168 189 0
167 188 0
166 188 0
165 185 0
168 188 0
168 190 0
167 187 0
165 186 0
168 189 0
168 188 0
171 192 0
170 192 0
168 188 0
172 192 0
162 182 0
167 186 0
171 190 0
167 187 0
170 191 0
169 191 0
172 196 0
169 193 0
172 196 0
169 193 0
170 193 0
171 194 0
170 195 0
171 195 0
175 197 0
172 196 0
170 192 0
167 190 0
170 193 0
170 193 0
168 192 0
170 194 0
171 194 0
171 194 0
168 193 0
169 193 0
174 197 0
169 193 0
167 189 0
170 192 0
171 195 0
171 194 0
170 194 0
171 194 0
170 193 0
172 195 0
171 195 0
167 190 0
167 190 0
171 194 0
169 193 0
167 191 0
169 193 0
170 194 0
172 195 0
171 194 0
171 194 0
171 194 0
168 191 0
171 195 0
171 194 0
165 189 0
168 190 0
167 190 0
166 190 0
168 191 0
166 190 0
167 190 0
169 193 0
170 193 0
162 186 0
164 188 0
166 189 0
167 191 0
165 189 0
168 191 0
172 194 0
170 193 0
168 192 0
170 193 0
169 192 0
165 188 0
165 188 0
173 196 0
170 193 0
164 188 0
168 190 0
169 192 0
171 195 0
169 193 0
166 191 0
161 184 0
169 193 0
168 192 0
168 192 0
168 191 0
166 189 0
164 187 0
168 191 0
167 191 0
167 190 0
164 188 0
171 193 0
167 190 0
168 192 0
165 188 0
169 193 0
168 191 0
166 190 0
168 191 0
169 192 0
169 192 0
164 188 0
169 192 0
169 192 0
166 188 0
165 188 0
171 195 0
167 191 0
171 194 0
165 189 0
167 189 0
170 194 0
168 192 0
164 188 0
169 192 0
170 193 0
166 189 0
166 190 0
163 186 0
162 185 0
167 189 0
166 190 0
163 187 0
169 193 0
165 189 0
165 188 0
166 189 0
169 192 0
166 188 0
165 188 0
165 188 0
163 186 0
168 191 0
165 189 0
165 189 0
165 189 0
165 189 0
162 186 0
168 192 0
165 189 0
168 191 0
167 191 0
163 186 0
165 188 0
163 186 0
166 188 0
166 190 0
169 192 0
169 192 0
165 189 0
167 190 0
165 188 0
166 189 0
164 187 0
165 188 0
160 183 0
164 187 0
169 193 0
166 189 0
163 186 0
166 189 0
171 195 0
167 190 0
165 188 0
166 189 0
169 192 0
164 188 0
168 190 0
161 184 0
167 189 0
165 187 0
164 186 0
165 187 0
167 191 0
168 191 0
168 191 0
170 192 0
165 188 0
168 192 0
164 187 0
160 183 0
173 195 0
167 189 0
171 193 0
164 187 0
165 188 0
167 190 0
165 188 0
165 188 0
169 191 0
170 193 0
163 186 0
166 188 0
165 188 0
163 184 0
162 184 0
164 187 0
170 193 0
164 186 0
166 188 0
165 187 0
164 187 0
165 188 0
163 187 0
163 187 0
164 188 0
163 187 0
165 187 0
169 192 0
167 190 0
166 189 0
165 187 0
168 191 0
166 189 0
163 184 0
168 190 0
163 184 0
167 190 0
163 187 0
167 189 0
167 189 0
171 194 0
162 185 0
162 184 0
165 187 0
167 189 0
165 188 0
161 182 0
162 186 0
166 189 0
170 194 0
165 187 0
167 189 0
168 190 0
167 190 0
167 190 0
163 186 0
164 186 0
166 189 0
164 186 0
163 187 0
164 187 0
164 186 0
163 186 0
165 188 0
168 191 0
163 184 0
165 188 0
168 192 0
163 185 0
162 185 0
165 187 0
164 187 0
170 192 0
164 186 0
168 191 0
166 190 0
165 187 0
166 189 0
164 185 0
165 187 0
168 188 0
167 189 0
167 190 0
164 187 0
162 184 0
164 186 0
164 187 0
165 187 0
164 186 0
166 189 0
169 191 0
167 188 0
166 189 0
166 189 0
166 188 0
166 189 0
171 194 0
168 190 0
170 192 0
163 185 0
166 190 0
168 190 0
165 187 0
162 184 0
166 187 0
167 189 0
163 185 0
163 184 0
165 188 0
169 191 0
162 185 0
169 191 0
168 189 0
166 187 0
166 188 0
163 185 0
162 184 0
162 183 0
166 189 0
169 191 0
167 188 0
165 186 0
164 186 0
165 185 0
166 187 0
163 186 0
163 184 0
167 187 0
163 185 0
167 190 0
166 187 0
174 195 0
173 194 0
163 186 0
166 188 0
163 184 0
165 186 0
169 190 0
164 185 0
165 187 0
164 184 0
168 189 0
166 187 0
167 188 0
168 190 0
162 184 0
165 185 0
168 190 0
167 188 0
164 185 0
165 186 0
167 188 0
167 189 0
164 185 0
165 185 0
162 182 0
169 190 0
167 188 0
168 190 0
164 186 0
167 188 0
166 187 0
165 188 0
168 189 0
171 192 0
171 192 0
165 186 0
167 189 0
167 189 0
165 188 0
166 189 0
166 186 0
164 185 0
166 187 0
168 190 0
170 191 0
168 189 0
165 185 0
165 186 0
167 188 0
167 189 0
167 185 0
165 187 0
166 187 0
162 182 0
168 189 0
164 185 0
166 187 0
170 190 0
165 185 0
168 190 0
165 187 0
168 188 0
166 187 0
166 187 0
166 187 0
168 189 0
170 190 0
170 192 0
164 182 0
171 191 0
167 190 0
166 187 0
169 190 0
170 191 0
169 189 0
168 189 0
167 188 0
169 190 0
170 190 0
168 188 0
169 191 0
166 184 0
168 186 0
164 186 0
166 187 0
168 188 0
169 190 0
167 187 0
168 190 0
169 189 0
172 192 0
166 186 0
168 191 0
173 196 0
172 194 0
170 193 0
169 192 0
171 195 0
171 194 0
170 194 0
171 194 0
171 194 0
171 194 0
171 195 0
169 193 0
168 192 0
167 190 0
169 193 0
170 193 0
170 193 0
168 191 0
170 193 0
168 191 0
171 194 0
170 193 0
170 193 0
168 191 0
170 193 0
175 197 0
167 191 0
169 192 0
170 193 0
167 190 0
174 197 0
170 194 0
166 189 0
170 193 0
172 195 0
168 191 0
171 194 0
169 192 0
172 195 0
167 191 0
170 194 0
166 189 0
166 189 0
169 193 0
169 192 0
168 190 0
168 192 0
165 190 0
169 192 0
170 193 0
169 193 0
168 192 0
167 191 0
170 193 0
169 194 0
169 193 0
168 191 0
169 192 0
170 193 0
170 193 0
168 192 0
170 193 0
169 193 0
171 194 0
168 192 0
165 187 0
166 191 0
166 190 0
167 191 0
170 193 0
168 191 0
164 188 0
171 194 0
167 191 0
165 188 0
173 196 0
167 190 0
170 194 0
167 190 0
168 192 0
172 194 0
168 191 0
166 189 0
165 187 0
162 186 0
166 190 0
160 184 0
167 191 0
166 189 0
166 189 0
165 188 0
168 191 0
171 195 0
169 193 0
165 189 0
164 186 0
166 190 0
166 189 0
169 192 0
167 191 0
165 188 0
169 193 0
169 193 0
166 189 0
170 193 0
169 192 0
165 188 0
165 189 0
167 190 0
169 192 0
168 190 0
166 189 0
167 191 0
166 190 0
165 189 0
170 194 0
167 191 0
167 191 0
165 189 0
166 188 0
163 186 0
168 190 0
167 191 0
167 191 0
162 185 0
173 196 0
167 190 0
167 192 0
167 190 0
165 188 0
166 190 0
165 188 0
164 187 0
167 191 0
167 191 0
169 191 0
170 194 0
165 187 0
167 190 0
161 184 0
165 188 0
167 192 0
166 189 0
167 189 0
166 188 0
169 192 0
170 192 0
166 190 0
164 187 0
165 188 0
168 192 0
167 190 0
165 189 0
172 195 0
165 187 0
162 186 0
166 189 0
167 190 0
162 183 0
166 189 0
166 188 0
166 189 0
168 191 0
165 187 0
168 191 0
167 190 0
162 186 0
167 191 0
168 191 0
170 194 0
167 190 0
164 187 0
165 188 0
167 189 0
165 188 0
165 188 0
168 190 0
170 193 0
166 190 0
168 191 0
166 188 0
165 187 0
166 189 0
165 188 0
167 191 0
170 193 0
164 187 0
162 185 0
166 189 0
169 192 0
166 188 0
163 185 0
165 188 0
165 188 0
170 193 0
163 185 0
167 191 0
165 187 0
169 191 0
168 190 0
166 189 0
166 188 0
167 190 0
164 187 0
167 189 0
167 189 0
163 187 0
163 187 0
166 191 0
162 185 0
163 187 0
164 187 0
166 188 0
161 182 0
166 189 0
164 186 0
166 189 0
165 187 0
166 189 0
162 185 0
166 188 0
165 188 0
162 185 0
165 188 0
166 188 0
167 189 0
165 187 0
169 192 0
165 187 0
166 188 0
160 182 0
169 192 0
167 190 0
165 188 0
162 184 0
166 188 0
163 184 0
158 181 0
167 189 0
166 189 0
161 182 0
162 186 0
168 190 0
166 189 0
166 188 0
162 183 0
162 185 0
166 189 0
166 189 0
168 189 0
167 188 0
161 182 0
168 191 0
167 189 0
168 192 0
165 188 0
167 188 0
163 186 0
167 189 0
166 189 0
160 181 0
167 191 0
160 181 0
167 189 0
165 186 0
164 185 0
163 186 0
170 193 0
165 188 0
163 185 0
170 194 0
164 187 0
163 185 0
161 183 0
167 189 0
164 186 0
165 187 0
170 192 0
166 189 0
165 186 0
167 188 0
165 187 0
167 188 0
165 186 0
164 186 0
164 184 0
164 186 0
169 192 0
169 191 0
162 185 0
165 188 0
164 187 0
167 188 0
163 184 0
169 190 0
158 179 0
168 190 0
166 186 0
168 189 0
164 185 0
164 184 0
170 192 0
164 184 0
165 186 0
167 189 0
168 189 0
167 188 0
164 185 0
163 185 0
171 191 0
164 185 0
166 189 0
166 187 0
167 188 0
165 187 0
164 186 0
170 191 0
170 191 0
159 180 0
165 186 0
165 188 0
168 188 0
163 182 0
166 188 0
161 182 0
166 187 0
167 188 0
167 187 0
169 190 0
167 188 0
164 183 0
169 191 0
169 191 0
164 184 0
170 191 0
163 184 0
166 187 0
167 187 0
165 186 0
163 183 0
167 189 0
167 189 0
160 180 0
164 184 0
161 181 0
165 185 0
166 188 0
165 185 0
170 190 0
163 184 0
165 185 0
164 184 0
164 185 0
164 185 0
167 188 0
167 188 0
165 184 0
167 189 0
169 190 0
166 187 0
168 190 0
166 186 0
166 187 0
168 189 0
167 187 0
170 191 0
167 189 0
163 183 0
165 186 0
170 191 0
170 192 0
165 186 0
165 184 0
167 187 0
165 187 0
161 182 0
167 188 0
166 185 0
170 191 0
165 185 0
166 186 0
167 188 0
165 186 0
170 191 0
168 187 0
168 188 0
166 188 0
165 185 0
169 192 0
164 185 0
169 189 0
169 190 0
165 184 0
170 191 0
166 185 0
169 191 0
168 188 0
167 187 0
169 189 0
164 186 0
172 195 0
172 194 0
168 192 0
170 194 0
167 190 0
169 192 0
167 190 0
169 192 0
172 196 0
166 190 0
171 195 0
170 194 0
170 193 0
169 192 0
171 195 0
172 195 0
172 196 0
173 196 0
170 193 0
169 193 0
170 193 0
170 193 0
171 194 0
170 194 0
167 191 0
171 194 0
171 194 0
169 192 0
172 194 0
167 190 0
169 192 0
170 193 0
169 192 0
173 195 0
171 194 0
167 191 0
171 194 0
170 193 0
171 195 0
170 193 0
167 190 0
167 191 0
170 193 0
169 192 0
166 190 0
171 194 0
166 189 0
172 195 0
160 183 0
169 192 0
170 193 0
173 196 0
170 193 0
171 195 0
166 189 0
170 194 0
169 192 0
167 191 0
166 189 0
169 193 0
165 189 0
168 191 0
170 193 0
170 193 0
171 194 0
168 190 0
166 190 0
166 190 0
169 192 0
166 189 0
166 190 0
170 193 0
170 193 0
170 194 0
171 193 0
167 191 0
169 192 0
165 188 0
169 193 0
167 191 0
169 192 0
170 195 0
170 194 0
166 188 0
171 194 0
172 195 0
168 191 0
171 194 0
170 193 0
170 193 0
170 191 0
168 192 0
171 194 0
171 194 0
167 190 0
170 193 0
169 193 0
165 187 0
170 192 0
165 188 0
165 188 0
156 180 0
166 189 0
166 189 0
171 194 0
168 192 0
165 188 0
165 188 0
167 190 0
169 193 0
168 191 0
163 187 0
167 190 0
168 192 0
169 193 0
163 186 0
166 189 0
167 191 0
170 193 0
161 185 0
170 193 0
164 186 0
164 189 0
165 188 0
164 187 0
168 189 0
166 190 0
165 188 0
170 192 0
171 194 0
167 190 0
166 188 0
166 189 0
163 187 0
166 189 0
168 191 0
169 192 0
166 189 0
162 185 0
166 190 0
163 187 0
166 188 0
164 188 0
163 187 0
168 191 0
166 190 0
169 192 0
169 192 0
165 189 0
161 183 0
169 192 0
168 191 0
163 186 0
166 190 0
163 185 0
165 188 0
167 189 0
162 185 0
164 187 0
169 192 0
164 187 0
168 192 0
165 189 0
168 192 0
169 193 0
165 187 0
167 190 0
163 187 0
165 189 0
166 189 0
163 187 0
167 190 0
164 187 0
165 188 0
169 192 0
169 191 0
165 188 0
165 188 0
165 189 0
164 188 0
163 186 0
170 193 0
165 188 0
167 190 0
163 185 0
165 189 0
167 190 0
165 187 0
161 183 0
166 189 0
167 190 0
167 190 0
164 186 0
166 190 0
167 191 0
166 189 0
165 187 0
166 189 0
166 188 0
164 188 0
166 188 0
168 190 0
164 187 0
164 188 0
167 190 0
164 186 0
165 187 0
163 185 0
170 192 0
162 185 0
160 183 0
164 187 0
167 191 0
168 191 0
166 188 0
163 187 0
169 192 0
162 184 0
161 185 0
160 184 0
165 189 0
166 188 0
167 188 0
165 188 0
168 191 0
166 188 0
166 189 0
165 187 0
164 187 0
167 191 0
164 186 0
169 192 0
163 187 0
159 180 0
167 189 0
165 188 0
163 185 0
163 186 0
157 179 0
166 188 0
166 188 0
166 188 0
168 191 0
162 183 0
165 187 0
162 185 0
161 185 0
164 186 0
167 190 0
163 187 0
164 187 0
166 187 0
167 189 0
162 184 0
162 185 0
167 190 0
167 188 0
167 189 0
165 187 0
170 192 0
165 188 0
167 188 0
163 185 0
165 188 0
170 192 0
168 190 0
166 188 0
164 186 0
160 183 0
165 187 0
163 185 0
165 186 0
167 187 0
170 193 0
163 184 0
165 186 0
163 185 0
169 190 0
163 185 0
164 186 0
162 184 0
168 190 0
166 188 0
165 188 0
169 191 0
166 187 0
166 190 0
166 189 0
169 191 0
167 189 0
162 182 0
166 188 0
166 187 0
168 189 0
168 188 0
166 188 0
163 184 0
165 187 0
165 188 0
165 185 0
163 185 0
163 185 0
165 187 0
162 184 0
163 185 0
167 188 0
169 191 0
166 188 0
166 187 0
166 188 0
167 190 0
168 189 0
164 185 0
167 188 0
166 188 0
168 188 0
166 188 0
170 191 0
167 188 0
166 188 0
168 189 0
168 190 0
167 189 0
167 190 0
166 186 0
164 185 0
167 188 0
165 186 0
165 185 0
164 186 0
166 187 0
162 184 0
166 187 0
166 186 0
169 190 0
163 185 0
165 186 0
161 182 0
169 192 0
167 187 0
169 189 0
163 185 0
167 188 0
166 189 0
166 187 0
169 192 0
168 189 0
163 185 0
167 187 0
166 186 0
168 189 0
169 190 0
167 190 0
164 186 0
163 184 0
169 192 0
168 190 0
164 186 0
167 188 0
166 186 0
169 189 0
168 190 0
164 184 0
166 187 0
167 187 0
165 185 0
168 189 0
169 191 0
164 185 0
165 186 0
171 193 0
169 191 0
166 189 0
167 189 0
167 188 0
167 189 0
164 182 0
167 187 0
166 188 0
167 188 0
169 188 0
167 188 0
166 187 0
168 189 0
167 188 0
168 188 0
170 191 0
167 187 0
169 190 0
166 186 0
168 189 0
170 190 0
169 188 0
171 191 0
170 191 0
166 184 0
170 191 0
173 195 0
170 191 0
166 185 0
173 196 0
170 193 0
172 195 0
172 195 0
173 196 0
168 191 0
170 194 0
171 194 0
170 193 0
173 196 0
172 196 0
168 191 0
171 195 0
171 194 0
170 193 0
169 193 0
170 194 0
168 192 0
169 192 0
168 191 0
169 193 0
171 195 0
170 192 0
172 195 0
168 191 0
173 195 0
168 191 0
170 193 0
170 192 0
169 192 0
168 191 0
169 193 0
167 189 0
169 193 0
169 192 0
165 189 0
168 191 0
166 189 0
171 194 0
168 191 0
170 193 0
169 193 0
168 192 0
170 193 0
169 192 0
168 191 0
170 193 0
172 195 0
172 196 0
165 189 0
170 192 0
168 192 0
165 189 0
169 192 0
166 190 0
168 192 0
169 192 0
173 196 0
172 195 0
165 188 0
168 191 0
172 195 0
166 189 0
170 193 0
167 190 0
166 189 0
169 194 0
164 188 0
168 191 0
167 191 0
169 192 0
168 192 0
166 190 0
168 191 0
168 192 0
166 189 0
173 196 0
169 192 0
171 194 0
168 191 0
164 188 0
171 194 0
168 192 0
167 191 0
165 188 0
171 194 0
170 193 0
169 192 0
169 193 0
168 192 0
169 191 0
165 188 0
167 190 0
169 192 0
171 194 0
168 191 0
166 189 0
169 192 0
169 192 0
170 193 0
166 189 0
171 194 0
166 190 0
165 189 0
167 190 0
167 190 0
168 192 0
171 194 0
165 188 0
167 190 0
164 187 0
170 194 0
171 194 0
170 193 0
173 195 0
166 188 0
162 186 0
169 191 0
163 188 0
167 190 0
164 188 0
166 190 0
170 193 0
166 190 0
165 187 0
165 189 0
168 192 0
164 188 0
167 190 0
167 190 0
169 191 0
165 189 0
166 189 0
167 190 0
169 192 0
166 189 0
163 185 0
169 192 0
166 189 0
169 192 0
164 186 0
165 188 0
166 189 0
168 189 0
163 186 0
164 188 0
167 191 0
167 190 0
170 192 0
168 192 0
165 189 0
171 195 0
166 190 0
165 189 0
169 193 0
164 187 0
167 190 0
162 184 0
168 191 0
165 188 0
161 183 0
170 192 0
166 188 0
169 192 0
162 185 0
164 187 0
165 187 0
167 191 0
166 190 0
166 190 0
167 189 0
164 187 0
166 189 0
162 186 0
165 187 0
168 191 0
163 185 0
163 186 0
167 190 0
170 194 0
167 189 0
167 190 0
167 191 0
166 189 0
165 188 0
164 187 0
167 190 0
162 185 0
164 187 0
162 185 0
167 189 0
164 187 0
165 187 0
169 191 0
162 184 0
163 187 0
167 190 0
165 186 0
169 192 0
164 187 0
164 188 0
159 182 0
165 187 0
166 187 0
164 186 0
168 191 0
167 191 0
167 191 0
168 189 0
167 189 0
165 188 0
167 190 0
165 188 0
164 186 0
164 187 0
167 190 0
167 189 0
158 182 0
162 185 0
161 183 0
163 184 0
162 184 0
158 181 0
166 188 0
167 190 0
164 187 0
167 189 0
164 185 0
161 184 0
170 193 0
166 187 0
163 186 0
164 186 0
166 189 0
163 183 0
163 186 0
165 187 0
165 187 0
165 189 0
162 184 0
170 192 0
167 189 0
164 186 0
164 187 0
166 188 0
167 189 0
166 189 0
162 184 0
166 188 0
163 185 0
169 192 0
165 187 0
168 190 0
162 183 0
164 185 0
166 188 0
162 185 0
160 183 0
161 183 0
167 189 0
164 186 0
168 190 0
165 187 0
164 185 0
167 189 0
167 190 0
167 189 0
164 186 0
168 190 0
166 190 0
164 186 0
167 189 0
165 188 0
169 191 0
164 186 0
163 184 0
168 188 0
168 189 0
164 188 0
164 184 0
164 186 0
168 190 0
165 186 0
166 188 0
166 188 0
164 187 0
164 185 0
167 189 0
160 183 0
166 188 0
166 187 0
168 189 0
166 187 0
166 187 0
168 189 0
162 184 0
163 184 0
167 189 0
172 194 0
169 189 0
166 188 0
163 185 0
165 185 0
162 184 0
164 187 0
160 181 0
161 181 0
167 188 0
163 184 0
171 191 0
169 192 0
164 186 0
167 189 0
162 183 0
164 184 0
164 185 0
168 190 0
170 192 0
166 187 0
167 190 0
167 188 0
163 185 0
166 188 0
164 185 0
168 189 0
164 187 0
165 185 0
167 187 0
166 187 0
161 181 0
168 189 0
164 184 0
169 189 0
165 186 0
168 190 0
169 190 0
164 184 0
164 184 0
168 190 0
167 188 0
168 189 0
166 187 0
169 189 0
168 189 0
168 189 0
167 190 0
166 186 0
166 186 0
169 189 0
170 190 0
166 186 0
167 186 0
163 184 0
169 189 0
168 188 0
166 186 0
167 186 0
165 186 0
170 190 0
168 188 0
167 187 0
162 183 0
169 190 0
167 187 0
168 189 0
164 184 0
168 190 0
168 188 0
163 183 0
167 189 0
167 186 0
166 186 0
169 190 0
165 185 0
165 186 0
171 192 0
164 184 0
168 188 0
168 189 0
165 184 0
169 191 0
169 190 0
169 190 0
169 189 0
170 190 0
168 190 0
165 188 0
170 191 0
167 188 0
169 191 0
167 187 0
166 186 0
165 186 0
166 188 0
166 187 0
168 190 0
164 186 0
167 187 0
170 191 0
169 191 0
169 193 0
171 194 0
171 194 0
172 196 0
172 195 0
168 193 0
168 192 0
169 193 0
167 190 0
172 196 0
174 197 0
173 196 0
170 193 0
170 194 0
172 195 0
171 194 0
169 191 0
170 194 0
167 190 0
167 190 0
171 195 0
171 194 0
171 194 0
169 192 0
170 194 0
167 191 0
168 191 0
168 192 0
170 194 0
170 193 0
171 194 0
166 189 0
169 192 0
169 192 0
163 187 0
168 191 0
169 192 0
171 194 0
166 190 0
170 192 0
169 191 0
165 188 0
165 189 0
162 186 0
166 190 0
172 195 0
165 188 0
167 189 0
170 194 0
168 192 0
170 194 0
169 192 0
169 193 0
165 189 0
164 187 0
167 190 0
170 194 0
165 188 0
171 194 0
169 192 0
167 190 0
168 191 0
168 191 0
166 188 0
167 191 0
167 190 0
170 192 0
168 191 0
167 190 0
170 193 0
171 193 0
169 193 0
172 195 0
167 191 0
166 188 0
164 187 0
168 192 0
170 194 0
172 194 0
171 193 0
166 189 0
167 190 0
167 191 0
169 192 0
167 190 0
167 190 0
168 192 0
169 193 0
165 188 0
166 189 0
168 191 0
161 184 0
172 195 0
167 191 0
166 190 0
167 189 0
168 192 0
165 188 0
166 189 0
168 191 0
165 190 0
168 192 0
167 189 0
166 189 0
162 186 0
167 191 0
170 193 0
170 194 0
163 186 0
171 194 0
170 194 0
168 191 0
169 193 0
168 191 0
165 189 0
166 188 0
165 189 0
167 191 0
166 190 0
168 191 0
168 191 0
165 187 0
167 190 0
164 186 0
162 186 0
165 189 0
166 189 0
167 190 0
167 191 0
172 194 0
166 190 0
168 191 0
166 189 0
159 183 0
168 191 0
168 190 0
164 186 0
164 187 0
172 194 0
163 186 0
164 187 0
163 186 0
166 188 0
165 188 0
165 187 0
163 186 0
168 191 0
166 190 0
163 186 0
166 190 0
169 192 0
164 187 0
167 191 0
170 193 0
169 193 0
161 183 0
165 188 0
169 193 0
170 194 0
165 188 0
167 190 0
171 194 0
166 189 0
169 192 0
166 188 0
166 188 0
163 186 0
161 184 0
165 187 0
166 188 0
162 184 0
161 183 0
164 188 0
162 185 0
163 185 0
168 191 0
165 187 0
164 187 0
164 186 0
165 188 0
168 191 0
164 187 0
170 193 0
164 187 0
167 191 0
162 185 0
167 190 0
170 193 0
169 191 0
168 191 0
167 190 0
162 185 0
166 189 0
167 190 0
163 186 0
163 186 0
166 189 0
162 184 0
168 191 0
169 193 0
166 191 0
163 186 0
167 190 0
162 184 0
166 188 0
168 191 0
162 183 0
162 184 0
163 185 0
165 187 0
164 188 0
170 193 0
161 183 0
165 187 0
165 188 0
166 188 0
167 190 0
161 184 0
168 190 0
162 184 0
166 188 0
165 188 0
167 191 0
163 186 0
166 187 0
169 191 0
155 179 0
161 182 0
163 186 0
165 187 0
170 193 0
164 188 0
166 188 0
166 188 0
166 190 0
164 188 0
164 185 0
165 188 0
170 192 0
169 190 0
166 189 0
166 189 0
166 188 0
167 189 0
165 187 0
165 186 0
163 186 0
166 189 0
166 189 0
164 187 0
163 183 0
161 183 0
166 188 0
164 187 0
166 188 0
169 192 0
166 188 0
163 186 0
162 184 0
164 185 0
160 184 0
167 189 0
166 189 0
167 189 0
164 186 0
166 188 0
170 192 0
168 189 0
162 184 0
162 183 0
163 185 0
167 190 0
163 184 0
160 182 0
163 185 0
167 187 0
167 189 0
164 187 0
164 185 0
165 187 0
163 185 0
165 188 0
165 188 0
170 191 0
168 190 0
165 188 0
166 188 0
163 184 0
164 186 0
169 191 0
161 183 0
168 191 0
168 189 0
163 185 0
166 188 0
164 186 0
164 185 0
161 182 0
167 190 0
166 186 0
163 186 0
163 186 0
170 192 0
167 187 0
166 188 0
165 187 0
167 189 0
161 182 0
164 187 0
163 184 0
170 192 0
166 187 0
163 184 0
162 183 0
166 188 0
161 182 0
162 183 0
161 181 0
168 188 0
168 190 0
168 188 0
166 187 0
165 186 0
166 187 0
165 188 0
165 186 0
164 186 0
163 184 0
167 190 0
164 184 0
164 185 0
167 188 0
164 186 0
168 188 0
168 190 0
168 189 0
167 189 0
164 185 0
165 186 0
165 187 0
170 191 0
169 190 0
165 185 0
169 191 0
166 186 0
167 188 0
167 189 0
167 188 0
170 191 0
172 193 0
167 189 0
167 188 0
170 191 0
166 184 0
170 192 0
165 187 0
171 193 0
165 186 0
163 184 0
166 188 0
167 189 0
167 190 0
165 185 0
172 193 0
166 186 0
165 186 0
167 188 0
169 190 0
166 186 0
165 184 0
168 190 0
166 187 0
165 185 0
170 192 0
165 188 0
164 185 0
166 187 0
170 191 0
168 189 0
169 191 0
169 190 0
168 190 0
166 188 0
169 188 0
165 186 0
169 190 0
168 188 0
167 186 0
168 189 0
164 184 0
168 189 0
170 191 0
164 185 0
169 190 0
168 189 0
167 189 0
167 187 0
170 190 0
169 188 0
169 190 0
169 193 0
171 194 0
171 195 0
172 196 0
169 193 0
171 194 0
169 193 0
168 191 0
170 194 0
169 192 0
170 193 0
169 193 0
169 193 0
172 194 0
168 192 0
172 195 0
169 192 0
166 188 0
165 189 0
170 193 0
173 196 0
166 188 0
168 191 0
170 194 0
168 192 0
171 194 0
164 187 0
163 186 0
166 189 0
173 196 0
171 193 0
166 189 0
165 189 0
166 190 0
167 191 0
169 191 0
168 191 0
171 194 0
166 189 0
167 190 0
168 193 0
168 191 0
169 193 0
163 186 0
169 193 0
172 196 0
168 190 0
170 194 0
168 192 0
169 192 0
171 195 0
170 194 0
169 193 0
169 193 0
167 190 0
166 189 0
167 190 0
164 187 0
163 186 0
166 190 0
170 193 0
165 189 0
171 195 0
169 193 0
165 188 0
170 194 0
169 192 0
168 190 0
169 193 0
168 192 0
171 193 0
169 192 0
168 191 0
164 187 0
168 190 0
172 195 0
168 191 0
167 190 0
167 189 0
166 189 0
169 192 0
167 190 0
165 189 0
168 191 0
169 193 0
167 190 0
167 191 0
170 193 0
168 192 0
167 191 0
166 188 0
168 192 0
168 192 0
164 188 0
165 189 0
167 192 0
167 190 0
168 192 0
164 187 0
167 191 0
171 194 0
170 193 0
170 194 0
170 194 0
170 194 0
170 193 0
168 191 0
170 194 0
171 194 0
166 190 0
163 187 0
163 187 0
170 194 0
162 184 0
163 187 0
168 191 0
169 192 0
167 190 0
166 189 0
169 191 0
164 187 0
168 191 0
166 190 0
167 190 0
167 191 0
170 194 0
167 190 0
166 189 0
160 184 0
168 190 0
164 186 0
169 192 0
168 192 0
168 191 0
161 185 0
167 190 0
165 188 0
164 187 0
166 188 0
165 189 0
170 193 0
169 193 0
161 184 0
168 192 0
168 191 0
165 188 0
165 188 0
167 190 0
169 191 0
165 188 0
166 190 0
164 188 0
168 191 0
166 189 0
167 190 0
166 189 0
165 189 0
162 185 0
165 187 0
166 190 0
165 188 0
166 189 0
167 189 0
164 187 0
164 187 0
169 192 0
162 184 0
168 191 0
166 190 0
168 190 0
166 188 0
166 190 0
166 189 0
164 188 0
158 181 0
166 189 0
166 189 0
164 186 0
164 188 0
165 188 0
164 186 0
162 186 0
165 189 0
164 187 0
169 192 0
163 186 0
168 191 0
163 185 0
164 187 0
165 188 0
168 191 0
167 191 0
165 188 0
162 185 0
167 190 0
163 185 0
170 192 0
166 190 0
160 181 0
166 188 0
165 188 0
167 190 0
167 190 0
166 190 0
165 188 0
168 191 0
168 191 0
164 186 0
166 189 0
168 191 0
166 189 0
171 194 0
166 189 0
166 189 0
163 186 0
162 184 0
170 192 0
167 190 0
167 189 0
170 193 0
168 190 0
157 178 0
166 188 0
163 185 0
166 188 0
165 188 0
166 189 0
164 185 0
167 189 0
167 188 0
165 188 0
165 188 0
168 191 0
163 185 0
170 193 0
168 190 0
165 187 0
168 189 0
167 188 0
163 186 0
163 186 0
162 184 0
165 189 0
163 185 0
164 187 0
165 188 0
166 189 0
167 189 0
164 187 0
163 185 0
167 188 0
168 189 0
162 181 0
165 189 0
169 191 0
165 185 0
169 190 0
167 188 0
163 186 0
165 188 0
168 191 0
164 186 0
163 185 0
169 191 0
172 193 0
167 190 0
166 188 0
163 185 0
168 191 0
168 191 0
166 187 0
159 180 0
166 189 0
164 186 0
165 187 0
165 187 0
166 188 0
169 191 0
166 188 0
160 184 0
164 186 0
165 187 0
164 186 0
167 187 0
164 186 0
167 189 0
167 191 0
164 186 0
166 187 0
162 185 0
165 185 0
166 188 0
167 188 0
167 188 0
166 189 0
169 190 0
167 189 0
165 187 0
163 185 0
164 184 0
167 188 0
167 190 0
168 190 0
166 187 0
163 184 0
163 184 0
160 182 0
165 186 0
170 191 0
167 188 0
166 187 0
168 187 0
166 189 0
168 190 0
170 191 0
166 187 0
166 187 0
168 189 0
164 185 0
167 188 0
166 188 0
169 190 0
163 183 0
169 191 0
165 188 0
168 188 0
167 189 0
169 191 0
165 185 0
163 184 0
169 191 0
169 191 0
166 186 0
169 190 0
168 190 0
167 188 0
169 191 0
168 189 0
168 190 0
165 186 0
162 183 0
166 186 0
167 187 0
163 185 0
167 187 0
163 183 0
165 185 0
169 190 0
167 186 0
168 189 0
167 188 0
169 192 0
168 189 0
165 185 0
169 190 0
165 186 0
169 190 0
167 188 0
169 191 0
166 188 0
168 188 0
168 187 0
168 188 0
170 192 0
165 186 0
167 187 0
166 187 0
169 188 0
163 183 0
167 189 0
165 184 0
165 186 0
167 188 0
166 187 0
170 191 0
168 189 0
168 188 0
168 187 0
164 184 0
167 186 0
168 187 0
168 189 0
170 192 0
171 192 0
168 187 0
169 189 0
169 189 0
169 190 0
166 188 0
170 190 0
164 184 0
164 183 0
168 189 0
169 190 0
171 192 0
169 190 0
171 191 0
167 188 0
167 188 0
168 189 0
167 191 0
169 194 0
170 193 0
171 195 0
170 193 0
171 194 0
172 195 0
172 195 0
171 195 0
171 195 0
168 191 0
170 193 0
171 193 0
170 193 0
171 194 0
168 191 0
169 193 0
174 197 0
169 193 0
173 196 0
169 193 0
173 196 0
165 188 0
171 194 0
171 194 0
172 195 0
169 192 0
171 195 0
170 193 0
170 193 0
168 192 0
168 191 0
170 194 0
164 187 0
167 191 0
171 194 0
171 194 0
166 190 0
170 193 0
170 194 0
172 195 0
170 193 0
172 196 0
170 194 0
168 193 0
167 190 0
170 193 0
169 192 0
164 188 0
166 188 0
168 191 0
168 192 0
167 190 0
164 187 0
170 194 0
171 193 0
171 194 0
169 193 0
168 191 0
172 194 0
167 190 0
172 195 0
166 189 0
167 190 0
167 190 0
170 193 0
171 195 0
170 193 0
165 187 0
165 190 0
168 192 0
161 185 0
168 191 0
168 192 0
168 191 0
167 190 0
170 194 0
169 192 0
165 188 0
170 193 0
166 189 0
167 190 0
171 194 0
170 193 0
165 189 0
167 191 0
167 190 0
167 190 0
167 190 0
165 188 0
170 194 0
169 192 0
167 190 0
168 192 0
167 191 0
173 196 0
166 189 0
166 190 0
166 190 0
172 195 0
164 188 0
169 193 0
168 192 0
165 189 0
170 193 0
168 191 0
165 188 0
168 191 0
166 189 0
169 193 0
168 191 0
166 189 0
169 192 0
170 193 0
169 192 0
169 191 0
167 189 0
170 193 0
162 184 0
166 190 0
172 195 0
167 191 0
168 191 0
163 186 0
169 192 0
165 189 0
172 194 0
162 187 0
167 189 0
166 188 0
167 190 0
163 187 0
169 192 0
166 190 0
169 192 0
166 189 0
164 188 0
170 193 0
165 188 0
172 195 0
169 192 0
165 189 0
167 190 0
167 189 0
166 188 0
167 191 0
165 188 0
165 188 0
171 194 0
166 190 0
163 185 0
167 191 0
169 192 0
164 188 0
166 188 0
166 189 0
166 189 0
161 184 0
164 187 0
167 190 0
165 189 0
167 190 0
167 190 0
168 191 0
167 190 0
163 186 0
166 189 0
168 190 0
167 190 0
166 190 0
166 188 0
170 193 0
167 190 0
163 185 0
169 193 0
164 188 0
165 188 0
169 192 0
167 189 0
166 188 0
166 187 0
162 185 0
164 188 0
167 190 0
162 185 0
161 183 0
165 187 0
161 184 0
168 191 0
163 185 0
158 180 0
169 191 0
164 187 0
162 185 0
167 189 0
162 185 0
168 192 0
165 187 0
167 189 0
168 190 0
163 186 0
165 187 0
164 185 0
165 187 0
165 188 0
161 184 0
163 186 0
166 189 0
163 185 0
164 186 0
167 190 0
170 194 0
166 188 0
169 191 0
167 190 0
169 193 0
168 191 0
160 183 0
161 184 0
168 190 0
166 188 0
162 185 0
165 189 0
162 185 0
166 187 0
160 182 0
162 184 0
164 186 0
165 186 0
166 188 0
166 190 0
165 188 0
165 188 0
167 190 0
161 185 0
168 190 0
165 187 0
162 185 0
168 190 0
161 184 0
166 189 0
161 184 0
165 189 0
168 190 0
166 187 0
158 180 0
165 186 0
168 191 0
166 189 0
166 189 0
167 190 0
167 187 0
163 186 0
165 189 0
166 189 0
162 183 0
164 186 0
167 190 0
161 183 0
166 188 0
164 186 0
166 187 0
167 191 0
165 189 0
168 191 0
163 186 0
163 184 0
164 185 0
165 187 0
164 188 0
163 185 0
162 184 0
164 186 0
166 188 0
161 182 0
161 184 0
165 185 0
166 187 0
164 185 0
167 188 0
165 187 0
167 189 0
159 180 0
167 188 0
165 186 0
162 184 0
164 186 0
169 192 0
167 187 0
167 191 0
167 189 0
168 191 0
165 187 0
163 185 0
166 187 0
164 186 0
165 188 0
165 187 0
164 184 0
166 188 0
161 182 0
162 184 0
166 187 0
163 184 0
164 187 0
164 186 0
166 185 0
168 190 0
170 192 0
165 188 0
162 183 0
167 188 0
167 190 0
165 186 0
165 187 0
163 185 0
162 184 0
170 190 0
166 188 0
167 188 0
168 190 0
167 188 0
164 186 0
170 192 0
165 187 0
165 186 0
162 183 0
168 190 0
170 191 0
168 190 0
168 189 0
162 184 0
165 186 0
171 193 0
167 188 0
166 188 0
168 189 0
165 188 0
163 184 0
163 185 0
166 187 0
166 187 0
166 188 0
158 180 0
165 187 0
166 187 0
168 188 0
167 187 0
168 189 0
170 190 0
166 185 0
163 184 0
171 190 0
168 189 0
166 187 0
166 188 0
166 188 0
163 184 0
169 190 0
168 189 0
169 190 0
165 187 0
167 188 0
167 189 0
165 185 0
169 191 0
164 185 0
169 190 0
166 185 0
166 188 0
169 190 0
168 190 0
166 187 0
169 191 0
167 186 0
169 190 0
166 188 0
169 191 0
164 185 0
162 183 0
165 187 0
169 191 0
171 193 0
166 187 0
167 189 0
164 185 0
165 186 0
165 186 0
168 189 0
168 189 0
170 190 0
166 187 0
168 188 0
169 188 0
170 191 0
167 187 0
167 187 0
169 190 0
167 187 0
167 188 0
172 195 0
168 192 0
171 195 0
169 192 0
172 194 0
172 195 0
171 195 0
171 195 0
172 196 0
170 193 0
167 190 0
168 191 0
171 194 0
173 196 0
168 193 0
170 194 0
169 193 0
169 192 0
168 192 0
170 194 0
173 196 0
167 190 0
165 189 0
171 194 0
170 194 0
169 190 0
165 190 0
169 193 0
170 193 0
168 192 0
169 193 0
172 195 0
171 194 0
169 192 0
170 193 0
171 194 0
170 194 0
170 193 0
169 192 0
173 196 0
167 189 0
168 192 0
166 190 0
169 192 0
168 192 0
165 189 0
168 191 0
171 195 0
169 193 0
165 187 0
171 195 0
170 192 0
168 191 0
168 190 0
168 192 0
173 197 0
171 193 0
172 195 0
169 192 0
171 194 0
170 193 0
168 191 0
167 191 0
167 190 0
170 192 0
167 190 0
170 194 0
165 188 0
169 193 0
167 190 0
169 193 0
170 192 0
162 186 0
167 191 0
167 190 0
167 191 0
161 185 0
166 190 0
168 192 0
168 191 0
164 188 0
165 189 0
168 191 0
167 191 0
169 193 0
171 193 0
167 190 0
167 191 0
168 192 0
167 190 0
168 191 0
170 194 0
175 198 0
169 192 0
168 191 0
170 193 0
168 191 0
168 191 0
168 192 0
159 182 0
169 192 0
167 190 0
169 192 0
169 193 0
168 192 0
166 190 0
166 189 0
164 189 0
170 193 0
170 193 0
170 193 0
165 187 0
165 189 0
167 191 0
170 193 0
169 193 0
167 189 0
169 192 0
162 185 0
169 192 0
171 194 0
164 187 0
167 190 0
164 187 0
164 187 0
166 189 0
167 190 0
170 193 0
164 187 0
168 192 0
169 192 0
166 190 0
165 189 0
165 189 0
169 192 0
163 186 0
169 193 0
164 187 0
167 189 0
164 187 0
159 183 0
167 190 0
167 189 0
166 189 0
164 188 0
168 191 0
169 192 0
165 189 0
161 184 0
165 188 0
167 190 0
164 188 0
166 188 0
158 180 0
169 192 0
171 194 0
167 190 0
164 187 0
163 185 0
171 194 0
167 191 0
165 187 0
165 187 0
172 196 0
166 189 0
163 185 0
166 189 0
164 188 0
163 187 0
164 188 0
165 189 0
161 184 0
168 191 0
162 184 0
161 183 0
164 188 0
167 189 0
170 191 0
168 192 0
167 190 0
166 188 0
168 191 0
168 191 0
165 188 0
161 183 0
168 192 0
167 189 0
163 186 0
167 191 0
169 192 0
168 190 0
166 189 0
163 186 0
165 188 0
167 190 0
165 188 0
164 186 0
167 190 0
167 190 0
169 191 0
168 190 0
164 187 0
161 183 0
166 188 0
167 190 0
164 185 0
163 186 0
162 185 0
166 190 0
167 191 0
164 185 0
166 189 0
161 185 0
166 189 0
164 187 0
164 186 0
166 188 0
163 185 0
166 190 0
168 191 0
167 190 0
165 188 0
165 188 0
166 189 0
166 189 0
165 189 0
166 189 0
165 187 0
163 186 0
167 189 0
166 190 0
164 187 0
166 188 0
165 188 0
165 188 0
162 185 0
160 182 0
167 188 0
167 189 0
167 190 0
167 190 0
166 190 0
168 190 0
163 185 0
159 181 0
162 185 0
164 186 0
166 190 0
169 192 0
163 184 0
167 190 0
162 184 0
165 188 0
171 194 0
159 181 0
164 187 0
162 183 0
163 185 0
169 191 0
167 189 0
169 190 0
166 187 0
164 186 0
163 185 0
166 189 0
167 188 0
168 191 0
168 189 0
166 188 0
169 191 0
169 191 0
167 187 0
167 189 0
167 190 0
160 182 0
164 187 0
164 186 0
169 190 0
167 188 0
170 191 0
167 190 0
168 191 0
167 189 0
168 190 0
166 187 0
164 186 0
169 191 0
167 189 0
162 185 0
162 184 0
168 189 0
162 182 0
169 190 0
164 186 0
167 188 0
163 183 0
165 188 0
169 191 0
161 182 0
167 189 0
160 181 0
161 184 0
163 185 0
169 191 0
163 186 0
165 186 0
166 188 0
168 189 0
169 191 0
166 189 0
167 189 0
166 189 0
167 187 0
161 181 0
164 185 0
170 191 0
166 188 0
167 189 0
163 185 0
164 185 0
168 190 0
168 189 0
170 191 0
166 187 0
168 189 0
165 185 0
167 188 0
170 192 0
167 189 0
167 189 0
165 187 0
165 186 0
171 191 0
168 191 0
164 185 0
171 193 0
169 191 0
169 190 0
167 188 0
169 191 0
167 188 0
166 187 0
168 189 0
161 181 0
166 186 0
166 186 0
167 189 0
169 191 0
167 188 0
164 186 0
164 185 0
163 184 0
166 188 0
169 190 0
169 189 0
166 187 0
166 187 0
167 187 0
166 187 0
167 187 0
166 187 0
164 186 0
166 187 0
172 193 0
164 184 0
167 188 0
170 192 0
163 183 0
169 190 0
169 189 0
164 185 0
165 184 0
166 188 0
166 188 0
166 189 0
170 189 0
169 191 0
170 192 0
168 187 0
171 193 0
169 191 0
167 188 0
167 188 0
165 183 0
167 189 0
168 187 0
170 192 0
164 184 0
168 190 0
170 190 0
171 190 0
168 190 0
168 189 0
167 186 0
170 190 0
167 189 0
168 189 0
166 187 0
168 188 0
168 189 0
172 194 0
170 193 0
169 192 0
171 193 0
168 190 0
168 192 0
170 193 0
168 191 0
173 197 0
172 195 0
168 192 0
169 192 0
170 193 0
167 191 0
173 196 0
170 194 0
168 192 0
164 188 0
170 194 0
169 193 0
168 191 0
171 195 0
170 193 0
168 191 0
171 194 0
171 194 0
171 194 0
172 195 0
171 195 0
168 192 0
167 190 0
168 192 0
167 191 0
169 192 0
168 191 0
170 193 0
169 192 0
174 197 0
170 193 0
170 192 0
167 191 0
171 195 0
171 194 0
168 192 0
168 191 0
166 189 0
174 195 0
167 190 0
170 194 0
171 195 0
170 191 0
170 194 0
171 194 0
167 191 0
163 187 0
170 193 0
171 194 0
169 192 0
166 189 0
170 194 0
168 190 0
170 194 0
170 193 0
167 190 0
171 194 0
169 192 0
171 194 0
171 194 0
169 192 0
172 195 0
169 193 0
169 192 0
171 194 0
166 189 0
167 190 0
168 192 0
166 190 0
165 189 0
170 192 0
166 190 0
168 191 0
172 195 0
166 189 0
162 186 0
166 190 0
162 185 0
165 188 0
168 190 0
168 190 0
164 188 0
169 192 0
165 188 0
169 193 0
166 189 0
167 190 0
166 190 0
169 192 0
165 188 0
170 193 0
172 195 0
164 187 0
163 187 0
164 187 0
168 192 0
165 187 0
164 188 0
168 191 0
166 189 0
170 193 0
169 191 0
168 191 0
171 194 0
166 189 0
167 190 0
166 189 0
166 189 0
172 195 0
170 193 0
168 192 0
170 193 0
162 186 0
164 188 0
167 191 0
168 191 0
167 189 0
167 191 0
172 195 0
164 187 0
169 193 0
166 189 0
166 190 0
169 192 0
164 186 0
167 190 0
169 192 0
163 186 0
164 187 0
167 189 0
164 187 0
168 191 0
168 192 0
165 188 0
168 191 0
167 190 0
159 183 0
166 189 0
168 191 0
163 187 0
165 189 0
164 187 0
169 192 0
161 183 0
170 193 0
165 188 0
164 187 0
167 190 0
168 192 0
164 187 0
167 190 0
169 192 0
168 191 0
165 188 0
166 190 0
169 192 0
165 188 0
166 189 0
164 187 0
167 189 0
168 191 0
164 188 0
163 186 0
166 189 0
162 184 0
164 187 0
167 190 0
168 190 0
166 188 0
163 185 0
167 190 0
170 193 0
169 193 0
166 188 0
165 188 0
171 193 0
165 187 0
166 189 0
166 189 0
167 189 0
166 189 0
165 187 0
165 188 0
166 189 0
160 183 0
165 188 0
172 193 0
165 188 0
168 191 0
166 189 0
163 186 0
162 185 0
166 188 0
165 188 0
165 188 0
166 190 0
167 190 0
160 183 0
164 187 0
162 185 0
170 193 0
166 188 0
165 187 0
164 188 0
165 188 0
168 189 0
166 188 0
166 190 0
168 191 0
163 185 0
168 191 0
168 191 0
168 190 0
166 188 0
164 186 0
164 187 0
164 187 0
169 191 0
166 189 0
164 185 0
164 184 0
164 186 0
168 191 0
167 190 0
164 186 0
164 186 0
163 185 0
166 188 0
168 190 0
164 187 0
165 189 0
170 194 0
162 184 0
164 187 0
170 193 0
165 188 0
167 190 0
167 189 0
161 184 0
170 193 0
163 185 0
164 185 0
163 185 0
164 187 0
167 189 0
165 186 0
163 186 0
166 188 0
169 191 0
163 186 0
165 187 0
158 181 0
167 190 0
166 189 0
161 183 0
168 190 0
162 184 0
166 189 0
162 184 0
167 190 0
169 192 0
169 191 0
163 186 0
161 184 0
167 189 0
163 185 0
167 190 0
167 188 0
161 182 0
169 191 0
164 186 0
167 189 0
166 188 0
165 187 0
164 187 0
167 189 0
169 192 0
168 190 0
170 191 0
170 193 0
167 188 0
168 190 0
165 187 0
168 190 0
168 190 0
167 190 0
162 184 0
164 185 0
166 187 0
163 186 0
168 190 0
162 184 0
159 180 0
167 189 0
166 188 0
166 188 0
169 192 0
160 181 0
167 189 0
167 188 0
167 188 0
164 186 0
166 189 0
168 190 0
165 187 0
165 188 0
167 190 0
162 182 0
162 183 0
165 187 0
163 184 0
168 189 0
166 187 0
161 183 0
168 190 0
170 188 0
166 187 0
166 189 0
163 185 0
167 189 0
169 189 0
163 184 0
166 188 0
170 192 0
167 190 0
166 188 0
167 188 0
167 186 0
168 190 0
163 184 0
169 190 0
168 190 0
163 183 0
165 186 0
168 188 0
166 188 0
168 189 0
169 189 0
166 187 0
170 191 0
169 192 0
160 180 0
168 190 0
167 188 0
169 191 0
166 186 0
166 188 0
166 189 0
166 188 0
168 187 0
166 185 0
168 189 0
167 188 0
168 189 0
164 185 0
165 186 0
169 192 0
165 185 0
166 187 0
167 188 0
166 190 0
166 188 0
166 188 0
167 187 0
163 185 0
166 187 0
163 183 0
169 189 0
168 189 0
170 191 0
166 185 0
165 187 0
170 191 0
169 189 0
167 187 0
171 192 0
163 182 0
171 193 0
163 181 0
166 185 0
170 191 0
166 187 0
167 186 0
170 191 0
166 186 0
164 185 0
167 186 0
168 189 0
168 189 0
165 184 0
168 188 0
167 189 0
170 194 0
170 193 0
170 194 0
166 190 0
169 192 0
167 191 0
171 194 0
167 190 0
168 192 0
170 194 0
171 195 0
171 194 0
167 189 0
168 191 0
169 192 0
169 193 0
165 189 0
168 191 0
171 194 0
166 190 0
169 191 0
169 193 0
169 193 0
169 193 0
169 193 0
170 193 0
170 192 0
170 194 0
169 191 0
167 190 0
168 191 0
168 192 0
173 196 0
171 194 0
172 195 0
170 194 0
167 190 0
169 193 0
166 189 0
165 189 0
169 193 0
171 194 0
166 190 0
168 192 0
166 190 0
167 190 0
169 192 0
165 188 0
169 192 0
168 191 0
169 192 0
170 194 0
172 194 0
170 193 0
168 192 0
166 189 0
166 188 0
163 187 0
169 192 0
170 193 0
172 195 0
167 190 0
170 194 0
171 194 0
171 194 0
164 187 0
170 194 0
169 191 0
168 191 0
170 194 0
170 193 0
170 193 0
168 191 0
167 190 0
168 190 0
168 192 0
167 190 0
171 194 0
169 193 0
168 191 0
170 193 0
168 191 0
170 194 0
167 190 0
164 188 0
168 191 0
165 189 0
170 194 0
169 192 0
166 189 0
163 186 0
168 191 0
163 186 0
167 191 0
166 189 0
166 189 0
162 186 0
167 189 0
172 195 0
164 188 0
172 195 0
168 192 0
172 194 0
170 193 0
167 191 0
167 190 0
166 189 0
169 192 0
167 190 0
163 186 0
165 189 0
165 188 0
170 194 0
166 189 0
163 187 0
166 190 0
167 190 0
169 191 0
168 191 0
167 190 0
164 188 0
164 187 0
170 194 0
171 194 0
168 193 0
169 193 0
166 189 0
170 194 0
166 190 0
164 188 0
166 189 0
169 192 0
170 192 0
168 191 0
169 192 0
170 193 0
162 185 0
162 185 0
166 190 0
170 193 0
165 188 0
168 191 0
165 188 0
171 194 0
165 189 0
165 187 0
167 191 0
166 188 0
169 192 0
168 191 0
165 189 0
169 192 0
166 189 0
163 185 0
166 189 0
170 193 0
165 189 0
164 186 0
170 191 0
168 191 0
169 192 0
167 190 0
162 186 0
166 189 0
167 190 0
167 189 0
165 189 0
166 189 0
164 188 0
167 190 0
163 185 0
158 180 0
166 190 0
162 184 0
168 191 0
164 187 0
163 186 0
165 186 0
166 189 0
167 190 0
162 186 0
162 185 0
167 190 0
165 188 0
166 189 0
166 189 0
168 192 0
167 189 0
169 192 0
166 188 0
168 190 0
167 190 0
169 193 0
169 191 0
165 189 0
165 189 0
167 190 0
168 190 0
166 190 0
163 187 0
163 186 0
170 192 0
163 186 0
166 187 0
167 190 0
163 184 0
169 191 0
169 191 0
169 191 0
163 185 0
166 190 0
167 189 0
167 190 0
163 187 0
167 190 0
162 185 0
162 185 0
170 193 0
165 189 0
164 186 0
164 187 0
166 188 0
170 193 0
168 190 0
166 188 0
166 189 0
169 191 0
158 181 0
167 190 0
165 187 0
168 189 0
159 181 0
166 188 0
165 188 0
165 187 0
165 188 0
169 192 0
168 190 0
162 185 0
167 188 0
166 188 0
168 191 0
164 187 0
167 188 0
167 189 0
166 188 0
163 185 0
168 190 0
165 187 0
164 187 0
165 188 0
168 191 0
165 186 0
166 189 0
170 192 0
162 182 0
164 186 0
167 188 0
166 188 0
164 186 0
165 187 0
165 187 0
164 186 0
160 181 0
163 186 0
164 186 0
166 188 0
164 187 0
169 191 0
163 186 0
161 184 0
167 189 0
168 190 0
165 189 0
161 183 0
164 187 0
164 187 0
166 189 0
165 187 0
170 191 0
165 187 0
163 185 0
160 181 0
167 190 0
167 190 0
165 187 0
162 185 0
170 192 0
167 188 0
168 190 0
170 192 0
159 180 0
162 183 0
163 185 0
166 189 0
167 188 0
167 190 0
164 185 0
168 191 0
166 190 0
168 189 0
168 189 0
168 190 0
163 185 0
165 186 0
164 186 0
159 180 0
165 187 0
167 188 0
168 191 0
165 185 0
165 188 0
166 187 0
166 189 0
163 185 0
163 185 0
166 189 0
166 187 0
165 186 0
163 183 0
167 188 0
168 189 0
169 191 0
169 190 0
166 189 0
168 189 0
165 186 0
167 188 0
165 187 0
163 183 0
161 182 0
168 189 0
167 188 0
167 188 0
165 187 0
168 190 0
163 185 0
169 191 0
166 187 0
168 190 0
166 186 0
165 187 0
169 190 0
167 186 0
168 188 0
165 187 0
165 186 0
169 189 0
167 187 0
160 182 0
165 186 0
165 185 0
166 187 0
164 186 0
170 189 0
168 191 0
166 187 0
166 186 0
171 192 0
167 187 0
163 184 0
164 183 0
166 186 0
170 191 0
165 187 0
165 187 0
165 186 0
169 189 0
170 192 0
171 191 0
162 183 0
167 187 0
169 189 0
167 188 0
165 186 0
166 188 0
166 188 0
169 189 0
167 188 0
166 187 0
168 189 0
169 191 0
168 191 0
165 187 0
169 190 0
169 190 0
165 186 0
167 189 0
168 189 0
168 190 0
166 188 0
170 191 0
165 185 0
166 188 0
170 190 0
167 187 0
169 189 0
168 186 0
168 189 0
170 191 0
171 195 0
171 195 0
170 194 0
170 194 0
169 193 0
172 195 0
168 191 0
169 193 0
172 195 0
168 192 0
166 190 0
169 192 0
172 196 0
169 192 0
169 193 0
169 192 0
170 192 0
171 194 0
171 194 0
171 194 0
169 192 0
169 193 0
171 194 0
166 189 0
167 191 0
170 193 0
170 193 0
167 191 0
171 194 0
165 189 0
168 190 0
164 187 0
169 192 0
169 192 0
166 189 0
170 193 0
171 194 0
166 189 0
172 195 0
167 191 0
170 194 0
173 196 0
167 191 0
169 192 0
171 194 0
166 189 0
169 191 0
166 191 0
168 192 0
168 192 0
168 192 0
170 194 0
166 188 0
166 190 0
172 195 0
169 192 0
171 194 0
167 191 0
170 192 0
165 189 0
166 190 0
167 190 0
167 191 0
170 193 0
169 193 0
170 193 0
168 191 0
168 191 0
165 188 0
168 192 0
169 194 0
170 194 0
166 189 0
169 192 0
170 194 0
167 191 0
169 192 0
169 193 0
167 190 0
168 192 0
166 190 0
171 194 0
168 192 0
162 186 0
170 192 0
168 192 0
167 189 0
165 189 0
166 189 0
163 186 0
171 193 0
170 193 0
165 190 0
164 187 0
166 190 0
172 194 0
170 193 0
167 191 0
163 185 0
165 188 0
165 187 0
167 190 0
166 190 0
170 193 0
171 194 0
168 191 0
165 188 0
166 189 0
168 191 0
166 189 0
170 193 0
167 191 0
165 189 0
168 191 0
166 190 0
169 191 0
165 188 0
167 190 0
168 191 0
166 189 0
165 190 0
164 188 0
169 191 0
168 190 0
166 189 0
169 192 0
169 192 0
166 189 0
168 192 0
165 189 0
165 189 0
165 188 0
169 192 0
167 190 0
167 189 0
165 189 0
165 188 0
163 186 0
168 191 0
169 192 0
171 194 0
167 190 0
161 185 0
167 191 0
164 187 0
167 189 0
169 191 0
167 190 0
167 190 0
166 188 0
165 188 0
167 190 0
165 188 0
168 191 0
168 191 0
171 193 0
166 189 0
169 193 0
166 188 0
166 189 0
166 189 0
165 188 0
168 192 0
166 189 0
167 190 0
166 189 0
168 191 0
164 188 0
170 193 0
165 189 0
163 184 0
162 186 0
164 186 0
167 189 0
164 186 0
162 185 0
163 186 0
167 190 0
163 186 0
164 187 0
166 189 0
164 186 0
165 187 0
170 193 0
162 184 0
169 192 0
167 190 0
165 188 0
169 193 0
168 191 0
166 189 0
164 188 0
167 190 0
167 189 0
164 187 0
165 188 0
171 193 0
166 190 0
166 190 0
168 190 0
163 186 0
168 191 0
161 184 0
169 191 0
167 190 0
167 189 0
166 189 0
163 186 0
163 184 0
169 192 0
165 185 0
165 187 0
167 189 0
165 188 0
162 186 0
167 190 0
166 189 0
164 188 0
167 191 0
162 184 0
163 186 0
167 189 0
165 186 0
164 185 0
165 188 0
159 181 0
163 185 0
162 185 0
162 184 0
165 187 0
166 189 0
167 190 0
165 186 0
166 190 0
168 191 0
169 191 0
164 187 0
168 191 0
167 188 0
166 189 0
164 186 0
165 188 0
167 189 0
168 190 0
169 191 0
161 184 0
166 189 0
167 190 0
168 189 0
169 191 0
169 191 0
165 189 0
164 187 0
165 188 0
162 182 0
163 185 0
164 186 0
167 190 0
161 183 0
164 185 0
167 190 0
164 185 0
166 189 0
167 189 0
167 190 0
168 190 0
167 189 0
165 188 0
163 185 0
164 187 0
166 188 0
163 185 0
159 181 0
165 187 0
168 191 0
170 193 0
166 188 0
167 190 0
162 184 0
166 187 0
162 185 0
165 187 0
168 192 0
168 191 0
166 187 0
164 185 0
164 186 0
164 185 0
164 185 0
164 186 0
167 188 0
167 188 0
168 191 0
164 185 0
162 183 0
165 186 0
164 186 0
165 187 0
159 180 0
165 186 0
168 190 0
169 189 0
167 187 0
163 184 0
164 185 0
162 184 0
165 186 0
161 183 0
167 188 0
164 186 0
167 189 0
165 186 0
164 185 0
166 189 0
163 186 0
161 184 0
165 186 0
165 186 0
165 187 0
166 188 0
169 190 0
164 185 0
162 183 0
164 186 0
172 193 0
168 190 0
166 188 0
166 187 0
163 184 0
168 190 0
165 185 0
161 182 0
166 187 0
166 186 0
170 190 0
166 187 0
165 187 0
164 186 0
169 190 0
167 188 0
169 189 0
168 189 0
169 191 0
162 184 0
169 191 0
168 190 0
171 192 0
166 187 0
168 188 0
168 188 0
166 188 0
164 185 0
164 184 0
166 186 0
168 190 0
163 184 0
161 182 0
166 187 0
168 188 0
172 191 0
166 186 0
165 187 0
168 188 0
166 187 0
166 188 0
166 188 0
168 189 0
167 187 0
169 191 0
169 189 0
169 189 0
166 187 0
163 182 0
166 187 0
167 187 0
170 190 0
166 187 0
165 186 0
169 190 0
167 188 0
168 190 0
170 190 0
170 191 0
167 186 0
165 186 0
167 186 0
168 188 0
170 191 0
167 186 0
168 187 0
170 190 0
170 190 0
169 188 0
168 189 0
169 188 0
171 192 0
169 191 0
169 191 0
168 189 0
166 186 0
168 191 0
170 194 0
168 191 0
172 195 0
169 192 0
172 195 0
171 194 0
173 196 0
168 192 0
171 194 0
172 195 0
171 194 0
163 187 0
174 197 0
169 193 0
166 189 0
167 191 0
170 194 0
172 195 0
169 192 0
169 192 0
169 193 0
171 194 0
169 192 0
163 187 0
169 193 0
168 192 0
168 191 0
171 194 0
171 195 0
167 190 0
173 196 0
171 193 0
168 192 0
168 192 0
170 193 0
170 194 0
170 193 0
168 191 0
166 190 0
170 192 0
171 194 0
169 193 0
171 194 0
167 191 0
164 188 0
171 194 0
168 191 0
170 193 0
169 193 0
168 192 0
173 195 0
167 190 0
172 195 0
172 195 0
171 195 0
167 189 0
170 193 0
170 193 0
170 194 0
171 193 0
164 187 0
165 188 0
169 193 0
172 195 0
170 193 0
169 192 0
170 194 0
171 195 0
170 193 0
171 194 0
168 192 0
170 193 0
166 190 0
168 190 0
170 193 0
166 189 0
166 191 0
166 189 0
167 190 0
168 191 0
167 190 0
169 193 0
170 193 0
170 193 0
165 188 0
167 190 0
169 193 0
170 194 0
168 191 0
167 191 0
170 192 0
167 191 0
168 192 0
167 191 0
170 193 0
163 186 0
166 190 0
167 191 0
166 189 0
167 190 0
168 191 0
166 190 0
167 190 0
164 186 0
166 190 0
166 189 0
166 188 0
165 189 0
170 193 0
167 190 0
166 189 0
168 192 0
169 192 0
168 192 0
166 190 0
168 191 0
168 191 0
171 194 0
170 194 0
168 191 0
163 185 0
166 188 0
168 192 0
168 192 0
167 189 0
166 189 0
165 189 0
169 190 0
166 190 0
165 188 0
169 191 0
168 192 0
163 186 0
169 193 0
167 191 0
164 187 0
166 188 0
166 190 0
161 184 0
166 189 0
165 189 0
163 186 0
166 190 0
166 189 0
168 191 0
165 189 0
167 189 0
162 185 0
169 192 0
171 194 0
167 189 0
166 190 0
170 192 0
162 185 0
165 187 0
165 188 0
167 190 0
166 190 0
166 188 0
163 187 0
164 186 0
166 188 0
167 191 0
168 191 0
169 191 0
165 188 0
162 185 0
165 188 0
169 193 0
164 187 0
169 192 0
160 183 0
166 189 0
168 190 0
164 188 0
169 192 0
165 189 0
167 189 0
165 188 0
170 193 0
164 187 0
168 190 0
166 189 0
163 187 0
166 190 0
166 189 0
164 186 0
169 193 0
166 189 0
166 189 0
164 187 0
165 187 0
167 190 0
163 186 0
169 192 0
164 186 0
167 190 0
167 189 0
167 190 0
168 191 0
169 193 0
165 188 0
173 195 0
163 185 0
166 189 0
166 189 0
168 191 0
166 189 0
164 186 0
163 185 0
159 182 0
162 184 0
160 183 0
167 190 0
163 184 0
157 179 0
165 187 0
166 188 0
166 189 0
167 190 0
163 185 0
168 192 0
166 189 0
165 188 0
163 186 0
164 187 0
166 188 0
162 186 0
166 190 0
166 189 0
161 183 0
162 184 0
164 186 0
165 188 0
166 189 0
167 189 0
164 186 0
162 184 0
170 192 0
170 192 0
165 187 0
164 187 0
165 186 0
164 187 0
164 186 0
163 185 0
169 192 0
166 189 0
163 187 0
167 190 0
168 190 0
165 187 0
166 188 0
166 188 0
167 189 0
160 183 0
162 184 0
162 184 0
167 188 0
169 192 0
163 184 0
164 187 0
165 187 0
163 185 0
169 191 0
166 187 0
162 185 0
167 190 0
169 193 0
170 192 0
168 190 0
164 186 0
161 184 0
163 184 0
163 186 0
164 186 0
167 190 0
165 187 0
163 185 0
167 188 0
164 187 0
170 193 0
167 189 0
162 183 0
165 188 0
168 190 0
162 184 0
162 183 0
166 187 0
165 187 0
160 182 0
164 187 0
164 186 0
165 186 0
164 185 0
164 186 0
170 192 0
168 190 0
166 188 0
166 186 0
158 178 0
163 185 0
168 189 0
168 191 0
163 186 0
167 189 0
160 180 0
166 188 0
167 189 0
163 185 0
166 189 0
168 191 0
166 188 0
165 188 0
163 184 0
165 188 0
160 182 0
166 188 0
167 188 0
170 193 0
165 186 0
168 189 0
166 186 0
166 188 0
166 188 0
163 184 0
166 188 0
168 189 0
167 188 0
164 187 0
164 185 0
166 186 0
167 187 0
163 184 0
165 187 0
171 192 0
161 182 0
163 184 0
167 188 0
166 187 0
167 188 0
168 188 0
165 185 0
170 191 0
167 188 0
167 188 0
163 182 0
166 187 0
168 189 0
166 186 0
167 189 0
168 190 0
166 189 0
169 189 0
165 188 0
167 188 0
165 186 0
166 187 0
168 189 0
172 194 0
167 189 0
166 187 0
167 188 0
171 191 0
167 189 0
164 186 0
167 187 0
162 183 0
166 186 0
167 187 0
167 188 0
168 187 0
170 191 0
166 186 0
166 186 0
164 187 0
167 187 0
166 185 0
161 182 0
168 190 0
169 189 0
169 190 0
169 190 0
165 186 0
167 188 0
168 190 0
170 191 0
166 186 0
165 185 0
167 188 0
167 188 0
170 191 0
170 191 0
169 189 0
169 189 0
167 189 0
165 187 0
164 184 0
167 190 0
