P3
400 225
255
172 196 0
173 197 0
174 197 0
176 199 0
174 198 0
174 197 0
173 197 0
173 197 0
173 197 0
173 197 0
175 198 0
175 198 0
174 197 0
172 195 0
175 198 0
172 196 0
174 198 0
175 198 0
175 198 0
174 198 0
174 198 0
174 198 0
173 197 0
174 198 0
175 198 0
174 198 0
173 197 0
174 198 0
174 198 0
176 199 0
174 197 0
174 197 0
175 198 0
175 198 0
174 198 0
174 197 0
173 197 0
174 198 0
174 198 0
174 197 0
173 197 0
175 198 0
174 197 0
174 197 0
175 198 0
173 197 0
173 196 0
175 198 0
176 199 0
174 197 0
172 196 0
173 196 0
176 198 0
174 197 0
174 197 0
174 198 0
174 198 0
173 197 0
173 197 0
175 198 0
174 197 0
172 197 0
174 198 0
173 197 0
174 198 0
174 198 0
176 198 0
174 197 0
174 198 0
173 197 0
176 199 0
172 196 0
173 197 0
174 198 0
174 197 0
173 197 0
173 197 0
175 198 0
173 197 0
174 197 0
174 197 0
175 198 0
176 198 0
173 196 0
172 196 0
175 198 0
175 198 0
172 196 0
173 197 0
175 198 0
175 198 0
173 197 0
174 197 0
174 197 0
176 198 0
174 198 0
174 197 0
174 197 0
174 198 0
175 198 0
174 198 0
174 197 0
176 198 0
172 196 0
175 198 0
175 198 0
174 198 0
173 197 0
175 198 0
174 198 0
174 198 0
174 197 0
174 197 0
174 197 0
174 197 0
174 197 0
174 197 0
173 196 0
173 197 0
170 194 0
174 197 0
173 197 0
173 197 0
174 197 0
175 198 0
174 198 0
173 197 0
174 197 0
173 196 0
176 198 0
174 197 0
175 198 0
175 198 0
174 198 0
175 198 0
175 198 0
174 197 0
175 198 0
173 197 0
174 198 0
176 198 0
173 196 0
174 197 0
175 198 0
173 196 0
175 198 0
173 196 0
175 198 0
171 195 0
175 198 0
173 197 0
174 198 0
173 196 0
173 197 0
173 196 0
175 198 0
173 197 0
173 197 0
175 198 0
174 198 0
173 197 0
174 198 0
174 197 0
172 196 0
173 197 0
172 196 0
175 198 0
175 198 0
173 197 0
174 197 0
174 198 0
173 197 0
175 198 0
174 197 0
173 197 0
174 198 0
173 196 0
174 197 0
174 197 0
174 198 0
172 196 0
174 197 0
174 197 0
174 197 0
173 197 0
174 197 0
174 197 0
173 197 0
174 196 0
174 198 0
174 197 0
174 197 0
174 198 0
174 197 0
174 198 0
175 198 0
174 197 0
174 197 0
176 199 0
174 198 0
172 196 0
174 198 0
174 197 0
175 198 0
174 197 0
174 197 0
173 196 0
174 198 0
173 197 0
174 198 0
173 197 0
176 198 0
174 197 0
174 198 0
173 197 0
175 198 0
173 196 0
176 198 0
174 197 0
173 196 0
174 197 0
173 197 0
175 197 0
174 198 0
174 197 0
173 196 0
173 197 0
175 198 0
174 198 0
174 198 0
172 195 0
175 198 0
174 197 0
174 198 0
174 198 0
174 197 0
175 198 0
175 197 0
174 198 0
175 198 0
175 198 0
175 198 0
174 197 0
173 196 0
172 196 0
173 197 0
174 197 0
175 198 0
175 198 0
175 198 0
174 198 0
173 197 0
174 197 0
174 197 0
174 197 0
175 198 0
175 197 0
175 198 0
175 198 0
173 197 0
172 196 0
174 197 0
173 197 0
174 198 0
173 197 0
173 196 0
173 197 0
173 197 0
173 194 0
167 180 0
163 164 37
177 168 76
192 177 101
199 183 114
198 182 114
196 182 114
195 181 114
194 181 114
194 180 114
193 180 114
192 180 114
191 179 114
191 179 114
191 179 114
190 179 114
190 178 114
189 178 114
189 178 114
189 178 114
189 178 114
189 178 114
189 178 114
189 178 114
189 178 114
189 178 114
189 178 114
189 178 114
190 178 114
190 179 114
190 179 114
191 179 114
191 179 114
192 180 114
193 180 114
194 180 114
195 181 114
196 181 114
197 182 114
198 183 114
199 183 113
188 175 95
180 172 75
169 177 37
171 188 0
174 197 0
174 197 0
174 198 0
175 198 0
173 197 0
175 198 0
174 197 0
174 198 0
174 198 0
174 197 0
175 198 0
173 197 0
175 198 0
174 198 0
172 196 0
175 197 0
174 197 0
176 199 0
173 197 0
174 197 0
174 197 0
175 198 0
172 196 0
174 198 0
175 198 0
172 196 0
174 197 0
173 197 0
175 198 0
174 197 0
177 199 0
175 198 0
175 198 0
175 198 0
174 197 0
173 197 0
175 198 0
174 198 0
173 197 0
175 198 0
173 196 0
173 197 0
175 198 0
174 198 0
175 198 0
174 197 0
177 199 0
174 198 0
174 198 0
176 199 0
176 198 0
175 198 0
174 198 0
175 198 0
175 198 0
175 198 0
175 197 0
174 198 0
174 197 0
173 196 0
174 197 0
173 196 0
174 197 0
176 198 0
175 198 0
175 198 0
173 197 0
175 198 0
175 198 0
174 197 0
175 198 0
172 197 0
173 197 0
173 197 0
176 199 0
174 198 0
174 198 0
173 197 0
175 198 0
175 198 0
172 196 0
173 197 0
174 198 0
174 197 0
174 198 0
173 197 0
176 198 0
175 198 0
174 197 0
173 197 0
176 198 0
174 197 0
175 198 0
174 198 0
176 199 0
174 198 0
176 199 0
175 198 0
176 198 0
174 198 0
175 198 0
174 197 0
176 199 0
174 197 0
173 197 0
173 197 0
172 196 0
173 196 0
174 198 0
175 198 0
172 196 0
173 197 0
173 197 0
175 198 0
173 197 0
174 197 0
173 197 0
176 199 0
174 197 0
176 199 0
175 198 0
173 197 0
176 199 0
174 197 0
172 196 0
174 198 0
174 197 0
173 197 0
175 198 0
174 198 0
176 198 0
173 197 0
175 198 0
174 198 0
175 198 0
175 198 0
172 196 0
174 198 0
173 197 0
175 198 0
173 197 0
175 198 0
175 198 0
176 198 0
175 198 0
175 198 0
175 198 0
174 197 0
175 198 0
173 197 0
176 198 0
174 198 0
175 198 0
174 198 0
172 196 0
174 198 0
175 198 0
173 197 0
175 198 0
174 198 0
175 198 0
173 197 0
174 197 0
174 197 0
174 197 0
175 198 0
174 197 0
173 196 0
175 198 0
175 198 0
173 197 0
174 197 0
175 198 0
175 198 0
175 198 0
174 198 0
175 198 0
175 198 0
174 198 0
174 197 0
173 197 0
174 197 0
175 197 0
174 198 0
173 197 0
173 197 0
174 198 0
176 198 0
173 197 0
175 198 0
174 197 0
174 197 0
176 199 0
173 197 0
176 199 0
175 198 0
174 197 0
174 198 0
174 197 0
173 197 0
173 196 0
175 198 0
171 195 0
174 197 0
173 197 0
174 198 0
174 197 0
175 198 0
173 197 0
172 196 0
175 198 0
174 197 0
175 198 0
176 199 0
175 198 0
174 197 0
173 197 0
174 197 0
174 197 0
174 197 0
174 197 0
175 198 0
173 197 0
173 196 0
173 197 0
173 197 0
174 198 0
174 198 0
174 196 0
176 199 0
175 198 0
174 197 0
173 196 0
173 197 0
174 198 0
173 197 0
174 197 0
174 198 0
174 198 0
174 198 0
175 198 0
174 197 0
173 196 0
174 198 0
174 197 0
174 197 0
172 196 0
174 198 0
175 198 0
173 195 0
172 196 0
173 196 0
174 198 0
175 198 0
173 196 0
173 196 0
173 197 0
172 195 0
175 198 0
173 196 0
174 197 0
175 198 0
174 198 0
175 198 0
175 198 0
175 198 0
172 196 0
174 197 0
174 198 0
174 198 0
174 197 0
175 198 0
174 196 0
175 198 0
175 198 0
173 197 0
175 198 0
173 197 0
173 197 0
175 197 0
174 197 0
174 198 0
175 198 0
174 197 0
172 196 0
172 196 0
173 197 0
174 197 0
174 197 0
173 197 0
174 197 0
176 199 0
175 197 0
175 198 0
174 198 0
175 197 0
175 198 0
174 198 0
174 197 0
174 197 0
173 197 0
175 198 0
175 198 0
174 197 0
174 197 0
175 198 0
174 196 0
173 197 0
175 198 0
174 197 0
173 196 0
173 197 0
174 197 0
175 198 0
172 197 0
173 197 0
175 198 0
173 196 0
175 198 0
174 197 0
176 199 0
174 198 0
175 198 0
174 197 0
175 198 0
174 197 0
174 197 0
174 197 0
175 198 0
173 196 0
174 198 0
173 196 0
171 194 0
173 196 0
173 197 0
173 197 0
176 198 0
173 197 0
172 195 0
176 199 0
174 197 0
172 196 0
174 198 0
173 197 0
173 196 0
174 197 0
175 198 0
174 197 0
173 197 0
176 199 0
173 197 0
174 197 0
170 186 0
162 170 16
180 169 79
193 178 103
199 183 114
197 182 114
196 182 114
195 181 114
194 180 114
193 180 114
192 179 114
191 179 114
190 179 114
190 178 114
189 178 114
189 178 114
188 178 114
188 177 114
187 177 114
187 177 114
186 177 114
186 177 114
186 177 114
186 177 114
186 177 114
186 177 114
186 176 114
186 177 114
186 177 114
186 177 114
186 177 114
187 177 114
187 177 114
187 177 114
188 178 114
188 178 114
189 178 114
190 178 114
190 179 114
191 179 114
192 179 114
193 180 114
194 181 114
195 181 114
197 182 114
198 182 114
198 182 111
186 173 90
175 172 61
167 179 0
172 195 0
174 197 0
174 197 0
174 197 0
173 197 0
174 197 0
176 198 0
174 197 0
174 197 0
175 198 0
174 197 0
174 197 0
175 198 0
174 198 0
173 197 0
172 196 0
176 199 0
173 196 0
175 198 0
175 198 0
174 197 0
174 198 0
174 197 0
175 198 0
175 198 0
174 197 0
174 197 0
175 198 0
175 198 0
173 197 0
174 197 0
173 197 0
173 197 0
174 198 0
175 198 0
173 197 0
174 198 0
175 198 0
175 198 0
176 199 0
175 198 0
174 198 0
174 197 0
174 197 0
174 198 0
175 197 0
174 198 0
175 198 0
175 198 0
175 198 0
173 197 0
175 198 0
174 198 0
172 196 0
175 198 0
173 197 0
173 197 0
175 198 0
176 198 0
174 198 0
174 198 0
175 198 0
176 198 0
172 197 0
172 196 0
174 198 0
174 197 0
173 197 0
174 198 0
173 197 0
176 199 0
175 198 0
174 197 0
175 198 0
174 197 0
173 197 0
176 198 0
173 197 0
175 198 0
176 199 0
175 198 0
173 197 0
174 198 0
175 198 0
173 196 0
175 198 0
175 198 0
174 198 0
175 198 0
174 197 0
174 198 0
175 198 0
174 197 0
174 198 0
174 197 0
175 198 0
174 197 0
176 198 0
175 198 0
175 198 0
175 198 0
174 198 0
173 197 0
176 198 0
175 198 0
174 198 0
175 198 0
174 197 0
174 197 0
174 198 0
175 198 0
174 198 0
175 198 0
173 197 0
174 197 0
175 198 0
174 198 0
174 197 0
174 198 0
175 198 0
173 197 0
174 197 0
173 197 0
175 198 0
174 197 0
175 198 0
174 198 0
174 197 0
176 199 0
174 198 0
173 197 0
175 198 0
175 198 0
174 198 0
174 198 0
174 198 0
175 198 0
175 198 0
176 199 0
173 197 0
175 198 0
175 198 0
174 197 0
175 198 0
173 197 0
173 196 0
174 197 0
175 198 0
174 197 0
174 197 0
175 198 0
174 198 0
173 197 0
175 198 0
174 198 0
175 198 0
174 198 0
174 198 0
174 197 0
176 199 0
174 198 0
173 197 0
176 199 0
174 197 0
174 198 0
174 197 0
174 197 0
174 197 0
173 197 0
175 198 0
174 197 0
173 197 0
174 198 0
175 198 0
176 199 0
174 198 0
176 199 0
174 197 0
172 196 0
174 197 0
176 198 0
173 197 0
175 198 0
174 197 0
174 198 0
176 198 0
173 197 0
173 196 0
173 196 0
173 197 0
173 197 0
173 197 0
174 197 0
173 196 0
173 196 0
173 197 0
173 197 0
175 198 0
174 197 0
173 197 0
175 198 0
173 196 0
173 196 0
174 197 0
173 197 0
174 197 0
174 197 0
175 198 0
174 197 0
174 197 0
174 197 0
173 197 0
174 198 0
175 198 0
176 199 0
173 196 0
174 198 0
173 196 0
173 197 0
174 197 0
175 198 0
174 196 0
174 198 0
172 196 0
175 198 0
175 198 0
172 196 0
173 197 0
174 197 0
173 197 0
175 198 0
175 198 0
175 198 0
174 197 0
174 197 0
173 196 0
173 196 0
175 198 0
174 197 0
172 195 0
173 196 0
174 198 0
174 197 0
173 196 0
172 196 0
174 197 0
175 198 0
173 197 0
173 197 0
173 197 0
173 196 0
174 198 0
174 197 0
172 196 0
174 197 0
174 197 0
173 197 0
174 197 0
175 198 0
173 196 0
173 196 0
173 196 0
175 198 0
172 195 0
175 198 0
175 198 0
174 197 0
173 197 0
174 198 0
173 197 0
173 196 0
175 198 0
174 197 0
173 197 0
175 197 0
172 196 0
174 197 0
175 198 0
174 197 0
173 197 0
174 197 0
174 198 0
174 197 0
176 199 0
174 197 0
173 197 0
172 196 0
175 198 0
174 198 0
174 197 0
176 198 0
175 198 0
173 197 0
174 197 0
174 197 0
173 196 0
174 197 0
174 198 0
174 197 0
174 197 0
174 198 0
177 199 0
172 196 0
175 198 0
175 198 0
172 196 0
176 198 0
174 197 0
175 198 0
174 197 0
173 197 0
171 195 0
174 197 0
173 196 0
174 197 0
173 197 0
174 198 0
174 197 0
174 197 0
174 197 0
174 197 0
174 197 0
175 198 0
173 197 0
173 196 0
175 198 0
174 197 0
173 196 0
173 196 0
173 196 0
174 198 0
172 195 0
174 197 0
175 198 0
175 198 0
173 197 0
173 197 0
174 197 0
173 197 0
175 198 0
175 198 0
172 196 0
174 197 0
174 198 0
175 198 0
174 197 0
174 197 0
172 196 0
166 179 0
167 167 48
183 171 86
199 183 113
198 183 114
197 182 114
195 181 114
194 180 114
193 180 114
192 179 114
191 179 114
190 178 114
189 178 114
188 178 114
188 177 114
187 177 114
186 177 114
186 177 114
185 176 114
185 176 114
184 176 114
184 176 114
184 176 114
184 176 114
183 175 114
183 175 114
183 175 114
183 175 114
183 175 114
183 175 114
184 175 114
184 176 114
184 176 114
184 176 114
184 176 114
185 176 114
185 176 114
186 176 114
186 177 114
187 177 114
187 177 114
188 178 114
189 178 114
190 178 114
191 179 114
192 179 114
193 180 114
194 180 114
196 181 114
197 182 114
199 183 114
193 179 103
174 167 69
165 175 16
171 192 0
173 197 0
172 196 0
174 198 0
173 197 0
174 197 0
174 198 0
173 197 0
174 197 0
175 198 0
172 196 0
173 197 0
173 197 0
176 199 0
174 198 0
175 198 0
173 197 0
174 197 0
174 198 0
173 197 0
173 197 0
174 198 0
174 198 0
173 197 0
173 196 0
172 196 0
175 198 0
175 198 0
176 199 0
174 197 0
173 197 0
175 198 0
173 197 0
174 197 0
174 197 0
175 198 0
174 198 0
176 199 0
174 197 0
174 197 0
174 198 0
175 198 0
174 198 0
176 199 0
175 198 0
174 197 0
173 197 0
174 198 0
174 198 0
174 198 0
174 198 0
174 197 0
175 197 0
176 198 0
175 198 0
173 197 0
174 198 0
174 197 0
174 198 0
172 196 0
173 197 0
174 197 0
175 198 0
173 197 0
174 197 0
173 196 0
174 198 0
172 196 0
174 197 0
172 196 0
173 197 0
174 198 0
172 196 0
174 198 0
175 198 0
175 198 0
175 198 0
175 198 0
173 197 0
173 197 0
174 198 0
174 197 0
174 198 0
175 198 0
176 198 0
174 197 0
174 198 0
172 196 0
175 198 0
173 197 0
175 198 0
175 198 0
175 198 0
175 198 0
175 198 0
174 198 0
174 197 0
173 197 0
176 198 0
174 197 0
175 198 0
174 198 0
174 197 0
175 198 0
172 196 0
173 197 0
174 198 0
174 198 0
175 198 0
175 198 0
174 198 0
174 197 0
173 197 0
173 197 0
173 196 0
174 198 0
173 197 0
174 198 0
174 198 0
173 197 0
175 198 0
172 196 0
173 196 0
174 198 0
174 198 0
172 197 0
173 197 0
175 198 0
173 197 0
172 196 0
175 198 0
174 198 0
176 198 0
175 198 0
174 198 0
175 198 0
175 198 0
175 198 0
173 196 0
175 198 0
175 198 0
172 196 0
174 198 0
171 195 0
175 198 0
174 197 0
173 197 0
175 198 0
175 198 0
173 197 0
174 197 0
172 196 0
174 198 0
175 198 0
174 197 0
174 198 0
173 197 0
175 198 0
173 197 0
175 198 0
174 198 0
173 197 0
173 197 0
175 198 0
175 198 0
172 196 0
173 197 0
173 196 0
173 197 0
174 197 0
176 198 0
174 198 0
174 197 0
173 197 0
176 198 0
175 198 0
175 198 0
176 199 0
172 195 0
174 197 0
173 196 0
173 197 0
175 198 0
176 199 0
175 197 0
174 197 0
174 197 0
174 198 0
174 197 0
174 198 0
173 196 0
174 197 0
174 198 0
173 197 0
173 196 0
174 197 0
176 198 0
174 197 0
172 196 0
174 197 0
172 195 0
174 197 0
175 197 0
174 198 0
173 197 0
173 197 0
174 197 0
175 198 0
175 198 0
174 198 0
173 196 0
172 196 0
171 195 0
174 197 0
173 197 0
173 197 0
175 198 0
172 196 0
173 197 0
176 199 0
174 198 0
175 198 0
174 197 0
173 197 0
177 199 0
174 197 0
175 198 0
174 197 0
174 198 0
175 198 0
175 198 0
173 197 0
174 197 0
172 196 0
175 198 0
174 198 0
174 197 0
174 196 0
173 196 0
174 197 0
174 198 0
174 196 0
173 197 0
173 197 0
174 197 0
176 198 0
175 198 0
173 196 0
175 198 0
174 197 0
174 198 0
172 196 0
172 197 0
173 196 0
175 198 0
172 196 0
172 196 0
173 196 0
174 197 0
175 198 0
174 198 0
174 196 0
173 197 0
172 195 0
175 198 0
174 197 0
174 198 0
174 198 0
175 198 0
175 198 0
175 198 0
174 198 0
174 197 0
172 196 0
174 197 0
175 198 0
175 198 0
173 197 0
172 196 0
175 197 0
173 196 0
175 198 0
174 198 0
172 196 0
174 197 0
173 196 0
175 197 0
174 197 0
174 197 0
171 195 0
174 197 0
174 197 0
175 198 0
173 196 0
174 197 0
174 198 0
174 197 0
174 198 0
172 196 0
174 197 0
174 198 0
173 197 0
175 198 0
173 196 0
173 196 0
175 198 0
173 197 0
173 197 0
174 198 0
175 198 0
173 197 0
174 197 0
175 198 0
176 199 0
172 196 0
173 197 0
170 194 0
173 197 0
174 198 0
175 198 0
173 197 0
173 197 0
173 196 0
174 198 0
174 197 0
174 197 0
174 198 0
172 196 0
173 195 0
174 197 0
174 197 0
173 197 0
174 197 0
173 196 0
173 196 0
173 197 0
172 195 0
176 198 0
174 197 0
174 197 0
174 198 0
174 197 0
173 197 0
174 197 0
166 176 0
171 168 57
186 173 90
199 183 113
197 182 114
196 181 114
194 181 114
193 180 114
192 179 114
191 179 114
190 179 114
189 178 114
188 178 114
187 177 114
186 177 114
186 176 114
185 176 114
184 176 114
184 176 114
183 175 114
183 175 114
183 175 114
182 175 114
182 175 114
182 175 114
181 174 114
181 174 114
181 174 114
181 174 114
181 174 114
181 174 114
181 174 114
181 174 114
181 175 114
182 175 114
182 175 114
182 175 114
182 175 114
183 175 114
183 175 114
184 176 114
184 176 114
185 176 114
186 176 114
186 177 114
187 177 114
188 178 114
189 178 114
190 178 114
191 179 114
192 179 114
193 180 114
195 181 114
196 181 114
198 182 114
196 181 109
180 169 80
167 174 32
169 190 0
174 197 0
174 198 0
174 197 0
175 197 0
176 199 0
174 197 0
174 197 0
173 197 0
173 197 0
174 197 0
175 197 0
176 198 0
175 198 0
174 198 0
174 197 0
174 197 0
174 198 0
174 197 0
172 196 0
174 198 0
173 197 0
173 197 0
174 197 0
175 198 0
172 196 0
176 198 0
175 198 0
174 198 0
173 197 0
174 198 0
175 198 0
176 199 0
174 197 0
175 198 0
173 197 0
173 197 0
173 197 0
174 197 0
176 199 0
175 198 0
175 198 0
174 198 0
174 198 0
173 197 0
174 198 0
174 197 0
174 197 0
173 197 0
174 198 0
175 198 0
176 198 0
173 197 0
174 197 0
174 198 0
173 197 0
176 198 0
173 197 0
175 198 0
174 198 0
173 197 0
176 198 0
174 197 0
174 198 0
173 197 0
176 199 0
176 198 0
175 198 0
175 198 0
175 198 0
175 198 0
173 197 0
173 197 0
173 197 0
174 197 0
174 197 0
174 198 0
174 197 0
175 198 0
175 198 0
175 198 0
173 197 0
175 198 0
174 197 0
174 197 0
173 197 0
175 198 0
172 197 0
174 197 0
173 197 0
174 198 0
173 197 0
173 197 0
174 198 0
172 196 0
174 198 0
175 198 0
175 198 0
175 198 0
172 195 0
175 198 0
173 197 0
174 197 0
174 197 0
175 198 0
174 198 0
174 198 0
174 197 0
173 197 0
175 198 0
175 198 0
174 198 0
173 197 0
173 197 0
174 197 0
174 197 0
176 199 0
173 197 0
174 197 0
175 198 0
173 197 0
174 198 0
173 197 0
174 198 0
174 198 0
174 197 0
172 196 0
174 198 0
174 197 0
173 197 0
175 198 0
175 198 0
174 197 0
174 197 0
175 198 0
174 197 0
174 197 0
174 197 0
174 197 0
176 199 0
174 198 0
173 197 0
175 198 0
174 197 0
173 197 0
173 197 0
176 198 0
175 198 0
176 199 0
174 197 0
173 197 0
175 197 0
174 198 0
173 197 0
173 197 0
175 198 0
175 198 0
174 197 0
175 198 0
173 196 0
174 198 0
173 197 0
174 197 0
175 197 0
173 196 0
174 197 0
172 196 0
176 198 0
173 197 0
173 197 0
174 197 0
174 198 0
175 198 0
173 197 0
172 195 0
173 197 0
174 197 0
174 198 0
173 197 0
174 197 0
174 197 0
174 197 0
174 198 0
173 197 0
174 198 0
176 198 0
174 197 0
174 198 0
175 198 0
174 197 0
175 198 0
173 197 0
173 197 0
174 197 0
174 197 0
174 197 0
174 198 0
173 196 0
173 197 0
174 198 0
172 196 0
174 198 0
173 197 0
173 196 0
174 197 0
171 195 0
174 197 0
173 197 0
173 197 0
174 197 0
172 196 0
173 197 0
174 197 0
174 198 0
175 197 0
174 197 0
174 197 0
174 198 0
174 197 0
174 197 0
173 197 0
174 198 0
174 197 0
173 196 0
175 198 0
174 197 0
175 198 0
173 197 0
174 197 0
172 196 0
173 197 0
175 198 0
175 198 0
174 198 0
173 196 0
172 197 0
176 198 0
175 198 0
174 198 0
171 196 0
173 197 0
174 197 0
175 198 0
173 197 0
174 197 0
173 197 0
175 198 0
171 195 0
172 195 0
174 198 0
174 197 0
173 196 0
175 198 0
174 197 0
175 198 0
174 198 0
173 197 0
173 197 0
172 196 0
174 197 0
173 196 0
173 196 0
174 197 0
175 197 0
174 197 0
173 196 0
173 196 0
174 197 0
174 197 0
173 197 0
174 197 0
173 197 0
174 197 0
172 196 0
171 195 0
172 195 0
174 197 0
174 197 0
173 197 0
175 198 0
173 197 0
175 198 0
175 198 0
174 198 0
174 196 0
173 197 0
174 197 0
175 198 0
174 198 0
171 196 0
173 196 0
174 197 0
175 197 0
173 196 0
171 195 0
175 197 0
175 197 0
173 197 0
174 197 0
174 197 0
173 197 0
173 196 0
173 195 0
172 196 0
174 197 0
173 197 0
175 198 0
174 197 0
173 196 0
171 195 0
175 198 0
174 198 0
175 197 0
176 198 0
174 197 0
174 198 0
172 196 0
172 196 0
172 196 0
172 196 0
175 198 0
175 198 0
173 197 0
173 197 0
173 197 0
174 198 0
174 197 0
174 198 0
174 197 0
174 197 0
174 198 0
175 198 0
174 197 0
173 197 0
174 198 0
174 197 0
174 197 0
174 197 0
174 197 0
174 196 0
167 178 0
165 162 44
188 175 95
199 183 114
197 182 114
196 181 114
194 180 114
193 180 114
191 179 114
190 179 114
189 178 114
188 178 114
187 177 114
186 177 114
186 176 114
185 176 114
184 176 114
183 175 114
183 175 114
182 175 114
182 175 114
181 174 114
181 174 114
181 174 114
180 174 114
180 174 114
180 174 114
180 174 114
179 173 114
179 173 114
179 173 114
179 173 114
179 173 114
179 173 114
179 173 114
179 174 114
179 174 114
180 174 114
180 174 114
180 174 114
181 174 114
181 174 114
182 175 114
182 175 114
183 175 114
183 175 114
184 176 114
185 176 114
185 176 114
186 177 114
187 177 114
188 178 114
189 178 114
190 179 114
191 179 114
193 180 114
194 181 114
196 181 114
198 182 114
196 181 109
180 170 78
166 175 25
174 195 0
174 198 0
174 198 0
175 198 0
173 197 0
175 198 0
174 197 0
174 198 0
175 198 0
173 197 0
173 196 0
175 198 0
174 198 0
174 198 0
174 197 0
174 197 0
173 197 0
174 197 0
174 197 0
174 197 0
174 197 0
175 198 0
175 198 0
175 198 0
174 197 0
174 198 0
175 198 0
173 196 0
173 197 0
175 198 0
174 197 0
175 198 0
174 197 0
175 198 0
173 197 0
176 199 0
173 197 0
174 197 0
173 197 0
174 198 0
172 196 0
174 198 0
173 197 0
175 198 0
174 198 0
174 197 0
174 197 0
173 196 0
173 197 0
174 197 0
173 197 0
176 199 0
173 197 0
175 198 0
175 198 0
175 198 0
174 197 0
174 198 0
175 198 0
174 198 0
175 198 0
176 198 0
172 197 0
174 198 0
175 198 0
175 197 0
176 198 0
174 198 0
174 197 0
175 198 0
173 197 0
174 198 0
175 198 0
174 198 0
173 197 0
175 198 0
173 197 0
174 197 0
174 197 0
175 198 0
175 198 0
173 197 0
174 198 0
174 197 0
174 198 0
173 197 0
173 197 0
174 197 0
173 197 0
174 198 0
172 196 0
174 197 0
174 198 0
175 198 0
173 197 0
174 198 0
175 198 0
175 198 0
175 198 0
174 198 0
174 197 0
173 197 0
173 197 0
172 196 0
173 197 0
175 198 0
172 196 0
175 198 0
176 199 0
173 197 0
174 197 0
174 198 0
173 197 0
175 198 0
173 197 0
174 198 0
173 197 0
175 198 0
173 196 0
173 196 0
172 196 0
174 197 0
175 198 0
175 198 0
174 198 0
174 198 0
175 198 0
174 197 0
176 198 0
175 198 0
173 197 0
174 197 0
176 198 0
176 199 0
174 197 0
175 198 0
173 197 0
174 197 0
173 197 0
173 196 0
174 197 0
173 197 0
175 198 0
173 197 0
172 196 0
171 195 0
176 198 0
174 198 0
174 198 0
174 198 0
175 198 0
175 198 0
173 196 0
175 198 0
173 197 0
175 198 0
174 198 0
175 198 0
175 198 0
175 197 0
173 196 0
175 198 0
175 198 0
174 197 0
173 197 0
174 197 0
174 197 0
175 198 0
175 198 0
173 197 0
176 198 0
175 197 0
174 197 0
174 198 0
175 198 0
173 197 0
172 195 0
174 198 0
175 198 0
173 197 0
176 198 0
173 197 0
174 197 0
174 197 0
175 197 0
174 197 0
174 197 0
173 196 0
174 198 0
173 197 0
174 198 0
175 198 0
173 197 0
173 197 0
174 197 0
174 197 0
175 198 0
173 197 0
173 197 0
172 196 0
174 197 0
174 197 0
176 198 0
174 198 0
174 198 0
174 197 0
175 198 0
174 197 0
173 197 0
174 197 0
175 198 0
174 197 0
173 197 0
175 198 0
172 196 0
173 197 0
174 197 0
174 197 0
174 198 0
174 197 0
174 197 0
172 196 0
174 198 0
176 198 0
174 197 0
175 197 0
172 196 0
174 197 0
174 197 0
173 197 0
176 198 0
174 197 0
174 198 0
171 195 0
174 197 0
173 197 0
173 196 0
175 198 0
174 198 0
174 196 0
174 197 0
173 196 0
172 196 0
171 195 0
174 197 0
171 196 0
171 195 0
173 196 0
172 196 0
176 198 0
174 197 0
174 197 0
172 196 0
175 198 0
175 198 0
173 197 0
172 196 0
175 198 0
174 197 0
175 198 0
173 197 0
173 196 0
174 197 0
174 198 0
174 198 0
173 197 0
173 197 0
173 196 0
174 197 0
174 197 0
173 197 0
174 198 0
175 198 0
173 196 0
177 199 0
173 197 0
173 197 0
176 198 0
174 198 0
175 198 0
174 198 0
175 198 0
174 197 0
174 197 0
173 196 0
174 197 0
174 198 0
174 197 0
174 198 0
174 197 0
175 198 0
173 196 0
175 198 0
173 197 0
170 195 0
174 197 0
175 198 0
175 198 0
173 197 0
172 196 0
171 196 0
174 197 0
174 197 0
176 199 0
173 196 0
174 197 0
173 197 0
173 197 0
172 196 0
173 197 0
173 197 0
172 196 0
175 198 0
174 197 0
174 197 0
174 197 0
174 197 0
172 196 0
174 197 0
175 197 0
174 197 0
173 196 0
174 197 0
172 196 0
174 198 0
174 197 0
174 197 0
175 198 0
174 197 0
173 197 0
175 198 0
174 197 0
173 197 0
173 197 0
171 195 0
175 197 0
169 182 0
163 164 32
184 172 87
200 183 114
198 182 114
196 181 114
194 181 114
193 180 114
191 179 114
190 179 114
189 178 114
188 178 114
187 177 114
186 177 114
185 176 114
184 176 114
184 175 114
183 175 114
182 175 114
181 174 114
181 174 114
180 174 114
180 174 114
179 174 114
179 173 114
179 173 114
178 173 114
178 173 114
178 173 114
178 173 114
177 173 114
177 173 114
177 173 114
177 173 114
177 173 114
177 173 114
177 173 114
177 173 114
178 173 114
178 173 114
178 173 114
178 173 114
179 173 114
179 173 114
179 174 114
180 174 114
181 174 114
181 174 114
182 175 114
182 175 114
183 175 114
184 176 114
185 176 114
186 177 114
187 177 114
188 178 114
189 178 114
190 179 114
191 179 114
193 180 114
194 181 114
196 181 114
198 182 114
195 180 106
172 165 63
167 181 11
173 196 0
173 197 0
174 198 0
174 197 0
174 197 0
175 198 0
174 197 0
175 198 0
174 197 0
174 198 0
175 198 0
174 197 0
175 198 0
175 198 0
174 197 0
175 198 0
174 198 0
175 198 0
174 198 0
174 197 0
173 197 0
173 197 0
176 198 0
173 197 0
173 197 0
175 197 0
173 197 0
174 198 0
175 198 0
174 197 0
176 198 0
172 196 0
174 198 0
174 198 0
174 197 0
174 198 0
174 197 0
174 197 0
176 198 0
173 197 0
174 198 0
174 198 0
175 198 0
172 196 0
174 197 0
173 197 0
174 198 0
173 197 0
173 196 0
175 198 0
176 198 0
175 197 0
174 197 0
172 196 0
174 197 0
174 197 0
174 197 0
174 197 0
175 198 0
174 197 0
174 198 0
176 198 0
173 196 0
175 198 0
173 197 0
174 197 0
174 198 0
174 197 0
174 198 0
174 198 0
174 197 0
174 198 0
175 198 0
175 198 0
173 197 0
175 197 0
174 197 0
173 196 0
175 198 0
176 199 0
175 198 0
173 196 0
175 198 0
174 197 0
175 198 0
173 197 0
176 199 0
175 198 0
173 197 0
174 197 0
173 197 0
175 198 0
174 198 0
172 196 0
174 197 0
173 197 0
173 197 0
175 198 0
173 197 0
173 197 0
173 197 0
174 197 0
177 199 0
175 198 0
176 198 0
174 198 0
175 197 0
175 198 0
173 197 0
174 198 0
174 197 0
173 197 0
175 198 0
175 198 0
176 198 0
175 198 0
174 197 0
174 197 0
173 197 0
174 197 0
174 198 0
177 199 0
173 196 0
175 198 0
175 198 0
174 197 0
175 198 0
175 198 0
173 196 0
176 198 0
173 197 0
175 198 0
175 198 0
174 197 0
174 198 0
175 198 0
173 197 0
175 198 0
175 198 0
174 197 0
173 197 0
175 198 0
173 197 0
174 198 0
173 197 0
174 197 0
175 198 0
174 197 0
176 198 0
174 197 0
175 198 0
173 197 0
174 197 0
173 197 0
175 198 0
174 198 0
173 197 0
174 197 0
173 197 0
174 198 0
173 197 0
174 197 0
174 198 0
174 198 0
176 198 0
174 197 0
175 198 0
175 198 0
175 198 0
176 199 0
174 197 0
175 198 0
174 197 0
175 198 0
174 197 0
174 197 0
176 199 0
172 196 0
174 198 0
175 198 0
174 197 0
174 198 0
172 196 0
174 198 0
174 198 0
176 199 0
176 198 0
173 197 0
174 197 0
172 196 0
173 197 0
174 198 0
174 198 0
174 197 0
174 197 0
175 198 0
174 198 0
173 197 0
174 197 0
174 197 0
175 198 0
175 198 0
173 197 0
173 197 0
173 196 0
172 195 0
176 199 0
174 198 0
175 198 0
175 198 0
174 197 0
174 198 0
173 197 0
174 197 0
176 199 0
173 197 0
173 197 0
175 198 0
175 198 0
174 197 0
173 196 0
173 196 0
173 197 0
174 197 0
174 197 0
173 197 0
174 197 0
174 197 0
172 196 0
173 196 0
175 198 0
174 197 0
174 198 0
174 197 0
175 198 0
173 197 0
175 198 0
175 198 0
175 198 0
174 197 0
173 197 0
173 197 0
173 197 0
173 196 0
174 198 0
174 197 0
173 196 0
176 198 0
175 198 0
174 197 0
174 197 0
175 198 0
174 197 0
175 198 0
173 197 0
174 197 0
174 197 0
174 197 0
175 198 0
173 197 0
173 197 0
175 198 0
174 196 0
174 197 0
174 198 0
174 198 0
173 197 0
172 195 0
174 198 0
174 198 0
176 198 0
173 196 0
174 197 0
173 196 0
173 195 0
174 197 0
174 197 0
174 198 0
174 198 0
175 198 0
174 198 0
172 196 0
173 196 0
173 196 0
174 198 0
173 197 0
174 198 0
175 198 0
174 197 0
174 197 0
174 197 0
172 195 0
173 197 0
174 197 0
174 197 0
172 195 0
174 198 0
174 197 0
174 197 0
173 197 0
174 197 0
177 199 0
173 197 0
171 195 0
173 196 0
174 197 0
174 197 0
171 194 0
174 198 0
173 197 0
172 196 0
173 197 0
172 195 0
174 197 0
175 197 0
174 197 0
174 197 0
174 197 0
173 196 0
174 197 0
173 197 0
175 198 0
174 197 0
172 197 0
173 197 0
174 197 0
175 198 0
174 197 0
174 197 0
175 198 0
173 196 0
172 196 0
169 188 0
161 166 0
176 166 73
198 182 110
198 182 114
196 181 114
194 181 114
193 180 114
191 179 114
190 179 114
189 178 114
188 177 114
187 177 114
186 177 114
185 176 114
184 176 114
183 175 114
182 175 114
182 175 114
181 174 114
180 174 114
180 174 114
179 173 114
179 173 114
178 173 114
178 173 114
177 173 114
177 172 114
176 172 114
176 172 114
176 172 114
176 172 114
176 172 114
176 172 114
175 172 114
175 172 114
175 172 114
176 172 114
176 172 114
176 172 114
176 172 114
176 172 114
176 172 114
177 172 114
177 172 114
177 173 114
178 173 114
178 173 114
179 173 114
179 173 114
180 174 114
181 174 114
181 174 114
182 175 114
183 175 114
184 176 114
184 176 114
185 176 114
187 177 114
188 177 114
189 178 114
190 179 114
192 179 114
193 180 114
195 181 114
197 182 114
199 183 114
190 176 97
169 165 47
168 183 0
175 198 0
174 197 0
174 197 0
174 197 0
174 197 0
174 197 0
173 197 0
173 197 0
175 197 0
173 197 0
172 196 0
175 198 0
173 197 0
175 198 0
175 198 0
174 198 0
173 196 0
172 196 0
173 197 0
173 196 0
175 198 0
173 197 0
174 197 0
175 198 0
174 197 0
174 198 0
173 197 0
175 198 0
174 198 0
175 198 0
175 198 0
174 198 0
174 197 0
174 198 0
175 198 0
173 197 0
174 197 0
173 197 0
173 197 0
174 197 0
175 198 0
173 197 0
176 199 0
175 198 0
175 198 0
175 198 0
175 198 0
175 198 0
174 197 0
175 198 0
175 198 0
174 198 0
173 197 0
175 198 0
172 196 0
175 198 0
173 197 0
175 198 0
174 197 0
175 197 0
174 197 0
174 197 0
174 197 0
175 198 0
174 197 0
174 198 0
174 197 0
175 197 0
174 197 0
174 197 0
174 198 0
174 197 0
175 198 0
174 198 0
174 198 0
175 198 0
175 198 0
176 199 0
174 197 0
173 197 0
174 198 0
173 197 0
174 197 0
172 196 0
174 198 0
176 198 0
173 197 0
174 198 0
174 197 0
175 198 0
173 197 0
173 197 0
175 198 0
173 197 0
174 197 0
175 198 0
174 198 0
175 198 0
175 198 0
174 198 0
174 198 0
174 197 0
175 198 0
175 198 0
174 198 0
175 198 0
175 198 0
175 198 0
174 198 0
175 198 0
174 197 0
175 198 0
175 198 0
174 197 0
174 197 0
175 198 0
173 197 0
174 198 0
172 196 0
174 197 0
175 198 0
175 198 0
174 198 0
173 197 0
175 198 0
173 197 0
173 197 0
175 198 0
175 198 0
174 197 0
174 197 0
173 197 0
174 198 0
174 197 0
173 197 0
176 199 0
175 198 0
174 197 0
176 198 0
174 197 0
175 198 0
175 198 0
172 196 0
175 198 0
174 197 0
173 197 0
173 197 0
174 197 0
172 196 0
175 198 0
173 197 0
173 197 0
173 197 0
177 199 0
174 198 0
175 198 0
174 197 0
176 198 0
175 198 0
175 198 0
174 197 0
173 196 0
173 196 0
174 197 0
175 198 0
175 198 0
172 196 0
173 196 0
173 197 0
172 196 0
173 197 0
174 197 0
174 197 0
174 197 0
175 198 0
173 196 0
176 199 0
173 196 0
174 197 0
175 198 0
174 198 0
173 197 0
175 198 0
174 198 0
173 196 0
174 198 0
173 197 0
173 196 0
175 198 0
172 196 0
173 197 0
175 197 0
175 198 0
174 197 0
173 196 0
174 197 0
174 197 0
173 196 0
175 197 0
175 198 0
175 198 0
174 197 0
173 196 0
173 196 0
174 197 0
173 197 0
174 197 0
174 197 0
173 196 0
175 198 0
174 198 0
174 197 0
173 197 0
173 196 0
175 198 0
175 198 0
173 197 0
172 196 0
174 197 0
175 198 0
173 196 0
172 196 0
173 197 0
174 198 0
174 198 0
173 196 0
176 198 0
175 198 0
174 197 0
173 196 0
176 198 0
173 197 0
175 198 0
172 197 0
173 196 0
173 197 0
174 197 0
174 197 0
172 196 0
174 198 0
175 198 0
172 196 0
174 197 0
175 198 0
172 197 0
171 195 0
173 196 0
174 196 0
173 197 0
173 196 0
174 196 0
175 198 0
172 196 0
174 197 0
175 198 0
173 195 0
174 197 0
173 196 0
175 198 0
173 197 0
172 196 0
173 196 0
175 198 0
174 197 0
175 198 0
174 197 0
174 197 0
172 196 0
172 195 0
174 197 0
175 198 0
174 198 0
174 197 0
171 195 0
174 197 0
175 198 0
174 198 0
174 198 0
174 197 0
173 197 0
171 195 0
173 197 0
173 196 0
173 196 0
175 197 0
175 198 0
175 198 0
174 198 0
174 198 0
174 198 0
172 196 0
175 198 0
172 196 0
173 197 0
173 197 0
175 198 0
172 196 0
175 198 0
175 198 0
175 198 0
174 197 0
173 196 0
174 197 0
175 198 0
174 197 0
175 198 0
175 198 0
174 198 0
173 196 0
175 198 0
176 198 0
173 196 0
174 197 0
174 198 0
175 197 0
173 197 0
173 197 0
172 196 0
173 196 0
172 196 0
174 197 0
173 197 0
173 196 0
172 196 0
174 197 0
174 196 0
174 198 0
172 196 0
172 194 0
165 176 0
163 159 45
193 178 103
199 183 114
197 182 114
195 181 114
193 180 114
192 179 114
190 179 114
189 178 114
188 178 114
187 177 114
186 177 114
185 176 114
184 176 114
183 175 114
182 175 114
181 174 114
181 174 114
180 174 114
179 173 114
178 173 114
178 173 114
177 173 114
177 172 114
176 172 114
176 172 114
176 172 114
175 172 114
175 172 114
175 171 114
174 171 114
174 171 114
174 171 114
174 171 114
174 171 114
174 171 114
174 171 114
174 171 114
174 171 114
174 171 114
174 171 114
175 171 114
175 171 114
175 172 114
175 172 114
176 172 114
176 172 114
177 172 114
177 172 114
178 173 114
178 173 114
179 173 114
179 174 114
180 174 114
181 174 114
181 175 114
183 175 114
184 175 114
185 176 114
185 176 114
187 177 114
188 178 114
189 178 114
190 179 114
192 179 114
194 180 114
195 181 114
197 182 114
199 183 113
182 171 85
165 172 19
173 196 0
175 198 0
174 197 0
174 197 0
175 198 0
175 198 0
174 197 0
173 196 0
174 197 0
174 197 0
175 198 0
173 197 0
173 196 0
175 198 0
174 197 0
175 198 0
176 199 0
176 198 0
174 197 0
174 197 0
173 196 0
174 198 0
173 197 0
174 197 0
174 197 0
176 198 0
174 197 0
174 198 0
174 197 0
172 197 0
173 197 0
172 197 0
175 198 0
175 198 0
172 196 0
175 198 0
174 197 0
175 198 0
172 196 0
174 197 0
174 198 0
172 197 0
173 197 0
175 198 0
174 197 0
175 198 0
175 198 0
173 196 0
174 197 0
173 197 0
173 197 0
173 197 0
173 197 0
175 198 0
174 198 0
174 197 0
173 197 0
174 198 0
174 198 0
173 197 0
175 198 0
175 198 0
173 197 0
175 197 0
175 198 0
173 197 0
174 197 0
173 197 0
175 198 0
175 198 0
174 198 0
173 197 0
175 198 0
174 198 0
174 197 0
173 197 0
175 198 0
174 197 0
175 198 0
175 198 0
174 197 0
176 198 0
174 198 0
175 198 0
174 198 0
175 198 0
175 198 0
174 198 0
174 197 0
175 198 0
175 198 0
173 197 0
174 197 0
174 197 0
174 197 0
174 198 0
173 196 0
173 197 0
174 197 0
172 196 0
174 198 0
175 198 0
172 196 0
175 198 0
173 197 0
174 198 0
174 198 0
174 197 0
173 197 0
175 198 0
174 198 0
174 198 0
174 197 0
174 197 0
174 197 0
175 198 0
171 195 0
174 198 0
173 197 0
174 197 0
174 197 0
175 198 0
175 198 0
174 197 0
174 198 0
175 198 0
174 198 0
173 196 0
175 198 0
176 199 0
175 198 0
174 198 0
174 197 0
173 197 0
173 197 0
174 198 0
174 198 0
175 198 0
175 198 0
174 197 0
173 197 0
174 197 0
174 197 0
173 197 0
176 198 0
173 197 0
174 197 0
173 196 0
174 197 0
172 196 0
175 198 0
174 197 0
175 198 0
175 198 0
175 198 0
176 199 0
173 197 0
173 197 0
174 198 0
173 197 0
174 197 0
174 197 0
175 198 0
174 197 0
172 195 0
172 196 0
175 198 0
174 198 0
172 196 0
174 197 0
174 197 0
174 198 0
173 196 0
174 197 0
173 196 0
174 197 0
173 197 0
175 197 0
175 198 0
174 198 0
172 196 0
174 198 0
176 199 0
174 197 0
173 196 0
174 198 0
173 196 0
175 198 0
172 196 0
174 197 0
174 197 0
173 196 0
172 197 0
172 196 0
173 197 0
174 197 0
174 197 0
173 197 0
173 197 0
174 197 0
173 197 0
175 197 0
175 198 0
174 198 0
174 198 0
174 197 0
175 198 0
175 198 0
174 197 0
176 198 0
175 198 0
174 197 0
175 198 0
174 197 0
172 195 0
173 196 0
174 197 0
175 198 0
172 196 0
174 198 0
173 196 0
174 197 0
173 197 0
173 197 0
173 197 0
174 197 0
174 198 0
175 198 0
174 197 0
173 197 0
175 198 0
173 196 0
173 197 0
173 197 0
173 197 0
175 198 0
174 197 0
175 198 0
175 198 0
176 199 0
171 195 0
172 194 0
176 199 0
173 196 0
175 198 0
172 196 0
175 198 0
173 196 0
172 196 0
175 197 0
174 197 0
174 197 0
174 198 0
175 198 0
173 197 0
175 198 0
173 196 0
172 195 0
174 197 0
175 198 0
174 197 0
174 198 0
174 197 0
172 195 0
174 197 0
172 195 0
173 196 0
175 198 0
173 197 0
172 196 0
175 198 0
173 197 0
174 197 0
173 197 0
173 197 0
174 197 0
173 197 0
176 198 0
174 197 0
174 197 0
174 198 0
174 197 0
175 198 0
173 197 0
173 197 0
172 196 0
173 197 0
175 198 0
174 197 0
174 197 0
175 197 0
174 197 0
172 196 0
171 195 0
174 198 0
173 197 0
173 196 0
175 198 0
175 198 0
172 196 0
173 197 0
176 198 0
175 198 0
174 197 0
174 197 0
175 198 0
175 198 0
174 197 0
173 196 0
175 198 0
173 196 0
174 197 0
174 197 0
174 197 0
173 197 0
173 196 0
173 196 0
173 196 0
174 197 0
172 196 0
174 196 0
174 197 0
174 197 0
175 198 0
175 198 0
174 198 0
171 192 0
161 164 0
177 167 75
200 183 113
198 182 114
196 181 114
194 181 114
193 180 114
191 179 114
190 178 114
188 178 114
187 177 114
186 177 114
185 176 114
184 176 114
183 175 114
182 175 114
181 174 114
180 174 114
180 174 114
179 173 114
178 173 114
178 173 114
177 172 114
176 172 114
176 172 114
175 172 114
175 171 114
175 171 114
174 171 114
174 171 114
174 171 114
173 171 114
173 171 114
173 171 114
173 170 114
173 170 114
173 170 114
173 170 114
173 170 114
173 170 114
173 170 114
173 170 114
173 171 114
173 171 114
173 171 114
174 171 114
174 171 114
174 171 114
175 171 114
175 172 114
176 172 114
176 172 114
176 172 114
177 173 114
178 173 114
178 173 114
179 173 114
180 174 114
181 174 114
182 175 114
183 175 114
184 175 114
185 176 114
186 177 114
187 177 114
188 178 114
190 178 114
191 179 114
193 180 114
195 181 114
196 182 114
199 183 114
190 176 99
164 161 44
171 189 0
174 198 0
173 197 0
173 196 0
174 197 0
175 198 0
175 198 0
174 198 0
173 197 0
173 196 0
174 197 0
175 198 0
174 198 0
173 197 0
174 197 0
174 197 0
173 197 0
175 198 0
173 197 0
174 197 0
173 196 0
172 195 0
174 197 0
175 198 0
174 197 0
174 198 0
171 196 0
175 198 0
173 197 0
174 197 0
174 197 0
174 198 0
175 198 0
175 197 0
175 198 0
174 197 0
174 197 0
174 198 0
174 198 0
175 198 0
174 198 0
173 196 0
173 197 0
173 197 0
175 198 0
173 197 0
175 198 0
174 198 0
175 198 0
175 198 0
173 197 0
174 198 0
176 198 0
174 198 0
174 198 0
175 198 0
173 197 0
173 197 0
174 197 0
175 198 0
173 197 0
174 198 0
175 197 0
174 197 0
174 197 0
173 196 0
174 198 0
174 198 0
173 197 0
176 199 0
173 196 0
175 198 0
176 198 0
174 198 0
176 199 0
174 198 0
175 198 0
174 197 0
174 198 0
175 198 0
176 198 0
174 197 0
173 197 0
174 198 0
173 197 0
174 197 0
174 198 0
175 198 0
174 197 0
174 198 0
174 198 0
174 198 0
174 197 0
175 198 0
173 197 0
174 197 0
173 197 0
174 197 0
175 198 0
174 198 0
174 197 0
174 198 0
174 198 0
175 198 0
175 198 0
174 198 0
175 198 0
175 198 0
176 198 0
174 197 0
175 198 0
175 198 0
176 199 0
175 198 0
173 196 0
175 197 0
173 197 0
174 198 0
173 196 0
174 197 0
173 196 0
175 198 0
172 196 0
175 198 0
172 196 0
174 197 0
175 198 0
174 198 0
175 198 0
174 198 0
174 197 0
174 197 0
175 198 0
172 196 0
174 197 0
174 197 0
174 198 0
174 197 0
173 197 0
173 197 0
174 197 0
174 198 0
174 197 0
174 198 0
174 197 0
173 197 0
172 196 0
173 197 0
174 198 0
174 198 0
174 197 0
174 198 0
174 197 0
175 198 0
175 198 0
174 198 0
175 198 0
173 197 0
173 197 0
173 197 0
173 196 0
174 197 0
174 197 0
174 198 0
175 198 0
172 196 0
175 198 0
172 195 0
174 197 0
172 196 0
174 198 0
174 197 0
172 195 0
174 198 0
174 197 0
174 198 0
175 198 0
174 198 0
175 198 0
175 198 0
173 197 0
174 197 0
174 198 0
173 197 0
175 198 0
173 197 0
172 196 0
175 198 0
172 196 0
172 196 0
173 197 0
172 196 0
174 198 0
174 198 0
174 197 0
175 198 0
176 198 0
173 196 0
175 198 0
175 197 0
172 196 0
175 198 0
173 197 0
173 196 0
174 197 0
172 196 0
174 197 0
175 198 0
174 198 0
175 198 0
175 198 0
175 198 0
172 196 0
175 198 0
171 194 0
173 197 0
175 198 0
174 198 0
174 197 0
173 196 0
176 198 0
173 197 0
176 198 0
175 198 0
172 196 0
172 196 0
175 198 0
173 197 0
175 198 0
172 196 0
174 197 0
173 196 0
171 195 0
173 196 0
172 197 0
174 198 0
173 197 0
174 198 0
174 198 0
175 198 0
174 197 0
173 197 0
173 196 0
172 196 0
175 198 0
174 197 0
173 197 0
173 197 0
174 197 0
175 198 0
174 198 0
173 196 0
175 198 0
172 196 0
173 196 0
174 197 0
172 197 0
171 195 0
173 197 0
174 197 0
173 196 0
174 197 0
173 196 0
173 196 0
174 197 0
172 197 0
172 195 0
173 196 0
174 197 0
174 197 0
174 198 0
173 196 0
174 198 0
173 196 0
175 198 0
174 197 0
173 196 0
173 196 0
174 197 0
173 197 0
174 197 0
173 196 0
175 197 0
174 197 0
173 197 0
172 195 0
175 197 0
172 195 0
174 198 0
171 194 0
173 197 0
174 197 0
174 197 0
174 198 0
174 197 0
173 197 0
173 197 0
174 197 0
173 197 0
172 196 0
174 197 0
172 196 0
173 197 0
175 198 0
174 197 0
174 198 0
172 196 0
175 197 0
173 197 0
175 198 0
174 197 0
173 196 0
174 197 0
174 197 0
174 197 0
173 197 0
174 197 0
174 198 0
173 197 0
173 196 0
174 197 0
173 196 0
172 196 0
174 197 0
168 184 0
161 157 30
191 177 99
199 183 114
197 182 114
195 181 114
193 180 114
192 179 114
190 179 114
189 178 114
188 177 114
186 177 114
185 176 114
184 176 114
183 175 114
182 175 114
181 174 114
180 174 114
180 174 114
179 173 114
178 173 114
177 173 114
177 172 114
176 172 114
176 172 114
175 172 114
174 171 114
174 171 114
174 171 114
173 171 114
173 170 114
172 170 114
172 170 114
172 170 114
172 170 114
172 170 114
171 170 114
171 170 114
171 170 114
171 170 114
171 170 114
171 170 114
171 170 114
171 170 114
172 170 114
172 170 114
172 170 114
172 170 114
173 170 114
173 171 114
173 171 114
174 171 114
174 171 114
175 171 114
175 172 114
176 172 114
176 172 114
177 172 114
178 173 114
178 173 114
179 173 114
180 174 114
181 174 114
182 175 114
183 175 114
184 176 114
185 176 114
186 177 114
188 177 114
189 178 114
190 179 114
192 179 114
194 180 114
195 181 114
198 182 114
197 181 110
180 170 80
164 174 0
175 197 0
175 198 0
174 197 0
174 198 0
174 197 0
175 198 0
173 196 0
174 198 0
174 197 0
175 198 0
173 197 0
175 198 0
172 196 0
175 198 0
175 198 0
174 197 0
174 197 0
175 198 0
174 197 0
174 197 0
174 197 0
171 194 0
175 198 0
174 198 0
174 198 0
175 197 0
173 196 0
172 196 0
174 197 0
174 198 0
174 198 0
174 197 0
174 197 0
175 198 0
173 197 0
174 197 0
174 197 0
174 197 0
174 197 0
175 198 0
175 198 0
176 198 0
174 198 0
174 198 0
174 198 0
174 198 0
173 196 0
174 198 0
174 197 0
174 197 0
174 198 0
175 198 0
175 197 0
176 198 0
175 198 0
174 198 0
174 198 0
173 197 0
172 197 0
176 198 0
174 197 0
175 198 0
173 197 0
174 197 0
174 198 0
173 196 0
173 197 0
174 198 0
176 198 0
173 197 0
173 197 0
173 197 0
175 198 0
173 197 0
174 198 0
174 198 0
175 198 0
174 197 0
172 197 0
174 198 0
174 198 0
175 198 0
172 196 0
174 197 0
175 198 0
174 198 0
173 196 0
175 198 0
174 197 0
175 198 0
175 198 0
173 197 0
174 198 0
174 198 0
173 197 0
174 198 0
174 198 0
174 197 0
174 197 0
173 197 0
176 199 0
174 197 0
174 197 0
174 198 0
174 197 0
175 198 0
172 197 0
174 198 0
172 196 0
172 196 0
173 197 0
174 198 0
173 197 0
174 197 0
175 198 0
173 197 0
174 197 0
174 198 0
175 198 0
174 198 0
175 198 0
174 198 0
175 198 0
173 197 0
176 199 0
175 198 0
174 198 0
174 198 0
176 199 0
174 197 0
174 198 0
173 197 0
174 197 0
172 196 0
173 197 0
174 197 0
175 198 0
174 197 0
175 198 0
174 198 0
173 197 0
173 196 0
173 197 0
173 196 0
174 197 0
173 197 0
174 197 0
176 198 0
175 198 0
175 198 0
174 197 0
173 196 0
173 196 0
174 197 0
173 197 0
172 196 0
175 198 0
173 197 0
175 198 0
174 197 0
176 198 0
174 197 0
175 198 0
173 197 0
172 196 0
173 197 0
174 197 0
172 195 0
175 198 0
174 197 0
173 197 0
171 195 0
173 197 0
174 198 0
173 197 0
175 198 0
174 197 0
175 198 0
174 197 0
172 195 0
173 196 0
174 197 0
174 198 0
174 197 0
173 197 0
173 197 0
174 197 0
174 198 0
174 197 0
172 196 0
174 198 0
174 198 0
174 198 0
172 196 0
173 196 0
173 197 0
174 197 0
174 198 0
172 196 0
173 196 0
174 197 0
175 198 0
173 196 0
173 197 0
174 197 0
176 199 0
173 197 0
172 196 0
173 197 0
174 197 0
173 196 0
173 197 0
176 199 0
173 196 0
174 198 0
172 196 0
173 196 0
174 198 0
172 195 0
174 198 0
173 196 0
173 197 0
175 198 0
173 197 0
173 196 0
174 197 0
172 196 0
172 196 0
174 197 0
174 197 0
173 197 0
173 196 0
173 197 0
175 198 0
174 197 0
174 198 0
174 197 0
174 197 0
173 196 0
175 198 0
175 198 0
172 196 0
173 196 0
173 197 0
174 197 0
174 197 0
174 197 0
174 197 0
174 198 0
175 197 0
174 198 0
174 198 0
173 197 0
173 197 0
174 197 0
174 198 0
171 195 0
176 198 0
174 196 0
175 198 0
173 196 0
174 197 0
173 197 0
174 196 0
175 198 0
174 197 0
174 197 0
173 197 0
174 197 0
174 197 0
173 197 0
174 197 0
173 197 0
174 197 0
174 197 0
173 197 0
175 198 0
174 197 0
174 196 0
173 197 0
173 196 0
175 198 0
175 197 0
173 197 0
177 199 0
173 197 0
174 197 0
172 195 0
172 195 0
173 196 0
175 197 0
175 198 0
173 197 0
174 198 0
173 196 0
176 198 0
174 197 0
174 198 0
173 197 0
173 196 0
172 196 0
173 197 0
173 197 0
173 197 0
173 196 0
173 197 0
174 197 0
174 197 0
173 197 0
175 198 0
174 197 0
174 197 0
175 198 0
175 198 0
173 197 0
172 196 0
173 196 0
175 198 0
171 195 0
173 197 0
172 194 0
163 171 0
168 161 56
196 181 109
198 183 114
196 182 114
194 181 114
193 180 114
191 179 114
190 178 114
189 178 114
187 177 114
186 177 114
185 176 114
184 176 114
183 175 114
182 175 114
181 174 114
180 174 114
179 173 114
178 173 114
178 173 114
177 172 114
176 172 114
175 172 114
175 171 114
174 171 114
174 171 114
173 171 114
173 170 114
172 170 114
172 170 114
172 170 114
171 170 114
171 170 114
171 170 114
171 169 114
170 169 114
170 169 114
170 169 114
170 169 114
170 169 114
170 169 114
170 169 114
170 169 114
170 169 114
170 169 114
171 169 114
171 170 114
171 170 114
171 170 114
172 170 114
172 170 114
172 170 114
173 170 114
173 171 114
174 171 114
174 171 114
175 171 114
176 172 114
176 172 114
177 172 114
178 173 114
178 173 114
179 174 114
180 174 114
181 174 114
182 175 114
183 175 114
184 176 114
186 177 114
187 177 114
188 178 114
190 178 114
191 179 114
193 180 114
195 181 114
197 182 114
199 183 114
184 172 87
162 165 11
173 194 0
174 197 0
174 198 0
175 198 0
174 198 0
174 197 0
175 198 0
175 198 0
174 197 0
174 198 0
173 195 0
173 197 0
174 198 0
175 198 0
173 196 0
173 197 0
175 198 0
175 198 0
176 198 0
174 198 0
174 198 0
175 198 0
174 197 0
174 198 0
175 198 0
174 197 0
173 197 0
173 196 0
174 198 0
174 197 0
174 197 0
174 197 0
176 198 0
175 198 0
175 198 0
175 198 0
174 197 0
172 197 0
174 198 0
174 198 0
173 197 0
175 198 0
174 197 0
174 198 0
175 198 0
174 197 0
175 198 0
175 198 0
175 198 0
175 198 0
174 197 0
175 198 0
175 198 0
174 198 0
174 197 0
174 198 0
175 198 0
175 198 0
174 197 0
175 197 0
174 197 0
173 197 0
174 198 0
174 198 0
175 198 0
176 199 0
174 198 0
173 197 0
174 198 0
173 196 0
174 197 0
175 198 0
174 198 0
173 197 0
172 196 0
173 197 0
175 198 0
174 197 0
174 198 0
174 198 0
172 196 0
174 198 0
174 197 0
176 198 0
174 198 0
173 197 0
175 198 0
174 198 0
174 197 0
174 198 0
172 197 0
175 198 0
176 198 0
173 197 0
175 198 0
175 198 0
173 196 0
174 198 0
172 196 0
176 198 0
174 197 0
174 198 0
175 198 0
175 197 0
175 198 0
175 198 0
174 198 0
173 197 0
174 197 0
175 198 0
174 198 0
176 198 0
174 198 0
175 198 0
175 198 0
175 198 0
172 197 0
175 198 0
173 197 0
172 196 0
175 198 0
175 197 0
175 198 0
175 198 0
175 198 0
174 198 0
172 197 0
174 198 0
173 197 0
172 197 0
174 198 0
172 197 0
175 198 0
174 197 0
172 196 0
175 198 0
173 197 0
173 197 0
174 198 0
172 196 0
172 196 0
174 198 0
174 198 0
174 197 0
173 196 0
174 197 0
172 197 0
173 197 0
176 198 0
175 198 0
174 197 0
175 198 0
175 198 0
175 198 0
175 198 0
175 198 0
174 197 0
175 198 0
173 196 0
175 198 0
171 194 0
175 198 0
173 196 0
174 197 0
174 198 0
173 197 0
174 197 0
173 197 0
175 198 0
172 196 0
174 197 0
171 195 0
176 199 0
172 196 0
174 197 0
173 196 0
174 197 0
174 197 0
175 198 0
174 197 0
174 197 0
175 198 0
174 197 0
171 194 0
174 197 0
174 197 0
172 196 0
173 197 0
172 196 0
173 196 0
177 199 0
172 196 0
175 198 0
173 196 0
173 196 0
174 198 0
174 198 0
175 198 0
173 196 0
171 195 0
173 197 0
174 197 0
176 199 0
175 198 0
174 197 0
175 198 0
175 198 0
173 197 0
174 198 0
175 198 0
173 197 0
174 197 0
173 196 0
173 197 0
175 198 0
174 197 0
175 198 0
173 197 0
174 197 0
172 195 0
172 196 0
174 198 0
175 198 0
173 196 0
173 196 0
173 196 0
174 197 0
174 197 0
175 198 0
175 197 0
173 196 0
173 197 0
174 197 0
173 197 0
174 197 0
172 196 0
174 196 0
174 197 0
174 196 0
175 198 0
174 197 0
173 196 0
173 196 0
173 197 0
173 197 0
175 198 0
174 198 0
173 196 0
173 196 0
174 197 0
174 198 0
171 196 0
173 196 0
173 197 0
174 197 0
173 197 0
176 199 0
172 195 0
172 196 0
173 197 0
173 197 0
174 197 0
175 198 0
174 197 0
175 198 0
173 197 0
173 197 0
175 198 0
174 198 0
173 196 0
172 195 0
173 197 0
174 196 0
174 198 0
173 196 0
175 198 0
173 196 0
174 197 0
174 197 0
174 197 0
171 195 0
174 198 0
174 198 0
175 198 0
172 195 0
173 196 0
174 198 0
175 198 0
173 197 0
175 197 0
174 197 0
174 197 0
175 198 0
175 198 0
174 197 0
172 196 0
174 197 0
174 197 0
174 197 0
175 197 0
175 197 0
173 196 0
172 196 0
173 196 0
174 197 0
174 197 0
173 197 0
174 197 0
174 196 0
174 197 0
175 198 0
174 197 0
175 198 0
174 197 0
174 197 0
175 198 0
174 197 0
175 198 0
170 191 0
160 161 0
177 167 75
199 183 112
198 182 114
196 181 114
194 180 114
192 180 114
191 179 114
189 178 114
188 178 114
187 177 114
185 176 114
184 176 114
183 175 114
182 175 114
181 174 114
180 174 114
179 174 114
179 173 114
178 173 114
177 172 114
176 172 114
175 172 114
175 171 114
174 171 114
174 171 114
173 171 114
173 170 114
172 170 114
172 170 114
171 170 114
171 170 114
170 169 114
170 169 114
170 169 114
170 169 114
169 169 114
169 169 114
169 169 114
169 169 114
169 169 114
169 169 114
169 169 114
169 169 114
169 169 114
169 169 114
169 169 114
169 169 114
170 169 114
170 169 114
170 169 114
170 169 114
171 170 114
171 170 114
172 170 114
172 170 114
173 170 114
173 171 114
174 171 114
174 171 114
175 171 114
176 172 114
176 172 114
177 173 114
178 173 114
179 173 114
180 174 114
181 174 114
182 175 114
183 175 114
184 176 114
185 176 114
186 177 114
188 178 114
189 178 114
191 179 114
193 180 114
194 181 114
196 182 114
199 183 114
191 177 99
162 162 30
171 192 0
172 195 0
175 198 0
174 197 0
174 197 0
175 198 0
175 197 0
173 197 0
174 198 0
172 197 0
174 197 0
176 198 0
175 198 0
173 196 0
175 198 0
174 198 0
174 197 0
172 196 0
174 198 0
173 196 0
174 198 0
173 196 0
175 197 0
174 197 0
173 196 0
174 197 0
173 197 0
174 197 0
174 197 0
173 196 0
175 198 0
173 197 0
174 197 0
173 197 0
175 197 0
173 197 0
174 196 0
174 197 0
174 198 0
172 196 0
173 197 0
174 198 0
174 197 0
175 198 0
174 198 0
173 196 0
176 198 0
175 197 0
175 198 0
175 198 0
174 197 0
175 198 0
175 198 0
174 198 0
174 197 0
173 196 0
173 197 0
174 197 0
174 197 0
175 198 0
174 198 0
174 197 0
175 198 0
174 197 0
173 197 0
175 198 0
173 197 0
173 197 0
174 198 0
173 196 0
175 198 0
174 197 0
174 198 0
173 197 0
175 197 0
173 197 0
174 197 0
175 198 0
173 197 0
175 198 0
173 197 0
174 197 0
176 199 0
176 198 0
173 197 0
174 198 0
174 198 0
174 197 0
174 197 0
176 199 0
175 198 0
174 197 0
172 197 0
174 198 0
174 198 0
173 197 0
173 197 0
173 196 0
175 198 0
174 197 0
174 197 0
174 197 0
176 198 0
174 198 0
174 198 0
174 197 0
173 197 0
176 198 0
173 197 0
175 198 0
174 197 0
176 199 0
175 198 0
175 198 0
174 197 0
173 197 0
174 197 0
173 197 0
173 197 0
172 197 0
173 197 0
173 197 0
174 198 0
173 196 0
174 198 0
174 197 0
174 198 0
175 198 0
174 197 0
174 197 0
173 197 0
172 196 0
175 198 0
175 198 0
174 198 0
173 197 0
173 197 0
173 196 0
174 198 0
173 197 0
173 196 0
174 198 0
175 198 0
175 198 0
172 196 0
174 198 0
176 199 0
174 197 0
174 197 0
173 197 0
172 196 0
174 198 0
173 197 0
173 197 0
174 197 0
174 197 0
173 197 0
174 198 0
174 197 0
175 198 0
174 197 0
176 198 0
175 198 0
174 198 0
174 197 0
175 198 0
173 197 0
173 197 0
173 196 0
175 197 0
173 197 0
174 198 0
173 197 0
174 198 0
175 198 0
175 198 0
174 197 0
174 198 0
174 197 0
174 198 0
173 196 0
174 198 0
174 197 0
173 196 0
173 197 0
172 196 0
176 198 0
173 196 0
174 198 0
175 198 0
175 198 0
173 196 0
174 197 0
175 198 0
174 197 0
174 197 0
175 198 0
174 197 0
174 197 0
173 197 0
174 198 0
173 197 0
171 195 0
173 197 0
174 196 0
173 196 0
172 197 0
174 197 0
175 198 0
175 198 0
172 196 0
173 196 0
174 198 0
175 198 0
174 197 0
173 196 0
174 197 0
173 197 0
173 196 0
174 197 0
172 196 0
172 197 0
173 197 0
175 198 0
173 197 0
175 197 0
174 197 0
171 195 0
174 197 0
173 197 0
175 198 0
173 196 0
175 198 0
174 198 0
175 197 0
175 198 0
175 198 0
175 198 0
172 196 0
173 197 0
172 196 0
173 196 0
173 197 0
173 197 0
174 197 0
172 195 0
175 198 0
173 197 0
174 198 0
171 194 0
173 197 0
174 197 0
175 198 0
174 197 0
174 198 0
175 198 0
174 198 0
174 197 0
173 196 0
175 198 0
175 198 0
174 197 0
174 197 0
174 197 0
172 196 0
173 197 0
172 196 0
172 196 0
174 197 0
173 197 0
175 198 0
174 197 0
174 197 0
175 198 0
172 195 0
174 196 0
174 197 0
174 197 0
173 196 0
174 197 0
172 196 0
173 197 0
173 197 0
172 195 0
173 196 0
173 197 0
174 197 0
172 196 0
175 197 0
173 197 0
173 197 0
173 197 0
175 198 0
174 196 0
174 197 0
172 196 0
172 196 0
174 198 0
173 197 0
174 197 0
173 197 0
174 197 0
174 198 0
174 197 0
173 197 0
174 198 0
173 196 0
172 196 0
174 198 0
174 196 0
174 197 0
174 197 0
174 197 0
173 197 0
173 197 0
173 197 0
171 187 0
156 155 11
186 173 90
200 183 114
198 182 114
196 181 114
194 180 114
192 180 114
191 179 114
189 178 114
188 178 114
186 177 114
185 176 114
184 176 114
183 175 114
182 175 114
181 174 114
180 174 114
179 173 114
178 173 114
177 173 114
176 172 114
176 172 114
175 172 114
174 171 114
174 171 114
173 171 114
172 170 114
172 170 114
171 170 114
171 170 114
171 169 114
170 169 114
170 169 114
169 169 114
169 169 114
169 169 114
169 169 114
168 169 114
168 168 114
168 168 114
168 168 114
168 168 114
168 168 114
168 168 114
168 168 114
168 168 114
168 168 114
168 168 114
168 169 114
169 169 114
169 169 114
169 169 114
169 169 114
170 169 114
170 169 114
171 169 114
171 170 114
171 170 114
172 170 114
172 170 114
173 171 114
174 171 114
174 171 114
175 172 114
176 172 114
177 172 114
178 173 114
178 173 114
179 174 114
180 174 114
181 175 114
182 175 114
184 176 114
185 176 114
186 177 114
187 177 114
189 178 114
191 179 114
192 180 114
194 181 114
196 181 114
198 183 114
195 180 105
164 160 42
169 185 0
174 197 0
173 197 0
173 197 0
174 197 0
175 198 0
172 196 0
174 197 0
175 198 0
173 197 0
175 198 0
174 197 0
174 197 0
174 197 0
174 197 0
175 198 0
174 198 0
175 198 0
175 198 0
175 198 0
173 197 0
174 197 0
175 198 0
174 196 0
175 197 0
175 198 0
174 197 0
175 198 0
176 198 0
173 197 0
173 196 0
174 197 0
173 197 0
173 196 0
174 198 0
174 198 0
175 198 0
173 196 0
175 198 0
174 197 0
173 197 0
174 197 0
176 199 0
175 198 0
173 197 0
174 198 0
173 197 0
173 197 0
174 197 0
174 198 0
174 198 0
176 199 0
174 198 0
172 196 0
173 197 0
175 198 0
172 196 0
173 197 0
173 197 0
172 196 0
173 197 0
174 198 0
176 198 0
175 198 0
175 198 0
176 198 0
175 198 0
174 197 0
174 197 0
174 198 0
175 198 0
175 198 0
174 197 0
175 198 0
175 198 0
173 197 0
174 197 0
173 197 0
174 197 0
173 197 0
174 197 0
173 197 0
173 196 0
172 196 0
172 196 0
174 197 0
174 197 0
174 198 0
173 197 0
174 197 0
173 197 0
175 198 0
175 198 0
173 196 0
176 198 0
173 197 0
173 196 0
174 198 0
174 198 0
172 197 0
173 196 0
173 197 0
174 198 0
175 198 0
175 198 0
174 197 0
173 197 0
172 196 0
175 198 0
174 197 0
173 197 0
175 198 0
176 199 0
175 198 0
175 198 0
173 197 0
174 198 0
171 195 0
173 197 0
174 198 0
174 198 0
173 197 0
174 197 0
173 197 0
175 198 0
174 198 0
175 198 0
175 198 0
174 198 0
175 198 0
175 198 0
175 198 0
174 197 0
174 198 0
174 197 0
174 198 0
173 197 0
175 198 0
173 197 0
174 198 0
176 197 0
176 198 0
172 196 0
174 197 0
175 198 0
175 197 0
174 197 0
173 197 0
174 198 0
172 196 0
175 198 0
174 197 0
173 197 0
173 196 0
175 198 0
173 197 0
173 197 0
174 198 0
173 197 0
173 196 0
174 197 0
175 198 0
172 196 0
174 197 0
175 198 0
175 198 0
171 195 0
174 197 0
174 197 0
175 198 0
175 198 0
175 198 0
172 196 0
173 196 0
173 197 0
175 198 0
174 198 0
172 196 0
173 196 0
175 198 0
173 196 0
172 195 0
174 197 0
173 197 0
174 198 0
173 196 0
175 198 0
175 198 0
174 197 0
176 198 0
175 198 0
174 198 0
175 197 0
174 198 0
175 198 0
175 197 0
174 197 0
173 196 0
173 197 0
174 197 0
172 196 0
173 196 0
175 198 0
172 196 0
173 197 0
174 197 0
173 196 0
174 196 0
173 196 0
174 197 0
173 197 0
172 195 0
172 196 0
173 196 0
175 198 0
173 197 0
173 197 0
173 196 0
172 196 0
170 194 0
171 196 0
172 196 0
174 197 0
172 196 0
174 197 0
175 197 0
174 197 0
174 197 0
176 198 0
175 198 0
174 197 0
174 198 0
171 194 0
174 197 0
176 199 0
175 198 0
174 198 0
174 197 0
173 197 0
174 198 0
174 197 0
174 197 0
174 197 0
174 198 0
173 196 0
174 196 0
174 198 0
175 197 0
174 197 0
175 198 0
172 196 0
172 196 0
173 196 0
173 196 0
173 197 0
174 198 0
173 196 0
174 198 0
175 198 0
174 197 0
175 198 0
175 198 0
172 196 0
173 196 0
174 197 0
173 197 0
174 198 0
172 196 0
176 197 0
173 197 0
173 196 0
173 197 0
173 197 0
175 198 0
173 197 0
173 196 0
172 196 0
173 196 0
174 197 0
170 194 0
174 197 0
173 196 0
173 197 0
176 198 0
175 198 0
173 196 0
176 198 0
174 197 0
173 197 0
173 196 0
174 197 0
175 198 0
172 195 0
172 197 0
175 198 0
173 196 0
173 197 0
174 197 0
175 198 0
173 197 0
173 197 0
175 198 0
174 197 0
172 197 0
173 196 0
173 197 0
174 197 0
174 197 0
173 197 0
175 198 0
173 196 0
176 198 0
174 197 0
175 197 0
167 182 0
155 155 11
185 173 89
199 183 114
197 182 114
195 181 114
194 180 114
192 180 114
190 179 114
189 178 114
188 177 114
186 177 114
185 176 114
184 176 114
183 175 114
182 175 114
181 174 114
180 174 114
179 173 114
178 173 114
177 172 114
176 172 114
175 172 114
175 171 114
174 171 114
173 171 114
173 170 114
172 170 114
171 170 114
171 170 114
170 169 114
170 169 114
170 169 114
169 169 114
169 169 114
168 169 114
168 168 114
168 168 114
168 168 114
167 168 114
167 168 114
167 168 114
167 168 114
167 168 114
167 168 114
167 168 114
167 168 114
167 168 114
167 168 114
167 168 114
167 168 114
168 168 114
168 168 114
168 168 114
168 169 114
169 169 114
169 169 114
169 169 114
170 169 114
170 169 114
171 170 114
171 170 114
172 170 114
173 170 114
173 171 114
174 171 114
175 171 114
176 172 114
176 172 114
177 173 114
178 173 114
179 173 114
180 174 114
181 174 114
182 175 114
183 175 114
185 176 114
186 177 114
187 177 114
189 178 114
190 179 114
192 180 114
194 180 114
196 181 114
198 182 114
198 182 110
163 158 41
169 183 0
173 197 0
176 199 0
174 198 0
175 198 0
173 197 0
175 198 0
173 197 0
174 197 0
173 197 0
175 198 0
175 198 0
175 198 0
173 196 0
174 197 0
172 196 0
174 197 0
174 198 0
173 197 0
174 198 0
174 198 0
176 199 0
176 199 0
175 198 0
175 198 0
174 197 0
174 197 0
172 197 0
176 199 0
174 198 0
175 198 0
173 196 0
174 197 0
174 197 0
174 197 0
175 198 0
174 197 0
176 199 0
175 198 0
175 198 0
174 197 0
176 198 0
174 197 0
174 197 0
174 198 0
172 196 0
173 196 0
175 198 0
174 198 0
175 198 0
173 197 0
174 198 0
175 198 0
174 197 0
174 197 0
174 198 0
173 197 0
175 198 0
174 197 0
174 197 0
175 198 0
173 197 0
174 197 0
174 197 0
174 197 0
174 198 0
174 197 0
175 198 0
173 197 0
174 197 0
174 197 0
175 198 0
175 198 0
174 197 0
174 197 0
174 197 0
173 197 0
175 198 0
173 197 0
174 198 0
175 198 0
173 196 0
173 197 0
174 198 0
175 198 0
172 195 0
174 197 0
173 196 0
174 198 0
173 197 0
174 198 0
172 196 0
175 198 0
174 198 0
174 197 0
174 198 0
174 198 0
174 197 0
175 198 0
174 197 0
172 195 0
173 197 0
175 197 0
174 197 0
175 197 0
174 198 0
172 196 0
175 198 0
171 196 0
174 198 0
176 199 0
175 198 0
175 198 0
174 197 0
174 198 0
173 196 0
174 197 0
175 198 0
175 198 0
174 197 0
173 196 0
173 197 0
174 198 0
173 197 0
173 197 0
177 199 0
175 198 0
174 197 0
174 197 0
174 197 0
174 197 0
174 198 0
175 198 0
173 196 0
174 197 0
176 198 0
175 198 0
175 198 0
177 199 0
173 197 0
174 197 0
175 198 0
174 197 0
173 197 0
174 197 0
174 198 0
175 198 0
173 196 0
173 197 0
172 197 0
175 198 0
173 197 0
175 198 0
176 198 0
174 197 0
171 195 0
174 197 0
172 196 0
175 198 0
174 197 0
173 197 0
174 197 0
175 198 0
175 198 0
174 197 0
174 197 0
173 197 0
174 198 0
175 198 0
174 197 0
174 198 0
174 198 0
172 196 0
175 197 0
173 197 0
175 198 0
175 198 0
173 196 0
173 197 0
174 197 0
174 197 0
174 198 0
170 193 0
174 197 0
173 196 0
172 196 0
173 197 0
174 197 0
174 197 0
171 194 0
172 196 0
174 197 0
175 198 0
174 197 0
174 197 0
172 196 0
173 196 0
174 197 0
174 197 0
174 197 0
174 198 0
173 197 0
176 199 0
173 196 0
175 198 0
173 196 0
172 196 0
173 196 0
172 196 0
175 198 0
173 197 0
173 197 0
173 197 0
175 198 0
173 197 0
176 199 0
175 198 0
173 197 0
174 197 0
175 198 0
172 196 0
174 197 0
173 196 0
174 197 0
174 198 0
174 198 0
175 198 0
174 197 0
174 197 0
174 197 0
173 197 0
174 198 0
174 197 0
173 197 0
175 198 0
174 197 0
172 195 0
174 197 0
174 197 0
171 195 0
172 195 0
174 197 0
172 196 0
172 195 0
174 197 0
173 197 0
174 196 0
174 198 0
173 196 0
175 198 0
174 198 0
174 198 0
174 198 0
173 196 0
174 197 0
173 196 0
173 197 0
172 196 0
174 197 0
171 195 0
175 198 0
175 198 0
174 197 0
173 197 0
174 197 0
173 196 0
173 196 0
173 196 0
175 198 0
174 197 0
173 196 0
173 196 0
174 197 0
173 197 0
175 198 0
174 197 0
173 196 0
172 196 0
174 197 0
173 196 0
173 197 0
175 198 0
173 196 0
175 197 0
172 195 0
173 197 0
175 197 0
173 196 0
173 196 0
176 198 0
174 197 0
173 197 0
173 196 0
174 196 0
172 197 0
172 196 0
174 197 0
174 197 0
175 198 0
173 195 0
173 196 0
172 196 0
172 196 0
173 196 0
174 197 0
175 198 0
173 196 0
174 197 0
173 197 0
173 196 0
176 199 0
175 197 0
165 178 0
157 154 11
189 175 95
199 183 114
197 182 114
195 181 114
194 180 114
192 179 114
190 179 114
189 178 114
188 177 114
186 177 114
185 176 114
184 176 114
183 175 114
182 175 114
181 174 114
180 174 114
179 173 114
178 173 114
177 172 114
176 172 114
175 172 114
174 171 114
174 171 114
173 171 114
172 170 114
172 170 114
171 170 114
171 169 114
170 169 114
170 169 114
169 169 114
169 169 114
168 168 114
168 168 114
168 168 114
167 168 114
167 168 114
167 168 114
167 168 114
166 168 114
166 168 114
166 168 114
166 167 114
166 167 114
166 167 114
166 167 114
166 168 114
166 168 114
166 168 114
167 168 114
167 168 114
167 168 114
167 168 114
168 168 114
168 168 114
168 168 114
169 169 114
169 169 114
170 169 114
170 169 114
170 169 114
171 170 114
172 170 114
172 170 114
173 171 114
174 171 114
174 171 114
175 172 114
176 172 114
177 172 114
178 173 114
179 173 114
180 174 114
181 174 114
182 175 114
183 175 114
184 176 114
186 177 114
187 177 114
189 178 114
190 179 114
192 179 114
194 180 114
196 181 114
198 182 114
198 182 111
164 159 45
168 184 0
174 197 0
174 198 0
175 198 0
173 196 0
175 198 0
174 198 0
175 198 0
174 197 0
173 197 0
173 196 0
173 197 0
174 197 0
174 197 0
174 197 0
173 196 0
174 198 0
175 198 0
173 197 0
172 196 0
175 198 0
175 198 0
174 197 0
174 197 0
173 197 0
173 197 0
173 197 0
175 198 0
174 197 0
174 198 0
175 198 0
173 196 0
174 198 0
173 197 0
172 196 0
174 197 0
173 196 0
175 198 0
176 198 0
175 198 0
175 198 0
175 198 0
173 197 0
173 197 0
173 197 0
173 197 0
172 197 0
176 199 0
174 198 0
175 198 0
174 198 0
173 197 0
175 198 0
174 197 0
173 197 0
176 199 0
174 197 0
173 197 0
174 198 0
175 198 0
174 198 0
174 197 0
174 197 0
175 198 0
173 197 0
176 199 0
174 197 0
175 198 0
173 197 0
173 197 0
174 197 0
173 197 0
173 197 0
174 197 0
174 197 0
174 198 0
174 198 0
174 198 0
175 198 0
175 198 0
175 198 0
173 197 0
174 197 0
174 198 0
175 198 0
174 197 0
173 197 0
173 197 0
173 197 0
174 197 0
174 198 0
174 197 0
172 197 0
175 198 0
175 198 0
174 198 0
174 197 0
173 196 0
173 197 0
174 197 0
175 198 0
172 197 0
174 198 0
175 198 0
174 198 0
174 197 0
173 196 0
173 196 0
176 199 0
175 198 0
172 196 0
173 197 0
173 197 0
174 196 0
172 195 0
173 197 0
174 197 0
173 197 0
174 197 0
174 197 0
174 197 0
174 198 0
173 196 0
175 198 0
173 196 0
173 196 0
174 198 0
173 197 0
175 198 0
173 197 0
174 198 0
174 197 0
171 195 0
176 198 0
174 197 0
176 199 0
173 197 0
175 198 0
175 198 0
174 197 0
175 198 0
173 197 0
174 197 0
175 198 0
174 198 0
173 197 0
173 196 0
173 197 0
176 198 0
175 198 0
174 198 0
174 198 0
173 196 0
174 198 0
175 198 0
176 198 0
172 196 0
175 198 0
174 197 0
174 198 0
177 199 0
175 198 0
175 198 0
174 197 0
174 197 0
175 198 0
177 198 0
173 196 0
174 197 0
174 198 0
173 196 0
175 198 0
173 197 0
174 198 0
174 197 0
174 197 0
173 197 0
174 197 0
174 197 0
173 197 0
175 198 0
174 197 0
172 196 0
173 197 0
176 199 0
174 198 0
173 196 0
174 197 0
173 197 0
173 197 0
175 198 0
175 198 0
174 197 0
173 197 0
174 197 0
173 197 0
173 196 0
175 198 0
174 197 0
174 198 0
171 195 0
173 196 0
172 196 0
174 198 0
174 198 0
171 195 0
177 199 0
174 197 0
173 197 0
175 198 0
175 198 0
174 198 0
175 198 0
173 197 0
174 196 0
174 197 0
174 197 0
174 197 0
174 196 0
173 197 0
173 196 0
174 197 0
174 198 0
172 196 0
174 196 0
174 197 0
174 197 0
173 196 0
175 198 0
173 196 0
175 198 0
173 196 0
173 197 0
174 197 0
173 196 0
174 197 0
173 196 0
174 197 0
174 198 0
173 196 0
174 197 0
173 197 0
172 196 0
173 197 0
173 196 0
173 197 0
172 197 0
173 197 0
172 195 0
173 197 0
175 198 0
172 196 0
175 197 0
173 196 0
174 197 0
174 198 0
172 194 0
174 197 0
172 196 0
175 198 0
172 195 0
173 197 0
172 196 0
173 197 0
172 195 0
173 197 0
174 197 0
174 198 0
174 197 0
173 195 0
174 198 0
175 198 0
172 196 0
171 195 0
176 198 0
175 198 0
173 196 0
173 196 0
172 196 0
173 197 0
174 197 0
172 197 0
175 198 0
171 195 0
176 198 0
175 197 0
174 197 0
173 197 0
174 197 0
174 196 0
173 196 0
173 197 0
173 196 0
174 197 0
173 197 0
174 197 0
175 198 0
175 198 0
170 195 0
172 196 0
173 197 0
171 194 0
173 196 0
173 197 0
172 196 0
173 197 0
173 197 0
174 198 0
173 197 0
172 196 0
163 176 0
157 154 11
191 177 99
199 183 114
197 182 114
195 181 114
194 180 114
192 180 114
191 179 114
189 178 114
188 177 114
186 177 114
185 176 114
184 176 114
183 175 114
182 175 114
181 174 114
179 174 114
179 173 114
178 173 114
177 172 114
176 172 114
175 172 114
174 171 114
173 171 114
173 171 114
172 170 114
171 170 114
171 170 114
170 169 114
170 169 114
169 169 114
169 169 114
168 168 114
168 168 114
168 168 114
167 168 114
167 168 114
167 168 114
166 168 114
166 167 114
166 167 114
166 167 114
166 167 114
165 167 114
165 167 114
165 167 114
165 167 114
165 167 114
165 167 114
166 167 114
166 167 114
166 167 114
166 167 114
166 168 114
166 168 114
167 168 114
167 168 114
167 168 114
168 168 114
168 168 114
169 169 114
169 169 114
170 169 114
170 169 114
171 170 114
171 170 114
172 170 114
173 170 114
174 171 114
174 171 114
175 172 114
176 172 114
177 172 114
178 173 114
179 173 114
180 174 114
181 174 114
182 175 114
183 175 114
185 176 114
186 177 114
187 177 114
189 178 114
190 179 114
192 179 114
194 180 114
196 181 114
198 183 114
197 181 109
165 160 45
169 184 0
173 197 0
174 197 0
173 196 0
173 197 0
174 197 0
175 198 0
174 198 0
173 196 0
174 197 0
174 197 0
174 198 0
173 197 0
173 197 0
175 198 0
174 198 0
174 197 0
174 197 0
173 196 0
173 197 0
174 197 0
176 198 0
174 197 0
173 197 0
174 197 0
174 198 0
173 197 0
174 198 0
173 197 0
174 197 0
175 198 0
175 198 0
173 197 0
174 197 0
174 197 0
173 197 0
174 198 0
173 197 0
175 198 0
174 197 0
174 197 0
173 197 0
174 198 0
174 197 0
175 198 0
174 197 0
176 198 0
176 198 0
174 198 0
174 197 0
174 198 0
173 197 0
174 197 0
174 197 0
175 198 0
174 198 0
175 198 0
174 198 0
173 197 0
175 198 0
175 198 0
174 197 0
173 197 0
174 197 0
175 198 0
175 198 0
174 198 0
175 198 0
175 198 0
172 197 0
174 197 0
174 197 0
174 197 0
174 198 0
175 198 0
174 197 0
174 198 0
174 197 0
174 197 0
174 198 0
175 198 0
173 196 0
173 197 0
173 197 0
173 197 0
175 198 0
173 197 0
173 197 0
174 197 0
175 198 0
175 198 0
175 197 0
175 198 0
175 198 0
175 198 0
173 197 0
173 196 0
173 197 0
174 197 0
173 196 0
175 198 0
174 198 0
175 198 0
175 198 0
174 198 0
175 198 0
173 196 0
173 197 0
174 197 0
174 197 0
173 197 0
173 196 0
173 197 0
176 198 0
173 196 0
174 197 0
173 197 0
175 198 0
174 198 0
173 197 0
173 196 0
174 197 0
175 198 0
176 198 0
176 199 0
175 198 0
173 196 0
175 198 0
173 196 0
173 196 0
174 198 0
175 198 0
175 197 0
175 198 0
174 197 0
175 198 0
172 196 0
173 197 0
174 198 0
173 196 0
172 196 0
172 196 0
174 197 0
174 197 0
173 196 0
174 197 0
173 197 0
173 196 0
174 197 0
174 197 0
173 197 0
174 197 0
174 197 0
175 198 0
173 197 0
173 197 0
173 196 0
175 198 0
173 197 0
172 196 0
175 198 0
173 197 0
174 198 0
173 197 0
174 197 0
174 197 0
175 198 0
172 195 0
174 198 0
172 196 0
174 198 0
176 199 0
174 198 0
175 198 0
175 198 0
173 197 0
173 197 0
175 198 0
174 196 0
173 196 0
173 196 0
175 198 0
175 198 0
174 197 0
173 197 0
174 197 0
172 196 0
173 197 0
171 195 0
173 196 0
175 198 0
171 196 0
174 198 0
174 197 0
174 198 0
172 196 0
173 196 0
174 197 0
174 197 0
174 197 0
174 197 0
173 197 0
174 197 0
174 198 0
172 196 0
174 197 0
175 198 0
174 197 0
173 196 0
174 197 0
173 197 0
170 194 0
174 197 0
173 196 0
174 197 0
172 196 0
174 197 0
174 198 0
174 197 0
172 196 0
175 198 0
173 196 0
174 197 0
175 198 0
175 198 0
175 198 0
174 197 0
172 195 0
174 197 0
173 197 0
172 197 0
171 195 0
173 197 0
174 198 0
172 196 0
173 197 0
175 198 0
173 197 0
173 197 0
171 194 0
174 196 0
175 198 0
175 198 0
172 195 0
173 196 0
174 197 0
176 198 0
175 197 0
174 197 0
173 197 0
174 197 0
173 197 0
175 198 0
175 198 0
174 197 0
172 196 0
174 197 0
175 198 0
174 197 0
175 198 0
174 197 0
174 197 0
172 195 0
174 197 0
172 196 0
174 197 0
171 195 0
173 196 0
173 196 0
173 197 0
173 195 0
172 195 0
173 196 0
173 197 0
173 196 0
174 197 0
173 196 0
173 196 0
172 196 0
173 196 0
173 196 0
173 196 0
173 197 0
172 196 0
173 197 0
174 196 0
174 197 0
175 198 0
174 197 0
172 195 0
173 197 0
174 197 0
173 197 0
173 196 0
173 197 0
172 195 0
173 197 0
172 194 0
173 196 0
172 196 0
175 198 0
174 197 0
174 197 0
174 197 0
173 196 0
174 197 0
175 197 0
174 197 0
161 169 0
156 153 0
188 175 94
199 183 114
197 182 114
195 181 114
194 180 114
192 180 114
190 179 114
189 178 114
188 177 114
186 177 114
185 176 114
184 176 114
183 175 114
182 175 114
181 174 114
179 174 114
179 173 114
178 173 114
177 172 114
176 172 114
175 171 114
174 171 114
173 171 114
173 170 114
172 170 114
171 170 114
171 170 114
170 169 114
170 169 114
169 169 114
169 169 114
168 168 114
168 168 114
167 168 114
167 168 114
166 168 114
166 168 114
166 167 114
166 167 114
165 167 114
165 167 114
165 167 114
165 167 114
165 167 114
165 167 114
165 167 114
165 167 114
165 167 114
165 167 114
165 167 114
165 167 114
165 167 114
165 167 114
165 167 114
166 167 114
166 167 114
166 168 114
167 168 114
167 168 114
167 168 114
168 168 114
168 168 114
169 169 114
169 169 114
170 169 114
171 170 114
171 170 114
172 170 114
173 170 114
173 171 114
174 171 114
175 172 114
176 172 114
177 172 114
178 173 114
179 173 114
180 174 114
181 174 114
182 175 114
183 175 114
185 176 114
186 177 114
187 177 114
189 178 114
190 179 114
192 180 114
194 180 114
196 181 114
198 182 114
197 181 109
160 156 32
168 184 0
175 197 0
175 197 0
173 197 0
174 198 0
173 197 0
176 199 0
175 198 0
175 197 0
174 198 0
175 197 0
175 197 0
175 198 0
176 198 0
172 196 0
174 197 0
174 197 0
174 197 0
174 197 0
172 196 0
173 197 0
176 199 0
174 198 0
174 198 0
174 198 0
175 197 0
173 197 0
174 197 0
175 198 0
175 198 0
173 197 0
175 198 0
175 198 0
173 197 0
173 197 0
175 198 0
174 198 0
175 198 0
175 198 0
174 197 0
173 197 0
174 198 0
174 197 0
175 197 0
173 197 0
173 197 0
174 198 0
174 197 0
174 198 0
177 199 0
175 198 0
175 198 0
174 198 0
174 197 0
174 198 0
174 197 0
173 197 0
175 198 0
174 197 0
175 198 0
174 197 0
175 198 0
174 198 0
174 197 0
173 197 0
175 198 0
174 197 0
173 197 0
173 197 0
175 198 0
174 197 0
174 198 0
174 197 0
175 198 0
173 197 0
175 198 0
175 198 0
173 197 0
174 197 0
174 198 0
173 196 0
175 198 0
174 197 0
173 196 0
175 198 0
174 197 0
174 198 0
172 196 0
173 197 0
176 199 0
176 198 0
175 198 0
175 198 0
173 197 0
173 197 0
174 198 0
173 197 0
176 198 0
174 197 0
174 197 0
174 197 0
172 196 0
173 197 0
174 197 0
175 198 0
175 198 0
175 198 0
175 198 0
173 196 0
173 197 0
173 197 0
173 197 0
174 198 0
174 197 0
173 197 0
174 198 0
173 197 0
171 195 0
176 199 0
171 195 0
175 198 0
175 198 0
174 197 0
173 196 0
175 198 0
175 198 0
175 198 0
173 197 0
175 198 0
173 197 0
174 197 0
174 198 0
174 197 0
176 198 0
175 198 0
172 196 0
174 197 0
175 198 0
174 197 0
173 197 0
174 197 0
174 197 0
173 196 0
174 197 0
174 197 0
175 198 0
175 198 0
174 197 0
175 198 0
174 197 0
173 197 0
176 199 0
175 197 0
174 198 0
173 196 0
173 197 0
173 197 0
174 197 0
174 197 0
173 197 0
174 197 0
174 197 0
173 197 0
174 197 0
173 196 0
172 196 0
174 197 0
173 196 0
173 197 0
173 197 0
173 197 0
175 198 0
175 198 0
174 198 0
173 197 0
174 197 0
174 198 0
174 197 0
171 194 0
173 196 0
175 198 0
173 196 0
174 197 0
174 197 0
173 196 0
174 198 0
174 197 0
173 196 0
172 196 0
175 198 0
174 197 0
174 197 0
173 197 0
173 197 0
173 197 0
174 197 0
173 197 0
172 196 0
173 197 0
173 196 0
174 197 0
174 197 0
173 197 0
174 197 0
174 197 0
175 198 0
172 195 0
172 195 0
173 197 0
172 195 0
174 197 0
172 196 0
175 198 0
174 197 0
175 198 0
174 197 0
174 197 0
172 195 0
173 197 0
175 198 0
171 195 0
174 197 0
173 197 0
173 196 0
173 196 0
174 198 0
173 197 0
173 197 0
172 196 0
174 198 0
174 197 0
174 198 0
175 198 0
171 196 0
175 197 0
173 196 0
173 197 0
173 197 0
173 197 0
175 198 0
172 195 0
173 197 0
172 197 0
174 197 0
174 197 0
173 197 0
171 195 0
174 197 0
173 197 0
174 197 0
173 197 0
173 196 0
174 198 0
173 195 0
175 198 0
174 196 0
173 197 0
173 197 0
173 197 0
172 195 0
174 197 0
174 197 0
173 197 0
173 197 0
173 196 0
172 195 0
173 196 0
175 198 0
176 198 0
174 197 0
175 197 0
173 197 0
172 194 0
174 198 0
174 196 0
173 197 0
173 197 0
175 197 0
174 197 0
174 196 0
172 196 0
175 198 0
173 196 0
175 198 0
173 196 0
172 196 0
174 197 0
172 196 0
172 196 0
175 198 0
173 196 0
173 196 0
172 196 0
174 197 0
173 196 0
176 198 0
174 197 0
173 197 0
174 198 0
174 197 0
174 197 0
174 197 0
175 198 0
173 197 0
173 197 0
175 198 0
166 180 0
156 153 0
186 173 90
200 183 114
198 182 114
196 181 114
194 180 114
192 180 114
191 179 114
189 178 114
188 178 114
187 177 114
185 176 114
184 176 114
183 175 114
182 175 114
181 174 114
180 174 114
179 173 114
178 173 114
177 172 114
176 172 114
175 172 114
174 171 114
173 171 114
173 170 114
172 170 114
171 170 114
171 170 114
170 169 114
169 169 114
169 169 114
168 168 114
168 168 114
167 168 114
167 168 114
167 168 114
166 168 114
166 167 114
166 167 114
165 167 114
165 167 114
165 167 114
165 167 114
164 167 114
164 167 114
164 167 114
164 167 114
164 167 114
164 167 114
164 167 114
164 167 114
164 167 114
164 167 114
164 167 114
165 167 114
165 167 114
165 167 114
165 167 114
166 167 114
166 167 114
166 168 114
167 168 114
167 168 114
168 168 114
168 168 114
169 169 114
169 169 114
170 169 114
170 169 114
171 170 114
172 170 114
173 170 114
173 171 114
174 171 114
175 172 114
176 172 114
177 172 114
178 173 114
179 173 114
180 174 114
181 174 114
182 175 114
183 175 114
185 176 114
186 177 114
187 177 114
189 178 114
190 179 114
192 180 114
194 181 114
196 181 114
199 183 114
192 178 102
162 157 34
169 185 0
171 194 0
175 198 0
174 197 0
175 198 0
175 198 0
173 197 0
173 197 0
175 198 0
173 197 0
175 198 0
174 197 0
174 197 0
174 196 0
175 197 0
174 198 0
176 198 0
174 197 0
173 196 0
176 199 0
173 196 0
173 197 0
174 197 0
174 198 0
173 197 0
173 197 0
173 197 0
175 198 0
174 198 0
173 197 0
175 198 0
175 198 0
173 197 0
174 198 0
174 196 0
176 198 0
174 197 0
173 197 0
174 197 0
175 198 0
174 198 0
173 197 0
174 198 0
173 197 0
174 198 0
175 198 0
175 198 0
174 198 0
174 197 0
174 198 0
173 197 0
175 198 0
174 197 0
174 197 0
175 198 0
173 197 0
174 197 0
174 197 0
174 197 0
174 197 0
174 197 0
174 198 0
173 197 0
175 198 0
174 197 0
176 198 0
175 198 0
175 198 0
174 197 0
174 197 0
175 198 0
175 198 0
173 197 0
175 198 0
175 198 0
176 199 0
175 198 0
174 198 0
173 197 0
174 197 0
172 196 0
172 196 0
174 197 0
174 198 0
177 199 0
172 196 0
175 198 0
174 197 0
173 196 0
175 198 0
175 198 0
175 198 0
173 197 0
172 196 0
173 196 0
173 197 0
174 198 0
176 199 0
174 198 0
173 197 0
174 197 0
174 198 0
174 198 0
174 198 0
175 198 0
171 195 0
173 196 0
174 198 0
173 196 0
174 197 0
176 199 0
174 197 0
174 197 0
172 196 0
173 197 0
174 197 0
173 196 0
174 198 0
174 197 0
173 197 0
173 196 0
174 197 0
173 197 0
174 197 0
173 197 0
175 198 0
174 197 0
172 196 0
173 197 0
172 196 0
175 198 0
173 196 0
174 197 0
175 198 0
175 198 0
171 195 0
173 196 0
174 197 0
174 197 0
174 197 0
173 197 0
174 198 0
175 198 0
173 196 0
174 197 0
176 199 0
173 197 0
175 198 0
174 198 0
173 197 0
174 198 0
174 198 0
174 197 0
174 198 0
171 195 0
174 197 0
174 198 0
175 198 0
173 196 0
176 199 0
170 194 0
175 198 0
175 198 0
172 195 0
173 197 0
173 197 0
174 197 0
174 197 0
174 197 0
175 198 0
175 198 0
173 196 0
172 196 0
174 196 0
174 197 0
174 197 0
173 197 0
174 197 0
173 197 0
174 197 0
174 197 0
173 197 0
173 197 0
175 198 0
174 198 0
172 196 0
175 198 0
173 196 0
174 197 0
173 196 0
176 198 0
174 197 0
175 198 0
174 197 0
174 197 0
174 197 0
175 198 0
172 195 0
174 198 0
173 197 0
174 197 0
175 198 0
174 197 0
171 195 0
174 197 0
173 197 0
175 198 0
175 198 0
174 197 0
174 198 0
172 196 0
174 197 0
174 197 0
172 196 0
173 197 0
175 198 0
173 197 0
176 199 0
174 197 0
174 197 0
172 196 0
173 197 0
172 195 0
173 197 0
174 197 0
174 198 0
173 196 0
176 199 0
173 197 0
172 196 0
175 197 0
175 198 0
172 196 0
173 197 0
174 197 0
174 197 0
172 195 0
174 197 0
174 197 0
173 197 0
173 196 0
174 197 0
173 197 0
173 197 0
173 197 0
174 197 0
174 197 0
173 196 0
173 197 0
172 196 0
170 194 0
172 197 0
172 196 0
172 196 0
173 196 0
174 197 0
175 197 0
173 197 0
174 196 0
173 197 0
173 196 0
175 197 0
172 196 0
172 196 0
171 195 0
173 196 0
173 196 0
173 197 0
174 197 0
172 195 0
174 196 0
172 195 0
174 197 0
174 196 0
170 193 0
172 196 0
171 193 0
172 195 0
175 198 0
174 197 0
172 195 0
171 195 0
172 196 0
174 197 0
174 197 0
176 197 0
174 198 0
174 197 0
175 197 0
174 197 0
173 196 0
175 198 0
171 195 0
173 197 0
174 196 0
174 197 0
175 198 0
173 196 0
175 198 0
174 198 0
173 196 0
174 197 0
174 197 0
171 195 0
165 179 0
155 153 0
176 167 74
200 183 114
198 182 114
196 181 114
194 181 114
193 180 114
191 179 114
189 178 114
188 178 114
187 177 114
186 176 114
184 176 114
183 175 114
182 175 114
181 174 114
180 174 114
179 173 114
178 173 114
177 172 114
176 172 114
175 172 114
174 171 114
174 171 114
173 171 114
172 170 114
171 170 114
171 170 114
170 169 114
169 169 114
169 169 114
168 168 114
168 168 114
167 168 114
167 168 114
166 168 114
166 167 114
166 167 114
165 167 114
165 167 114
165 167 114
164 167 114
164 167 114
164 167 114
164 166 114
164 166 114
164 166 114
164 166 114
164 166 114
164 166 114
164 166 114
164 166 114
164 166 114
164 166 114
164 167 114
164 167 114
164 167 114
165 167 114
165 167 114
165 167 114
165 167 114
166 167 114
166 168 114
167 168 114
167 168 114
168 168 114
168 168 114
169 169 114
169 169 114
170 169 114
170 169 114
171 170 114
172 170 114
173 170 114
173 171 114
174 171 114
175 172 114
176 172 114
177 172 114
178 173 114
179 173 114
180 174 114
181 174 114
182 175 114
184 176 114
185 176 114
186 177 114
188 177 114
189 178 114
191 179 114
193 180 114
195 181 114
197 182 114
199 183 114
192 177 100
159 156 28
171 188 0
172 196 0
176 199 0
174 196 0
172 196 0
174 197 0
173 197 0
175 198 0
174 198 0
175 198 0
175 198 0
174 197 0
175 197 0
174 197 0
175 198 0
174 197 0
174 197 0
173 196 0
176 198 0
173 197 0
175 198 0
173 197 0
172 196 0
176 199 0
173 197 0
174 197 0
172 196 0
174 197 0
174 197 0
175 198 0
174 197 0
175 198 0
175 198 0
174 198 0
174 197 0
175 198 0
174 197 0
174 197 0
175 198 0
175 198 0
175 198 0
175 198 0
174 197 0
174 197 0
175 198 0
174 197 0
175 198 0
173 197 0
176 199 0
173 197 0
174 197 0
174 197 0
174 197 0
174 197 0
176 199 0
173 197 0
175 198 0
175 198 0
173 196 0
174 198 0
174 197 0
175 198 0
175 198 0
173 197 0
175 198 0
176 199 0
173 196 0
175 198 0
173 197 0
175 198 0
175 198 0
173 197 0
173 197 0
174 197 0
175 198 0
174 197 0
174 198 0
174 198 0
172 195 0
174 197 0
176 198 0
174 198 0
174 197 0
173 197 0
177 199 0
172 195 0
174 197 0
174 197 0
174 198 0
174 198 0
173 197 0
173 197 0
174 197 0
174 198 0
173 196 0
172 196 0
174 197 0
173 197 0
174 197 0
174 197 0
173 197 0
172 196 0
174 198 0
175 198 0
174 197 0
172 196 0
174 197 0
174 197 0
172 196 0
174 198 0
174 198 0
175 198 0
173 197 0
174 197 0
174 197 0
175 198 0
174 198 0
173 197 0
173 197 0
173 197 0
174 198 0
173 196 0
173 197 0
173 196 0
175 198 0
176 199 0
174 198 0
172 195 0
174 197 0
175 197 0
175 198 0
174 197 0
172 195 0
174 197 0
174 197 0
176 198 0
175 198 0
173 197 0
174 197 0
173 196 0
175 197 0
174 197 0
174 197 0
174 197 0
174 197 0
172 196 0
175 198 0
172 196 0
174 197 0
175 198 0
172 196 0
173 196 0
175 198 0
173 197 0
173 196 0
173 196 0
174 197 0
176 198 0
172 196 0
175 198 0
173 197 0
174 197 0
174 198 0
173 197 0
176 198 0
175 198 0
172 196 0
174 197 0
172 196 0
174 197 0
174 197 0
173 196 0
173 197 0
174 197 0
174 197 0
174 197 0
174 198 0
174 197 0
174 197 0
174 197 0
175 197 0
174 197 0
173 197 0
176 198 0
175 198 0
173 197 0
173 197 0
170 194 0
175 198 0
173 197 0
174 196 0
174 197 0
174 197 0
173 196 0
174 198 0
174 197 0
175 198 0
174 197 0
174 198 0
172 195 0
174 197 0
175 198 0
174 197 0
174 197 0
173 196 0
173 197 0
172 195 0
175 197 0
173 197 0
173 197 0
172 196 0
174 197 0
173 197 0
174 197 0
174 197 0
173 196 0
172 195 0
173 197 0
174 198 0
174 198 0
171 196 0
171 195 0
172 196 0
175 198 0
175 197 0
174 197 0
173 196 0
173 197 0
173 196 0
174 197 0
170 194 0
175 198 0
173 197 0
172 196 0
173 197 0
175 198 0
173 196 0
176 197 0
170 194 0
173 197 0
173 197 0
174 198 0
173 197 0
174 197 0
174 197 0
172 196 0
174 196 0
173 196 0
175 198 0
172 196 0
173 196 0
174 198 0
174 197 0
172 195 0
173 196 0
176 198 0
172 196 0
172 195 0
175 198 0
173 197 0
174 197 0
174 197 0
173 196 0
174 197 0
173 197 0
175 198 0
173 196 0
172 196 0
171 194 0
174 198 0
173 196 0
173 197 0
176 199 0
174 197 0
173 197 0
175 198 0
174 197 0
175 198 0
174 198 0
172 196 0
173 196 0
175 197 0
173 197 0
174 198 0
174 197 0
174 196 0
173 196 0
173 196 0
175 198 0
174 197 0
174 197 0
171 194 0
174 197 0
173 197 0
176 198 0
174 198 0
172 196 0
173 196 0
174 197 0
174 197 0
174 197 0
175 198 0
169 186 0
156 155 0
171 163 61
199 183 112
198 183 114
196 182 114
195 181 114
193 180 114
191 179 114
190 179 114
188 178 114
187 177 114
186 177 114
185 176 114
183 175 114
182 175 114
181 174 114
180 174 114
179 173 114
178 173 114
177 173 114
176 172 114
175 172 114
174 171 114
174 171 114
173 171 114
172 170 114
171 170 114
171 170 114
170 169 114
169 169 114
169 169 114
168 168 114
168 168 114
167 168 114
167 168 114
166 168 114
166 167 114
165 167 114
165 167 114
165 167 114
164 167 114
164 167 114
164 167 114
164 166 114
164 166 114
163 166 114
163 166 114
163 166 114
163 166 114
163 166 114
163 166 114
163 166 114
163 166 114
163 166 114
163 166 114
163 166 114
164 166 114
164 166 114
164 167 114
164 167 114
165 167 114
165 167 114
165 167 114
166 167 114
166 167 114
166 168 114
167 168 114
167 168 114
168 168 114
169 169 114
169 169 114
170 169 114
171 169 114
171 170 114
172 170 114
173 170 114
174 171 114
174 171 114
175 172 114
176 172 114
177 172 114
178 173 114
179 173 114
180 174 114
181 174 114
183 175 114
184 176 114
185 176 114
187 177 114
188 178 114
190 178 114
191 179 114
193 180 114
195 181 114
197 182 114
199 183 114
190 176 95
158 157 0
174 195 0
174 198 0
172 196 0
174 197 0
175 197 0
173 197 0
175 198 0
174 197 0
174 197 0
173 197 0
174 197 0
173 197 0
174 198 0
173 197 0
174 197 0
173 196 0
174 197 0
174 198 0
176 198 0
172 196 0
176 199 0
173 196 0
174 197 0
173 197 0
174 197 0
174 197 0
175 197 0
173 196 0
174 197 0
174 198 0
176 199 0
176 199 0
174 197 0
174 197 0
174 197 0
174 197 0
173 197 0
175 198 0
175 198 0
174 197 0
175 198 0
173 197 0
174 198 0
177 199 0
174 197 0
174 197 0
173 196 0
174 198 0
175 198 0
172 197 0
174 197 0
173 197 0
174 197 0
175 198 0
173 196 0
174 198 0
175 198 0
174 197 0
175 198 0
176 198 0
174 197 0
173 197 0
175 198 0
174 197 0
172 196 0
173 197 0
174 198 0
174 198 0
173 196 0
173 197 0
176 199 0
174 197 0
176 199 0
173 197 0
175 198 0
173 197 0
174 197 0
175 198 0
174 197 0
173 197 0
174 197 0
172 197 0
173 196 0
174 198 0
173 197 0
175 198 0
174 197 0
175 198 0
174 198 0
175 198 0
174 197 0
175 198 0
175 198 0
174 196 0
173 197 0
175 198 0
175 198 0
174 197 0
173 197 0
175 198 0
173 197 0
175 197 0
175 198 0
172 195 0
175 198 0
174 197 0
173 197 0
174 197 0
174 198 0
173 197 0
175 198 0
174 197 0
175 198 0
172 195 0
174 197 0
174 197 0
173 197 0
174 197 0
173 196 0
172 195 0
174 198 0
175 198 0
173 196 0
174 197 0
171 195 0
171 196 0
175 198 0
175 198 0
173 197 0
174 198 0
172 196 0
174 198 0
174 198 0
175 198 0
175 198 0
172 196 0
175 197 0
175 198 0
171 196 0
173 196 0
174 197 0
173 197 0
173 197 0
175 198 0
173 197 0
174 197 0
172 195 0
174 197 0
175 198 0
173 197 0
175 198 0
174 198 0
175 197 0
173 197 0
173 196 0
174 197 0
175 198 0
175 198 0
173 197 0
174 198 0
175 198 0
172 197 0
174 197 0
173 195 0
174 197 0
170 194 0
173 197 0
175 197 0
175 197 0
175 198 0
173 197 0
173 196 0
173 196 0
172 196 0
175 198 0
175 197 0
172 195 0
173 197 0
174 197 0
174 197 0
174 197 0
174 197 0
174 197 0
172 195 0
174 197 0
173 196 0
175 198 0
174 197 0
174 198 0
172 196 0
175 198 0
174 198 0
175 198 0
173 197 0
173 196 0
175 198 0
171 196 0
173 197 0
174 197 0
174 197 0
173 196 0
174 197 0
174 197 0
175 198 0
174 197 0
171 195 0
175 197 0
173 197 0
174 197 0
174 197 0
173 197 0
174 197 0
174 197 0
174 198 0
171 194 0
173 197 0
174 197 0
173 196 0
173 196 0
174 198 0
176 199 0
172 196 0
174 197 0
174 198 0
173 197 0
172 195 0
173 196 0
172 195 0
173 197 0
172 196 0
173 196 0
175 198 0
173 196 0
172 196 0
172 196 0
172 195 0
174 197 0
172 196 0
173 196 0
176 198 0
173 197 0
172 194 0
172 196 0
174 197 0
173 196 0
175 198 0
175 198 0
175 198 0
174 197 0
171 195 0
174 198 0
173 196 0
172 195 0
174 198 0
173 196 0
173 197 0
174 197 0
175 196 0
174 197 0
173 196 0
172 195 0
173 197 0
174 197 0
174 197 0
173 196 0
173 197 0
171 195 0
173 196 0
173 197 0
173 196 0
173 197 0
173 196 0
171 196 0
173 196 0
173 197 0
173 196 0
173 196 0
173 196 0
173 194 0
174 198 0
173 197 0
172 196 0
175 198 0
174 197 0
174 197 0
175 198 0
174 198 0
176 198 0
175 198 0
174 197 0
173 196 0
172 195 0
173 197 0
172 196 0
174 197 0
174 197 0
173 196 0
174 197 0
173 196 0
174 196 0
170 189 0
157 156 0
162 158 44
199 183 111
199 183 114
197 182 114
195 181 114
193 180 114
192 179 114
190 179 114
189 178 114
188 177 114
186 177 114
185 176 114
184 176 114
183 175 114
182 175 114
180 174 114
179 174 114
178 173 114
177 173 114
176 172 114
176 172 114
175 171 114
174 171 114
173 171 114
172 170 114
172 170 114
171 170 114
170 169 114
170 169 114
169 169 114
168 168 114
168 168 114
167 168 114
167 168 114
166 168 114
166 167 114
165 167 114
165 167 114
165 167 114
164 167 114
164 167 114
164 166 114
164 166 114
163 166 114
163 166 114
163 166 114
163 166 114
163 166 114
163 166 114
163 166 114
163 166 114
163 166 114
163 166 114
163 166 114
163 166 114
163 166 114
163 166 114
163 166 114
164 166 114
164 166 114
164 167 114
164 167 114
165 167 114
165 167 114
166 167 114
166 167 114
166 168 114
167 168 114
167 168 114
168 168 114
169 169 114
169 169 114
170 169 114
171 170 114
171 170 114
172 170 114
173 171 114
174 171 114
175 171 114
175 172 114
176 172 114
177 173 114
178 173 114
179 174 114
181 174 114
182 175 114
183 175 114
184 176 114
186 176 114
187 177 114
188 178 114
190 179 114
192 179 114
193 180 114
195 181 114
197 182 114
200 183 114
176 167 73
159 162 0
173 195 0
174 197 0
175 198 0
175 198 0
175 197 0
174 197 0
173 197 0
173 197 0
174 197 0
174 197 0
176 198 0
174 197 0
173 197 0
174 198 0
174 197 0
174 197 0
175 197 0
174 197 0
173 196 0
174 197 0
175 198 0
173 197 0
174 198 0
174 197 0
173 197 0
174 197 0
173 197 0
174 198 0
173 197 0
174 197 0
175 197 0
172 197 0
176 199 0
175 198 0
175 198 0
174 197 0
173 196 0
174 197 0
173 196 0
174 197 0
175 198 0
173 197 0
175 198 0
175 198 0
174 198 0
175 198 0
175 198 0
175 198 0
173 196 0
174 197 0
174 197 0
174 197 0
175 198 0
174 197 0
174 197 0
174 197 0
174 197 0
175 198 0
173 197 0
173 197 0
174 198 0
174 198 0
172 196 0
173 196 0
173 197 0
172 196 0
174 197 0
173 197 0
175 198 0
174 198 0
175 198 0
173 197 0
173 197 0
174 198 0
173 197 0
175 198 0
174 197 0
175 198 0
175 198 0
173 197 0
175 198 0
174 197 0
173 196 0
175 198 0
175 198 0
172 195 0
174 198 0
174 198 0
175 198 0
174 197 0
176 198 0
174 198 0
175 198 0
175 198 0
175 197 0
175 198 0
173 197 0
172 196 0
174 198 0
172 196 0
175 198 0
174 198 0
174 198 0
175 198 0
173 197 0
175 198 0
173 197 0
175 198 0
175 198 0
173 197 0
173 197 0
173 197 0
174 197 0
175 198 0
171 196 0
174 198 0
174 197 0
173 197 0
174 198 0
173 196 0
173 197 0
174 198 0
172 196 0
174 198 0
173 197 0
173 197 0
175 198 0
172 196 0
174 198 0
173 197 0
172 195 0
171 196 0
175 198 0
172 195 0
174 198 0
173 197 0
172 196 0
172 195 0
173 197 0
172 195 0
174 197 0
174 197 0
174 197 0
174 197 0
174 198 0
174 197 0
175 198 0
176 198 0
174 198 0
171 195 0
174 197 0
175 198 0
173 196 0
175 198 0
175 198 0
172 195 0
176 198 0
174 197 0
174 197 0
175 198 0
173 196 0
173 196 0
171 195 0
174 198 0
174 197 0
171 195 0
172 196 0
173 196 0
175 198 0
174 196 0
174 197 0
176 199 0
173 197 0
172 196 0
175 198 0
173 197 0
174 198 0
173 196 0
173 197 0
174 198 0
174 198 0
172 196 0
174 197 0
171 195 0
174 198 0
172 195 0
175 198 0
172 195 0
174 196 0
174 197 0
175 198 0
174 197 0
175 198 0
173 196 0
173 197 0
172 195 0
172 196 0
174 197 0
174 197 0
173 197 0
173 196 0
172 195 0
173 197 0
172 196 0
173 197 0
173 197 0
175 197 0
173 197 0
173 197 0
173 196 0
175 198 0
173 197 0
173 196 0
174 197 0
173 196 0
174 198 0
174 197 0
173 196 0
171 195 0
171 194 0
174 197 0
173 197 0
172 196 0
173 195 0
173 197 0
172 195 0
170 193 0
173 196 0
174 196 0
174 198 0
174 198 0
174 197 0
173 197 0
173 196 0
174 197 0
173 195 0
173 196 0
174 197 0
173 196 0
174 197 0
172 196 0
173 197 0
174 197 0
173 197 0
173 197 0
172 195 0
173 196 0
173 196 0
174 196 0
173 196 0
175 198 0
173 195 0
172 195 0
173 195 0
173 196 0
174 197 0
172 195 0
172 195 0
171 195 0
175 197 0
172 195 0
173 196 0
173 197 0
176 198 0
173 197 0
173 195 0
173 196 0
173 196 0
172 196 0
173 197 0
175 198 0
174 196 0
174 196 0
174 197 0
173 197 0
174 197 0
170 193 0
174 196 0
172 195 0
175 196 0
172 195 0
173 197 0
172 196 0
172 195 0
171 195 0
172 196 0
170 193 0
173 195 0
172 195 0
174 197 0
173 196 0
174 197 0
173 197 0
173 196 0
171 195 0
174 197 0
172 195 0
172 196 0
171 194 0
158 158 0
157 154 11
193 178 101
199 183 114
197 182 114
195 181 114
194 180 114
192 180 114
191 179 114
189 178 114
188 178 114
187 177 114
185 176 114
184 176 114
183 175 114
182 175 114
181 174 114
180 174 114
179 173 114
178 173 114
177 172 114
176 172 114
175 172 114
174 171 114
173 171 114
173 170 114
172 170 114
171 170 114
170 169 114
170 169 114
169 169 114
169 169 114
168 168 114
167 168 114
167 168 114
166 168 114
166 167 114
165 167 114
165 167 114
165 167 114
164 167 114
164 167 114
164 166 114
163 166 114
163 166 114
163 166 114
163 166 114
163 166 114
163 166 114
162 166 114
162 166 114
162 166 114
162 166 114
162 166 114
162 166 114
162 166 114
163 166 114
163 166 114
163 166 114
163 166 114
163 166 114
163 166 114
164 166 114
164 167 114
164 167 114
165 167 114
165 167 114
166 167 114
166 167 114
167 168 114
167 168 114
168 168 114
168 168 114
169 169 114
169 169 114
170 169 114
171 170 114
172 170 114
172 170 114
173 171 114
174 171 114
175 171 114
176 172 114
177 172 114
178 173 114
179 173 114
180 174 114
181 174 114
182 175 114
183 175 114
185 176 114
186 177 114
187 177 114
189 178 114
190 179 114
192 180 114
194 180 114
196 181 114
198 183 114
200 183 113
167 160 49
164 171 0
174 197 0
173 196 0
174 198 0
174 197 0
176 198 0
174 197 0
173 197 0
176 198 0
174 197 0
176 198 0
175 198 0
174 197 0
175 197 0
173 197 0
175 198 0
175 198 0
173 197 0
173 196 0
174 197 0
173 197 0
175 198 0
174 197 0
173 197 0
174 198 0
175 198 0
173 196 0
174 197 0
173 197 0
173 197 0
175 198 0
175 198 0
176 198 0
175 198 0
174 197 0
174 198 0
173 196 0
173 196 0
174 197 0
174 197 0
175 198 0
174 197 0
176 199 0
174 197 0
173 197 0
173 197 0
174 197 0
175 197 0
173 197 0
174 197 0
175 197 0
174 197 0
175 198 0
174 197 0
174 198 0
174 197 0
175 198 0
173 197 0
174 197 0
174 197 0
174 197 0
172 196 0
174 198 0
174 198 0
173 197 0
172 197 0
175 198 0
175 198 0
175 198 0
173 197 0
176 199 0
175 198 0
173 197 0
175 197 0
173 197 0
173 197 0
174 197 0
174 197 0
174 198 0
173 196 0
174 198 0
172 196 0
175 198 0
173 197 0
174 198 0
174 197 0
174 197 0
174 197 0
174 198 0
173 197 0
172 196 0
174 197 0
171 194 0
174 197 0
176 199 0
173 197 0
173 197 0
176 198 0
173 197 0
174 198 0
172 196 0
174 198 0
175 198 0
172 196 0
174 197 0
175 198 0
173 196 0
174 197 0
174 197 0
174 198 0
173 197 0
173 197 0
173 197 0
176 198 0
174 198 0
174 198 0
174 197 0
173 196 0
172 196 0
174 197 0
173 196 0
174 198 0
173 196 0
173 196 0
174 197 0
176 198 0
173 197 0
172 196 0
175 198 0
174 198 0
173 197 0
172 196 0
172 196 0
173 196 0
174 197 0
176 198 0
174 197 0
175 198 0
173 197 0
173 197 0
174 197 0
171 195 0
175 198 0
174 198 0
173 196 0
174 197 0
173 196 0
175 198 0
172 196 0
175 198 0
174 197 0
173 197 0
173 196 0
173 197 0
173 197 0
176 198 0
174 197 0
173 196 0
173 196 0
175 198 0
173 196 0
173 197 0
176 198 0
173 197 0
175 198 0
172 196 0
173 196 0
172 196 0
174 197 0
173 197 0
173 196 0
174 197 0
173 197 0
173 196 0
172 196 0
174 197 0
172 195 0
172 195 0
174 197 0
175 197 0
174 196 0
173 197 0
172 196 0
173 197 0
174 198 0
172 196 0
172 196 0
175 197 0
174 198 0
175 198 0
173 196 0
174 198 0
172 195 0
173 196 0
171 196 0
173 197 0
174 198 0
172 196 0
174 197 0
173 197 0
173 196 0
172 196 0
174 196 0
174 196 0
174 197 0
173 197 0
174 198 0
173 196 0
175 198 0
173 197 0
172 195 0
174 197 0
172 196 0
173 196 0
176 199 0
174 197 0
175 197 0
173 195 0
173 196 0
174 197 0
175 198 0
173 196 0
174 197 0
174 197 0
171 195 0
172 196 0
173 196 0
175 198 0
173 196 0
173 196 0
175 197 0
173 196 0
172 196 0
174 197 0
176 198 0
175 198 0
170 195 0
174 198 0
173 196 0
174 197 0
170 194 0
173 196 0
175 198 0
173 196 0
173 196 0
173 197 0
174 197 0
174 197 0
174 198 0
174 198 0
174 197 0
168 191 0
172 195 0
174 197 0
172 196 0
174 196 0
173 196 0
175 198 0
177 198 0
174 197 0
172 196 0
173 196 0
171 194 0
174 197 0
173 197 0
176 198 0
174 197 0
175 197 0
173 196 0
173 196 0
174 197 0
173 196 0
173 196 0
173 196 0
173 197 0
173 196 0
174 197 0
174 197 0
174 197 0
171 193 0
172 196 0
175 197 0
175 198 0
175 198 0
174 198 0
174 197 0
175 198 0
174 197 0
173 196 0
173 196 0
173 196 0
173 196 0
173 197 0
176 198 0
172 195 0
173 196 0
175 197 0
174 197 0
162 166 0
155 153 0
181 170 83
200 183 114
198 182 114
196 182 114
194 181 114
193 180 114
191 179 114
190 179 114
189 178 114
187 177 114
186 177 114
185 176 114
184 175 114
182 175 114
181 174 114
180 174 114
179 173 114
178 173 114
177 173 114
176 172 114
175 172 114
175 171 114
174 171 114
173 171 114
172 170 114
171 170 114
171 170 114
170 169 114
169 169 114
169 169 114
168 168 114
168 168 114
167 168 114
167 168 114
166 167 114
166 167 114
165 167 114
165 167 114
164 167 114
164 167 114
164 166 114
163 166 114
163 166 114
163 166 114
163 166 114
163 166 114
162 166 114
162 166 114
162 166 114
162 166 114
162 166 114
162 166 114
162 166 114
162 166 114
162 166 114
162 166 114
162 166 114
163 166 114
163 166 114
163 166 114
163 166 114
163 166 114
164 166 114
164 167 114
164 167 114
165 167 114
165 167 114
166 167 114
166 168 114
167 168 114
167 168 114
168 168 114
168 169 114
169 169 114
170 169 114
170 169 114
171 170 114
172 170 114
173 170 114
173 171 114
174 171 114
175 172 114
176 172 114
177 173 114
178 173 114
179 173 114
180 174 114
181 174 114
183 175 114
184 176 114
185 176 114
187 177 114
188 178 114
190 178 114
191 179 114
193 180 114
195 181 114
196 182 114
199 183 114
194 179 104
155 153 16
166 178 0
173 196 0
175 198 0
176 198 0
173 197 0
172 196 0
174 197 0
173 197 0
172 195 0
174 196 0
173 197 0
175 198 0
175 198 0
173 197 0
175 197 0
174 197 0
176 199 0
174 198 0
175 198 0
172 196 0
175 198 0
175 198 0
175 197 0
175 198 0
173 197 0
174 197 0
174 198 0
174 198 0
176 198 0
172 197 0
174 197 0
175 197 0
174 197 0
174 198 0
173 196 0
174 197 0
175 198 0
174 197 0
175 198 0
174 197 0
175 198 0
175 198 0
175 198 0
175 198 0
175 198 0
175 198 0
173 197 0
173 196 0
174 197 0
174 197 0
175 197 0
175 198 0
175 198 0
174 198 0
175 198 0
174 197 0
175 198 0
174 197 0
173 197 0
174 197 0
176 199 0
175 198 0
175 198 0
173 197 0
174 198 0
172 196 0
173 197 0
174 198 0
174 198 0
175 198 0
174 197 0
174 197 0
173 196 0
175 198 0
172 195 0
174 198 0
174 198 0
173 197 0
173 197 0
176 198 0
174 198 0
173 197 0
175 198 0
175 198 0
174 197 0
175 198 0
175 198 0
174 198 0
176 198 0
174 198 0
174 197 0
174 197 0
174 197 0
175 198 0
173 197 0
174 197 0
174 197 0
174 198 0
172 196 0
172 196 0
174 197 0
176 198 0
174 198 0
173 197 0
176 198 0
175 198 0
175 198 0
175 198 0
173 197 0
173 196 0
174 198 0
172 196 0
173 197 0
174 198 0
175 198 0
173 197 0
173 196 0
172 196 0
174 198 0
174 197 0
174 197 0
173 196 0
176 199 0
175 198 0
169 193 0
174 197 0
175 198 0
173 196 0
172 196 0
175 198 0
174 197 0
172 195 0
175 198 0
174 198 0
174 198 0
174 197 0
174 197 0
174 197 0
174 197 0
174 197 0
173 196 0
175 197 0
173 196 0
174 197 0
174 197 0
173 197 0
174 198 0
172 196 0
174 197 0
174 197 0
171 194 0
172 197 0
174 197 0
175 198 0
174 197 0
174 196 0
173 196 0
172 196 0
173 196 0
175 198 0
172 196 0
172 196 0
173 197 0
175 198 0
172 196 0
175 198 0
174 197 0
174 197 0
174 197 0
172 196 0
173 196 0
170 194 0
171 195 0
175 198 0
175 198 0
172 196 0
173 197 0
173 196 0
174 197 0
175 198 0
174 196 0
176 199 0
172 196 0
173 197 0
172 196 0
175 197 0
175 198 0
175 198 0
174 198 0
173 196 0
173 197 0
173 196 0
175 198 0
174 198 0
172 195 0
173 196 0
173 197 0
174 197 0
173 196 0
174 197 0
173 195 0
174 197 0
173 196 0
174 197 0
173 195 0
174 196 0
173 196 0
172 196 0
174 197 0
173 196 0
173 196 0
175 197 0
172 195 0
172 196 0
174 197 0
172 196 0
175 198 0
173 197 0
175 198 0
172 196 0
173 197 0
173 197 0
174 197 0
171 195 0
173 196 0
174 198 0
173 196 0
174 197 0
173 196 0
173 196 0
171 195 0
173 195 0
171 195 0
175 198 0
172 196 0
172 195 0
172 196 0
172 196 0
172 195 0
172 196 0
174 197 0
174 197 0
173 196 0
173 196 0
173 196 0
174 197 0
174 197 0
173 196 0
173 196 0
173 196 0
173 197 0
173 197 0
174 197 0
173 196 0
174 197 0
174 197 0
173 196 0
176 198 0
174 197 0
172 196 0
173 196 0
170 194 0
173 197 0
174 197 0
174 197 0
171 194 0
173 196 0
173 196 0
173 196 0
172 195 0
174 198 0
172 195 0
174 196 0
173 197 0
173 197 0
171 195 0
173 195 0
174 197 0
174 197 0
174 197 0
172 196 0
175 197 0
173 196 0
173 197 0
173 196 0
174 197 0
173 196 0
173 196 0
174 197 0
172 196 0
173 197 0
173 196 0
173 196 0
172 196 0
175 197 0
172 195 0
166 180 0
156 153 0
165 159 47
199 182 111
199 183 114
197 182 114
195 181 114
193 180 114
192 179 114
191 179 114
189 178 114
188 178 114
187 177 114
185 176 114
184 176 114
183 175 114
182 175 114
181 174 114
180 174 114
179 173 114
178 173 114
177 172 114
176 172 114
175 172 114
174 171 114
173 171 114
173 170 114
172 170 114
171 170 114
170 169 114
170 169 114
169 169 114
168 169 114
168 168 114
167 168 114
167 168 114
166 168 114
166 167 114
165 167 114
165 167 114
164 167 114
164 167 114
164 166 114
163 166 114
163 166 114
163 166 114
163 166 114
162 166 114
162 166 114
162 166 114
162 166 114
162 166 114
162 166 114
162 166 114
162 166 114
162 166 114
162 166 114
162 166 114
162 166 114
162 166 114
162 166 114
162 166 114
163 166 114
163 166 114
163 166 114
163 166 114
164 166 114
164 167 114
165 167 114
165 167 114
165 167 114
166 167 114
166 168 114
167 168 114
167 168 114
168 168 114
169 169 114
169 169 114
170 169 114
171 170 114
171 170 114
172 170 114
173 171 114
174 171 114
175 171 114
176 172 114
177 172 114
178 173 114
179 173 114
180 174 114
181 174 114
182 175 114
183 175 114
184 176 114
186 177 114
187 177 114
189 178 114
190 179 114
192 179 114
193 180 114
195 181 114
197 182 114
200 183 114
182 171 84
157 155 0
169 188 0
175 197 0
173 196 0
175 197 0
175 198 0
174 197 0
174 197 0
175 198 0
173 196 0
175 197 0
173 197 0
175 198 0
174 197 0
174 198 0
173 197 0
173 197 0
174 197 0
174 198 0
174 198 0
175 197 0
173 197 0
174 197 0
172 195 0
175 198 0
172 195 0
174 197 0
175 197 0
174 197 0
174 197 0
174 198 0
174 196 0
174 197 0
174 198 0
173 196 0
174 198 0
174 198 0
173 196 0
176 199 0
175 198 0
174 198 0
174 197 0
175 198 0
174 197 0
173 197 0
175 198 0
173 197 0
176 198 0
175 198 0
175 198 0
175 198 0
175 198 0
175 198 0
174 198 0
174 197 0
174 197 0
175 198 0
174 198 0
173 197 0
176 198 0
175 198 0
174 197 0
174 197 0
174 198 0
173 197 0
175 198 0
175 198 0
175 198 0
175 198 0
174 198 0
173 197 0
172 196 0
175 198 0
173 197 0
175 198 0
174 197 0
174 197 0
175 198 0
175 198 0
175 198 0
173 197 0
175 198 0
174 198 0
174 197 0
173 196 0
171 195 0
173 197 0
175 198 0
175 198 0
173 197 0
175 198 0
173 196 0
173 197 0
173 197 0
176 199 0
171 195 0
174 197 0
174 198 0
173 197 0
174 197 0
172 197 0
173 197 0
175 198 0
174 197 0
174 198 0
174 198 0
173 197 0
173 197 0
174 198 0
172 197 0
175 198 0
172 196 0
176 198 0
172 196 0
174 198 0
173 197 0
174 198 0
173 197 0
174 198 0
174 198 0
173 196 0
173 197 0
174 197 0
174 197 0
173 196 0
174 197 0
174 198 0
174 197 0
176 199 0
174 198 0
174 197 0
174 197 0
175 198 0
172 197 0
173 196 0
172 195 0
173 197 0
175 198 0
173 196 0
175 198 0
175 198 0
174 197 0
175 198 0
174 197 0
174 197 0
175 197 0
174 197 0
173 196 0
177 199 0
172 195 0
174 198 0
173 196 0
174 197 0
175 198 0
171 194 0
171 195 0
173 197 0
173 197 0
175 197 0
172 195 0
173 197 0
174 198 0
173 197 0
173 197 0
173 196 0
172 196 0
174 197 0
174 197 0
175 198 0
174 197 0
175 198 0
172 196 0
171 195 0
174 197 0
174 197 0
174 197 0
174 197 0
174 198 0
173 196 0
172 196 0
175 198 0
172 196 0
174 197 0
173 196 0
173 196 0
172 196 0
175 198 0
172 195 0
172 196 0
175 197 0
171 194 0
172 195 0
174 197 0
172 196 0
174 198 0
174 196 0
171 195 0
173 197 0
175 198 0
174 197 0
174 197 0
173 196 0
173 196 0
173 196 0
171 194 0
173 197 0
174 197 0
171 195 0
173 196 0
173 196 0
173 196 0
173 196 0
173 196 0
172 196 0
172 196 0
173 197 0
173 196 0
172 196 0
173 196 0
174 197 0
170 194 0
175 198 0
171 194 0
174 197 0
173 196 0
175 198 0
171 193 0
174 197 0
172 195 0
174 197 0
174 197 0
174 197 0
172 195 0
172 195 0
172 196 0
174 197 0
175 198 0
173 196 0
175 198 0
174 198 0
171 195 0
175 197 0
174 197 0
174 196 0
172 195 0
170 194 0
175 198 0
173 196 0
175 198 0
174 197 0
172 195 0
173 196 0
174 197 0
172 196 0
175 197 0
175 197 0
174 196 0
173 196 0
173 196 0
173 196 0
173 196 0
173 197 0
173 196 0
174 197 0
175 197 0
174 196 0
174 196 0
175 198 0
173 196 0
170 194 0
171 195 0
175 197 0
175 198 0
175 197 0
174 197 0
173 195 0
171 194 0
174 196 0
173 196 0
173 196 0
174 197 0
174 197 0
173 196 0
174 197 0
172 195 0
173 197 0
174 198 0
172 195 0
173 196 0
173 197 0
173 197 0
173 196 0
174 197 0
174 197 0
174 197 0
171 189 0
156 154 0
155 153 0
188 175 95
199 183 114
198 182 114
196 181 114
194 181 114
193 180 114
191 179 114
190 178 114
188 178 114
187 177 114
186 177 114
185 176 114
183 175 114
182 175 114
181 174 114
180 174 114
179 174 114
178 173 114
177 173 114
176 172 114
176 172 114
175 171 114
174 171 114
173 171 114
172 170 114
172 170 114
171 170 114
170 169 114
169 169 114
169 169 114
168 168 114
168 168 114
167 168 114
167 168 114
166 167 114
166 167 114
165 167 114
165 167 114
164 167 114
164 167 114
164 166 114
163 166 114
163 166 114
163 166 114
162 166 114
162 166 114
162 166 114
162 166 114
162 166 114
162 166 114
162 166 114
162 166 114
162 165 114
162 165 114
162 166 114
162 166 114
162 166 114
162 166 114
162 166 114
162 166 114
162 166 114
163 166 114
163 166 114
163 166 114
164 166 114
164 167 114
164 167 114
165 167 114
165 167 114
166 167 114
166 167 114
167 168 114
167 168 114
168 168 114
168 168 114
169 169 114
170 169 114
170 169 114
171 170 114
172 170 114
173 170 114
173 171 114
174 171 114
175 172 114
176 172 114
177 172 114
178 173 114
179 173 114
180 174 114
181 174 114
183 175 114
184 176 114
185 176 114
186 177 114
188 178 114
189 178 114
191 179 114
192 180 114
194 181 114
196 182 114
198 182 114
200 183 113
163 158 44
158 162 0
174 198 0
173 196 0
174 197 0
174 198 0
173 197 0
173 197 0
174 197 0
173 197 0
176 198 0
174 197 0
173 196 0
174 198 0
176 199 0
175 198 0
174 197 0
176 198 0
175 198 0
174 198 0
174 197 0
175 198 0
174 197 0
174 197 0
173 197 0
173 197 0
173 197 0
174 198 0
174 197 0
173 197 0
173 197 0
173 196 0
174 197 0
175 198 0
173 196 0
174 197 0
176 199 0
174 197 0
173 197 0
174 197 0
176 198 0
173 197 0
175 198 0
174 197 0
176 199 0
175 198 0
174 198 0
173 197 0
174 198 0
175 198 0
176 199 0
174 197 0
174 197 0
175 197 0
175 198 0
174 197 0
173 196 0
174 197 0
174 197 0
172 197 0
173 197 0
172 196 0
175 198 0
175 198 0
174 197 0
173 197 0
175 198 0
174 197 0
172 195 0
174 198 0
175 198 0
174 197 0
175 197 0
175 198 0
173 196 0
175 198 0
174 197 0
176 198 0
174 197 0
175 198 0
176 199 0
173 197 0
173 197 0
174 197 0
174 197 0
174 198 0
174 197 0
176 199 0
173 197 0
175 198 0
173 197 0
174 198 0
176 199 0
173 197 0
175 198 0
174 198 0
172 196 0
173 197 0
173 197 0
173 196 0
174 198 0
173 196 0
171 195 0
174 197 0
173 197 0
175 198 0
174 198 0
173 197 0
173 196 0
173 197 0
174 198 0
173 197 0
173 197 0
172 197 0
173 197 0
173 197 0
174 197 0
175 198 0
174 197 0
174 197 0
173 196 0
174 197 0
175 197 0
176 198 0
176 199 0
174 198 0
173 197 0
174 197 0
172 195 0
173 197 0
174 198 0
173 197 0
175 198 0
173 196 0
173 196 0
175 197 0
174 198 0
172 195 0
174 197 0
175 198 0
172 196 0
173 196 0
175 198 0
174 197 0
174 197 0
173 197 0
172 196 0
175 198 0
173 197 0
173 196 0
173 196 0
174 197 0
173 196 0
175 198 0
173 196 0
174 197 0
171 195 0
176 198 0
174 197 0
173 197 0
175 198 0
173 196 0
175 198 0
174 197 0
172 195 0
173 196 0
173 196 0
175 198 0
172 196 0
175 198 0
173 197 0
174 197 0
175 198 0
174 197 0
175 198 0
175 197 0
174 198 0
173 197 0
175 197 0
172 194 0
173 195 0
173 197 0
173 197 0
173 196 0
173 196 0
172 196 0
174 197 0
172 195 0
174 197 0
174 197 0
173 197 0
174 196 0
175 198 0
174 197 0
173 197 0
173 196 0
174 197 0
173 196 0
174 198 0
173 196 0
171 195 0
169 193 0
174 198 0
172 195 0
173 197 0
173 196 0
173 197 0
174 198 0
174 198 0
174 198 0
172 194 0
173 197 0
176 198 0
173 197 0
172 196 0
173 197 0
174 197 0
172 195 0
173 196 0
175 198 0
172 196 0
173 196 0
173 197 0
173 196 0
174 197 0
172 196 0
173 196 0
173 196 0
174 197 0
172 195 0
176 198 0
172 195 0
172 196 0
172 195 0
174 197 0
173 196 0
174 197 0
174 197 0
173 197 0
172 195 0
172 195 0
172 195 0
173 197 0
172 195 0
173 196 0
172 195 0
174 198 0
172 195 0
172 196 0
173 197 0
173 197 0
173 196 0
172 195 0
174 197 0
175 198 0
170 193 0
172 196 0
173 196 0
170 193 0
174 197 0
174 197 0
171 195 0
173 196 0
175 198 0
173 197 0
174 197 0
175 198 0
173 196 0
172 195 0
175 198 0
171 194 0
172 196 0
173 197 0
175 197 0
175 198 0
174 197 0
171 194 0
172 196 0
176 198 0
172 195 0
175 198 0
174 197 0
173 197 0
175 197 0
172 194 0
173 196 0
173 196 0
174 197 0
172 195 0
172 195 0
174 197 0
172 195 0
173 197 0
169 192 0
174 196 0
160 161 0
157 154 0
175 166 68
200 184 114
198 183 114
197 182 114
195 181 114
193 180 114
192 179 114
191 179 114
189 178 114
188 178 114
187 177 114
185 176 114
184 176 114
183 175 114
182 175 114
181 174 114
180 174 114
179 173 114
178 173 114
177 172 114
176 172 114
175 172 114
174 171 114
174 171 114
173 171 114
172 170 114
171 170 114
171 169 114
170 169 114
169 169 114
169 169 114
168 168 114
167 168 114
167 168 114
166 168 114
166 167 114
165 167 114
165 167 114
165 167 114
164 167 114
164 166 114
163 166 114
163 166 114
163 166 114
163 166 114
162 166 114
162 166 114
162 166 114
162 166 114
162 166 114
162 166 114
162 165 114
162 165 114
161 165 114
162 165 114
162 165 114
162 165 114
162 166 114
162 166 114
162 166 114
162 166 114
162 166 114
163 166 114
163 166 114
163 166 114
163 166 114
164 166 114
164 167 114
165 167 114
165 167 114
165 167 114
166 167 114
166 168 114
167 168 114
167 168 114
168 168 114
169 169 114
169 169 114
170 169 114
171 170 114
171 170 114
172 170 114
173 171 114
174 171 114
175 171 114
176 172 114
177 172 114
178 173 114
179 173 114
180 174 114
181 174 114
182 175 114
183 175 114
184 176 114
186 176 114
187 177 114
188 178 114
190 179 114
192 179 114
193 180 114
195 181 114
197 182 114
199 183 114
190 176 97
157 154 0
163 173 0
174 197 0
173 196 0
173 197 0
174 198 0
174 197 0
174 197 0
173 196 0
176 199 0
174 197 0
173 197 0
173 197 0
176 198 0
173 197 0
174 198 0
173 197 0
175 198 0
174 198 0
173 196 0
176 198 0
173 196 0
174 197 0
174 197 0
173 197 0
174 197 0
173 197 0
173 196 0
175 198 0
174 198 0
173 197 0
174 197 0
175 198 0
173 197 0
173 196 0
175 198 0
174 197 0
174 197 0
173 196 0
174 197 0
174 198 0
172 196 0
174 197 0
174 197 0
173 196 0
175 198 0
175 198 0
176 198 0
173 197 0
174 197 0
173 197 0
174 198 0
174 197 0
175 198 0
172 197 0
175 198 0
174 198 0
171 195 0
174 198 0
174 197 0
174 197 0
174 197 0
173 196 0
175 198 0
174 198 0
175 198 0
174 197 0
174 198 0
173 197 0
173 197 0
175 198 0
174 197 0
175 198 0
174 197 0
177 199 0
174 197 0
175 198 0
174 197 0
173 197 0
175 198 0
175 198 0
173 197 0
175 198 0
173 197 0
174 197 0
173 197 0
175 198 0
173 196 0
175 198 0
172 196 0
173 196 0
173 196 0
173 196 0
174 197 0
175 198 0
173 197 0
173 197 0
175 198 0
175 198 0
175 198 0
174 198 0
175 198 0
175 198 0
174 197 0
173 197 0
173 197 0
175 198 0
173 196 0
172 196 0
172 196 0
173 197 0
176 198 0
172 196 0
174 197 0
173 196 0
174 197 0
175 197 0
173 196 0
175 198 0
174 197 0
173 197 0
173 196 0
173 197 0
175 198 0
173 197 0
175 198 0
174 197 0
174 198 0
172 196 0
174 197 0
175 198 0
174 198 0
174 198 0
173 197 0
175 198 0
175 198 0
175 198 0
174 198 0
172 196 0
173 197 0
172 195 0
175 198 0
174 197 0
175 198 0
173 197 0
172 196 0
175 198 0
174 198 0
174 198 0
173 197 0
175 198 0
174 198 0
174 197 0
174 197 0
174 198 0
173 196 0
174 197 0
177 199 0
173 197 0
173 197 0
174 197 0
172 195 0
174 198 0
172 196 0
176 198 0
175 197 0
174 197 0
175 197 0
171 194 0
172 196 0
173 197 0
176 199 0
174 197 0
175 198 0
173 196 0
173 197 0
172 196 0
171 195 0
171 195 0
174 197 0
171 194 0
173 197 0
174 197 0
173 196 0
171 195 0
175 197 0
172 195 0
173 196 0
175 198 0
173 196 0
174 198 0
173 196 0
175 198 0
173 196 0
173 197 0
171 195 0
174 197 0
172 196 0
171 194 0
174 198 0
173 196 0
175 198 0
172 195 0
174 196 0
174 197 0
173 195 0
173 196 0
174 197 0
173 196 0
172 196 0
175 198 0
174 197 0
176 198 0
173 196 0
172 196 0
175 198 0
174 196 0
174 197 0
173 196 0
173 196 0
174 196 0
173 196 0
174 198 0
175 198 0
172 195 0
169 192 0
174 197 0
173 196 0
174 197 0
174 198 0
171 194 0
171 195 0
175 198 0
172 196 0
175 198 0
172 196 0
172 195 0
175 197 0
175 197 0
172 195 0
172 195 0
173 197 0
173 196 0
173 196 0
173 195 0
174 197 0
172 196 0
173 196 0
172 195 0
172 196 0
173 197 0
172 196 0
173 196 0
173 196 0
173 196 0
175 198 0
174 197 0
173 196 0
170 193 0
173 197 0
174 196 0
173 197 0
172 196 0
173 196 0
172 195 0
173 196 0
175 197 0
173 197 0
173 197 0
173 196 0
173 197 0
172 195 0
173 196 0
174 197 0
173 196 0
173 196 0
174 196 0
175 198 0
174 198 0
172 195 0
174 196 0
173 197 0
172 196 0
173 196 0
174 197 0
173 196 0
174 197 0
173 196 0
172 196 0
172 195 0
173 196 0
175 197 0
171 194 0
164 173 0
157 153 0
158 154 22
195 180 106
199 183 114
198 182 114
196 181 114
194 181 114
193 180 114
191 179 114
190 179 114
189 178 114
187 177 114
186 177 114
185 176 114
184 176 114
183 175 114
182 175 114
181 174 114
180 174 114
179 173 114
178 173 114
177 172 114
176 172 114
175 172 114
174 171 114
173 171 114
173 170 114
172 170 114
171 170 114
170 169 114
170 169 114
169 169 114
168 169 114
168 168 114
167 168 114
167 168 114
166 168 114
166 167 114
165 167 114
165 167 114
164 167 114
164 167 114
164 166 114
163 166 114
163 166 114
163 166 114
163 166 114
162 166 114
162 166 114
162 166 114
162 166 114
162 166 114
162 165 114
161 165 114
161 165 114
161 165 114
161 165 114
161 165 114
162 165 114
162 166 114
162 166 114
162 166 114
162 166 114
162 166 114
162 166 114
163 166 114
163 166 114
163 166 114
164 166 114
164 167 114
164 167 114
165 167 114
165 167 114
166 167 114
166 168 114
167 168 114
167 168 114
168 168 114
169 169 114
169 169 114
170 169 114
170 169 114
171 170 114
172 170 114
173 170 114
174 171 114
174 171 114
175 172 114
176 172 114
177 173 114
178 173 114
179 173 114
180 174 114
181 175 114
183 175 114
184 176 114
185 176 114
186 177 114
188 177 114
189 178 114
191 179 114
192 180 114
194 181 114
196 181 114
198 182 114
200 183 114
173 165 67
157 154 0
170 188 0
174 197 0
173 196 0
175 198 0
175 197 0
174 198 0
174 198 0
172 196 0
174 196 0
172 196 0
175 198 0
173 197 0
174 197 0
176 199 0
175 198 0
174 196 0
173 197 0
175 197 0
174 197 0
174 197 0
172 196 0
176 199 0
174 197 0
174 196 0
175 198 0
175 198 0
172 196 0
176 198 0
175 198 0
173 197 0
174 197 0
174 198 0
173 197 0
175 198 0
174 197 0
174 197 0
174 197 0
174 197 0
173 197 0
175 197 0
173 197 0
174 197 0
175 198 0
175 198 0
174 197 0
174 198 0
174 198 0
174 196 0
174 197 0
174 197 0
176 199 0
174 197 0
174 197 0
174 197 0
176 199 0
175 198 0
173 197 0
175 198 0
175 198 0
175 198 0
175 198 0
173 197 0
174 198 0
172 195 0
174 198 0
174 197 0
173 197 0
173 197 0
175 198 0
174 197 0
174 197 0
173 197 0
173 197 0
175 198 0
174 197 0
174 198 0
174 197 0
174 197 0
175 198 0
173 196 0
173 197 0
173 196 0
172 197 0
172 196 0
174 197 0
175 198 0
174 197 0
174 197 0
175 198 0
174 197 0
173 196 0
175 198 0
174 198 0
173 196 0
174 198 0
173 197 0
174 197 0
175 197 0
174 198 0
173 197 0
174 198 0
176 198 0
173 197 0
172 196 0
172 196 0
174 198 0
175 198 0
175 198 0
174 198 0
173 197 0
174 198 0
174 197 0
174 197 0
173 196 0
174 197 0
173 197 0
175 198 0
174 198 0
172 195 0
174 197 0
175 198 0
172 196 0
175 198 0
174 197 0
174 197 0
174 197 0
174 198 0
175 198 0
174 197 0
172 196 0
175 198 0
172 196 0
175 198 0
173 195 0
173 197 0
173 196 0
174 197 0
176 198 0
173 196 0
174 197 0
175 198 0
174 197 0
174 198 0
173 196 0
174 197 0
174 197 0
173 196 0
174 197 0
175 198 0
173 197 0
173 196 0
174 197 0
173 197 0
173 197 0
174 197 0
174 197 0
173 197 0
173 197 0
172 196 0
173 197 0
174 197 0
174 197 0
173 196 0
174 197 0
171 195 0
174 197 0
174 197 0
173 196 0
173 196 0
174 197 0
173 196 0
174 197 0
172 195 0
172 196 0
173 197 0
173 197 0
174 197 0
173 196 0
173 197 0
175 197 0
174 198 0
172 196 0
172 196 0
172 196 0
174 197 0
175 198 0
176 198 0
172 196 0
175 197 0
175 198 0
173 196 0
174 197 0
174 197 0
173 196 0
171 195 0
173 197 0
174 197 0
173 197 0
174 196 0
173 196 0
174 197 0
171 195 0
172 195 0
174 196 0
174 198 0
172 196 0
171 194 0
172 196 0
175 198 0
171 195 0
174 197 0
173 197 0
173 196 0
173 197 0
174 197 0
173 195 0
172 195 0
172 196 0
172 195 0
173 197 0
172 195 0
173 195 0
174 197 0
172 196 0
173 195 0
175 197 0
172 196 0
173 196 0
171 195 0
174 196 0
172 195 0
173 196 0
173 196 0
174 197 0
174 197 0
173 196 0
174 197 0
171 195 0
174 197 0
173 196 0
171 195 0
173 196 0
174 197 0
174 197 0
172 196 0
173 196 0
172 195 0
173 196 0
174 197 0
173 196 0
170 194 0
173 195 0
174 197 0
174 198 0
174 197 0
172 195 0
173 196 0
174 196 0
173 197 0
174 197 0
175 197 0
172 194 0
175 197 0
176 198 0
174 197 0
175 198 0
171 193 0
171 195 0
173 196 0
174 196 0
173 196 0
173 196 0
173 196 0
174 197 0
173 196 0
173 195 0
172 195 0
173 196 0
174 197 0
171 195 0
174 197 0
173 197 0
174 197 0
173 196 0
173 195 0
173 197 0
172 195 0
174 197 0
173 197 0
173 196 0
167 186 0
156 152 0
155 153 0
177 167 75
200 183 114
198 183 114
197 182 114
195 181 114
194 180 114
192 180 114
191 179 114
189 178 114
188 178 114
187 177 114
186 177 114
185 176 114
183 175 114
182 175 114
181 174 114
180 174 114
179 174 114
178 173 114
177 173 114
176 172 114
176 172 114
175 171 114
174 171 114
173 171 114
172 170 114
172 170 114
171 170 114
170 169 114
170 169 114
169 169 114
168 169 114
168 168 114
167 168 114
167 168 114
166 168 114
166 167 114
165 167 114
165 167 114
164 167 114
164 167 114
164 166 114
163 166 114
163 166 114
163 166 114
163 166 114
162 166 114
162 166 114
162 166 114
162 166 114
162 166 114
162 165 114
161 165 114
161 165 114
161 165 114
161 165 114
161 165 114
162 165 114
162 165 114
162 166 114
162 166 114
162 166 114
162 166 114
162 166 114
163 166 114
163 166 114
163 166 114
164 166 114
164 167 114
164 167 114
165 167 114
165 167 114
166 167 114
166 167 114
167 168 114
167 168 114
168 168 114
168 168 114
169 169 114
170 169 114
170 169 114
171 170 114
172 170 114
173 170 114
173 171 114
174 171 114
175 172 114
176 172 114
177 172 114
178 173 114
179 173 114
180 174 114
181 174 114
182 175 114
183 175 114
185 176 114
186 177 114
187 177 114
189 178 114
190 179 114
192 179 114
193 180 114
195 181 114
197 182 114
199 183 114
197 181 108
157 154 22
161 168 0
174 197 0
174 198 0
173 197 0
173 197 0
175 198 0
174 197 0
174 197 0
175 197 0
174 197 0
174 197 0
175 198 0
174 196 0
172 197 0
175 198 0
174 197 0
173 197 0
174 197 0
173 197 0
173 197 0
174 197 0
172 196 0
173 197 0
171 195 0
174 198 0
175 198 0
173 196 0
176 198 0
174 197 0
175 198 0
174 198 0
174 198 0
174 197 0
174 197 0
174 197 0
173 196 0
175 198 0
173 197 0
172 197 0
173 196 0
173 197 0
175 198 0
174 197 0
174 198 0
175 198 0
172 196 0
175 197 0
175 198 0
176 199 0
173 197 0
174 197 0
174 197 0
175 197 0
175 198 0
176 199 0
173 197 0
173 197 0
172 196 0
174 198 0
174 197 0
173 197 0
174 198 0
176 199 0
174 198 0
173 197 0
173 197 0
174 198 0
177 199 0
176 198 0
173 197 0
175 198 0
175 198 0
174 197 0
173 197 0
173 197 0
174 198 0
176 199 0
176 198 0
174 197 0
174 198 0
174 198 0
175 198 0
174 197 0
173 196 0
172 196 0
172 196 0
174 197 0
174 197 0
174 197 0
173 197 0
171 196 0
173 196 0
176 199 0
174 197 0
174 197 0
174 197 0
173 197 0
174 197 0
175 198 0
175 197 0
173 197 0
173 196 0
174 198 0
173 197 0
175 198 0
174 197 0
174 197 0
172 196 0
175 198 0
175 198 0
174 198 0
174 197 0
175 198 0
175 198 0
172 196 0
174 198 0
174 197 0
173 196 0
171 195 0
174 197 0
174 198 0
174 197 0
174 197 0
172 195 0
174 197 0
172 197 0
175 198 0
173 197 0
174 197 0
175 198 0
172 195 0
173 197 0
172 197 0
173 197 0
176 198 0
173 196 0
174 197 0
174 197 0
173 196 0
171 195 0
175 197 0
175 198 0
174 197 0
172 196 0
172 196 0
173 197 0
174 197 0
173 197 0
173 197 0
174 197 0
174 197 0
171 194 0
173 196 0
173 196 0
174 198 0
174 197 0
174 197 0
173 197 0
174 197 0
174 197 0
174 198 0
173 197 0
172 196 0
174 197 0
173 197 0
174 197 0
175 198 0
174 196 0
174 197 0
172 196 0
173 197 0
171 195 0
171 195 0
173 196 0
174 196 0
174 197 0
174 197 0
173 196 0
176 199 0
172 196 0
171 195 0
174 197 0
173 197 0
174 197 0
174 197 0
175 197 0
171 194 0
172 196 0
175 198 0
173 197 0
175 198 0
173 196 0
174 197 0
172 196 0
174 197 0
174 197 0
175 198 0
173 196 0
174 197 0
173 197 0
174 198 0
173 197 0
173 197 0
172 195 0
172 196 0
171 195 0
172 195 0
174 198 0
174 197 0
171 195 0
173 197 0
172 195 0
173 197 0
174 197 0
173 197 0
172 194 0
174 197 0
174 197 0
174 196 0
174 197 0
174 197 0
171 195 0
173 196 0
174 197 0
172 196 0
173 197 0
175 198 0
173 197 0
172 196 0
175 197 0
172 195 0
173 197 0
174 197 0
174 197 0
174 198 0
173 196 0
174 197 0
171 195 0
173 197 0
173 196 0
172 196 0
175 198 0
173 195 0
177 199 0
174 197 0
175 197 0
174 197 0
174 196 0
172 195 0
173 196 0
174 197 0
174 197 0
173 196 0
172 196 0
172 196 0
173 196 0
171 194 0
174 197 0
173 197 0
174 197 0
174 197 0
171 195 0
172 195 0
174 197 0
169 192 0
171 194 0
174 197 0
173 197 0
172 195 0
172 195 0
174 197 0
173 196 0
173 196 0
172 195 0
172 195 0
172 195 0
173 197 0
173 196 0
172 196 0
173 196 0
173 195 0
172 195 0
172 196 0
174 197 0
174 196 0
174 197 0
174 197 0
172 196 0
172 195 0
173 195 0
160 163 0
156 153 0
159 155 25
196 180 107
199 183 114
198 182 114
196 181 114
194 181 114
193 180 114
192 179 114
190 179 114
189 178 114
188 177 114
187 177 114
185 176 114
184 176 114
183 175 114
182 175 114
181 174 114
180 174 114
179 173 114
178 173 114
177 173 114
176 172 114
175 172 114
175 171 114
174 171 114
173 171 114
172 170 114
172 170 114
171 170 114
170 169 114
170 169 114
169 169 114
168 168 114
168 168 114
167 168 114
167 168 114
166 168 114
166 167 114
165 167 114
165 167 114
164 167 114
164 167 114
164 166 114
163 166 114
163 166 114
163 166 114
163 166 114
162 166 114
162 166 114
162 166 114
162 166 114
162 166 114
162 165 114
162 165 114
161 165 114
161 165 114
161 165 114
161 165 114
162 165 114
162 166 114
162 166 114
162 166 114
162 166 114
162 166 114
162 166 114
163 166 114
163 166 114
163 166 114
164 166 114
164 167 114
164 167 114
165 167 114
165 167 114
166 167 114
166 167 114
167 168 114
167 168 114
168 168 114
168 168 114
169 169 114
169 169 114
170 169 114
171 170 114
172 170 114
172 170 114
173 171 114
174 171 114
175 171 114
176 172 114
177 172 114
178 173 114
179 173 114
180 174 114
181 174 114
182 175 114
183 175 114
184 176 114
185 176 114
187 177 114
188 178 114
190 178 114
191 179 114
193 180 114
194 181 114
196 181 114
198 182 114
200 183 114
172 164 65
156 153 0
172 190 0
174 197 0
174 198 0
173 197 0
175 198 0
174 197 0
174 197 0
174 197 0
174 197 0
174 198 0
174 197 0
171 195 0
175 198 0
173 196 0
173 196 0
174 197 0
173 195 0
176 199 0
174 198 0
173 197 0
175 198 0
174 197 0
173 197 0
175 198 0
174 197 0
173 197 0
174 198 0
174 198 0
173 197 0
173 197 0
175 197 0
174 197 0
174 197 0
173 196 0
174 197 0
175 198 0
175 197 0
175 198 0
173 196 0
174 198 0
176 199 0
175 198 0
174 197 0
173 197 0
172 195 0
173 196 0
173 197 0
174 197 0
174 197 0
171 195 0
174 197 0
175 198 0
175 198 0
175 198 0
175 198 0
173 197 0
174 197 0
173 197 0
175 198 0
175 198 0
175 198 0
175 198 0
173 197 0
174 197 0
172 196 0
175 198 0
173 197 0
173 197 0
173 197 0
176 199 0
173 197 0
173 196 0
172 196 0
174 197 0
174 198 0
174 198 0
174 197 0
173 197 0
175 197 0
174 197 0
174 198 0
175 197 0
175 198 0
174 198 0
173 196 0
173 197 0
174 198 0
174 197 0
173 196 0
173 196 0
175 198 0
176 199 0
171 195 0
176 198 0
172 196 0
176 199 0
175 198 0
175 198 0
172 196 0
174 197 0
174 197 0
173 197 0
173 197 0
174 197 0
174 198 0
172 196 0
172 196 0
175 198 0
173 197 0
174 198 0
176 198 0
173 197 0
175 198 0
173 197 0
172 196 0
172 196 0
174 197 0
170 193 0
174 197 0
173 197 0
175 198 0
174 197 0
173 196 0
174 198 0
173 196 0
174 197 0
174 198 0
174 197 0
175 198 0
173 197 0
175 198 0
172 196 0
173 197 0
173 197 0
174 196 0
174 197 0
174 197 0
174 197 0
174 197 0
174 197 0
175 198 0
174 198 0
175 198 0
172 196 0
174 197 0
175 198 0
175 197 0
172 195 0
174 197 0
172 195 0
173 197 0
173 197 0
175 198 0
174 197 0
172 196 0
173 196 0
176 198 0
174 197 0
175 198 0
174 198 0
173 197 0
172 196 0
171 194 0
175 198 0
173 196 0
172 196 0
173 196 0
173 196 0
173 197 0
171 195 0
173 197 0
173 196 0
174 196 0
174 197 0
174 197 0
174 197 0
173 196 0
174 197 0
172 195 0
175 198 0
175 198 0
172 195 0
174 196 0
172 195 0
175 198 0
172 197 0
171 194 0
172 196 0
173 197 0
174 197 0
172 196 0
170 195 0
172 196 0
174 197 0
171 196 0
173 197 0
173 196 0
173 197 0
172 196 0
174 198 0
173 196 0
173 197 0
172 196 0
174 197 0
172 194 0
171 193 0
174 197 0
172 195 0
174 197 0
173 196 0
174 198 0
173 196 0
175 198 0
172 196 0
175 198 0
173 197 0
172 195 0
173 195 0
174 197 0
173 195 0
172 196 0
172 195 0
168 191 44
158 182 76
143 168 110
139 164 114
119 146 140
110 138 148
100 129 155
94 124 160
92 123 162
95 124 161
86 117 168
86 117 168
74 107 174
80 112 171
95 124 160
90 121 165
105 133 149
111 137 146
111 138 147
132 158 124
142 166 111
158 181 76
169 192 44
173 196 0
175 198 0
172 195 0
173 196 0
171 195 0
171 194 0
175 198 0
174 197 0
172 196 0
170 193 0
171 194 0
172 196 0
173 196 0
175 198 0
171 194 0
172 196 0
174 197 0
171 194 0
174 196 0
170 193 0
170 194 0
173 196 0
173 196 0
172 196 0
175 198 0
172 195 0
172 195 0
171 194 0
174 196 0
172 196 0
174 197 0
173 196 0
173 196 0
174 197 0
173 196 0
173 195 0
173 196 0
174 197 0
175 197 0
174 197 0
173 197 0
173 197 0
171 196 0
165 177 0
156 153 0
156 153 0
182 170 83
200 184 114
199 183 114
197 182 114
195 181 114
194 180 114
193 180 114
191 179 114
190 178 114
189 178 114
187 177 114
186 177 114
185 176 114
184 176 114
183 175 114
182 175 114
181 174 114
180 174 114
179 173 114
178 173 114
177 172 114
176 172 114
175 172 114
175 171 114
174 171 114
173 171 114
172 170 114
171 170 114
171 170 114
170 169 114
170 169 114
169 169 114
168 168 114
168 168 114
167 168 114
167 168 114
166 168 114
166 167 114
165 167 114
165 167 114
164 167 114
164 167 114
164 166 114
163 166 114
163 166 114
163 166 114
163 166 114
162 166 114
162 166 114
162 166 114
162 166 114
162 166 114
162 166 114
162 165 114
162 165 114
162 165 114
162 165 114
162 165 114
162 166 114
162 166 114
162 166 114
162 166 114
162 166 114
162 166 114
162 166 114
163 166 114
163 166 114
163 166 114
164 166 114
164 167 114
164 167 114
165 167 114
165 167 114
166 167 114
166 167 114
167 168 114
167 168 114
168 168 114
168 168 114
169 169 114
169 169 114
170 169 114
171 170 114
171 170 114
172 170 114
173 171 114
174 171 114
175 171 114
176 172 114
176 172 114
177 173 114
178 173 114
179 174 114
180 174 114
181 175 114
183 175 114
184 176 114
185 176 114
186 177 114
188 177 114
189 178 114
190 179 114
192 179 114
193 180 114
195 181 114
197 182 114
199 183 114
194 179 104
157 153 0
159 161 0
173 195 0
174 197 0
172 197 0
175 198 0
174 197 0
172 196 0
174 198 0
174 197 0
175 198 0
176 198 0
174 197 0
174 197 0
174 196 0
173 197 0
173 197 0
175 197 0
173 197 0
174 197 0
174 197 0
174 197 0
174 197 0
174 197 0
173 197 0
175 198 0
173 196 0
176 199 0
173 197 0
174 197 0
173 196 0
173 197 0
172 196 0
172 195 0
173 197 0
174 197 0
175 198 0
174 197 0
175 198 0
175 198 0
173 197 0
173 197 0
174 197 0
175 197 0
174 198 0
175 198 0
174 197 0
176 199 0
175 198 0
174 198 0
173 197 0
174 197 0
174 198 0
176 198 0
174 197 0
174 197 0
172 196 0
175 198 0
173 197 0
173 197 0
172 196 0
176 199 0
175 198 0
172 196 0
174 198 0
174 198 0
174 197 0
173 197 0
174 197 0
175 198 0
173 197 0
176 199 0
175 198 0
174 197 0
174 197 0
173 197 0
175 198 0
173 197 0
172 196 0
173 197 0
175 198 0
176 199 0
173 197 0
172 195 0
174 197 0
173 197 0
174 198 0
173 197 0
173 197 0
176 198 0
173 197 0
172 197 0
175 198 0
174 198 0
174 197 0
173 196 0
174 198 0
176 198 0
173 196 0
175 198 0
175 198 0
173 196 0
174 198 0
174 197 0
175 198 0
173 197 0
173 197 0
172 196 0
173 197 0
174 198 0
175 198 0
174 197 0
173 197 0
172 195 0
174 197 0
174 198 0
174 197 0
172 195 0
174 197 0
174 198 0
173 197 0
174 197 0
175 198 0
172 196 0
174 197 0
173 197 0
174 197 0
171 195 0
173 196 0
174 197 0
174 197 0
174 197 0
171 195 0
175 198 0
173 197 0
174 198 0
173 197 0
174 198 0
174 197 0
172 195 0
174 198 0
174 198 0
173 197 0
172 195 0
172 196 0
174 198 0
172 196 0
174 197 0
173 197 0
173 196 0
174 198 0
173 197 0
172 196 0
171 195 0
174 197 0
174 197 0
173 196 0
170 194 0
174 196 0
174 197 0
174 197 0
174 197 0
175 198 0
173 196 0
175 198 0
173 197 0
172 196 0
173 197 0
172 196 0
174 198 0
171 194 0
173 196 0
174 197 0
175 197 0
174 198 0
174 197 0
175 198 0
175 198 0
172 196 0
172 195 0
174 197 0
172 195 0
171 194 0
174 198 0
176 198 0
174 197 0
174 197 0
173 196 0
173 197 0
174 197 0
175 198 0
173 197 0
172 195 0
171 195 0
171 195 0
172 195 0
174 197 0
171 195 0
173 197 0
173 196 0
172 195 0
173 196 0
172 196 0
174 197 0
173 196 0
173 196 0
171 195 0
174 196 0
171 195 0
174 197 0
174 198 0
174 198 0
171 195 0
173 197 0
172 196 0
172 195 0
174 197 0
172 195 0
166 189 54
143 168 107
126 151 131
93 123 162
75 108 172
62 99 181
62 99 181
61 99 179
62 99 179
62 99 181
62 99 180
62 99 180
62 99 181
62 99 181
61 99 180
61 99 181
62 99 179
62 99 180
61 99 181
61 98 180
61 99 181
61 99 180
61 98 179
62 99 181
61 99 181
62 99 178
62 99 180
62 99 180
77 109 169
110 138 148
131 156 125
150 174 92
171 194 33
175 197 0
173 196 0
173 196 0
174 197 0
170 192 0
172 196 0
172 196 0
172 195 0
173 195 0
171 194 0
171 194 0
173 195 0
173 196 0
173 196 0
171 195 0
172 196 0
174 197 0
172 195 0
171 194 0
173 196 0
172 195 0
173 196 0
173 196 0
173 197 0
174 197 0
174 197 0
174 197 0
175 198 0
173 197 0
174 195 0
174 197 0
175 197 0
174 197 0
174 197 0
170 194 0
172 195 0
173 196 0
169 192 0
157 156 0
156 153 0
157 154 16
196 180 106
200 183 114
198 182 114
196 182 114
195 181 114
193 180 114
192 180 114
191 179 114
189 178 114
188 178 114
187 177 114
186 177 114
185 176 114
184 176 114
183 175 114
182 175 114
181 174 114
180 174 114
179 173 114
178 173 114
177 172 114
176 172 114
175 172 114
174 171 114
174 171 114
173 171 114
172 170 114
172 170 114
171 170 114
170 169 114
170 169 114
169 169 114
168 168 114
168 168 114
167 168 114
167 168 114
166 168 114
166 167 114
165 167 114
165 167 114
165 167 114
164 167 114
164 166 114
164 166 114
163 166 114
163 166 114
163 166 114
163 166 114
162 166 114
162 166 114
162 166 114
162 166 114
162 166 114
162 166 114
162 166 114
162 166 114
162 166 114
162 166 114
162 166 114
162 166 114
162 166 114
162 166 114
162 166 114
162 166 114
163 166 114
163 166 114
163 166 114
163 166 114
164 166 114
164 167 114
164 167 114
165 167 114
165 167 114
166 167 114
166 167 114
167 168 114
167 168 114
168 168 114
168 168 114
169 169 114
169 169 114
170 169 114
171 170 114
171 170 114
172 170 114
173 171 114
174 171 114
175 171 114
175 172 114
176 172 114
177 173 114
178 173 114
179 173 114
180 174 114
181 174 114
182 175 114
183 175 114
185 176 114
186 177 114
187 177 114
188 178 114
190 178 114
191 179 114
193 180 114
194 181 114
196 182 114
198 182 114
200 184 114
175 166 68
155 153 0
169 181 0
172 196 0
174 197 0
174 197 0
173 196 0
174 197 0
173 196 0
174 197 0
172 195 0
174 196 0
174 198 0
173 197 0
174 197 0
174 197 0
172 196 0
174 198 0
174 197 0
173 197 0
175 198 0
174 197 0
173 197 0
174 197 0
173 197 0
175 198 0
175 198 0
174 197 0
175 198 0
175 198 0
173 197 0
174 197 0
175 197 0
173 197 0
174 197 0
173 197 0
176 199 0
174 198 0
174 197 0
175 198 0
174 197 0
174 197 0
173 197 0
173 196 0
173 196 0
174 197 0
173 197 0
174 198 0
175 198 0
176 198 0
175 198 0
174 197 0
173 197 0
173 196 0
174 197 0
175 198 0
175 197 0
175 198 0
173 197 0
172 196 0
175 198 0
175 198 0
174 198 0
173 195 0
173 196 0
174 197 0
173 197 0
174 198 0
173 197 0
173 197 0
174 198 0
175 198 0
172 196 0
174 197 0
174 198 0
174 198 0
175 198 0
174 198 0
172 196 0
174 197 0
173 196 0
174 198 0
175 198 0
173 197 0
174 197 0
175 198 0
173 197 0
173 196 0
173 197 0
172 196 0
174 197 0
175 198 0
173 197 0
175 198 0
172 195 0
171 195 0
174 197 0
173 197 0
173 197 0
172 196 0
174 197 0
173 197 0
173 197 0
173 196 0
174 197 0
172 195 0
174 197 0
174 196 0
173 197 0
174 198 0
175 198 0
174 197 0
173 197 0
175 198 0
173 197 0
173 197 0
173 197 0
173 196 0
173 196 0
172 196 0
173 196 0
173 196 0
174 198 0
173 196 0
174 198 0
174 197 0
174 197 0
174 198 0
174 196 0
173 196 0
173 197 0
175 198 0
172 196 0
174 197 0
173 196 0
174 198 0
173 196 0
171 194 0
173 196 0
174 197 0
174 197 0
173 197 0
174 197 0
175 198 0
174 197 0
174 197 0
174 197 0
173 197 0
172 196 0
175 198 0
172 196 0
173 197 0
174 196 0
175 198 0
171 196 0
173 197 0
173 197 0
173 196 0
173 197 0
174 197 0
174 197 0
174 198 0
175 198 0
173 197 0
173 196 0
172 196 0
172 196 0
173 197 0
175 198 0
172 196 0
173 196 0
173 197 0
171 194 0
173 197 0
172 195 0
173 196 0
173 196 0
174 197 0
175 198 0
171 195 0
172 194 0
171 195 0
172 196 0
174 197 0
172 195 0
173 197 0
170 193 0
172 195 0
174 197 0
172 196 0
173 196 0
172 196 0
173 196 0
174 197 0
174 197 0
174 197 0
174 197 0
174 197 0
173 196 0
173 196 0
172 196 0
173 197 0
172 196 0
175 197 0
174 197 0
173 196 0
173 197 0
171 194 0
173 196 0
170 193 0
175 198 0
172 196 0
172 196 0
172 196 0
167 189 54
148 172 102
125 151 134
76 110 170
61 99 180
62 99 180
62 99 181
62 99 181
61 98 180
61 99 181
61 98 181
61 98 181
61 98 180
62 99 181
61 99 181
61 99 181
62 99 181
62 99 181
61 99 181
62 99 181
61 99 181
61 99 181
61 98 180
62 99 179
62 99 181
61 99 181
61 98 180
61 98 179
61 99 181
62 99 180
62 98 179
61 99 180
62 99 181
62 99 180
62 99 178
62 98 178
62 99 179
84 115 168
124 149 134
148 172 97
166 190 51
172 194 0
173 196 0
173 197 0
174 197 0
173 196 0
173 197 0
172 196 0
172 195 0
175 198 0
173 197 0
174 196 0
172 196 0
173 195 0
172 196 0
171 194 0
175 198 0
173 197 0
171 194 0
173 197 0
173 197 0
174 197 0
172 195 0
173 197 0
173 197 0
174 196 0
173 197 0
173 196 0
173 196 0
173 196 0
174 197 0
171 193 0
171 195 0
172 195 0
165 177 0
157 153 0
156 153 0
168 161 56
201 184 114
199 183 114
197 182 114
196 181 114
194 181 114
193 180 114
192 179 114
190 179 114
189 178 114
188 178 114
187 177 114
186 177 114
185 176 114
184 176 114
183 175 114
182 175 114
180 174 114
180 174 114
179 173 114
178 173 114
177 172 114
176 172 114
175 172 114
174 171 114
174 171 114
173 171 114
172 170 114
172 170 114
171 170 114
170 169 114
170 169 114
169 169 114
168 169 114
168 168 114
167 168 114
167 168 114
166 168 114
166 167 114
166 167 114
165 167 114
165 167 114
164 167 114
164 167 114
164 166 114
163 166 114
163 166 114
163 166 114
163 166 114
162 166 114
162 166 114
162 166 114
162 166 114
162 166 114
162 166 114
162 166 114
162 166 114
162 166 114
162 166 114
162 166 114
162 166 114
162 166 114
162 166 114
162 166 114
163 166 114
163 166 114
163 166 114
163 166 114
163 166 114
164 166 114
164 167 114
164 167 114
165 167 114
165 167 114
166 167 114
166 168 114
167 168 114
167 168 114
168 168 114
168 168 114
169 169 114
169 169 114
170 169 114
171 170 114
171 170 114
172 170 114
173 171 114
174 171 114
174 171 114
175 172 114
176 172 114
177 172 114
178 173 114
179 173 114
180 174 114
181 174 114
182 175 114
183 175 114
184 176 114
186 176 114
187 177 114
188 178 114
189 178 114
191 179 114
192 180 114
194 180 114
196 181 114
197 182 114
199 183 114
194 179 104
156 153 0
159 160 0
173 197 0
175 198 0
171 195 0
174 197 0
173 195 0
173 197 0
171 195 0
171 195 0
175 198 0
174 197 0
174 197 0
174 197 0
175 198 0
175 198 0
173 197 0
174 197 0
176 198 0
173 197 0
176 198 0
174 197 0
175 196 0
172 195 0
174 197 0
173 197 0
175 198 0
172 196 0
174 197 0
173 196 0
175 197 0
174 196 0
173 197 0
173 196 0
174 197 0
175 198 0
174 198 0
174 197 0
175 198 0
175 198 0
173 196 0
173 197 0
173 197 0
173 197 0
174 197 0
174 197 0
173 197 0
175 198 0
173 197 0
174 197 0
173 196 0
174 197 0
175 198 0
173 197 0
176 198 0
173 197 0
174 197 0
174 197 0
173 197 0
174 197 0
174 197 0
175 198 0
173 197 0
175 198 0
173 196 0
173 197 0
174 198 0
175 198 0
175 198 0
176 198 0
172 195 0
175 198 0
172 196 0
172 196 0
175 198 0
173 196 0
173 197 0
173 197 0
172 196 0
174 197 0
174 198 0
172 196 0
174 197 0
173 196 0
175 198 0
174 197 0
176 198 0
174 198 0
173 197 0
175 198 0
173 197 0
171 196 0
173 197 0
173 197 0
174 197 0
174 197 0
173 196 0
173 196 0
173 197 0
172 196 0
173 197 0
171 195 0
176 198 0
174 197 0
172 195 0
174 197 0
174 198 0
174 198 0
173 196 0
173 196 0
174 197 0
174 197 0
174 197 0
172 196 0
173 197 0
173 196 0
173 197 0
175 198 0
173 197 0
174 198 0
174 197 0
174 197 0
173 197 0
175 198 0
175 198 0
173 196 0
175 198 0
173 196 0
174 198 0
173 196 0
175 198 0
175 198 0
173 196 0
174 198 0
173 197 0
175 198 0
175 198 0
173 197 0
173 196 0
174 197 0
173 196 0
169 192 0
173 197 0
173 196 0
173 197 0
173 197 0
174 197 0
170 195 0
174 197 0
173 196 0
174 197 0
174 197 0
173 197 0
173 197 0
173 196 0
174 197 0
175 198 0
175 198 0
171 194 0
172 196 0
175 197 0
175 197 0
175 198 0
174 197 0
173 197 0
171 195 0
174 197 0
173 197 0
172 196 0
173 196 0
172 196 0
173 196 0
172 196 0
174 197 0
174 197 0
173 197 0
172 195 0
174 197 0
172 196 0
174 197 0
172 196 0
174 197 0
175 198 0
174 198 0
175 198 0
173 196 0
173 196 0
174 198 0
173 196 0
175 198 0
171 195 0
173 196 0
176 198 0
172 195 0
171 195 0
174 197 0
176 198 0
172 195 0
175 198 0
174 197 0
172 195 0
174 197 0
173 197 0
172 195 0
174 196 0
173 196 0
170 194 0
173 196 0
173 196 0
173 196 0
164 187 60
140 165 114
95 125 158
66 102 177
62 99 179
62 99 181
61 99 180
62 99 181
62 99 181
61 98 181
61 99 181
62 99 181
61 99 180
61 99 181
62 99 181
61 99 181
62 99 181
61 99 181
62 99 181
62 99 181
61 99 181
61 99 181
61 99 181
62 99 181
62 99 181
62 99 181
61 99 181
62 99 181
61 99 181
62 99 181
61 99 181
61 98 178
62 99 181
61 99 180
62 99 181
61 99 180
62 99 181
62 99 179
62 99 181
61 99 181
61 98 177
61 99 181
61 98 178
63 100 178
99 127 155
131 157 123
165 188 54
173 196 0
175 198 0
174 196 0
172 196 0
173 195 0
174 197 0
172 196 0
171 195 0
172 195 0
171 193 0
170 193 0
173 196 0
173 196 0
173 196 0
172 195 0
175 197 0
173 196 0
173 196 0
173 196 0
172 195 0
171 195 0
173 196 0
172 196 0
172 195 0
174 195 0
173 196 0
173 196 0
174 197 0
172 194 0
172 194 0
156 156 0
158 154 0
155 153 0
189 175 96
200 183 114
198 183 114
197 182 114
195 181 114
194 181 114
193 180 114
191 179 114
190 179 114
189 178 114
188 178 114
187 177 114
186 176 114
184 176 114
183 175 114
182 175 114
181 174 114
180 174 114
180 174 114
179 173 114
178 173 114
177 172 114
176 172 114
175 172 114
175 171 114
174 171 114
173 171 114
172 170 114
172 170 114
171 170 114
170 169 114
170 169 114
169 169 114
169 169 114
168 168 114
168 168 114
167 168 114
167 168 114
166 167 114
166 167 114
165 167 114
165 167 114
165 167 114
164 167 114
164 167 114
164 166 114
163 166 114
163 166 114
163 166 114
163 166 114
163 166 114
162 166 114
162 166 114
162 166 114
162 166 114
162 166 114
162 166 114
162 166 114
162 166 114
162 166 114
162 166 114
162 166 114
162 166 114
163 166 114
163 166 114
163 166 114
163 166 114
163 166 114
164 166 114
164 167 114
164 167 114
165 167 114
165 167 114
165 167 114
166 167 114
166 168 114
167 168 114
167 168 114
168 168 114
168 168 114
169 169 114
169 169 114
170 169 114
171 170 114
171 170 114
172 170 114
173 171 114
174 171 114
174 171 114
175 172 114
176 172 114
177 172 114
178 173 114
179 173 114
180 174 114
181 174 114
182 175 114
183 175 114
184 176 114
185 176 114
187 177 114
188 177 114
189 178 114
191 179 114
192 179 114
194 180 114
195 181 114
197 182 114
199 183 114
201 184 114
166 159 47
155 153 0
168 184 0
173 197 0
175 198 0
174 197 0
174 196 0
173 196 0
174 197 0
175 198 0
175 197 0
174 197 0
174 197 0
173 197 0
173 195 0
175 198 0
174 197 0
174 197 0
173 197 0
174 197 0
174 197 0
174 197 0
173 197 0
173 197 0
174 197 0
174 198 0
173 197 0
175 198 0
173 197 0
174 197 0
173 197 0
173 196 0
176 198 0
175 197 0
175 198 0
175 198 0
173 197 0
175 198 0
175 198 0
173 197 0
172 196 0
175 198 0
174 197 0
174 197 0
174 197 0
175 198 0
173 196 0
174 198 0
174 197 0
173 197 0
173 196 0
173 197 0
175 198 0
174 198 0
174 197 0
174 198 0
174 198 0
176 199 0
175 198 0
174 197 0
173 197 0
174 198 0
174 198 0
172 196 0
174 198 0
172 196 0
174 197 0
176 198 0
175 198 0
176 198 0
174 197 0
176 198 0
174 197 0
173 197 0
173 197 0
173 197 0
173 197 0
174 198 0
173 196 0
171 195 0
175 198 0
175 198 0
172 197 0
173 196 0
173 196 0
172 196 0
174 197 0
173 197 0
173 197 0
175 198 0
174 197 0
172 196 0
173 197 0
175 198 0
173 197 0
173 197 0
173 196 0
174 197 0
172 196 0
174 197 0
172 195 0
175 198 0
173 196 0
174 197 0
174 197 0
174 198 0
174 197 0
173 196 0
173 196 0
175 197 0
174 197 0
172 197 0
174 197 0
171 195 0
174 197 0
174 197 0
173 195 0
173 197 0
175 198 0
176 198 0
172 196 0
174 197 0
173 196 0
172 196 0
173 196 0
171 195 0
174 197 0
172 196 0
175 198 0
172 196 0
173 197 0
173 196 0
171 194 0
172 197 0
174 197 0
172 195 0
172 195 0
175 198 0
173 196 0
172 195 0
173 197 0
174 197 0
172 196 0
172 196 0
176 199 0
173 196 0
171 194 0
173 196 0
171 195 0
173 195 0
173 197 0
173 197 0
172 195 0
173 197 0
173 197 0
171 195 0
173 196 0
173 196 0
172 196 0
173 195 0
175 198 0
173 196 0
174 198 0
171 196 0
174 197 0
174 197 0
174 197 0
174 198 0
171 195 0
172 195 0
172 196 0
173 197 0
171 195 0
175 198 0
174 198 0
173 197 0
171 194 0
174 197 0
173 196 0
173 197 0
172 196 0
174 197 0
174 197 0
172 196 0
173 196 0
172 194 0
174 198 0
174 196 0
173 197 0
173 197 0
173 197 0
172 196 0
173 197 0
171 196 0
172 196 0
174 197 0
173 196 0
173 197 0
173 197 0
172 196 0
172 195 0
173 197 0
172 195 0
173 197 0
174 197 0
173 196 0
172 195 0
169 192 44
133 158 124
93 124 160
62 99 181
62 99 178
62 99 179
61 98 180
61 99 181
62 99 181
61 99 180
62 99 181
61 98 181
62 99 181
61 98 181
62 99 181
61 99 181
62 99 181
62 99 181
61 99 181
61 99 181
62 99 181
61 99 181
62 99 181
62 99 181
61 98 181
62 99 181
62 99 181
61 99 181
61 98 181
61 98 180
62 99 181
62 99 181
61 98 180
61 98 180
62 99 181
61 99 181
61 98 180
62 99 181
62 99 180
62 99 181
61 99 180
62 99 180
62 99 181
61 99 181
61 99 180
61 98 177
62 99 181
62 98 179
61 98 175
62 99 179
95 124 160
140 165 113
167 190 54
172 195 0
173 196 0
174 198 0
173 196 0
173 196 0
173 196 0
173 197 0
171 195 0
172 195 0
173 196 0
173 196 0
173 197 0
173 196 0
171 195 0
172 195 0
169 192 0
171 194 0
173 196 0
174 196 0
173 195 0
172 195 0
173 196 0
171 194 0
174 197 0
173 197 0
172 196 0
163 175 0
154 152 0
157 153 0
157 154 19
199 183 111
200 183 114
198 182 114
197 182 114
195 181 114
194 180 114
192 180 114
191 179 114
190 179 114
189 178 114
188 177 114
187 177 114
185 176 114
184 176 114
183 175 114
182 175 114
181 174 114
180 174 114
180 174 114
179 173 114
178 173 114
177 172 114
176 172 114
175 172 114
175 171 114
174 171 114
173 171 114
172 170 114
172 170 114
171 170 114
170 169 114
170 169 114
169 169 114
169 169 114
168 168 114
168 168 114
167 168 114
167 168 114
166 168 114
166 167 114
166 167 114
165 167 114
165 167 114
164 167 114
164 167 114
164 166 114
164 166 114
163 166 114
163 166 114
163 166 114
163 166 114
163 166 114
163 166 114
162 166 114
162 166 114
162 166 114
162 166 114
162 166 114
162 166 114
162 166 114
162 166 114
163 166 114
163 166 114
163 166 114
163 166 114
163 166 114
163 166 114
164 166 114
164 166 114
164 167 114
164 167 114
165 167 114
165 167 114
166 167 114
166 167 114
166 168 114
167 168 114
167 168 114
168 168 114
168 169 114
169 169 114
170 169 114
170 169 114
171 170 114
172 170 114
172 170 114
173 171 114
174 171 114
174 171 114
175 172 114
176 172 114
177 172 114
178 173 114
179 173 114
180 174 114
181 174 114
182 175 114
183 175 114
184 176 114
185 176 114
186 177 114
188 177 114
189 178 114
190 179 114
192 179 114
193 180 114
195 181 114
196 182 114
198 182 114
200 183 114
181 170 81
156 153 0
156 158 0
173 197 0
175 197 0
174 197 0
175 198 0
174 197 0
173 197 0
174 198 0
174 196 0
172 196 0
173 197 0
173 197 0
174 197 0
174 197 0
173 196 0
174 197 0
175 197 0
174 196 0
174 197 0
174 197 0
174 196 0
174 198 0
175 198 0
174 197 0
174 197 0
174 197 0
174 197 0
173 196 0
173 197 0
173 197 0
174 197 0
175 197 0
173 196 0
175 198 0
174 198 0
173 197 0
174 198 0
174 197 0
174 198 0
170 194 0
174 197 0
174 198 0
173 196 0
174 198 0
175 198 0
174 198 0
175 198 0
174 197 0
175 198 0
174 198 0
174 197 0
173 197 0
175 198 0
173 197 0
172 196 0
172 196 0
173 197 0
174 198 0
172 195 0
174 197 0
173 197 0
175 198 0
172 197 0
174 197 0
174 197 0
172 196 0
174 197 0
173 197 0
174 198 0
173 197 0
173 197 0
173 197 0
173 197 0
173 197 0
174 198 0
173 196 0
173 197 0
173 197 0
172 195 0
174 197 0
173 197 0
173 197 0
174 198 0
174 197 0
176 199 0
176 199 0
174 197 0
175 198 0
173 196 0
174 197 0
175 197 0
175 198 0
173 197 0
174 197 0
174 197 0
173 197 0
174 197 0
172 196 0
175 198 0
175 198 0
174 198 0
174 197 0
174 197 0
171 194 0
173 197 0
174 197 0
173 196 0
174 198 0
174 197 0
174 198 0
171 195 0
174 197 0
173 197 0
171 195 0
172 195 0
174 197 0
176 198 0
174 197 0
173 196 0
173 197 0
172 195 0
173 196 0
172 195 0
173 196 0
174 197 0
173 196 0
174 197 0
173 197 0
172 197 0
174 197 0
173 197 0
172 196 0
173 196 0
173 196 0
173 197 0
173 197 0
172 195 0
174 197 0
171 195 0
174 197 0
172 195 0
173 197 0
172 195 0
176 198 0
173 196 0
173 197 0
175 198 0
173 197 0
173 196 0
172 195 0
173 196 0
173 197 0
173 196 0
173 196 0
171 196 0
171 195 0
175 198 0
171 195 0
173 197 0
174 197 0
172 195 0
173 197 0
171 196 0
174 197 0
173 196 0
174 197 0
174 198 0
174 197 0
176 198 0
174 197 0
174 197 0
175 198 0
173 197 0
173 195 0
174 198 0
174 197 0
172 195 0
177 199 0
175 197 0
173 195 0
173 195 0
170 194 0
174 197 0
173 196 0
172 195 0
172 196 0
174 197 0
171 195 0
172 195 0
172 195 0
174 198 0
175 198 0
171 195 0
173 196 0
173 196 0
174 197 0
173 197 0
172 195 0
173 196 0
173 195 0
172 197 0
174 197 0
174 197 0
157 181 74
113 140 143
72 106 174
62 99 178
62 99 179
61 99 180
62 99 181
62 99 181
62 99 181
62 99 180
62 99 181
61 99 181
62 99 181
61 98 181
61 98 181
62 99 181
61 99 181
62 99 181
62 99 181
61 99 181
61 99 181
61 99 181
61 99 181
61 98 181
61 98 181
61 99 181
61 98 181
61 98 181
61 98 181
62 99 181
61 98 181
61 99 181
61 99 181
61 98 181
62 99 181
61 98 181
62 99 180
61 99 181
62 99 181
62 99 181
61 98 181
61 98 181
61 98 180
61 99 180
62 99 180
62 99 180
61 99 181
61 99 181
62 99 179
62 99 180
62 99 181
62 99 180
62 99 177
62 98 177
64 100 175
115 142 142
152 177 89
174 197 0
171 194 0
172 196 0
175 198 0
173 195 0
173 196 0
175 197 0
174 197 0
173 196 0
176 198 0
174 196 0
176 198 0
170 192 0
172 195 0
172 194 0
171 195 0
174 196 0
172 196 0
173 195 0
175 198 0
171 194 0
170 193 0
174 196 0
171 192 0
156 153 0
155 152 0
155 153 0
171 163 62
201 184 114
199 183 114
198 182 114
196 182 114
195 181 114
193 180 114
192 180 114
191 179 114
190 178 114
189 178 114
188 177 114
186 177 114
185 176 114
184 176 114
183 175 114
182 175 114
181 175 114
181 174 114
180 174 114
179 173 114
178 173 114
177 172 114
176 172 114
176 172 114
175 171 114
174 171 114
173 171 114
173 170 114
172 170 114
171 170 114
171 170 114
170 169 114
170 169 114
169 169 114
168 169 114
168 168 114
167 168 114
167 168 114
167 168 114
166 168 114
166 167 114
165 167 114
165 167 114
165 167 114
164 167 114
164 167 114
164 167 114
164 166 114
163 166 114
163 166 114
163 166 114
163 166 114
163 166 114
163 166 114
163 166 114
163 166 114
163 166 114
163 166 114
163 166 114
163 166 114
163 166 114
163 166 114
163 166 114
163 166 114
163 166 114
163 166 114
164 166 114
164 166 114
164 167 114
164 167 114
165 167 114
165 167 114
165 167 114
166 167 114
166 168 114
167 168 114
167 168 114
168 168 114
168 168 114
169 169 114
169 169 114
170 169 114
170 169 114
171 170 114
172 170 114
172 170 114
173 171 114
174 171 114
175 171 114
175 172 114
176 172 114
177 172 114
178 173 114
179 173 114
180 174 114
181 174 114
182 175 114
183 175 114
184 176 114
185 176 114
186 177 114
187 177 114
189 178 114
190 178 114
191 179 114
193 180 114
194 181 114
196 181 114
198 182 114
199 183 114
197 181 108
156 153 0
158 154 0
169 186 0
173 197 0
173 197 0
176 198 0
175 198 0
174 197 0
174 197 0
173 197 0
174 198 0
173 197 0
174 197 0
176 198 0
173 196 0
175 198 0
173 196 0
173 196 0
174 197 0
174 197 0
172 196 0
174 197 0
175 198 0
174 197 0
172 196 0
173 197 0
172 197 0
175 197 0
174 197 0
175 198 0
173 196 0
175 198 0
174 197 0
174 196 0
174 197 0
175 198 0
174 197 0
174 197 0
176 199 0
174 197 0
174 197 0
174 197 0
176 198 0
175 198 0
173 197 0
174 197 0
175 198 0
174 197 0
175 198 0
174 197 0
175 197 0
174 197 0
175 198 0
175 198 0
175 198 0
174 198 0
174 197 0
171 194 0
174 198 0
172 196 0
173 197 0
173 197 0
175 198 0
174 198 0
173 197 0
174 197 0
173 197 0
175 198 0
173 196 0
173 197 0
173 197 0
175 198 0
175 198 0
174 198 0
174 197 0
174 197 0
171 196 0
174 197 0
173 196 0
174 197 0
172 196 0
173 196 0
175 198 0
174 198 0
174 197 0
174 197 0
173 197 0
174 197 0
175 198 0
173 197 0
173 197 0
174 197 0
175 198 0
175 197 0
172 196 0
172 197 0
174 198 0
173 197 0
173 197 0
174 197 0
173 196 0
174 198 0
174 197 0
173 196 0
173 197 0
173 197 0
174 197 0
175 198 0
173 196 0
175 198 0
174 197 0
173 197 0
175 198 0
174 197 0
173 196 0
174 196 0
173 195 0
174 197 0
174 197 0
175 198 0
171 195 0
175 197 0
174 197 0
173 196 0
176 199 0
173 197 0
174 198 0
172 196 0
174 197 0
174 197 0
174 197 0
173 197 0
173 197 0
173 197 0
172 196 0
174 197 0
173 197 0
173 196 0
173 197 0
174 197 0
175 198 0
174 197 0
174 198 0
175 198 0
174 197 0
175 198 0
174 197 0
174 197 0
173 196 0
174 197 0
173 197 0
172 196 0
173 197 0
172 196 0
173 197 0
173 196 0
174 198 0
174 197 0
173 196 0
173 197 0
171 195 0
175 198 0
171 195 0
172 196 0
174 197 0
172 195 0
171 194 0
171 195 0
174 198 0
172 195 0
173 195 0
174 198 0
174 197 0
173 196 0
174 197 0
174 196 0
172 195 0
171 194 0
175 198 0
174 197 0
173 196 0
174 197 0
172 195 0
172 196 0
174 197 0
173 195 0
172 195 0
173 196 0
172 195 0
174 196 0
171 194 0
174 197 0
174 197 0
172 196 0
174 197 0
173 196 0
174 197 0
174 197 0
174 197 0
172 195 0
172 195 0
173 196 0
144 170 103
92 122 162
62 99 178
62 99 179
62 99 181
61 99 178
62 99 180
62 99 179
61 99 180
61 99 181
62 99 181
61 99 181
61 99 181
61 99 181
62 99 181
61 99 181
62 99 181
62 99 181
61 99 181
62 99 181
61 98 181
62 99 181
61 99 181
61 98 181
61 99 181
61 99 181
61 99 181
62 99 181
61 98 181
61 99 181
61 98 181
61 98 181
61 98 181
61 99 181
61 99 181
62 99 181
61 99 181
61 99 181
61 99 181
61 98 180
62 99 181
61 98 181
61 99 180
62 99 181
61 98 181
62 99 181
62 99 180
62 99 181
62 99 181
62 99 181
61 98 178
62 99 181
62 99 179
62 98 178
61 98 178
61 98 177
62 99 180
61 99 180
61 98 177
113 140 146
153 176 87
174 197 0
173 195 0
174 196 0
171 194 0
173 196 0
172 195 0
174 196 0
171 195 0
175 198 0
174 197 0
171 194 0
171 194 0
174 196 0
174 197 0
172 195 0
172 194 0
172 194 0
175 197 0
171 194 0
175 197 0
174 197 0
166 181 0
156 153 0
155 152 0
156 153 0
184 172 87
200 183 114
199 183 114
197 182 114
196 181 114
195 181 114
193 180 114
192 180 114
191 179 114
190 178 114
189 178 114
187 177 114
186 177 114
185 176 114
184 176 114
183 175 114
182 175 114
182 175 114
181 174 114
180 174 114
179 173 114
178 173 114
177 173 114
176 172 114
176 172 114
175 171 114
174 171 114
174 171 114
173 171 114
172 170 114
172 170 114
171 170 114
170 169 114
170 169 114
169 169 114
169 169 114
168 168 114
168 168 114
167 168 114
167 168 114
166 168 114
166 167 114
166 167 114
165 167 114
165 167 114
165 167 114
164 167 114
164 167 114
164 167 114
164 166 114
164 166 114
163 166 114
163 166 114
163 166 114
163 166 114
163 166 114
163 166 114
163 166 114
163 166 114
163 166 114
163 166 114
163 166 114
163 166 114
163 166 114
163 166 114
164 166 114
164 166 114
164 167 114
164 167 114
164 167 114
165 167 114
165 167 114
165 167 114
166 167 114
166 167 114
166 168 114
167 168 114
167 168 114
168 168 114
168 168 114
169 169 114
169 169 114
170 169 114
171 169 114
171 170 114
172 170 114
172 170 114
173 171 114
174 171 114
175 171 114
175 172 114
176 172 114
177 172 114
178 173 114
179 173 114
180 174 114
181 174 114
182 175 114
183 175 114
184 176 114
185 176 114
186 177 114
187 177 114
188 178 114
190 178 114
191 179 114
192 180 114
194 180 114
195 181 114
197 182 114
199 183 114
201 184 114
166 160 51
155 153 0
162 167 0
174 197 0
173 197 0
174 197 0
172 196 0
174 197 0
173 196 0
174 197 0
174 196 0
175 198 0
173 196 0
173 196 0
172 195 0
174 197 0
173 196 0
174 197 0
172 196 0
173 196 0
172 196 0
173 197 0
174 198 0
172 196 0
174 197 0
174 196 0
174 197 0
175 198 0
174 196 0
175 198 0
174 197 0
173 196 0
172 196 0
175 198 0
173 196 0
175 198 0
174 197 0
175 198 0
177 199 0
173 196 0
174 198 0
173 197 0
174 198 0
174 197 0
174 197 0
175 198 0
173 197 0
173 197 0
174 197 0
175 198 0
174 197 0
174 197 0
173 196 0
176 198 0
174 197 0
174 197 0
172 196 0
176 198 0
174 198 0
175 198 0
172 195 0
172 195 0
174 197 0
176 198 0
175 198 0
173 197 0
174 197 0
175 198 0
172 197 0
173 196 0
171 195 0
174 198 0
172 196 0
174 198 0
175 198 0
177 199 0
174 197 0
174 198 0
174 198 0
175 198 0
173 196 0
175 198 0
173 197 0
173 197 0
171 195 0
173 196 0
175 198 0
173 196 0
174 197 0
174 197 0
174 197 0
174 198 0
175 198 0
174 198 0
172 195 0
173 197 0
173 197 0
175 198 0
174 197 0
174 198 0
173 197 0
173 197 0
169 193 0
175 198 0
173 197 0
173 196 0
173 197 0
172 196 0
171 195 0
175 198 0
175 198 0
174 197 0
174 198 0
174 197 0
175 198 0
173 197 0
174 197 0
174 197 0
172 196 0
172 196 0
172 195 0
172 196 0
174 198 0
171 195 0
173 196 0
173 196 0
174 198 0
173 196 0
175 198 0
174 198 0
173 196 0
173 197 0
174 197 0
174 197 0
174 197 0
172 197 0
174 198 0
174 198 0
174 197 0
173 196 0
173 196 0
173 195 0
173 196 0
175 198 0
174 197 0
173 196 0
175 198 0
175 198 0
173 197 0
173 196 0
174 197 0
173 196 0
172 195 0
174 197 0
173 197 0
174 197 0
172 195 0
173 196 0
172 196 0
171 195 0
175 198 0
173 196 0
173 197 0
172 195 0
174 197 0
172 196 0
172 196 0
175 197 0
174 197 0
172 196 0
175 198 0
173 197 0
174 197 0
173 197 0
173 196 0
173 196 0
175 197 0
173 197 0
173 196 0
172 194 0
174 197 0
174 197 0
173 197 0
173 197 0
173 196 0
172 197 0
173 197 0
173 196 0
173 196 0
173 196 0
173 196 0
174 198 0
172 195 0
172 196 0
173 197 0
174 196 0
175 197 0
174 196 0
172 196 0
172 195 18
131 156 128
89 119 164
62 99 176
62 99 178
62 99 179
62 99 181
61 99 181
61 99 180
62 99 179
62 99 179
62 99 181
62 99 181
62 99 181
62 99 181
62 99 181
62 99 181
61 99 181
62 99 181
62 99 181
62 99 181
62 99 181
61 99 181
62 99 181
61 99 181
62 99 181
62 99 181
61 99 181
61 99 181
61 98 181
62 99 181
61 98 181
62 99 181
61 98 181
61 98 181
61 99 181
61 99 181
62 99 181
61 99 181
61 99 181
61 99 181
61 99 181
61 98 180
61 98 180
62 99 180
62 99 181
62 99 181
61 98 180
61 99 180
61 99 181
62 99 181
61 99 181
62 99 180
62 99 179
62 99 180
62 99 181
61 98 178
62 98 177
62 99 180
61 98 176
62 98 176
62 98 177
62 99 177
61 98 174
90 120 162
138 163 113
172 195 18
173 197 0
172 193 0
174 197 0
172 195 0
173 196 0
170 193 0
172 195 0
172 195 0
171 193 0
171 194 0
171 194 0
172 195 0
172 195 0
175 196 0
172 195 0
174 197 0
170 193 0
172 195 0
157 157 0
156 153 0
155 153 0
154 152 0
193 178 102
200 183 114
198 183 114
197 182 114
196 181 114
194 181 114
193 180 114
192 179 114
191 179 114
190 178 114
189 178 114
187 177 114
186 177 114
185 176 114
184 176 114
184 175 114
183 175 114
182 175 114
181 174 114
180 174 114
179 173 114
178 173 114
177 173 114
177 172 114
176 172 114
175 172 114
174 171 114
174 171 114
173 171 114
172 170 114
172 170 114
171 170 114
171 170 114
170 169 114
170 169 114
169 169 114
169 169 114
168 168 114
168 168 114
167 168 114
167 168 114
166 168 114
166 167 114
166 167 114
165 167 114
165 167 114
165 167 114
165 167 114
164 167 114
164 167 114
164 167 114
164 166 114
164 166 114
164 166 114
163 166 114
163 166 114
163 166 114
163 166 114
163 166 114
163 166 114
163 166 114
163 166 114
163 166 114
164 166 114
164 166 114
164 167 114
164 167 114
164 167 114
165 167 114
165 167 114
165 167 114
165 167 114
166 167 114
166 167 114
166 168 114
167 168 114
167 168 114
168 168 114
168 168 114
169 169 114
169 169 114
170 169 114
170 169 114
171 170 114
171 170 114
172 170 114
173 170 114
173 171 114
174 171 114
175 171 114
176 172 114
176 172 114
177 173 114
178 173 114
179 173 114
180 174 114
181 174 114
182 175 114
183 175 114
184 176 114
185 176 114
186 177 114
187 177 114
188 178 114
189 178 114
191 179 114
192 180 114
194 180 114
195 181 114
197 182 114
198 183 114
200 183 114
182 170 83
155 153 0
157 153 0
173 194 0
175 198 0
174 197 0
176 199 0
175 198 0
174 197 0
174 197 0
173 197 0
173 196 0
175 198 0
175 198 0
173 197 0
175 198 0
174 197 0
174 198 0
174 198 0
172 196 0
173 197 0
173 196 0
173 197 0
172 196 0
175 198 0
175 198 0
173 197 0
173 197 0
175 197 0
172 195 0
175 198 0
173 197 0
173 196 0
173 197 0
174 198 0
175 198 0
175 198 0
176 199 0
174 197 0
174 197 0
172 195 0
175 198 0
174 197 0
174 197 0
173 197 0
175 197 0
173 197 0
175 198 0
174 198 0
173 197 0
175 198 0
175 198 0
173 196 0
173 197 0
177 199 0
175 198 0
174 197 0
174 197 0
175 198 0
173 197 0
175 197 0
176 199 0
173 197 0
173 197 0
174 197 0
174 198 0
172 195 0
174 197 0
173 197 0
174 197 0
173 197 0
174 197 0
175 198 0
174 197 0
173 197 0
175 197 0
174 198 0
175 198 0
173 197 0
174 198 0
173 197 0
174 198 0
173 197 0
175 198 0
173 197 0
173 197 0
173 197 0
175 198 0
175 198 0
174 197 0
172 194 0
175 198 0
173 196 0
172 196 0
173 196 0
174 197 0
173 197 0
173 197 0
172 195 0
173 197 0
175 198 0
173 197 0
173 197 0
174 197 0
173 196 0
172 196 0
174 197 0
172 195 0
174 198 0
173 197 0
173 197 0
172 195 0
170 194 0
174 197 0
171 195 0
175 198 0
173 197 0
174 197 0
173 196 0
174 197 0
175 197 0
172 195 0
176 199 0
173 196 0
174 197 0
172 194 0
173 197 0
174 197 0
174 197 0
173 196 0
174 197 0
174 198 0
175 198 0
174 197 0
171 195 0
173 197 0
172 196 0
173 197 0
172 196 0
174 198 0
173 196 0
172 196 0
173 196 0
175 198 0
174 197 0
172 196 0
173 196 0
172 196 0
172 195 0
175 198 0
173 197 0
174 197 0
173 197 0
173 196 0
173 196 0
173 196 0
173 197 0
173 196 0
173 196 0
174 197 0
174 197 0
172 195 0
173 196 0
175 198 0
173 196 0
174 197 0
172 195 0
174 197 0
173 197 0
171 195 0
171 195 0
174 197 0
173 197 0
174 197 0
174 197 0
170 195 0
173 197 0
174 197 0
172 196 0
174 197 0
172 195 0
174 196 0
174 197 0
171 194 0
170 194 0
173 197 0
172 195 0
173 196 0
172 195 0
173 197 0
173 196 0
173 195 0
173 196 0
173 196 0
173 196 0
174 197 0
174 197 0
172 196 0
138 163 114
85 117 167
62 99 179
62 99 180
61 98 179
62 99 179
61 98 180
62 99 179
62 99 179
62 99 181
62 99 181
62 99 181
62 99 181
62 99 181
61 98 181
62 99 180
62 99 181
61 98 181
62 99 181
62 99 181
61 98 181
62 99 181
62 99 181
61 99 181
61 99 181
62 99 181
62 99 181
61 98 181
61 99 181
62 99 181
61 99 181
62 99 181
61 98 181
61 98 181
62 99 181
62 99 181
62 99 181
62 99 181
61 98 181
61 99 181
61 98 181
61 99 181
61 98 181
61 99 181
62 99 181
61 98 181
62 99 181
61 98 181
62 99 179
61 99 181
62 99 181
62 99 181
62 99 181
61 98 179
61 98 180
62 99 180
62 99 181
61 98 178
62 99 179
62 99 180
62 99 178
62 98 177
62 99 179
61 98 177
61 98 178
62 99 179
61 97 173
96 126 158
149 173 95
173 195 0
172 195 0
172 195 0
173 196 0
172 196 0
173 196 0
174 195 0
173 196 0
170 193 0
173 196 0
173 196 0
173 197 0
172 196 0
172 195 0
173 195 0
171 194 0
168 185 0
155 152 0
157 154 0
157 153 0
157 154 11
200 183 112
200 183 114
198 183 114
197 182 114
196 181 114
194 181 114
193 180 114
192 179 114
191 179 114
190 178 114
189 178 114
188 177 114
187 177 114
186 176 114
185 176 114
184 176 114
183 175 114
182 175 114
181 174 114
180 174 114
179 173 114
178 173 114
178 173 114
177 172 114
176 172 114
175 172 114
175 171 114
174 171 114
173 171 114
173 170 114
172 170 114
172 170 114
171 170 114
170 169 114
170 169 114
169 169 114
169 169 114
168 169 114
168 168 114
168 168 114
167 168 114
167 168 114
166 168 114
166 167 114
166 167 114
165 167 114
165 167 114
165 167 114
165 167 114
165 167 114
164 167 114
164 167 114
164 167 114
164 167 114
164 166 114
164 166 114
164 166 114
164 166 114
164 166 114
164 166 114
164 166 114
164 166 114
164 167 114
164 167 114
164 167 114
164 167 114
164 167 114
165 167 114
165 167 114
165 167 114
165 167 114
166 167 114
166 167 114
166 168 114
167 168 114
167 168 114
168 168 114
168 168 114
168 169 114
169 169 114
169 169 114
170 169 114
170 169 114
171 170 114
172 170 114
172 170 114
173 171 114
174 171 114
174 171 114
175 172 114
176 172 114
177 172 114
177 173 114
178 173 114
179 173 114
180 174 114
181 174 114
182 175 114
183 175 114
184 176 114
185 176 114
186 177 114
187 177 114
188 178 114
189 178 114
191 179 114
192 180 114
193 180 114
195 181 114
196 182 114
198 182 114
200 183 114
194 179 103
156 153 0
155 153 0
163 173 0
174 197 0
172 195 0
174 198 0
173 196 0
174 197 0
174 197 0
173 196 0
173 196 0
174 198 0
173 197 0
175 198 0
174 196 0
174 198 0
173 196 0
173 196 0
174 197 0
174 198 0
174 198 0
173 196 0
175 198 0
174 196 0
174 197 0
173 196 0
172 196 0
174 197 0
174 198 0
173 197 0
174 197 0
171 195 0
173 197 0
173 196 0
175 198 0
174 197 0
176 199 0
173 196 0
174 197 0
174 198 0
174 197 0
174 197 0
173 197 0
174 196 0
173 196 0
173 196 0
174 198 0
174 197 0
174 197 0
174 197 0
173 196 0
174 197 0
174 198 0
175 198 0
172 196 0
173 197 0
175 198 0
174 196 0
174 198 0
173 196 0
173 197 0
172 196 0
172 197 0
172 196 0
174 198 0
175 198 0
174 197 0
174 197 0
173 196 0
173 196 0
172 195 0
173 197 0
173 197 0
174 197 0
174 197 0
173 197 0
174 197 0
175 198 0
172 196 0
174 198 0
173 197 0
173 196 0
174 197 0
174 197 0
172 195 0
174 198 0
173 197 0
174 196 0
172 196 0
175 198 0
173 196 0
174 197 0
172 196 0
173 196 0
172 196 0
172 196 0
173 197 0
175 198 0
172 196 0
171 196 0
173 197 0
173 196 0
174 198 0
172 195 0
175 198 0
171 195 0
173 197 0
173 196 0
171 195 0
174 197 0
175 197 0
174 198 0
173 196 0
175 198 0
171 195 0
172 196 0
171 194 0
174 198 0
173 196 0
173 197 0
174 197 0
174 198 0
174 197 0
174 198 0
174 197 0
174 197 0
173 197 0
172 196 0
174 197 0
171 195 0
173 196 0
173 196 0
174 197 0
174 197 0
174 197 0
175 198 0
174 197 0
173 196 0
174 197 0
177 199 0
175 197 0
173 197 0
174 198 0
173 196 0
173 196 0
175 197 0
172 195 0
174 197 0
174 198 0
173 197 0
173 197 0
171 195 0
174 196 0
172 196 0
172 195 0
172 196 0
174 197 0
173 197 0
173 197 0
175 197 0
172 196 0
171 195 0
171 195 0
174 197 0
172 195 0
174 197 0
174 197 0
171 193 0
172 195 0
173 197 0
172 195 0
174 197 0
172 195 0
172 195 0
173 196 0
174 197 0
174 197 0
171 195 0
171 194 0
172 195 0
172 195 0
173 196 0
174 196 0
171 194 0
172 195 0
170 195 0
173 197 0
171 195 0
173 196 0
172 196 0
174 196 0
173 196 0
170 194 0
175 197 0
175 197 0
158 181 78
90 121 158
62 99 177
61 98 175
62 99 176
63 100 180
62 99 179
62 99 180
62 99 179
62 99 181
62 99 180
63 100 180
61 99 181
62 99 178
62 99 181
62 99 181
62 99 181
61 99 181
62 99 181
62 99 181
62 99 181
61 98 181
61 99 181
61 99 181
62 99 181
61 99 181
61 99 181
61 98 181
62 99 181
61 99 181
61 99 181
62 99 181
61 99 181
61 99 181
61 99 181
61 98 181
61 99 181
62 99 181
61 98 181
61 99 181
61 98 181
61 99 181
62 99 181
62 99 181
61 98 181
61 98 181
62 99 181
62 99 181
62 99 181
61 99 181
61 99 181
61 99 181
62 99 181
61 99 181
61 98 180
62 99 181
61 98 181
62 99 179
61 99 180
61 98 177
62 98 178
62 99 180
62 99 179
62 98 178
62 99 180
62 99 178
62 99 179
62 98 176
62 99 176
61 98 177
61 97 173
102 131 154
156 179 77
171 194 0
173 196 0
172 195 0
173 196 0
169 191 0
173 196 0
171 194 0
170 193 0
171 194 0
173 196 0
172 194 0
173 196 0
173 196 0
173 196 0
159 166 0
154 152 0
156 153 0
156 153 0
165 159 47
201 184 114
200 183 114
198 182 114
197 182 114
195 181 114
194 181 114
193 180 114
192 179 114
191 179 114
190 178 114
189 178 114
188 177 114
187 177 114
186 176 114
185 176 114
184 176 114
183 175 114
182 175 114
181 174 114
180 174 114
180 174 114
179 173 114
178 173 114
177 173 114
176 172 114
176 172 114
175 172 114
174 171 114
174 171 114
173 171 114
172 170 114
172 170 114
171 170 114
171 170 114
170 169 114
170 169 114
169 169 114
169 169 114
168 168 114
168 168 114
168 168 114
167 168 114
167 168 114
166 168 114
166 168 114
166 167 114
166 167 114
165 167 114
165 167 114
165 167 114
165 167 114
165 167 114
164 167 114
164 167 114
164 167 114
164 167 114
164 167 114
164 167 114
164 167 114
164 167 114
164 167 114
164 167 114
164 167 114
164 167 114
165 167 114
165 167 114
165 167 114
165 167 114
165 167 114
166 167 114
166 167 114
166 167 114
166 168 114
167 168 114
167 168 114
167 168 114
168 168 114
168 168 114
169 169 114
169 169 114
170 169 114
170 169 114
171 170 114
171 170 114
172 170 114
173 170 114
173 171 114
174 171 114
174 171 114
175 172 114
176 172 114
177 172 114
178 173 114
178 173 114
179 173 114
180 174 114
181 174 114
182 175 114
183 175 114
184 176 114
185 176 114
186 177 114
187 177 114
188 178 114
189 178 114
191 179 114
192 179 114
193 180 114
195 181 114
196 181 114
198 182 114
199 183 114
201 184 114
158 155 25
155 153 0
159 160 0
173 196 0
175 198 0
174 198 0
174 197 0
174 198 0
171 194 0
175 198 0
175 197 0
173 197 0
174 197 0
176 198 0
174 198 0
173 196 0
172 195 0
176 198 0
174 197 0
175 198 0
173 196 0
174 197 0
174 198 0
173 196 0
174 197 0
173 197 0
174 197 0
175 198 0
175 198 0
174 196 0
174 197 0
174 197 0
172 195 0
175 198 0
173 196 0
174 197 0
175 197 0
174 197 0
171 196 0
173 197 0
174 197 0
173 196 0
174 198 0
174 197 0
173 196 0
172 197 0
174 197 0
175 198 0
174 198 0
174 197 0
174 197 0
175 198 0
174 198 0
173 197 0
174 197 0
176 198 0
173 197 0
174 198 0
174 197 0
173 196 0
174 197 0
173 197 0
174 198 0
174 197 0
172 196 0
174 197 0
174 198 0
173 197 0
174 197 0
174 197 0
174 198 0
171 196 0
174 197 0
173 197 0
173 197 0
173 197 0
172 196 0
173 197 0
175 198 0
172 196 0
173 196 0
174 197 0
174 198 0
173 197 0
175 198 0
173 196 0
174 198 0
173 197 0
173 197 0
173 197 0
175 198 0
173 197 0
173 197 0
176 199 0
174 197 0
173 197 0
174 197 0
173 196 0
173 197 0
174 197 0
173 197 0
175 198 0
174 197 0
174 198 0
172 196 0
173 197 0
172 196 0
175 198 0
173 196 0
174 197 0
175 198 0
174 197 0
174 197 0
177 199 0
174 197 0
173 196 0
174 197 0
173 197 0
172 196 0
174 197 0
172 195 0
172 196 0
173 197 0
175 198 0
172 196 0
175 197 0
172 196 0
175 197 0
175 198 0
174 198 0
173 196 0
173 197 0
173 197 0
175 198 0
173 197 0
175 198 0
171 195 0
174 197 0
174 196 0
172 196 0
174 197 0
172 195 0
174 197 0
174 197 0
176 198 0
174 197 0
171 194 0
173 196 0
171 194 0
172 196 0
173 197 0
171 195 0
174 197 0
173 196 0
171 195 0
172 195 0
175 198 0
173 197 0
174 197 0
173 197 0
174 197 0
173 197 0
173 197 0
173 196 0
175 198 0
174 197 0
172 195 0
173 196 0
174 197 0
173 196 0
173 195 0
173 197 0
173 195 0
172 196 0
171 194 0
174 197 0
172 196 0
174 196 0
174 198 0
175 198 0
174 197 0
174 198 0
173 197 0
174 197 0
171 195 0
172 195 0
174 198 0
172 196 0
175 198 0
174 197 0
172 195 0
173 197 0
171 194 0
167 190 47
115 142 131
64 101 176
61 99 178
61 98 175
62 99 179
62 99 179
62 99 179
62 99 179
62 99 179
62 99 181
62 99 180
62 99 179
62 99 181
62 99 181
61 98 179
61 99 180
62 99 181
61 99 181
62 99 181
62 99 181
61 99 181
62 99 181
61 98 181
62 99 181
61 99 181
62 99 181
62 99 181
61 99 181
61 99 181
61 99 181
61 98 181
61 99 181
62 99 181
61 98 181
62 99 181
62 99 181
61 99 181
61 99 181
62 99 181
62 99 181
61 99 181
62 99 181
62 99 181
61 99 181
61 99 181
61 98 181
61 98 181
62 99 181
61 99 181
62 99 181
61 98 181
61 99 181
62 99 181
62 99 181
61 98 180
61 98 180
62 99 181
62 99 180
62 99 179
62 99 180
62 99 181
62 99 178
62 99 181
62 99 181
62 99 178
61 98 179
62 99 180
62 99 180
61 98 175
62 99 180
62 99 178
62 97 173
62 99 178
64 100 174
111 137 147
168 191 48
170 194 0
171 195 0
173 196 0
173 195 0
172 195 0
171 192 0
173 194 0
173 194 0
173 196 0
170 194 0
172 195 0
169 189 0
156 153 0
156 153 0
156 153 0
155 153 0
169 162 58
201 184 114
199 183 114
198 182 114
197 182 114
195 181 114
194 181 114
193 180 114
192 180 114
191 179 114
190 178 114
189 178 114
188 178 114
187 177 114
186 177 114
185 176 114
184 176 114
183 175 114
182 175 114
181 174 114
181 174 114
180 174 114
179 173 114
178 173 114
177 173 114
177 172 114
176 172 114
175 172 114
175 171 114
174 171 114
173 171 114
173 171 114
172 170 114
172 170 114
171 170 114
171 170 114
170 169 114
170 169 114
169 169 114
169 169 114
168 169 114
168 168 114
168 168 114
167 168 114
167 168 114
167 168 114
166 168 114
166 167 114
166 167 114
166 167 114
165 167 114
165 167 114
165 167 114
165 167 114
165 167 114
165 167 114
165 167 114
165 167 114
165 167 114
165 167 114
165 167 114
165 167 114
165 167 114
165 167 114
165 167 114
165 167 114
165 167 114
165 167 114
166 167 114
166 167 114
166 167 114
166 168 114
167 168 114
167 168 114
167 168 114
168 168 114
168 168 114
168 168 114
169 169 114
169 169 114
170 169 114
170 169 114
171 169 114
171 170 114
172 170 114
172 170 114
173 171 114
173 171 114
174 171 114
175 171 114
175 172 114
176 172 114
177 172 114
178 173 114
179 173 114
179 174 114
180 174 114
181 174 114
182 175 114
183 175 114
184 176 114
185 176 114
186 177 114
187 177 114
188 178 114
189 178 114
191 179 114
192 179 114
193 180 114
194 181 114
196 181 114
197 182 114
199 183 114
201 184 114
169 162 59
154 152 0
156 153 0
172 192 0
174 197 0
174 198 0
174 197 0
174 197 0
174 197 0
173 195 0
174 196 0
174 198 0
174 198 0
173 195 0
173 197 0
172 195 0
175 198 0
172 196 0
173 197 0
173 197 0
173 196 0
173 197 0
172 195 0
174 197 0
175 198 0
172 195 0
173 196 0
174 197 0
173 197 0
174 197 0
172 196 0
174 198 0
173 197 0
175 198 0
173 197 0
176 199 0
176 198 0
173 197 0
175 197 0
175 197 0
174 197 0
175 198 0
174 197 0
175 198 0
176 199 0
173 197 0
175 198 0
175 198 0
175 198 0
173 196 0
175 197 0
174 197 0
172 195 0
174 198 0
174 197 0
176 199 0
173 197 0
173 196 0
174 197 0
172 196 0
175 198 0
174 197 0
173 197 0
175 198 0
173 197 0
175 198 0
172 196 0
175 198 0
173 197 0
174 197 0
174 197 0
174 197 0
172 196 0
174 197 0
173 196 0
175 198 0
174 197 0
175 198 0
175 198 0
173 197 0
173 196 0
175 198 0
175 198 0
175 198 0
174 197 0
174 197 0
172 196 0
173 196 0
172 196 0
172 196 0
173 197 0
172 196 0
173 196 0
173 197 0
174 197 0
172 196 0
175 198 0
172 196 0
173 196 0
174 197 0
174 198 0
171 195 0
172 197 0
174 197 0
173 197 0
172 196 0
174 198 0
174 197 0
175 198 0
175 198 0
173 196 0
176 198 0
172 196 0
175 198 0
172 196 0
174 197 0
174 197 0
172 196 0
174 197 0
172 195 0
175 197 0
173 197 0
175 198 0
174 197 0
173 196 0
173 197 0
173 196 0
173 196 0
174 197 0
173 196 0
175 197 0
173 197 0
173 196 0
171 196 0
172 196 0
173 196 0
174 197 0
174 196 0
171 194 0
174 197 0
173 196 0
172 196 0
171 194 0
170 193 0
176 198 0
172 195 0
174 197 0
175 197 0
174 197 0
173 197 0
174 198 0
173 196 0
174 197 0
171 194 0
172 195 0
174 197 0
172 196 0
173 196 0
172 196 0
174 197 0
173 196 0
174 198 0
174 197 0
172 195 0
173 195 0
175 198 0
171 194 0
174 197 0
172 195 0
172 195 0
173 197 0
171 195 0
167 192 0
174 197 0
171 195 0
174 198 0
170 194 0
173 195 0
172 194 0
174 197 0
173 197 0
171 195 0
174 197 0
174 197 0
173 197 0
171 194 0
171 195 0
171 193 0
173 195 0
172 195 0
174 197 0
171 195 0
134 158 113
72 106 173
62 99 174
62 99 181
62 99 176
63 100 178
62 99 177
62 99 181
62 99 179
62 99 179
61 98 179
62 99 180
62 99 180
62 99 180
62 99 181
61 98 179
62 99 180
61 99 181
61 99 181
62 99 181
62 99 181
62 99 181
62 99 181
62 99 181
61 99 181
62 99 181
61 98 181
62 99 181
61 99 181
61 99 181
62 99 181
61 99 181
61 99 181
61 99 181
61 99 181
62 99 181
61 99 181
61 99 181
62 99 181
62 99 181
61 98 181
62 99 181
61 98 181
62 99 181
61 98 181
62 99 181
61 99 181
61 99 181
62 99 181
62 99 181
61 99 181
61 99 181
61 99 181
62 99 180
61 98 181
62 99 181
62 99 181
62 99 181
62 99 181
62 99 181
62 99 181
62 99 180
62 99 181
61 98 178
61 99 180
61 99 180
61 98 178
62 98 178
62 99 179
62 99 180
61 98 177
62 99 178
61 98 175
61 98 176
61 97 172
62 98 176
61 98 176
79 112 166
149 172 95
172 195 0
173 195 0
172 194 0
174 196 0
172 195 0
172 195 0
171 194 0
171 194 0
174 196 0
173 196 0
166 178 0
155 152 0
155 152 0
156 153 0
156 153 0
175 166 70
200 184 114
199 183 114
198 182 114
197 182 114
196 181 114
194 181 114
193 180 114
192 180 114
191 179 114
190 179 114
189 178 114
188 178 114
187 177 114
186 177 114
185 176 114
184 176 114
183 175 114
183 175 114
182 175 114
181 174 114
180 174 114
179 173 114
179 173 114
178 173 114
177 172 114
176 172 114
176 172 114
175 172 114
174 171 114
174 171 114
173 171 114
173 170 114
172 170 114
172 170 114
171 170 114
171 169 114
170 169 114
170 169 114
169 169 114
169 169 114
168 169 114
168 168 114
168 168 114
167 168 114
167 168 114
167 168 114
167 168 114
166 168 114
166 167 114
166 167 114
166 167 114
166 167 114
165 167 114
165 167 114
165 167 114
165 167 114
165 167 114
165 167 114
165 167 114
165 167 114
165 167 114
165 167 114
165 167 114
165 167 114
165 167 114
166 167 114
166 167 114
166 167 114
166 168 114
166 168 114
167 168 114
167 168 114
167 168 114
168 168 114
168 168 114
168 168 114
169 169 114
169 169 114
170 169 114
170 169 114
170 169 114
171 170 114
171 170 114
172 170 114
173 170 114
173 171 114
174 171 114
174 171 114
175 172 114
176 172 114
176 172 114
177 173 114
178 173 114
179 173 114
180 174 114
180 174 114
181 174 114
182 175 114
183 175 114
184 176 114
185 176 114
186 177 114
187 177 114
188 178 114
189 178 114
191 179 114
192 179 114
193 180 114
194 181 114
196 181 114
197 182 114
199 183 114
200 184 114
182 171 84
156 153 0
156 153 0
164 175 0
173 197 0
173 196 0
175 198 0
173 197 0
174 198 0
174 197 0
173 195 0
175 198 0
173 195 0
174 197 0
175 198 0
172 195 0
174 197 0
174 197 0
174 197 0
174 197 0
173 197 0
174 197 0
175 198 0
175 197 0
175 198 0
173 197 0
172 196 0
174 197 0
174 198 0
174 197 0
173 196 0
175 197 0
173 197 0
173 196 0
173 196 0
175 198 0
176 198 0
173 197 0
176 198 0
174 197 0
173 197 0
174 198 0
173 196 0
173 197 0
175 198 0
175 198 0
175 198 0
175 197 0
173 196 0
175 198 0
175 198 0
174 197 0
172 196 0
173 196 0
173 196 0
174 197 0
174 198 0
175 198 0
173 197 0
173 197 0
173 197 0
174 198 0
173 197 0
174 198 0
173 196 0
174 197 0
174 198 0
174 198 0
176 198 0
172 197 0
174 197 0
176 198 0
172 196 0
173 197 0
175 198 0
173 196 0
174 197 0
173 197 0
172 196 0
174 198 0
173 197 0
174 197 0
173 196 0
173 197 0
173 197 0
173 197 0
174 197 0
172 196 0
174 197 0
174 198 0
172 196 0
172 196 0
172 195 0
173 197 0
175 198 0
175 198 0
174 197 0
174 198 0
172 195 0
175 198 0
171 195 0
173 197 0
173 196 0
175 198 0
175 198 0
175 198 0
174 197 0
172 196 0
173 197 0
174 197 0
174 197 0
174 198 0
176 198 0
175 198 0
171 195 0
175 198 0
175 198 0
173 197 0
171 195 0
174 197 0
173 197 0
172 196 0
173 196 0
174 198 0
172 196 0
173 197 0
174 197 0
172 196 0
171 195 0
174 196 0
173 196 0
173 197 0
173 196 0
174 197 0
175 198 0
173 197 0
171 195 0
172 195 0
172 196 0
172 196 0
174 197 0
172 196 0
172 196 0
173 196 0
174 197 0
173 196 0
172 196 0
172 196 0
175 198 0
172 196 0
173 196 0
171 195 0
175 198 0
174 197 0
172 195 0
172 195 0
173 197 0
171 194 0
171 195 0
175 198 0
173 196 0
172 195 0
173 196 0
173 196 0
171 195 0
172 196 0
172 195 0
173 196 0
175 198 0
173 197 0
173 196 0
175 198 0
172 196 0
171 195 0
175 198 0
171 195 0
173 196 0
173 196 0
173 196 0
174 197 0
172 196 0
173 196 0
173 196 0
173 196 0
172 196 0
173 197 0
173 197 0
172 196 0
174 196 0
174 196 0
165 189 51
111 138 141
61 98 178
61 98 177
62 99 178
62 99 178
62 99 178
62 99 181
62 99 179
62 99 179
62 99 180
62 100 181
62 99 181
62 99 178
62 99 181
62 99 180
62 99 178
62 99 181
62 99 181
61 98 180
61 99 181
62 99 181
61 98 181
62 99 181
61 99 181
61 99 181
61 99 181
61 98 181
61 99 181
62 99 181
62 99 181
62 99 181
61 98 181
62 99 181
62 99 181
61 99 181
61 98 181
61 99 181
62 99 181
61 98 181
61 99 181
61 98 181
61 99 181
61 99 181
61 99 181
61 99 181
61 99 181
62 99 181
61 99 181
62 99 180
62 99 181
61 99 181
61 98 181
62 99 181
61 98 180
61 99 181
61 99 181
62 99 181
62 99 181
61 98 178
62 99 181
62 99 180
61 98 179
62 99 181
62 99 181
62 99 181
62 99 178
62 99 179
62 99 180
62 99 179
61 98 180
62 99 179
62 98 174
62 99 179
62 99 179
61 98 178
62 98 177
61 98 175
61 97 172
61 98 175
62 98 176
105 131 142
163 186 67
173 196 0
174 196 0
170 193 0
173 195 0
174 197 0
173 196 0
173 195 0
172 194 0
157 160 0
154 152 0
156 153 0
156 153 0
157 153 0
182 170 83
200 184 114
199 183 114
198 182 114
197 182 114
195 181 114
194 181 114
193 180 114
192 180 114
191 179 114
190 179 114
189 178 114
188 178 114
187 177 114
186 177 114
185 176 114
185 176 114
184 176 114
183 175 114
182 175 114
181 174 114
180 174 114
180 174 114
179 173 114
178 173 114
177 173 114
177 172 114
176 172 114
175 172 114
175 171 114
174 171 114
174 171 114
173 171 114
173 170 114
172 170 114
172 170 114
171 170 114
171 170 114
170 169 114
170 169 114
169 169 114
169 169 114
169 169 114
168 168 114
168 168 114
168 168 114
167 168 114
167 168 114
167 168 114
167 168 114
166 168 114
166 168 114
166 167 114
166 167 114
166 167 114
166 167 114
166 167 114
166 167 114
166 167 114
166 167 114
166 167 114
166 167 114
166 167 114
166 167 114
166 167 114
166 167 114
166 168 114
166 168 114
166 168 114
167 168 114
167 168 114
167 168 114
167 168 114
168 168 114
168 168 114
168 169 114
169 169 114
169 169 114
170 169 114
170 169 114
170 169 114
171 170 114
171 170 114
172 170 114
172 170 114
173 171 114
174 171 114
174 171 114
175 171 114
175 172 114
176 172 114
177 172 114
178 173 114
178 173 114
179 173 114
180 174 114
181 174 114
181 175 114
182 175 114
183 175 114
184 176 114
185 176 114
186 177 114
187 177 114
188 178 114
189 178 114
191 179 114
192 179 114
193 180 114
194 181 114
196 181 114
197 182 114
199 183 114
200 184 114
187 174 92
155 153 0
155 153 0
158 161 0
173 196 0
173 196 0
173 196 0
176 198 0
173 197 0
173 196 0
173 197 0
171 195 0
174 198 0
174 197 0
173 197 0
174 198 0
174 197 0
174 198 0
175 197 0
173 196 0
175 198 0
174 196 0
172 194 0
173 196 0
173 197 0
174 197 0
173 196 0
174 197 0
174 197 0
175 197 0
174 197 0
176 198 0
174 197 0
173 197 0
172 195 0
174 197 0
173 196 0
174 197 0
172 196 0
175 197 0
175 198 0
174 197 0
175 198 0
173 196 0
173 197 0
173 196 0
173 197 0
174 197 0
176 199 0
173 196 0
176 199 0
174 197 0
174 198 0
173 197 0
172 195 0
174 198 0
173 197 0
174 197 0
175 198 0
176 198 0
174 197 0
173 197 0
174 197 0
173 197 0
172 196 0
174 197 0
174 197 0
174 198 0
173 196 0
174 198 0
174 198 0
172 196 0
174 198 0
174 198 0
174 198 0
173 197 0
175 197 0
173 196 0
175 198 0
173 197 0
174 197 0
176 199 0
172 196 0
174 196 0
175 198 0
175 198 0
174 197 0
174 198 0
172 196 0
172 196 0
173 197 0
172 196 0
172 195 0
173 196 0
175 197 0
173 197 0
173 196 0
172 196 0
173 197 0
173 197 0
174 197 0
173 197 0
174 197 0
174 197 0
173 197 0
173 197 0
174 197 0
172 196 0
175 197 0
174 198 0
172 195 0
174 198 0
175 198 0
175 197 0
175 198 0
173 197 0
175 198 0
172 195 0
174 197 0
173 196 0
173 196 0
173 197 0
172 195 0
174 197 0
173 197 0
172 195 0
174 198 0
173 196 0
172 195 0
174 197 0
174 197 0
173 197 0
172 196 0
174 198 0
172 196 0
170 194 0
174 197 0
174 197 0
173 196 0
174 197 0
173 197 0
172 195 0
175 198 0
173 196 0
174 197 0
174 197 0
172 195 0
171 195 0
174 196 0
174 197 0
173 196 0
174 197 0
172 196 0
172 196 0
172 196 0
175 197 0
172 195 0
172 195 0
173 197 0
172 196 0
174 196 0
172 196 0
174 198 0
174 198 0
174 197 0
173 197 0
172 195 0
172 196 0
173 196 0
171 193 0
173 196 0
171 194 0
174 197 0
172 195 0
172 195 0
174 198 0
175 198 0
169 193 0
174 198 0
172 195 0
175 197 0
172 195 0
171 195 0
174 197 0
173 196 0
175 197 0
170 194 0
170 193 0
173 196 0
147 172 99
74 107 170
62 99 177
62 99 176
62 99 177
62 99 177
63 100 178
62 99 179
62 99 180
62 99 181
62 99 181
61 99 178
61 99 179
61 99 181
62 99 181
62 99 180
62 99 178
61 98 180
61 99 180
62 99 181
62 99 181
61 98 181
62 99 181
62 99 181
61 98 181
62 99 181
62 99 181
61 98 181
61 99 181
62 99 181
62 99 181
62 99 181
61 99 181
61 99 181
62 99 181
61 99 181
61 99 181
61 99 181
61 99 181
61 99 181
61 99 181
61 98 181
62 99 181
61 99 181
62 99 181
62 99 181
62 99 181
61 99 181
61 99 181
61 99 181
61 99 181
61 99 181
62 99 181
61 99 181
61 99 181
62 99 181
61 99 181
62 99 181
61 98 181
61 99 180
62 99 179
62 99 181
62 99 180
61 99 181
61 99 180
62 99 179
62 99 180
61 98 178
61 98 177
62 99 178
62 99 181
61 98 178
61 98 178
62 98 178
61 98 177
62 99 178
61 98 176
62 98 176
61 97 174
62 98 177
62 98 172
62 99 176
61 98 177
63 98 173
146 170 100
171 193 0
171 194 0
172 195 0
171 194 0
172 195 0
172 195 0
169 188 0
155 152 0
154 152 0
156 153 0
155 153 0
157 153 0
183 171 84
200 184 114
199 183 114
198 182 114
197 182 114
196 181 114
194 181 114
193 180 114
192 180 114
191 179 114
190 179 114
189 178 114
188 178 114
187 177 114
186 177 114
186 176 114
185 176 114
184 176 114
183 175 114
182 175 114
182 175 114
181 174 114
180 174 114
179 173 114
179 173 114
178 173 114
177 173 114
177 172 114
176 172 114
175 172 114
175 171 114
174 171 114
174 171 114
173 171 114
173 170 114
172 170 114
172 170 114
171 170 114
171 170 114
170 169 114
170 169 114
169 169 114
169 169 114
169 169 114
168 169 114
168 168 114
168 168 114
168 168 114
167 168 114
167 168 114
167 168 114
167 168 114
167 168 114
167 168 114
166 168 114
166 168 114
166 168 114
166 168 114
166 168 114
166 168 114
166 168 114
166 168 114
166 168 114
166 168 114
166 168 114
167 168 114
167 168 114
167 168 114
167 168 114
167 168 114
167 168 114
168 168 114
168 168 114
168 168 114
169 169 114
169 169 114
169 169 114
170 169 114
170 169 114
170 169 114
171 170 114
171 170 114
172 170 114
172 170 114
173 171 114
173 171 114
174 171 114
175 171 114
175 172 114
176 172 114
176 172 114
177 173 114
178 173 114
179 173 114
179 174 114
180 174 114
181 174 114
182 175 114
183 175 114
184 175 114
184 176 114
185 176 114
186 177 114
187 177 114
188 178 114
190 178 114
191 179 114
192 179 114
193 180 114
194 181 114
196 181 114
197 182 114
198 183 114
200 183 114
191 177 99
156 153 0
156 153 0
157 154 0
169 192 0
174 197 0
176 198 0
173 196 0
173 196 0
172 196 0
176 197 0
176 198 0
175 197 0
174 197 0
175 197 0
173 197 0
176 198 0
173 196 0
172 196 0
175 196 0
171 194 0
173 197 0
175 197 0
172 195 0
174 197 0
174 197 0
175 198 0
173 197 0
173 195 0
173 197 0
175 198 0
174 197 0
174 198 0
174 197 0
174 197 0
173 197 0
173 197 0
174 197 0
173 196 0
174 197 0
173 197 0
174 198 0
174 198 0
173 197 0
174 197 0
173 197 0
173 197 0
173 196 0
173 197 0
174 197 0
173 196 0
173 196 0
174 197 0
173 197 0
174 198 0
174 197 0
173 196 0
176 199 0
173 196 0
175 198 0
173 197 0
174 197 0
172 196 0
174 197 0
174 198 0
175 198 0
173 197 0
173 197 0
174 197 0
174 198 0
174 197 0
173 196 0
173 196 0
172 195 0
173 196 0
174 198 0
173 197 0
173 197 0
174 197 0
175 198 0
174 197 0
175 198 0
174 197 0
174 198 0
174 197 0
173 197 0
172 196 0
175 198 0
174 197 0
174 198 0
173 197 0
173 196 0
173 196 0
173 196 0
173 197 0
174 197 0
174 197 0
174 196 0
173 196 0
174 197 0
173 197 0
174 197 0
171 195 0
174 198 0
174 197 0
174 197 0
173 197 0
173 197 0
171 195 0
173 197 0
173 196 0
171 195 0
173 196 0
174 196 0
175 198 0
176 198 0
172 196 0
174 197 0
173 196 0
175 198 0
172 196 0
172 196 0
174 197 0
173 196 0
173 196 0
174 198 0
172 195 0
172 196 0
173 197 0
174 198 0
175 198 0
173 196 0
174 197 0
173 196 0
172 196 0
173 197 0
173 196 0
171 194 0
174 197 0
174 198 0
174 198 0
173 196 0
172 195 0
172 196 0
173 196 0
171 194 0
169 192 0
172 195 0
173 196 0
172 196 0
171 194 0
172 196 0
173 196 0
174 197 0
175 198 0
173 196 0
174 197 0
173 196 0
173 196 0
172 195 0
174 197 0
174 196 0
172 196 0
174 197 0
172 195 0
173 197 0
171 195 0
174 197 0
174 196 0
173 197 0
172 194 0
174 197 0
172 195 0
173 196 0
174 197 0
172 196 0
174 196 0
173 196 0
171 194 0
171 195 0
171 195 0
172 196 0
172 195 0
170 194 0
170 193 0
171 195 0
168 192 0
171 194 25
112 139 142
63 99 180
62 99 173
61 98 175
61 98 176
61 98 176
62 99 178
63 100 181
61 98 176
62 99 181
62 99 178
62 99 179
62 99 180
62 99 181
61 99 180
62 99 181
62 99 181
62 99 180
62 99 181
61 99 181
63 100 181
61 99 181
62 99 181
62 99 180
62 99 180
62 99 181
61 98 181
62 99 181
62 99 181
61 98 181
61 99 181
61 99 181
62 99 181
61 99 181
61 99 181
62 99 181
62 99 181
62 99 181
62 99 181
62 99 181
61 99 181
61 99 181
62 99 181
61 98 181
62 99 181
61 99 181
61 98 181
62 99 181
61 99 181
61 99 181
62 99 181
61 99 181
62 99 181
61 99 181
62 99 181
62 99 181
62 99 181
61 99 181
61 99 181
62 99 181
61 98 180
62 99 181
62 99 181
62 99 180
61 99 180
62 99 181
61 99 181
62 99 180
61 99 180
62 99 176
61 98 179
62 99 178
62 99 179
61 98 179
62 99 179
62 99 177
62 99 180
62 99 178
61 98 179
61 98 174
62 98 173
62 98 175
62 98 177
62 98 174
61 98 175
62 98 174
112 137 136
170 193 31
173 196 0
172 195 0
171 194 0
172 194 0
164 177 0
156 152 0
157 154 0
154 152 0
153 152 0
156 153 0
183 171 86
200 184 114
199 183 114
198 182 114
197 182 114
196 181 114
195 181 114
194 180 114
193 180 114
192 179 114
191 179 114
190 178 114
189 178 114
188 177 114
187 177 114
186 177 114
185 176 114
184 176 114
183 175 114
183 175 114
182 175 114
181 174 114
180 174 114
180 174 114
179 173 114
178 173 114
178 173 114
177 172 114
176 172 114
176 172 114
175 172 114
175 171 114
174 171 114
174 171 114
173 171 114
173 170 114
172 170 114
172 170 114
171 170 114
171 170 114
170 169 114
170 169 114
170 169 114
169 169 114
169 169 114
169 169 114
168 169 114
168 168 114
168 168 114
168 168 114
168 168 114
167 168 114
167 168 114
167 168 114
167 168 114
167 168 114
167 168 114
167 168 114
167 168 114
167 168 114
167 168 114
167 168 114
167 168 114
167 168 114
167 168 114
167 168 114
167 168 114
167 168 114
168 168 114
168 168 114
168 168 114
168 168 114
169 169 114
169 169 114
169 169 114
169 169 114
170 169 114
170 169 114
171 169 114
171 170 114
171 170 114
172 170 114
172 170 114
173 171 114
173 171 114
174 171 114
174 171 114
175 172 114
176 172 114
176 172 114
177 172 114
178 173 114
178 173 114
179 173 114
180 174 114
180 174 114
181 174 114
182 175 114
183 175 114
184 176 114
185 176 114
186 176 114
187 177 114
188 177 114
189 178 114
190 178 114
191 179 114
192 179 114
193 180 114
194 181 114
196 181 114
197 182 114
198 183 114
200 183 114
199 182 110
155 153 0
156 153 0
155 153 0
167 180 0
174 195 0
174 196 0
175 197 0
174 196 0
173 197 0
173 196 0
174 196 0
173 196 0
173 196 0
173 197 0
174 197 0
175 198 0
174 197 0
174 196 0
173 196 0
175 197 0
176 198 0
176 198 0
173 196 0
173 197 0
174 197 0
174 196 0
173 196 0
173 196 0
174 198 0
172 196 0
174 197 0
175 197 0
175 198 0
175 197 0
173 197 0
173 197 0
175 198 0
173 197 0
173 197 0
174 197 0
174 197 0
174 197 0
174 197 0
173 196 0
173 195 0
174 198 0
174 197 0
172 196 0
172 195 0
175 198 0
173 197 0
174 198 0
175 198 0
174 197 0
174 197 0
175 198 0
175 198 0
172 196 0
174 197 0
173 197 0
172 197 0
174 198 0
175 198 0
174 198 0
174 197 0
173 197 0
175 198 0
175 198 0
176 198 0
173 197 0
175 198 0
173 197 0
174 197 0
174 197 0
171 195 0
173 196 0
174 197 0
173 197 0
173 196 0
173 196 0
174 197 0
172 196 0
171 195 0
174 197 0
173 197 0
172 196 0
172 195 0
173 197 0
172 195 0
175 197 0
172 196 0
174 197 0
174 197 0
174 198 0
173 197 0
174 198 0
172 196 0
174 197 0
174 197 0
172 195 0
175 198 0
173 196 0
174 197 0
175 198 0
174 197 0
172 196 0
173 197 0
171 195 0
171 195 0
174 197 0
174 197 0
173 197 0
176 198 0
171 195 0
174 197 0
172 196 0
173 196 0
171 195 0
175 198 0
172 195 0
172 196 0
173 196 0
175 198 0
169 193 0
173 197 0
175 198 0
170 194 0
173 197 0
174 197 0
172 196 0
174 197 0
173 197 0
174 198 0
174 197 0
171 195 0
174 198 0
174 197 0
171 195 0
174 197 0
171 194 0
173 196 0
173 197 0
173 196 0
172 195 0
174 196 0
175 198 0
172 196 0
172 196 0
172 194 0
172 195 0
172 197 0
173 196 0
173 196 0
172 196 0
175 198 0
171 195 0
173 196 0
173 196 0
171 195 0
174 197 0
172 196 0
174 198 0
172 195 0
172 196 0
170 194 0
170 193 0
171 194 0
173 196 0
170 193 0
173 196 0
172 195 0
171 195 0
172 196 0
171 195 0
171 195 0
170 194 0
173 197 0
174 197 0
174 198 0
171 195 0
174 197 0
171 195 0
172 195 0
172 195 0
173 195 0
168 192 51
106 133 144
61 98 175
62 99 175
62 99 178
62 99 175
63 100 177
62 99 177
62 99 179
62 99 176
62 99 179
61 99 180
61 98 177
61 99 180
62 99 179
62 99 179
62 99 179
62 99 180
61 98 180
62 99 180
62 99 181
62 99 181
62 99 181
61 99 181
62 99 181
61 99 181
62 99 181
61 99 181
61 98 181
61 99 181
62 99 181
62 99 181
61 98 181
61 99 181
61 98 181
62 99 181
62 99 181
61 98 180
61 98 181
62 99 181
61 99 181
61 99 181
61 99 181
62 99 181
61 99 181
62 99 181
61 99 181
62 99 181
61 99 181
61 98 181
61 99 180
61 99 181
62 99 181
61 98 181
61 99 181
61 99 181
61 98 181
62 99 180
62 99 181
62 99 179
61 98 181
62 99 181
61 99 181
61 98 180
62 99 181
61 99 181
62 99 180
62 99 178
62 99 181
62 99 180
61 98 176
62 99 178
62 99 180
61 98 178
62 99 180
61 98 179
61 98 177
62 99 179
62 99 176
62 99 180
62 99 181
62 99 177
61 98 177
62 99 179
61 98 176
62 99 176
62 98 174
61 98 175
61 97 173
96 124 154
165 188 51
173 196 0
171 193 0
175 197 0
158 163 0
155 152 0
155 153 0
155 153 0
156 153 0
156 153 0
183 171 85
200 184 114
199 183 114
198 182 114
197 182 114
196 181 114
195 181 114
194 180 114
193 180 114
192 179 114
191 179 114
190 178 114
189 178 114
188 178 114
187 177 114
186 177 114
185 176 114
185 176 114
184 176 114
183 175 114
182 175 114
182 175 114
181 174 114
180 174 114
179 174 114
179 173 114
178 173 114
177 173 114
177 172 114
176 172 114
176 172 114
175 172 114
175 171 114
174 171 114
174 171 114
173 171 114
173 170 114
172 170 114
172 170 114
171 170 114
171 170 114
171 170 114
170 169 114
170 169 114
170 169 114
169 169 114
169 169 114
169 169 114
169 169 114
168 169 114
168 168 114
168 168 114
168 168 114
168 168 114
168 168 114
168 168 114
167 168 114
167 168 114
167 168 114
167 168 114
167 168 114
167 168 114
167 168 114
168 168 114
168 168 114
168 168 114
168 168 114
168 168 114
168 168 114
168 169 114
169 169 114
169 169 114
169 169 114
169 169 114
170 169 114
170 169 114
170 169 114
171 170 114
171 170 114
171 170 114
172 170 114
172 170 114
173 171 114
173 171 114
174 171 114
174 171 114
175 171 114
175 172 114
176 172 114
177 172 114
177 173 114
178 173 114
179 173 114
179 174 114
180 174 114
181 174 114
182 175 114
182 175 114
183 175 114
184 176 114
185 176 114
186 177 114
187 177 114
188 178 114
189 178 114
190 179 114
191 179 114
192 180 114
193 180 114
194 181 114
196 181 114
197 182 114
198 183 114
200 183 114
201 184 114
156 153 11
157 154 0
155 152 0
163 170 0
174 197 0
174 196 0
174 197 0
173 196 0
174 198 0
176 198 0
173 197 0
174 197 0
172 195 0
174 196 0
174 197 0
174 197 0
175 198 0
173 196 0
174 197 0
173 196 0
173 197 0
176 198 0
175 198 0
174 196 0
174 197 0
174 197 0
176 198 0
174 197 0
174 198 0
175 198 0
173 195 0
175 197 0
173 197 0
175 197 0
176 198 0
175 198 0
174 197 0
175 197 0
175 198 0
174 197 0
173 196 0
174 197 0
173 197 0
175 198 0
172 196 0
173 196 0
174 197 0
174 197 0
176 198 0
173 197 0
173 196 0
174 198 0
173 197 0
174 197 0
176 199 0
175 198 0
173 197 0
172 196 0
173 196 0
174 197 0
174 197 0
172 196 0
173 197 0
173 197 0
174 197 0
173 196 0
174 198 0
175 198 0
173 197 0
172 196 0
173 197 0
172 195 0
174 197 0
173 197 0
174 197 0
172 195 0
174 197 0
174 197 0
173 196 0
174 197 0
174 197 0
174 197 0
174 197 0
172 196 0
175 198 0
173 197 0
173 197 0
172 195 0
175 198 0
172 196 0
173 196 0
174 197 0
174 197 0
171 194 0
174 197 0
172 196 0
173 196 0
173 196 0
172 195 0
171 195 0
171 195 0
172 196 0
173 197 0
172 195 0
174 197 0
173 197 0
172 196 0
175 198 0
172 196 0
172 196 0
173 197 0
174 197 0
172 195 0
172 194 0
173 196 0
173 197 0
173 197 0
174 198 0
173 196 0
175 198 0
173 197 0
174 197 0
173 197 0
172 196 0
173 196 0
174 197 0
173 196 0
173 196 0
173 196 0
173 196 0
174 197 0
174 197 0
174 198 0
172 196 0
173 197 0
172 196 0
173 197 0
173 196 0
174 197 0
174 196 0
174 197 0
173 196 0
173 196 0
173 196 0
172 195 0
172 196 0
173 197 0
172 196 0
174 197 0
171 194 0
174 197 0
172 195 0
174 197 0
172 195 0
171 194 0
174 197 0
172 195 0
172 196 0
173 196 0
171 194 0
174 198 0
174 197 0
171 195 0
172 194 0
171 194 0
173 197 0
174 197 0
172 195 0
172 196 0
172 195 0
171 193 0
172 195 0
171 195 0
173 197 0
175 197 0
171 194 0
173 197 0
172 196 0
172 195 0
174 197 0
172 195 0
171 195 0
170 193 0
170 193 0
152 176 82
90 120 157
62 99 174
62 99 175
62 99 177
62 99 176
62 99 177
62 99 177
62 99 180
62 99 178
62 99 180
62 99 181
62 99 180
62 99 180
62 99 180
62 99 180
62 99 179
62 99 180
62 99 181
62 99 181
61 99 179
62 99 181
62 99 181
62 99 181
62 99 181
62 99 181
62 99 181
61 99 181
61 99 181
61 99 181
61 99 181
61 99 181
61 98 181
62 99 181
62 99 181
62 99 181
62 99 181
62 99 181
62 99 181
62 99 181
62 99 181
61 99 181
62 99 181
62 99 181
61 99 181
61 99 181
61 98 181
61 99 181
62 99 181
61 98 181
62 99 181
62 99 181
62 99 181
62 99 181
61 99 181
62 99 181
61 98 181
61 99 181
62 99 181
62 99 180
62 99 181
61 99 181
61 99 181
61 98 180
62 99 181
62 99 180
62 99 178
62 99 181
62 99 181
62 99 180
62 99 179
62 99 181
61 98 177
62 99 180
61 99 181
62 99 180
62 99 178
62 99 180
61 98 176
62 99 178
62 98 176
62 99 177
62 98 174
62 98 176
61 99 178
62 98 177
61 98 178
62 98 174
62 99 174
62 98 176
62 98 174
79 110 158
157 179 77
173 195 0
173 194 0
155 153 0
156 153 0
156 153 0
156 153 0
156 153 0
157 154 0
180 169 80
201 184 114
199 183 114
198 183 114
197 182 114
196 181 114
195 181 114
194 180 114
193 180 114
192 180 114
191 179 114
190 179 114
189 178 114
188 178 114
188 177 114
187 177 114
186 177 114
185 176 114
184 176 114
184 175 114
183 175 114
182 175 114
181 174 114
181 174 114
180 174 114
179 174 114
179 173 114
178 173 114
177 173 114
177 172 114
176 172 114
176 172 114
175 172 114
175 171 114
174 171 114
174 171 114
173 171 114
173 170 114
172 170 114
172 170 114
172 170 114
171 170 114
171 170 114
171 169 114
170 169 114
170 169 114
170 169 114
169 169 114
169 169 114
169 169 114
169 169 114
169 169 114
169 169 114
168 169 114
168 168 114
168 168 114
168 168 114
168 168 114
168 168 114
168 168 114
168 168 114
168 168 114
168 168 114
168 168 114
168 168 114
168 169 114
168 169 114
169 169 114
169 169 114
169 169 114
169 169 114
169 169 114
170 169 114
170 169 114
170 169 114
171 170 114
171 170 114
171 170 114
172 170 114
172 170 114
172 170 114
173 171 114
173 171 114
174 171 114
174 171 114
175 171 114
175 172 114
176 172 114
176 172 114
177 172 114
178 173 114
178 173 114
179 173 114
180 174 114
181 174 114
181 174 114
182 175 114
183 175 114
184 176 114
184 176 114
185 176 114
186 177 114
187 177 114
188 178 114
189 178 114
190 179 114
191 179 114
192 180 114
193 180 114
194 181 114
196 181 114
197 182 114
198 183 114
200 183 114
201 184 114
159 155 28
155 153 0
156 153 0
155 157 0
173 197 0
174 197 0
173 195 0
174 196 0
173 196 0
174 197 0
174 197 0
174 197 0
173 196 0
173 197 0
173 196 0
174 197 0
175 198 0
175 198 0
173 197 0
174 197 0
174 197 0
173 197 0
173 196 0
173 196 0
172 196 0
173 196 0
174 197 0
174 196 0
172 195 0
174 197 0
175 197 0
174 197 0
174 197 0
174 196 0
174 196 0
175 197 0
173 197 0
174 197 0
175 197 0
173 196 0
174 196 0
174 197 0
174 198 0
173 196 0
174 198 0
175 198 0
174 197 0
175 198 0
173 197 0
173 196 0
176 199 0
175 198 0
174 197 0
174 198 0
174 197 0
172 196 0
173 197 0
173 197 0
172 196 0
174 197 0
173 197 0
174 197 0
176 199 0
174 198 0
174 197 0
173 197 0
175 197 0
175 198 0
173 197 0
173 197 0
174 198 0
174 198 0
174 197 0
172 196 0
171 195 0
173 197 0
173 197 0
175 198 0
174 197 0
175 197 0
173 196 0
173 197 0
174 197 0
173 196 0
173 196 0
173 197 0
173 197 0
174 198 0
175 198 0
174 197 0
175 198 0
171 195 0
171 195 0
174 197 0
175 198 0
173 195 0
174 198 0
171 195 0
171 195 0
173 197 0
174 197 0
173 196 0
174 198 0
173 196 0
173 196 0
171 195 0
173 196 0
174 198 0
172 196 0
174 197 0
173 197 0
175 198 0
173 197 0
173 197 0
173 196 0
174 198 0
173 196 0
173 197 0
174 197 0
172 195 0
174 197 0
173 197 0
174 197 0
174 197 0
173 197 0
173 197 0
174 198 0
172 197 0
174 196 0
174 197 0
175 198 0
174 197 0
171 194 0
172 195 0
174 197 0
172 195 0
174 197 0
174 196 0
176 198 0
171 194 0
173 197 0
174 197 0
173 196 0
172 195 0
175 198 0
172 196 0
173 196 0
170 194 0
173 196 0
175 198 0
172 195 0
176 198 0
170 193 0
171 195 0
171 195 0
174 197 0
173 197 0
172 195 0
175 198 0
172 195 0
174 197 0
171 194 0
172 196 0
173 196 0
174 197 0
172 196 0
171 194 0
172 195 0
172 196 0
172 194 0
175 198 0
171 195 0
173 197 0
174 197 0
174 197 0
173 196 0
172 196 0
171 195 0
173 197 0
171 195 0
173 196 0
172 195 0
175 197 0
140 164 110
69 104 172
61 98 173
62 99 174
62 99 174
62 99 174
61 98 177
62 99 178
63 99 178
62 99 176
62 99 177
62 99 180
61 98 177
62 99 179
62 99 179
62 99 180
62 99 180
62 99 180
62 99 181
62 99 181
62 99 181
62 99 181
62 99 181
62 99 179
62 99 180
61 99 180
61 99 181
62 99 181
62 99 181
62 99 181
61 99 180
63 100 181
62 99 181
61 99 181
61 98 181
61 99 181
62 99 181
61 99 181
62 99 181
62 99 181
61 99 181
61 99 181
62 99 181
61 99 181
61 99 181
61 98 181
61 99 180
62 99 181
61 99 181
62 99 181
62 99 181
61 98 180
61 99 181
62 99 181
62 99 181
61 99 180
61 99 181
61 99 181
61 99 180
61 98 180
61 98 181
62 99 181
62 99 180
62 99 181
61 99 181
61 99 181
62 99 180
62 99 180
62 99 180
62 99 179
62 99 180
62 99 179
62 99 179
62 99 179
61 99 179
61 98 179
62 99 178
61 98 176
62 99 180
61 98 178
62 99 181
62 99 181
61 98 177
62 99 177
62 98 176
62 98 177
62 99 176
61 98 176
62 99 178
62 98 175
61 98 176
62 98 172
60 96 172
72 104 162
142 166 103
167 184 0
154 151 0
155 152 0
155 152 0
155 152 0
155 153 0
155 152 0
174 165 69
201 184 114
200 183 114
198 183 114
197 182 114
196 182 114
195 181 114
194 181 114
193 180 114
192 180 114
192 179 114
190 179 114
190 178 114
189 178 114
188 178 114
187 177 114
186 177 114
185 176 114
185 176 114
184 176 114
183 175 114
182 175 114
182 175 114
181 174 114
181 174 114
180 174 114
179 173 114
179 173 114
178 173 114
177 173 114
177 172 114
176 172 114
176 172 114
175 172 114
175 171 114
174 171 114
174 171 114
173 171 114
173 171 114
173 170 114
172 170 114
172 170 114
172 170 114
171 170 114
171 170 114
171 170 114
170 169 114
170 169 114
170 169 114
170 169 114
169 169 114
169 169 114
169 169 114
169 169 114
169 169 114
169 169 114
169 169 114
169 169 114
169 169 114
169 169 114
169 169 114
169 169 114
169 169 114
169 169 114
169 169 114
169 169 114
169 169 114
169 169 114
169 169 114
170 169 114
170 169 114
170 169 114
170 169 114
171 170 114
171 170 114
171 170 114
172 170 114
172 170 114
172 170 114
173 170 114
173 171 114
173 171 114
174 171 114
174 171 114
175 171 114
175 172 114
176 172 114
176 172 114
177 172 114
178 173 114
178 173 114
179 173 114
180 174 114
180 174 114
181 174 114
182 175 114
182 175 114
183 175 114
184 176 114
185 176 114
186 176 114
186 177 114
187 177 114
188 178 114
189 178 114
190 179 114
191 179 114
192 180 114
194 180 114
195 181 114
196 181 114
197 182 114
198 183 114
200 183 114
201 184 114
163 158 39
156 153 0
154 152 0
155 152 0
172 192 0
174 195 0
174 197 0
174 197 0
173 196 0
172 196 0
173 196 0
175 197 0
173 196 0
173 196 0
174 197 0
174 197 0
171 195 0
173 197 0
172 195 0
173 197 0
175 198 0
174 196 0
172 195 0
174 196 0
173 196 0
173 197 0
174 198 0
173 196 0
172 195 0
175 198 0
172 196 0
175 198 0
173 195 0
173 196 0
174 196 0
173 197 0
174 197 0
174 197 0
173 196 0
173 197 0
175 198 0
175 198 0
173 196 0
174 197 0
174 197 0
173 197 0
174 197 0
173 196 0
174 196 0
173 197 0
174 197 0
174 197 0
175 198 0
172 196 0
174 197 0
175 198 0
174 197 0
174 197 0
172 196 0
174 198 0
174 197 0
173 197 0
175 198 0
173 196 0
173 196 0
173 197 0
173 197 0
175 197 0
174 197 0
174 198 0
174 198 0
173 196 0
174 197 0
174 197 0
172 195 0
175 198 0
175 198 0
173 196 0
172 195 0
172 196 0
173 197 0
174 198 0
175 197 0
174 197 0
170 193 0
175 197 0
173 197 0
176 199 0
173 196 0
174 197 0
174 197 0
174 197 0
175 198 0
172 196 0
175 198 0
172 197 0
171 195 0
174 197 0
172 195 0
175 198 0
172 196 0
176 198 0
174 197 0
172 196 0
172 196 0
173 197 0
171 195 0
173 196 0
171 195 0
175 198 0
172 196 0
171 194 0
173 197 0
173 196 0
173 196 0
173 197 0
173 196 0
173 196 0
173 197 0
173 197 0
175 198 0
172 196 0
171 195 0
172 196 0
173 196 0
172 194 0
170 194 0
174 197 0
173 197 0
172 195 0
172 195 0
173 197 0
173 196 0
174 197 0
172 196 0
170 194 0
174 197 0
173 196 0
173 197 0
172 195 0
172 195 0
173 197 0
173 197 0
174 196 0
174 197 0
174 197 0
173 197 0
173 196 0
173 196 0
175 197 0
172 195 0
171 194 0
173 197 0
175 198 0
174 197 0
176 199 0
175 198 0
173 196 0
173 197 0
172 196 0
174 197 0
170 193 0
173 195 0
172 195 0
172 195 0
174 197 0
172 196 0
172 194 0
171 195 0
172 195 0
171 194 0
175 197 0
171 193 0
172 196 0
173 196 0
171 193 0
175 198 0
172 195 0
171 195 0
173 196 0
174 197 0
171 194 0
129 154 118
62 98 171
64 100 178
62 99 178
63 99 179
62 99 178
62 99 178
61 98 177
62 99 176
62 99 179
62 99 178
62 99 177
62 99 180
62 100 181
62 99 179
62 99 181
62 99 180
61 99 181
62 99 180
62 99 180
62 99 181
62 99 181
62 99 180
62 99 181
61 99 181
61 99 181
62 99 181
62 99 181
62 99 181
62 99 181
62 99 181
62 99 181
62 99 181
62 99 181
61 99 181
61 99 181
62 99 181
62 99 181
62 99 180
62 99 181
62 99 180
62 99 181
62 99 181
61 99 181
61 98 181
62 99 181
61 98 181
62 99 181
61 99 181
61 99 181
62 99 181
62 99 180
61 98 181
62 99 181
62 99 181
62 99 180
61 99 181
61 99 179
62 99 180
62 99 181
62 99 179
61 98 181
61 99 180
62 99 181
62 99 181
62 99 181
61 99 180
61 98 179
62 99 180
62 99 181
62 99 181
62 99 180
62 99 181
62 99 179
62 99 178
62 99 180
62 99 179
62 99 181
62 99 180
62 99 179
62 99 180
61 98 175
62 99 176
62 99 178
62 98 177
62 99 176
62 98 172
61 98 174
61 97 172
62 98 175
62 98 176
61 97 172
62 98 175
62 98 174
62 97 171
61 96 164
133 143 105
155 152 0
155 152 0
154 151 0
156 153 0
157 154 0
156 153 0
167 160 54
201 184 114
200 183 114
199 183 114
198 182 114
197 182 114
196 181 114
195 181 114
194 180 114
193 180 114
192 179 114
191 179 114
190 179 114
189 178 114
188 178 114
188 177 114
187 177 114
186 177 114
185 176 114
184 176 114
184 176 114
183 175 114
182 175 114
182 175 114
181 174 114
180 174 114
180 174 114
179 173 114
179 173 114
178 173 114
177 173 114
177 172 114
176 172 114
176 172 114
175 172 114
175 171 114
174 171 114
174 171 114
174 171 114
173 171 114
173 171 114
173 170 114
172 170 114
172 170 114
172 170 114
171 170 114
171 170 114
171 170 114
171 170 114
170 169 114
170 169 114
170 169 114
170 169 114
170 169 114
170 169 114
170 169 114
169 169 114
169 169 114
169 169 114
169 169 114
169 169 114
169 169 114
169 169 114
170 169 114
170 169 114
170 169 114
170 169 114
170 169 114
170 169 114
170 169 114
170 169 114
171 170 114
171 170 114
171 170 114
172 170 114
172 170 114
172 170 114
172 170 114
173 171 114
173 171 114
174 171 114
174 171 114
174 171 114
175 171 114
175 172 114
176 172 114
176 172 114
177 172 114
178 173 114
178 173 114
179 173 114
179 174 114
180 174 114
181 174 114
181 174 114
182 175 114
183 175 114
184 176 114
184 176 114
185 176 114
186 177 114
187 177 114
188 178 114
189 178 114
190 178 114
191 179 114
192 179 114
193 180 114
194 180 114
195 181 114
196 181 114
197 182 114
199 183 114
200 183 114
201 184 114
164 158 37
155 153 0
155 153 0
157 153 0
169 185 0
174 197 0
175 197 0
173 195 0
174 196 0
173 197 0
173 197 0
174 197 0
174 197 0
172 195 0
174 198 0
174 197 0
175 198 0
175 198 0
174 197 0
174 197 0
174 198 0
174 197 0
172 195 0
174 197 0
173 197 0
175 198 0
174 196 0
175 198 0
174 196 0
174 197 0
174 197 0
173 195 0
175 198 0
174 197 0
174 197 0
174 197 0
175 198 0
173 196 0
174 197 0
172 196 0
172 196 0
174 197 0
175 197 0
174 197 0
175 198 0
174 197 0
173 197 0
175 198 0
174 197 0
173 195 0
174 197 0
172 197 0
174 197 0
174 198 0
173 196 0
174 198 0
171 195 0
171 195 0
171 195 0
172 196 0
174 197 0
173 196 0
174 197 0
175 198 0
174 197 0
172 196 0
173 197 0
173 197 0
175 198 0
174 197 0
173 196 0
174 197 0
174 197 0
174 198 0
175 198 0
174 196 0
173 197 0
174 197 0
173 197 0
172 196 0
175 198 0
172 196 0
173 196 0
175 198 0
172 196 0
172 196 0
174 198 0
173 196 0
172 196 0
173 197 0
172 195 0
172 196 0
173 197 0
174 197 0
173 195 0
175 198 0
174 197 0
173 196 0
175 197 0
172 196 0
171 195 0
171 194 0
172 196 0
173 196 0
174 198 0
173 196 0
173 196 0
172 196 0
174 197 0
175 198 0
173 196 0
173 196 0
173 197 0
174 197 0
174 197 0
174 197 0
174 196 0
173 196 0
172 195 0
175 198 0
173 195 0
174 197 0
171 195 0
172 196 0
172 196 0
173 196 0
172 196 0
173 196 0
172 195 0
172 196 0
172 195 0
172 195 0
173 197 0
171 195 0
175 198 0
173 196 0
173 197 0
174 197 0
173 196 0
173 197 0
173 196 0
172 196 0
173 196 0
172 194 0
173 197 0
173 197 0
171 194 0
173 195 0
175 198 0
173 197 0
173 197 0
175 197 0
173 195 0
172 195 0
171 195 0
172 195 0
172 194 0
171 195 0
172 195 0
171 194 0
171 194 0
175 198 0
172 195 0
173 197 0
172 196 0
170 195 0
171 195 0
174 197 0
172 195 0
172 196 0
174 198 0
172 196 0
172 196 0
173 195 0
172 195 0
172 195 0
170 194 0
173 196 0
173 196 0
172 196 0
171 195 0
119 146 133
62 99 174
62 99 178
63 100 180
62 99 178
62 99 176
62 98 175
62 99 178
62 99 176
62 99 174
62 99 180
62 99 178
62 99 178
62 99 180
61 98 178
62 99 180
62 99 176
62 99 180
61 98 178
62 99 178
62 99 179
62 99 180
62 99 179
62 99 181
62 99 181
62 99 181
61 98 181
61 98 180
62 99 181
62 99 181
61 99 181
61 99 181
62 99 181
62 99 180
61 99 180
62 99 181
62 99 181
62 99 179
61 99 181
62 99 181
62 99 180
62 99 181
62 99 180
61 98 180
61 98 181
61 99 181
61 99 181
62 99 181
62 99 181
62 99 181
62 99 181
62 99 180
62 99 181
61 98 181
61 99 180
61 99 181
61 99 181
61 99 180
62 99 181
62 99 181
61 98 179
62 99 181
62 99 181
61 99 180
62 99 181
61 99 179
62 99 179
62 99 180
61 99 181
61 98 181
62 99 179
62 99 181
61 98 179
62 99 180
61 98 179
62 99 180
62 99 180
61 98 179
62 99 179
62 99 179
62 99 180
61 98 178
61 98 176
62 99 179
62 98 175
62 99 176
62 99 176
62 99 179
61 98 171
62 98 175
62 99 177
62 98 175
61 98 177
62 98 173
62 97 170
62 98 175
61 97 173
60 95 166
113 124 131
153 151 25
156 153 0
154 152 0
155 152 0
155 153 0
163 157 41
201 184 114
200 183 114
199 183 114
198 182 114
197 182 114
196 181 114
195 181 114
194 180 114
193 180 114
192 180 114
191 179 114
190 179 114
190 178 114
189 178 114
188 178 114
187 177 114
186 177 114
186 176 114
185 176 114
184 176 114
184 175 114
183 175 114
182 175 114
182 175 114
181 174 114
180 174 114
180 174 114
179 173 114
179 173 114
178 173 114
178 173 114
177 172 114
177 172 114
176 172 114
176 172 114
175 172 114
175 171 114
174 171 114
174 171 114
174 171 114
173 171 114
173 171 114
173 170 114
172 170 114
172 170 114
172 170 114
172 170 114
171 170 114
171 170 114
171 170 114
171 170 114
171 170 114
170 169 114
170 169 114
170 169 114
170 169 114
170 169 114
170 169 114
170 169 114
170 169 114
170 169 114
170 169 114
170 169 114
170 169 114
170 169 114
171 169 114
171 170 114
171 170 114
171 170 114
171 170 114
171 170 114
172 170 114
172 170 114
172 170 114
172 170 114
173 170 114
173 171 114
173 171 114
174 171 114
174 171 114
175 171 114
175 172 114
176 172 114
176 172 114
176 172 114
177 172 114
178 173 114
178 173 114
179 173 114
179 173 114
180 174 114
181 174 114
181 174 114
182 175 114
183 175 114
183 175 114
184 176 114
185 176 114
186 176 114
186 177 114
187 177 114
188 178 114
189 178 114
190 179 114
191 179 114
192 179 114
193 180 114
194 180 114
195 181 114
196 182 114
197 182 114
199 183 114
200 183 114
201 184 114
162 157 36
156 153 0
156 153 0
154 152 0
168 183 0
174 197 0
174 197 0
175 197 0
173 195 0
173 195 0
174 197 0
174 197 0
173 195 0
173 196 0
172 195 0
174 197 0
174 197 0
174 197 0
173 196 0
173 196 0
174 197 0
173 197 0
172 195 0
174 196 0
174 196 0
173 196 0
174 196 0
172 195 0
174 196 0
173 197 0
174 197 0
175 197 0
174 197 0
174 197 0
173 196 0
172 196 0
173 197 0
174 196 0
173 195 0
175 197 0
174 197 0
174 197 0
172 195 0
173 197 0
175 198 0
175 197 0
173 196 0
174 197 0
173 196 0
174 197 0
172 196 0
174 198 0
174 197 0
175 198 0
171 195 0
174 198 0
174 198 0
172 196 0
174 197 0
172 196 0
173 196 0
172 195 0
174 198 0
174 197 0
170 194 0
173 196 0
170 194 0
173 197 0
175 197 0
172 196 0
175 198 0
175 198 0
172 196 0
174 197 0
173 196 0
173 196 0
174 197 0
173 197 0
175 197 0
173 197 0
172 196 0
175 198 0
174 197 0
173 197 0
173 197 0
172 195 0
173 196 0
174 197 0
175 198 0
172 196 0
173 197 0
173 197 0
174 198 0
172 195 0
174 197 0
174 197 0
174 197 0
173 197 0
174 197 0
174 198 0
175 198 0
172 196 0
174 197 0
174 197 0
172 195 0
173 196 0
170 194 0
173 196 0
173 196 0
173 197 0
173 197 0
175 197 0
171 194 0
173 196 0
175 198 0
175 197 0
173 196 0
174 196 0
172 196 0
172 194 0
175 198 0
173 197 0
172 195 0
173 196 0
171 195 0
173 196 0
176 198 0
174 196 0
174 198 0
173 197 0
173 196 0
172 196 0
171 195 0
174 197 0
171 195 0
174 197 0
174 197 0
175 198 0
172 196 0
175 198 0
173 196 0
173 196 0
170 194 0
172 196 0
173 196 0
174 196 0
173 197 0
173 197 0
174 198 0
174 197 0
173 195 0
172 195 0
172 195 0
173 196 0
172 196 0
172 196 0
173 196 0
172 195 0
173 195 0
173 197 0
173 197 0
171 195 0
172 196 0
173 195 0
173 196 0
172 196 0
170 193 0
173 196 0
173 196 0
171 194 0
173 195 0
172 195 0
172 195 0
170 194 0
171 194 0
172 195 0
174 197 0
172 195 0
169 192 0
172 195 0
126 151 126
62 98 172
62 99 173
62 99 176
62 99 179
62 99 179
62 98 171
62 99 176
62 99 179
62 99 178
62 99 176
62 99 176
62 99 178
62 99 178
62 99 178
62 99 180
62 99 180
62 99 180
62 99 181
62 99 181
62 99 180
62 99 181
62 99 180
61 99 181
61 98 181
62 99 179
62 99 181
62 99 181
61 99 181
61 99 181
62 99 181
61 99 180
62 99 181
62 99 181
62 99 180
61 98 180
62 99 180
62 99 181
61 98 181
62 99 181
62 99 181
63 100 181
62 99 181
62 99 181
61 99 181
62 99 181
61 99 180
61 99 180
61 99 181
61 99 181
61 98 181
62 99 181
62 99 181
61 99 181
62 99 181
61 99 181
62 99 181
62 99 180
62 99 181
61 99 181
62 99 181
62 99 180
62 99 181
62 99 179
62 99 181
63 100 181
62 99 181
61 99 180
62 99 179
63 100 180
62 99 179
62 99 180
61 99 181
62 99 179
61 99 179
62 99 178
62 99 180
62 99 179
62 99 179
61 98 178
63 100 180
62 99 181
62 99 179
62 99 178
62 99 177
62 99 178
62 99 178
62 99 178
61 98 176
62 98 174
62 98 174
62 99 177
61 97 172
61 98 176
61 97 170
62 98 173
62 99 177
62 98 172
61 97 171
61 96 168
108 121 127
156 153 0
156 153 0
156 153 0
156 153 0
156 153 0
197 181 108
200 183 114
199 183 114
198 182 114
197 182 114
196 182 114
195 181 114
194 181 114
193 180 114
193 180 114
192 179 114
191 179 114
189 178 114
178 168 109
152 147 101
152 147 101
151 147 100
157 152 103
176 168 110
185 176 114
184 176 114
183 175 114
183 175 114
182 175 114
182 175 114
181 174 114
180 174 114
180 174 114
179 173 114
179 173 114
178 173 114
178 173 114
177 172 114
177 172 114
176 172 114
176 172 114
175 172 114
175 172 114
175 171 114
174 171 114
174 171 114
174 171 114
173 171 114
173 171 114
173 170 114
172 170 114
172 170 114
172 170 114
172 170 114
172 170 114
171 170 114
171 170 114
171 170 114
171 170 114
171 170 114
171 170 114
171 170 114
171 170 114
171 170 114
171 170 114
171 170 114
171 170 114
171 170 114
171 170 114
171 170 114
171 170 114
171 170 114
172 170 114
172 170 114
172 170 114
172 170 114
172 170 114
173 170 114
173 171 114
173 171 114
173 171 114
174 171 114
174 171 114
175 171 114
175 171 114
175 172 114
176 172 114
176 172 114
177 172 114
177 172 114
178 173 114
178 173 114
179 173 114
179 173 114
180 174 114
180 174 114
181 174 114
182 175 114
182 175 114
183 175 114
184 176 114
185 176 114
185 176 114
186 177 114
187 177 114
188 177 114
189 178 114
189 178 114
190 179 114
191 179 114
192 180 114
193 180 114
194 181 114
195 181 114
196 182 114
198 182 114
199 183 114
200 183 114
201 184 114
156 153 0
156 153 0
157 153 0
156 153 0
161 168 0
174 196 0
173 195 0
174 197 0
175 197 0
173 196 0
173 195 0
173 197 0
173 196 0
172 196 0
175 198 0
174 197 0
174 197 0
173 197 0
174 197 0
172 196 0
171 196 0
175 198 0
172 196 0
174 197 0
174 198 0
173 196 0
174 197 0
175 198 0
172 195 0
174 197 0
175 198 0
173 196 0
173 196 0
173 197 0
173 196 0
172 194 0
173 196 0
176 197 0
174 196 0
173 196 0
174 197 0
174 197 0
175 197 0
174 197 0
174 197 0
175 198 0
173 195 0
175 197 0
174 197 0
174 198 0
175 197 0
175 198 0
174 197 0
172 195 0
171 195 0
172 196 0
173 196 0
175 198 0
171 195 0
175 197 0
173 197 0
176 198 0
174 197 0
174 197 0
172 195 0
172 196 0
175 198 0
174 198 0
173 197 0
173 196 0
173 196 0
173 197 0
173 196 0
174 197 0
174 198 0
175 198 0
174 198 0
174 197 0
172 196 0
173 196 0
171 195 0
173 197 0
174 197 0
174 196 0
173 197 0
173 196 0
174 197 0
174 197 0
173 197 0
174 197 0
174 197 0
175 198 0
174 197 0
175 198 0
172 196 0
174 197 0
173 197 0
174 197 0
174 197 0
174 197 0
173 197 0
173 197 0
170 194 0
172 196 0
174 197 0
174 197 0
173 197 0
173 197 0
173 197 0
172 195 0
171 195 0
173 196 0
173 196 0
173 196 0
173 196 0
172 196 0
175 197 0
173 196 0
173 197 0
175 198 0
173 196 0
173 197 0
173 196 0
173 197 0
172 196 0
174 197 0
173 196 0
174 197 0
171 196 0
174 197 0
174 197 0
175 198 0
172 196 0
174 197 0
173 196 0
171 194 0
172 196 0
170 194 0
172 195 0
175 198 0
173 197 0
175 197 0
173 196 0
172 194 0
170 193 0
171 195 0
173 196 0
169 192 0
174 197 0
170 194 0
173 195 0
171 195 0
172 196 0
172 195 0
172 195 0
173 195 0
170 194 0
173 196 0
172 195 0
172 195 0
174 197 0
170 194 0
172 196 0
173 196 0
174 197 0
173 195 0
172 195 0
172 195 0
173 196 0
172 195 0
171 195 0
172 195 0
173 196 0
173 196 0
172 195 0
172 195 0
172 196 0
172 195 0
172 195 0
122 149 133
62 98 170
62 99 171
62 99 172
62 99 179
63 99 177
62 99 175
61 98 169
62 99 179
61 99 177
62 99 176
61 98 178
62 99 179
62 99 180
62 99 178
62 99 180
62 99 179
62 99 180
62 99 178
62 99 180
62 99 180
61 99 180
61 98 179
62 99 179
62 99 180
62 99 179
62 99 180
61 99 179
62 99 179
61 98 181
61 99 180
62 99 181
62 99 181
62 99 178
62 99 181
62 99 181
62 99 181
62 99 180
62 99 180
62 99 181
62 99 181
62 99 181
62 99 181
61 99 180
62 99 181
62 99 181
62 99 181
61 98 181
61 99 181
62 99 181
61 98 180
61 99 181
62 99 181
62 99 181
62 99 181
61 99 181
62 99 181
62 99 181
62 99 181
62 99 180
61 99 181
62 99 180
62 99 181
62 99 181
62 99 181
61 98 179
62 99 181
62 99 180
62 99 181
61 99 179
62 99 179
62 99 179
62 99 180
62 99 181
62 99 181
62 99 180
62 99 181
62 99 178
63 100 181
62 99 179
61 98 178
62 99 179
62 99 178
61 98 177
62 99 177
62 98 174
62 99 179
62 98 176
62 99 177
61 99 178
62 98 177
62 99 176
62 98 174
61 97 175
61 98 172
61 97 171
62 98 174
62 98 171
62 98 170
61 97 169
61 98 176
61 96 166
109 121 130
155 152 0
158 154 0
157 154 0
156 153 0
185 173 90
200 184 114
199 183 114
198 183 114
198 182 114
197 182 114
196 181 114
195 181 114
194 180 114
193 180 114
165 156 103
114 116 87
65 81 76
54 74 74
54 74 73
54 74 71
54 74 75
55 75 75
55 75 76
84 95 83
105 111 89
152 148 103
182 174 113
183 175 114
182 175 114
182 175 114
181 174 114
180 174 114
180 174 114
179 174 114
179 173 114
178 173 114
178 173 114
177 173 114
177 172 114
177 172 114
176 172 114
176 172 114
175 172 114
175 172 114
175 171 114
174 171 114
174 171 114
174 171 114
173 171 114
173 171 114
173 171 114
173 170 114
173 170 114
172 170 114
172 170 114
172 170 114
172 170 114
172 170 114
172 170 114
172 170 114
172 170 114
172 170 114
172 170 114
172 170 114
172 170 114
172 170 114
172 170 114
172 170 114
172 170 114
172 170 114
172 170 114
172 170 114
172 170 114
173 170 114
173 171 114
173 171 114
173 171 114
174 171 114
174 171 114
174 171 114
175 171 114
175 171 114
175 172 114
176 172 114
176 172 114
176 172 114
177 172 114
177 173 114
178 173 114
178 173 114
179 173 114
179 173 114
180 174 114
180 174 114
181 174 114
182 175 114
182 175 114
183 175 114
184 176 114
184 176 114
185 176 114
186 177 114
187 177 114
187 177 114
188 178 114
189 178 114
190 178 114
191 179 114
192 179 114
193 180 114
194 180 114
195 181 114
196 181 114
197 182 114
198 182 114
199 183 114
200 184 114
198 182 109
156 153 0
155 153 0
154 152 0
156 153 0
161 164 0
173 196 0
173 196 0
174 197 0
173 197 0
174 196 0
173 195 0
174 197 0
175 197 0
174 197 0
176 198 0
172 194 0
175 198 0
174 197 0
175 197 0
174 196 0
174 197 0
175 197 0
174 196 0
173 195 0
174 197 0
173 197 0
174 195 0
171 194 0
175 197 0
175 198 0
174 196 0
173 196 0
176 198 0
175 197 0
174 197 0
175 198 0
173 197 0
173 196 0
174 197 0
174 197 0
172 195 0
174 198 0
174 197 0
174 197 0
174 198 0
173 197 0
174 197 0
174 197 0
174 197 0
176 198 0
173 196 0
174 197 0
173 197 0
171 195 0
175 198 0
173 197 0
174 197 0
176 198 0
174 197 0
174 197 0
174 197 0
173 197 0
174 197 0
175 198 0
174 197 0
171 195 0
175 198 0
174 198 0
174 197 0
174 197 0
175 198 0
174 198 0
174 197 0
172 196 0
174 197 0
173 197 0
175 198 0
174 197 0
174 197 0
174 198 0
173 197 0
172 195 0
172 196 0
172 195 0
174 197 0
174 197 0
173 197 0
171 195 0
173 196 0
173 196 0
173 197 0
172 196 0
173 196 0
170 194 0
171 195 0
174 197 0
171 195 0
174 197 0
171 194 0
173 197 0
171 195 0
174 197 0
172 196 0
172 196 0
173 197 0
173 197 0
174 197 0
173 197 0
173 197 0
173 196 0
174 198 0
173 196 0
171 195 0
173 197 0
174 196 0
171 195 0
175 197 0
171 193 0
173 197 0
172 196 0
172 196 0
173 197 0
172 196 0
173 196 0
174 197 0
172 196 0
173 197 0
173 196 0
171 195 0
173 196 0
173 196 0
174 197 0
173 197 0
168 192 0
174 197 0
169 194 0
172 196 0
173 195 0
173 196 0
170 194 0
174 197 0
172 196 0
173 196 0
170 193 0
174 197 0
174 198 0
173 196 0
174 197 0
172 195 0
171 194 0
173 196 0
171 194 0
172 196 0
174 196 0
173 196 0
173 197 0
172 196 0
172 196 0
173 197 0
174 197 0
173 196 0
169 192 0
172 195 0
171 194 0
173 196 0
173 196 0
174 197 0
173 196 0
172 195 0
172 195 0
170 193 0
174 197 0
171 195 0
172 195 0
171 194 0
170 194 0
168 191 0
168 191 0
123 149 128
62 99 175
62 99 173
62 99 177
62 99 175
61 98 169
63 100 177
63 99 177
63 100 180
62 99 175
62 99 178
62 99 179
62 99 177
62 99 176
62 99 179
62 99 181
62 99 180
61 98 177
62 99 178
62 99 176
62 99 180
62 99 180
61 99 179
62 99 179
61 98 180
62 99 179
62 99 180
62 99 181
62 99 179
62 99 181
62 99 181
62 99 181
62 99 180
61 99 180
62 99 180
62 99 181
62 99 180
62 99 181
62 99 180
61 99 181
62 99 180
62 99 181
62 99 181
61 99 181
61 98 181
62 99 181
62 99 181
62 99 181
62 99 181
61 99 181
62 99 180
61 99 180
61 99 181
62 99 181
62 99 181
62 99 179
61 98 181
62 99 180
62 99 179
62 99 181
61 98 180
62 99 180
61 99 181
62 99 180
62 99 180
62 99 179
62 99 180
62 99 181
61 99 181
62 99 180
62 99 180
62 99 180
63 100 181
62 99 180
62 99 175
62 99 181
62 99 180
62 99 180
62 99 179
62 99 178
62 99 180
61 98 178
62 99 179
63 99 178
62 99 179
62 99 180
62 99 178
62 99 178
62 99 180
62 99 178
62 99 175
61 98 177
61 98 175
62 99 176
62 98 176
62 98 173
62 98 174
61 97 171
63 99 177
62 99 176
62 98 174
61 97 170
62 97 170
61 96 170
121 129 115
155 153 0
156 153 0
157 154 0
172 164 63
201 184 114
200 183 114
199 183 114
198 182 114
197 182 114
196 181 114
195 181 114
165 156 103
90 97 79
54 74 71
53 72 67
54 74 72
54 73 71
54 73 71
54 73 71
53 71 71
53 73 73
55 74 73
55 75 75
55 74 75
54 75 76
72 86 80
140 139 99
179 172 113
182 175 114
182 175 114
181 174 114
181 174 114
180 174 114
180 174 114
179 173 114
179 173 114
178 173 114
178 173 114
177 173 114
177 172 114
176 172 114
176 172 114
176 172 114
175 172 114
175 172 114
175 171 114
174 171 114
174 171 114
174 171 114
174 171 114
174 171 114
173 171 114
173 171 114
173 171 114
173 171 114
173 170 114
173 170 114
173 170 114
172 170 114
172 170 114
172 170 114
172 170 114
172 170 114
172 170 114
172 170 114
172 170 114
173 170 114
173 170 114
173 170 114
173 171 114
173 171 114
173 171 114
173 171 114
174 171 114
174 171 114
174 171 114
174 171 114
175 171 114
175 171 114
175 172 114
175 172 114
176 172 114
176 172 114
177 172 114
177 172 114
177 173 114
178 173 114
178 173 114
179 173 114
179 174 114
180 174 114
180 174 114
181 174 114
182 175 114
182 175 114
183 175 114
183 175 114
184 176 114
185 176 114
186 176 114
186 177 114
187 177 114
188 177 114
189 178 114
189 178 114
190 179 114
191 179 114
192 180 114
193 180 114
194 180 114
195 181 114
196 181 114
197 182 114
198 182 114
199 183 114
200 184 114
194 179 104
157 154 0
156 153 0
156 153 0
156 153 0
157 156 0
172 196 0
173 196 0
172 196 0
171 194 0
172 195 0
173 197 0
173 196 0
175 198 0
173 195 0
173 196 0
174 197 0
175 197 0
174 196 0
174 197 0
174 196 0
174 196 0
173 196 0
171 194 0
173 196 0
173 195 0
174 197 0
174 197 0
172 196 0
175 197 0
175 198 0
174 196 0
173 195 0
174 197 0
173 197 0
174 196 0
174 197 0
174 197 0
173 197 0
174 197 0
173 196 0
174 197 0
174 197 0
175 197 0
175 198 0
172 196 0
173 196 0
174 198 0
174 197 0
173 197 0
173 197 0
175 197 0
173 197 0
173 197 0
173 196 0
173 195 0
173 197 0
172 196 0
173 197 0
173 197 0
174 197 0
174 197 0
175 198 0
174 198 0
175 198 0
173 196 0
173 196 0
175 198 0
173 196 0
174 198 0
174 197 0
173 197 0
174 197 0
172 196 0
173 196 0
172 196 0
174 198 0
174 197 0
175 198 0
172 196 0
172 195 0
173 197 0
174 198 0
173 197 0
173 197 0
171 195 0
172 195 0
173 197 0
173 197 0
173 197 0
173 196 0
173 197 0
170 195 0
172 195 0
173 197 0
173 197 0
172 196 0
173 196 0
173 197 0
171 195 0
174 197 0
172 196 0
173 197 0
174 197 0
174 198 0
174 197 0
172 196 0
174 197 0
174 197 0
174 197 0
173 197 0
173 196 0
172 196 0
173 197 0
171 195 0
174 197 0
172 195 0
172 196 0
173 196 0
173 196 0
173 197 0
171 194 0
173 197 0
172 197 0
172 195 0
173 197 0
175 198 0
173 196 0
174 198 0
175 197 0
173 196 0
171 195 0
174 197 0
174 197 0
174 197 0
173 196 0
172 196 0
170 194 0
172 195 0
171 194 0
172 195 0
174 198 0
174 197 0
174 197 0
173 196 0
170 194 0
171 195 0
172 196 0
172 195 0
173 196 0
174 197 0
170 193 0
169 191 0
169 192 0
174 198 0
174 197 0
173 197 0
173 195 0
172 196 0
172 196 0
173 196 0
173 197 0
173 197 0
172 195 0
172 196 0
173 196 0
173 196 0
171 194 0
173 197 0
174 196 0
171 194 0
172 195 0
174 197 0
172 196 0
170 195 0
172 195 0
173 197 0
170 194 0
135 159 115
62 99 165
62 99 177
62 99 172
62 99 178
62 99 173
61 98 171
63 99 174
62 99 179
62 99 175
62 99 177
62 98 174
62 99 179
62 99 178
61 98 178
62 99 180
62 99 177
62 99 179
62 99 180
61 98 176
62 99 178
62 99 177
62 99 178
62 99 181
63 100 180
62 99 177
62 99 180
62 99 180
62 99 179
61 99 181
62 99 180
62 99 180
61 99 178
62 99 180
61 99 180
62 99 180
62 99 180
62 99 180
62 99 181
61 99 181
62 99 181
61 98 181
62 99 181
62 99 180
61 99 180
61 99 180
62 99 180
61 99 180
62 99 181
61 98 180
62 99 181
62 99 181
62 99 181
62 99 181
61 99 181
61 99 181
62 99 181
62 99 180
61 98 180
62 99 179
62 99 180
62 99 181
62 99 180
62 99 181
62 99 180
62 99 179
62 99 179
62 99 181
62 99 180
61 98 178
62 99 180
62 99 179
62 99 180
62 99 178
61 98 179
62 99 176
62 99 181
62 99 180
62 99 180
62 99 180
62 98 178
61 98 179
62 99 179
62 99 179
62 99 179
62 99 181
61 98 178
62 99 178
62 99 180
62 99 178
62 99 176
62 99 176
62 99 178
61 98 178
62 99 179
62 98 172
62 99 174
62 98 171
62 98 175
62 99 176
62 98 176
61 97 172
61 97 169
61 97 171
61 97 172
62 98 169
123 130 109
155 153 0
155 152 0
159 155 22
198 182 110
200 183 114
199 183 114
198 183 114
197 182 114
192 178 112
126 124 86
52 70 65
52 70 65
52 71 69
54 73 70
53 72 71
53 71 68
52 70 66
52 70 68
54 74 74
54 73 72
54 73 73
52 72 72
53 73 73
55 75 76
54 75 76
55 75 77
80 92 82
153 150 104
182 175 114
182 175 114
181 174 114
181 174 114
180 174 114
180 174 114
179 174 114
179 173 114
178 173 114
178 173 114
178 173 114
177 173 114
177 172 114
177 172 114
176 172 114
176 172 114
176 172 114
175 172 114
175 172 114
175 171 114
175 171 114
174 171 114
174 171 114
174 171 114
174 171 114
174 171 114
174 171 114
173 171 114
173 171 114
173 171 114
173 171 114
173 171 114
173 171 114
173 171 114
173 171 114
173 171 114
173 171 114
173 171 114
173 171 114
174 171 114
174 171 114
174 171 114
174 171 114
174 171 114
174 171 114
175 171 114
175 171 114
175 172 114
175 172 114
176 172 114
176 172 114
176 172 114
177 172 114
177 172 114
177 173 114
178 173 114
178 173 114
179 173 114
179 173 114
180 174 114
180 174 114
181 174 114
181 174 114
182 175 114
182 175 114
183 175 114
183 175 114
184 176 114
185 176 114
185 176 114
186 177 114
187 177 114
187 177 114
188 178 114
189 178 114
190 178 114
191 179 114
192 179 114
192 180 114
193 180 114
194 181 114
195 181 114
196 182 114
197 182 114
198 183 114
200 183 114
201 184 114
189 175 95
156 153 0
155 153 0
155 153 0
156 153 0
156 153 0
172 192 0
175 197 0
173 196 0
172 196 0
173 196 0
172 196 0
173 197 0
174 197 0
173 196 0
175 196 0
175 197 0
173 196 0
173 196 0
173 195 0
174 197 0
174 196 0
173 196 0
173 196 0
173 195 0
173 196 0
174 197 0
174 197 0
174 196 0
174 197 0
176 198 0
174 197 0
173 196 0
174 196 0
173 197 0
175 197 0
174 198 0
174 197 0
173 196 0
175 198 0
173 197 0
173 196 0
175 198 0
174 197 0
174 197 0
175 197 0
173 197 0
173 196 0
173 196 0
174 197 0
174 197 0
175 198 0
174 197 0
173 197 0
171 195 0
174 197 0
173 196 0
171 195 0
174 198 0
171 196 0
174 197 0
174 197 0
173 196 0
173 196 0
175 198 0
174 197 0
173 197 0
170 195 0
174 197 0
172 196 0
172 195 0
175 198 0
173 197 0
173 197 0
174 197 0
175 198 0
173 197 0
174 198 0
173 197 0
175 198 0
172 196 0
173 197 0
173 196 0
171 195 0
173 196 0
173 197 0
173 197 0
173 197 0
173 197 0
174 197 0
170 194 0
172 195 0
175 198 0
174 198 0
174 196 0
175 198 0
173 197 0
173 197 0
173 196 0
173 197 0
174 197 0
170 194 0
170 194 0
172 196 0
173 196 0
172 196 0
170 194 0
173 196 0
171 195 0
174 197 0
171 195 0
174 197 0
172 196 0
174 198 0
173 196 0
171 194 0
172 196 0
172 196 0
173 197 0
171 195 0
173 196 0
173 197 0
172 195 0
173 197 0
171 195 0
174 197 0
172 196 0
172 196 0
169 193 0
174 197 0
173 196 0
173 197 0
174 196 0
174 197 0
173 196 0
173 196 0
170 194 0
174 197 0
173 196 0
172 195 0
172 195 0
172 197 0
171 194 0
174 197 0
168 192 0
173 197 0
173 197 0
170 195 0
169 193 0
174 196 0
173 197 0
172 195 0
173 196 0
173 196 0
171 193 0
170 194 0
173 196 0
174 196 0
172 196 0
171 195 0
171 194 0
172 196 0
172 196 0
171 193 0
175 198 0
170 194 0
171 194 0
172 195 0
172 195 0
173 196 0
170 194 0
173 196 0
173 196 0
172 194 0
174 197 0
173 196 0
172 195 0
138 163 114
61 98 166
63 99 177
62 99 175
62 99 173
62 99 170
62 99 177
63 100 177
62 99 176
62 99 181
63 100 180
61 98 176
62 99 177
62 99 179
62 99 179
61 99 180
62 98 174
62 99 177
62 99 180
62 99 180
62 99 180
61 98 178
62 99 181
63 100 180
61 99 180
62 99 179
62 99 179
61 99 180
61 99 180
61 98 179
62 99 180
61 99 179
62 99 181
61 99 178
62 99 179
61 99 180
62 99 181
62 99 181
62 99 180
62 99 181
62 99 181
62 99 181
62 99 179
62 99 181
62 99 181
62 99 181
62 99 179
62 99 181
62 99 180
62 99 181
62 99 181
61 99 180
62 99 181
62 99 181
62 99 181
62 99 181
62 99 180
62 99 180
62 99 180
61 99 179
62 99 181
62 99 180
61 99 179
62 99 180
61 99 181
62 99 181
61 99 177
62 99 178
62 99 181
62 99 181
62 99 180
62 99 180
61 98 180
61 99 179
62 99 179
62 99 176
61 98 176
62 99 179
62 99 176
62 99 177
62 99 178
62 99 177
62 99 179
62 99 179
62 99 176
62 99 177
62 99 178
63 99 176
61 98 176
63 99 178
62 98 178
62 98 175
62 99 178
62 99 178
62 98 176
62 99 179
62 99 178
61 98 172
61 97 171
62 98 174
62 98 173
61 97 170
62 98 175
61 97 171
61 98 173
62 97 167
61 96 162
61 95 164
126 133 103
156 153 0
155 152 0
185 173 89
201 184 114
200 183 114
199 183 114
187 174 110
95 98 74
53 70 63
52 70 67
52 70 65
51 69 66
51 69 67
52 69 66
52 71 68
51 69 66
51 69 68
53 72 69
53 71 69
52 71 68
54 73 73
52 72 72
54 74 74
54 74 73
54 74 74
55 75 76
54 74 75
124 126 93
181 174 113
182 175 114
181 175 114
181 174 114
181 174 114
180 174 114
180 174 114
179 173 114
179 173 114
178 173 114
178 173 114
178 173 114
177 173 114
177 172 114
177 172 114
176 172 114
176 172 114
176 172 114
176 172 114
175 172 114
175 172 114
175 172 114
175 171 114
175 171 114
174 171 114
174 171 114
174 171 114
174 171 114
174 171 114
174 171 114
174 171 114
174 171 114
174 171 114
174 171 114
174 171 114
174 171 114
174 171 114
174 171 114
174 171 114
174 171 114
175 171 114
175 171 114
175 171 114
175 172 114
175 172 114
176 172 114
176 172 114
176 172 114
176 172 114
177 172 114
177 172 114
177 173 114
178 173 114
178 173 114
178 173 114
179 173 114
179 174 114
180 174 114
180 174 114
181 174 114
181 174 114
182 175 114
182 175 114
183 175 114
183 175 114
184 176 114
185 176 114
185 176 114
186 177 114
187 177 114
187 177 114
188 178 114
189 178 114
190 178 114
190 179 114
191 179 114
192 180 114
193 180 114
194 180 114
195 181 114
196 181 114
197 182 114
198 182 114
199 183 114
200 183 114
201 184 114
177 167 74
155 153 0
156 153 0
156 153 0
154 152 0
156 153 0
170 188 0
172 196 0
174 197 0
172 195 0
174 197 0
174 197 0
174 196 0
174 197 0
172 195 0
173 196 0
171 194 0
174 197 0
174 196 0
173 195 0
173 195 0
175 197 0
175 198 0
171 195 0
174 197 0
173 197 0
175 198 0
174 197 0
172 195 0
174 197 0
174 197 0
174 197 0
173 196 0
176 197 0
174 197 0
173 197 0
175 198 0
173 197 0
174 196 0
175 197 0
173 196 0
175 197 0
174 196 0
174 196 0
173 197 0
173 196 0
175 197 0
173 195 0
171 195 0
174 197 0
174 197 0
174 197 0
173 196 0
173 197 0
176 199 0
172 196 0
173 196 0
173 196 0
173 197 0
174 197 0
174 197 0
176 198 0
175 198 0
175 198 0
172 196 0
174 198 0
172 196 0
175 198 0
169 192 0
172 196 0
174 197 0
173 197 0
174 197 0
173 196 0
174 198 0
173 196 0
174 198 0
173 196 0
174 197 0
171 194 0
174 197 0
175 198 0
173 196 0
173 196 0
173 196 0
175 198 0
173 196 0
174 197 0
174 197 0
172 196 0
172 195 0
173 197 0
174 197 0
175 198 0
172 196 0
172 196 0
173 197 0
173 196 0
174 197 0
174 197 0
172 197 0
173 196 0
171 194 0
172 196 0
171 195 0
174 197 0
174 197 0
173 197 0
171 194 0
173 196 0
173 197 0
172 194 0
172 196 0
173 196 0
174 198 0
170 194 0
171 194 0
174 197 0
172 195 0
175 198 0
173 196 0
173 197 0
171 195 0
174 197 0
171 194 0
175 198 0
173 196 0
172 195 0
172 196 0
168 192 0
173 196 0
172 196 0
173 195 0
173 195 0
174 197 0
174 197 0
171 195 0
173 196 0
174 197 0
173 196 0
172 195 0
174 197 0
174 196 0
174 197 0
173 196 0
173 197 0
174 197 0
171 195 0
173 196 0
174 197 0
173 196 0
172 196 0
173 196 0
170 193 0
174 197 0
174 197 0
171 195 0
174 197 0
173 196 0
170 194 0
172 196 0
171 193 0
173 196 0
172 196 0
171 195 0
174 196 0
172 195 0
172 196 0
170 193 0
172 195 0
174 197 0
173 196 0
171 194 0
173 196 0
173 196 0
172 195 0
155 179 80
64 100 170
62 99 176
62 99 175
62 99 178
62 99 175
62 99 177
63 99 176
62 99 175
62 99 175
62 99 174
62 98 171
62 99 177
62 99 177
62 99 179
62 99 179
62 99 178
62 99 178
62 99 178
62 99 181
62 99 179
62 99 177
62 99 181
62 99 181
61 99 179
62 99 180
62 99 180
62 99 181
62 100 181
62 99 181
62 99 180
62 99 180
62 99 181
61 99 181
62 99 181
62 99 180
62 99 178
62 99 180
61 98 180
61 98 179
62 99 180
62 99 181
62 99 181
62 99 181
62 99 181
62 99 180
62 99 180
62 99 180
62 99 180
62 99 180
62 99 179
62 99 180
62 99 180
62 99 180
62 99 181
62 99 181
62 99 181
62 99 179
62 99 181
62 99 181
62 99 181
62 99 181
61 99 179
62 99 180
62 99 181
62 99 181
61 99 181
62 99 181
62 99 180
62 99 179
61 98 179
62 99 180
62 99 179
61 98 179
62 99 177
62 99 180
62 99 179
62 99 176
62 99 177
62 99 180
62 99 179
62 99 179
63 99 179
62 99 179
62 99 180
62 99 175
62 99 180
62 99 178
62 99 178
62 99 178
62 98 173
62 99 179
62 99 178
62 99 177
62 99 177
63 99 176
62 98 177
62 98 177
62 99 176
62 99 175
62 98 174
61 98 176
62 98 174
61 97 169
62 99 176
61 96 167
61 97 169
61 97 166
61 95 163
66 98 160
130 135 92
156 153 0
168 161 54
201 184 114
200 183 114
194 178 111
90 94 72
53 72 69
51 68 63
51 67 60
51 69 64
52 69 66
51 68 64
52 70 67
51 68 63
52 70 67
52 69 66
52 71 68
52 70 68
53 71 71
51 69 68
53 72 70
52 71 69
53 72 71
55 74 73
55 75 75
54 73 73
55 75 77
99 106 87
170 164 109
182 175 114
182 175 114
181 174 114
181 174 114
180 174 114
180 174 114
180 174 114
179 173 114
179 173 114
178 173 114
178 173 114
178 173 114
177 173 114
177 173 114
177 172 114
177 172 114
176 172 114
176 172 114
176 172 114
176 172 114
176 172 114
175 172 114
175 172 114
175 172 114
175 172 114
175 172 114
175 171 114
175 171 114
175 171 114
175 171 114
175 171 114
175 171 114
175 171 114
175 171 114
175 172 114
175 172 114
175 172 114
175 172 114
175 172 114
176 172 114
176 172 114
176 172 114
176 172 114
176 172 114
177 172 114
177 172 114
177 173 114
177 173 114
178 173 114
178 173 114
178 173 114
179 173 114
179 173 114
180 174 114
180 174 114
180 174 114
181 174 114
181 174 114
182 175 114
182 175 114
183 175 114
183 175 114
184 176 114
185 176 114
185 176 114
186 177 114
187 177 114
187 177 114
188 178 114
189 178 114
189 178 114
190 179 114
191 179 114
192 179 114
192 180 114
193 180 114
194 181 114
195 181 114
196 181 114
197 182 114
198 182 114
199 183 114
200 183 114
201 184 114
169 161 57
155 153 0
155 152 0
156 153 0
156 153 0
155 152 0
167 184 0
174 196 0
173 196 0
173 196 0
173 197 0
173 196 0
175 198 0
173 196 0
173 196 0
173 197 0
171 194 0
173 196 0
173 196 0
171 194 0
173 196 0
174 198 0
174 197 0
174 197 0
174 196 0
174 197 0
175 198 0
174 197 0
174 197 0
173 196 0
173 197 0
173 196 0
174 197 0
173 197 0
174 197 0
173 197 0
173 197 0
174 197 0
174 197 0
174 196 0
173 197 0
174 196 0
174 197 0
174 196 0
173 197 0
173 197 0
173 197 0
173 196 0
173 197 0
175 197 0
174 196 0
176 199 0
176 198 0
174 197 0
172 196 0
174 197 0
175 198 0
173 197 0
174 197 0
174 197 0
173 197 0
175 198 0
173 196 0
174 197 0
174 197 0
176 199 0
175 198 0
172 196 0
173 196 0
173 197 0
174 197 0
174 198 0
171 196 0
174 198 0
173 196 0
171 194 0
172 195 0
174 197 0
171 195 0
176 198 0
175 198 0
172 196 0
174 198 0
175 198 0
173 196 0
173 197 0
174 197 0
172 196 0
175 197 0
172 196 0
173 197 0
173 197 0
174 197 0
173 196 0
174 197 0
174 197 0
171 195 0
174 197 0
173 197 0
173 195 0
172 195 0
172 196 0
173 197 0
174 197 0
173 197 0
174 197 0
174 197 0
173 196 0
173 196 0
173 196 0
175 198 0
174 197 0
173 196 0
169 193 0
174 197 0
171 195 0
173 196 0
172 195 0
174 197 0
173 197 0
172 195 0
172 195 0
173 196 0
174 197 0
173 196 0
171 195 0
171 194 0
172 196 0
172 196 0
172 196 0
174 197 0
174 197 0
174 197 0
172 195 0
171 195 0
171 194 0
169 193 0
173 197 0
172 196 0
175 198 0
173 196 0
173 196 0
169 193 0
175 197 0
173 197 0
169 194 0
170 193 0
172 196 0
173 196 0
170 194 0
171 195 0
174 197 0
171 194 0
171 195 0
173 197 0
174 197 0
174 197 0
174 196 0
172 195 0
175 198 0
172 195 0
172 195 0
172 196 0
175 197 0
175 198 0
171 196 0
171 193 0
172 195 0
174 197 0
174 197 0
172 195 0
172 196 0
173 197 0
173 196 0
175 197 0
161 185 57
71 105 166
62 99 174
62 99 174
62 99 175
62 99 173
62 99 170
63 99 174
62 99 175
62 99 175
61 98 174
62 99 178
62 99 176
63 100 179
63 100 177
62 99 177
62 98 173
62 99 179
62 99 179
62 99 178
61 98 178
62 99 178
62 99 176
63 100 179
62 99 180
62 99 181
62 99 180
62 99 180
62 99 178
61 99 179
62 100 181
62 99 180
62 99 179
62 99 181
62 99 181
62 99 181
62 99 181
62 99 180
62 99 181
61 99 179
62 99 180
62 99 181
62 99 179
61 99 181
61 99 181
62 99 181
62 99 179
62 99 179
62 99 181
62 99 181
62 99 179
62 99 181
62 99 180
62 99 181
63 100 181
62 99 181
62 99 179
62 99 179
62 99 180
62 99 180
62 99 181
62 99 180
61 98 177
62 99 180
62 99 181
61 98 180
62 99 181
62 99 181
61 99 180
62 99 181
61 98 177
62 99 179
62 99 179
62 99 179
62 99 178
62 99 180
62 99 179
62 99 181
62 99 178
62 99 180
62 99 177
62 99 176
62 99 178
62 99 176
62 99 178
62 99 180
61 98 176
62 99 179
62 99 177
62 99 178
62 99 180
62 99 180
62 99 174
62 99 178
63 99 176
62 99 177
63 99 177
62 99 178
61 98 176
62 98 173
61 98 173
62 99 175
62 99 175
62 98 170
61 98 173
61 98 172
62 97 171
62 98 171
61 98 173
62 98 168
62 97 172
74 102 159
141 143 75
155 153 0
189 176 96
199 182 113
115 114 80
51 68 60
50 67 62
51 67 60
48 64 57
51 67 62
51 68 63
49 65 60
50 67 64
51 68 67
51 68 63
52 68 62
53 72 71
51 68 66
52 69 66
52 71 69
53 71 69
53 72 69
54 73 72
54 73 72
54 74 73
55 74 73
54 74 75
55 74 74
72 86 81
172 166 110
183 175 114
182 175 114
182 175 114
181 174 114
181 174 114
180 174 114
180 174 114
180 174 114
179 173 114
179 173 114
179 173 114
178 173 114
178 173 114
178 173 114
177 173 114
177 173 114
177 172 114
177 172 114
177 172 114
176 172 114
176 172 114
176 172 114
176 172 114
176 172 114
176 172 114
176 172 114
176 172 114
176 172 114
176 172 114
176 172 114
176 172 114
176 172 114
176 172 114
176 172 114
176 172 114
176 172 114
176 172 114
176 172 114
176 172 114
177 172 114
177 172 114
177 172 114
177 173 114
177 173 114
178 173 114
178 173 114
178 173 114
178 173 114
179 173 114
179 173 114
180 174 114
180 174 114
180 174 114
181 174 114
181 174 114
182 175 114
182 175 114
183 175 114
183 175 114
184 176 114
184 176 114
185 176 114
185 176 114
186 177 114
187 177 114
187 177 114
188 178 114
188 178 114
189 178 114
190 179 114
191 179 114
191 179 114
192 180 114
193 180 114
194 180 114
195 181 114
196 181 114
197 182 114
197 182 114
198 183 114
199 183 114
200 184 114
199 182 110
157 154 16
157 154 0
155 153 0
156 153 0
155 153 0
154 152 0
167 180 0
175 197 0
176 197 0
173 196 0
176 197 0
173 195 0
173 196 0
174 197 0
173 195 0
173 196 0
173 196 0
172 196 0
172 196 0
174 196 0
172 196 0
175 198 0
175 197 0
175 198 0
174 196 0
172 196 0
173 196 0
174 197 0
172 196 0
173 196 0
173 196 0
174 197 0
173 196 0
174 196 0
175 197 0
174 197 0
175 197 0
174 197 0
174 197 0
174 197 0
174 198 0
174 198 0
174 197 0
174 197 0
174 197 0
176 199 0
174 197 0
175 198 0
175 198 0
173 196 0
175 198 0
173 197 0
172 195 0
173 196 0
172 196 0
174 197 0
173 197 0
175 198 0
174 197 0
173 197 0
174 197 0
174 197 0
172 196 0
175 198 0
175 198 0
175 198 0
171 195 0
173 196 0
174 197 0
174 197 0
172 196 0
174 197 0
174 198 0
174 197 0
176 198 0
174 197 0
173 197 0
174 198 0
174 197 0
174 198 0
175 198 0
174 198 0
173 196 0
173 197 0
172 196 0
174 197 0
173 197 0
175 198 0
174 197 0
172 196 0
174 197 0
173 196 0
172 196 0
171 195 0
173 196 0
172 196 0
174 197 0
175 198 0
174 197 0
174 196 0
171 195 0
173 197 0
173 196 0
172 195 0
173 196 0
175 198 0
172 195 0
169 194 0
173 195 0
172 196 0
173 196 0
174 197 0
173 197 0
174 198 0
173 196 0
172 196 0
172 196 0
172 196 0
173 196 0
173 196 0
174 197 0
173 196 0
174 197 0
172 196 0
171 195 0
174 197 0
172 196 0
172 196 0
174 197 0
171 195 0
173 196 0
169 193 0
170 194 0
172 195 0
172 196 0
172 195 0
171 194 0
174 196 0
170 193 0
174 197 0
172 196 0
172 195 0
173 197 0
172 195 0
173 196 0
173 197 0
174 197 0
171 195 0
172 195 0
172 195 0
174 197 0
172 195 0
170 194 0
171 194 0
172 195 0
170 194 0
173 196 0
172 195 0
173 197 0
172 195 0
173 195 0
173 196 0
174 197 0
172 195 0
171 195 0
171 195 0
171 195 0
174 198 0
172 196 0
174 197 0
172 195 0
173 196 0
172 195 0
172 196 0
165 189 40
98 126 152
62 99 170
62 99 175
61 98 166
63 99 176
62 99 175
62 99 174
62 99 171
63 99 177
62 99 180
62 99 175
62 99 175
62 99 177
62 99 180
62 99 180
62 99 181
62 99 177
62 99 179
62 99 177
62 99 179
62 99 180
62 99 178
62 99 179
62 99 179
63 99 179
62 99 177
62 99 178
62 99 178
62 99 179
61 99 178
62 99 180
62 99 179
62 99 179
61 98 180
62 99 179
62 99 179
62 99 181
62 99 181
62 99 178
62 99 180
62 99 181
62 99 180
62 99 178
61 99 179
62 99 181
62 99 180
63 100 180
62 99 180
62 99 181
62 99 181
62 99 180
62 99 180
62 99 181
63 100 180
62 99 180
62 99 181
61 98 178
62 99 176
62 99 180
61 98 181
62 99 180
61 98 180
61 98 180
61 99 181
62 99 178
62 99 180
62 99 181
62 99 179
61 98 177
62 99 178
62 99 177
62 99 180
62 99 180
62 99 181
61 99 180
62 99 179
61 98 175
61 99 181
62 99 177
62 99 179
61 98 178
61 98 176
61 99 178
62 99 178
62 99 178
62 99 181
62 99 179
63 99 177
62 99 178
62 99 177
63 100 179
61 98 176
62 99 176
62 99 177
62 99 176
62 99 175
61 98 174
63 100 179
62 99 178
62 99 176
62 98 175
62 98 172
62 98 166
62 98 169
62 98 174
62 98 173
62 98 173
62 98 175
62 98 172
62 97 168
60 95 159
61 96 167
77 104 156
154 152 26
165 159 47
146 139 92
50 66 61
50 67 59
49 64 54
50 67 63
49 65 59
49 64 57
49 66 62
49 66 63
50 65 59
50 66 62
50 67 63
52 70 68
51 68 66
52 70 67
52 70 65
51 69 68
53 71 68
53 72 69
53 71 69
53 72 72
54 74 74
54 73 71
54 74 73
55 75 75
55 75 76
82 94 83
168 163 108
183 175 114
182 175 114
182 175 114
182 175 114
181 174 114
181 174 114
180 174 114
180 174 114
180 174 114
179 174 114
179 173 114
179 173 114
179 173 114
178 173 114
178 173 114
178 173 114
178 173 114
177 173 114
177 173 114
177 173 114
177 172 114
177 172 114
177 172 114
177 172 114
177 172 114
177 172 114
177 172 114
177 172 114
177 172 114
177 172 114
177 172 114
177 172 114
177 172 114
177 172 114
177 172 114
177 172 114
177 172 114
177 173 114
177 173 114
178 173 114
178 173 114
178 173 114
178 173 114
179 173 114
179 173 114
179 173 114
179 174 114
180 174 114
180 174 114
180 174 114
181 174 114
181 174 114
181 175 114
182 175 114
182 175 114
183 175 114
183 175 114
184 176 114
184 176 114
185 176 114
185 176 114
186 177 114
187 177 114
187 177 114
188 178 114
188 178 114
189 178 114
190 178 114
190 179 114
191 179 114
192 180 114
193 180 114
194 180 114
194 181 114
195 181 114
196 181 114
197 182 114
198 182 114
199 183 114
200 183 114
201 184 114
188 175 93
156 153 0
155 153 0
156 153 0
155 153 0
155 153 0
154 152 0
167 183 0
175 197 0
173 196 0
172 194 0
173 195 0
173 195 0
173 196 0
173 197 0
174 196 0
175 198 0
175 197 0
173 195 0
172 194 0
173 195 0
174 196 0
173 196 0
174 196 0
174 197 0
174 196 0
174 197 0
172 195 0
173 196 0
173 195 0
172 195 0
174 197 0
174 197 0
173 197 0
173 196 0
174 196 0
174 197 0
175 197 0
175 198 0
173 197 0
173 196 0
175 198 0
173 197 0
173 197 0
174 196 0
172 197 0
174 197 0
173 195 0
173 197 0
173 195 0
176 198 0
174 197 0
174 197 0
173 197 0
174 197 0
174 197 0
173 197 0
174 197 0
174 197 0
172 196 0
173 196 0
175 198 0
173 197 0
174 198 0
173 196 0
173 196 0
172 195 0
173 197 0
174 197 0
174 197 0
174 197 0
174 197 0
173 196 0
174 197 0
174 197 0
173 196 0
172 196 0
172 196 0
175 198 0
172 196 0
172 196 0
175 198 0
173 197 0
174 197 0
173 197 0
173 197 0
174 198 0
171 195 0
172 196 0
174 198 0
172 196 0
171 195 0
173 196 0
172 195 0
174 197 0
173 196 0
171 195 0
173 197 0
173 196 0
170 194 0
172 196 0
172 195 0
173 197 0
171 194 0
172 195 0
173 196 0
172 196 0
173 196 0
174 197 0
174 197 0
172 196 0
175 198 0
176 199 0
172 196 0
175 198 0
172 196 0
172 196 0
172 196 0
174 196 0
174 197 0
172 196 0
171 194 0
174 197 0
172 195 0
174 197 0
171 194 0
172 196 0
169 193 0
173 196 0
174 198 0
173 196 0
173 196 0
173 197 0
171 194 0
174 197 0
172 193 0
171 195 0
172 195 0
171 194 0
174 197 0
171 194 0
170 194 0
173 195 0
174 197 0
169 193 0
172 195 0
171 195 0
173 196 0
170 194 0
172 196 0
171 195 0
173 196 0
173 196 0
171 193 0
173 196 0
174 197 0
172 195 0
173 196 0
172 196 0
171 194 0
173 197 0
172 196 0
171 194 0
172 195 0
170 193 0
168 192 0
173 197 0
171 194 0
171 195 0
171 194 0
172 195 0
172 195 0
172 195 0
169 191 0
171 194 0
117 143 125
62 98 167
62 99 172
62 99 174
62 98 173
62 98 172
62 99 174
62 99 173
62 99 171
62 99 174
61 98 177
63 100 178
62 99 173
62 99 179
62 99 179
62 99 180
62 99 179
62 99 177
62 99 178
62 99 176
62 99 180
63 100 178
63 100 179
62 99 179
61 99 179
62 99 179
62 99 179
62 99 179
62 99 181
61 99 180
62 99 181
61 99 178
62 99 179
61 98 178
62 99 179
62 99 180
62 99 181
61 99 179
62 99 181
62 100 181
62 99 181
62 99 177
63 100 181
61 98 180
61 99 180
62 99 181
62 99 179
61 99 179
62 99 180
61 99 179
61 99 180
63 100 181
62 99 180
62 99 181
62 99 179
62 99 180
62 99 180
62 99 180
61 98 177
62 99 181
61 99 179
62 99 180
62 99 181
62 99 176
62 99 180
62 99 180
62 99 181
62 99 179
63 100 180
62 99 178
62 99 179
61 99 180
62 99 180
62 99 179
62 99 180
62 99 180
63 100 181
63 99 179
61 98 178
61 98 178
62 99 180
62 99 180
62 99 178
63 100 179
62 99 178
62 99 180
62 99 178
62 99 177
63 100 181
61 98 173
61 98 178
62 99 178
62 99 178
62 99 178
62 98 176
62 99 178
62 99 173
61 98 173
63 99 174
62 98 171
62 99 176
62 99 174
61 97 172
62 98 172
63 99 174
62 99 173
61 98 172
61 97 169
61 97 169
62 98 169
62 97 166
61 96 163
61 95 157
62 97 168
105 119 128
137 137 32
51 66 54
49 64 56
48 64 61
48 64 57
49 65 58
48 63 57
48 63 55
49 64 59
50 66 60
51 68 63
50 66 61
48 64 59
51 69 66
49 65 61
49 65 60
52 69 65
52 69 67
51 68 66
52 70 68
52 69 66
53 73 73
53 72 72
54 73 72
54 73 72
54 73 73
54 74 73
54 75 75
72 86 80
175 168 111
183 175 114
183 175 114
182 175 114
182 175 114
182 175 114
181 174 114
181 174 114
181 174 114
180 174 114
180 174 114
180 174 114
179 174 114
179 173 114
179 173 114
179 173 114
179 173 114
178 173 114
178 173 114
178 173 114
178 173 114
178 173 114
178 173 114
178 173 114
178 173 114
177 173 114
177 173 114
177 173 114
177 173 114
177 173 114
177 173 114
177 173 114
178 173 114
178 173 114
178 173 114
178 173 114
178 173 114
178 173 114
178 173 114
178 173 114
179 173 114
179 173 114
179 173 114
179 174 114
180 174 114
180 174 114
180 174 114
180 174 114
181 174 114
181 174 114
181 175 114
182 175 114
182 175 114
183 175 114
183 175 114
184 175 114
184 176 114
185 176 114
185 176 114
186 176 114
186 177 114
187 177 114
187 177 114
188 178 114
188 178 114
189 178 114
190 178 114
190 179 114
191 179 114
192 179 114
193 180 114
193 180 114
194 181 114
195 181 114
196 181 114
197 182 114
197 182 114
198 183 114
199 183 114
200 184 114
201 184 114
173 165 69
156 153 0
155 153 0
156 153 0
157 153 0
156 153 0
155 152 0
168 182 0
173 196 0
171 192 0
173 196 0
175 198 0
173 196 0
174 197 0
173 196 0
175 197 0
173 196 0
173 195 0
173 196 0
172 195 0
174 197 0
174 196 0
173 196 0
174 196 0
175 198 0
174 196 0
171 194 0
173 196 0
173 196 0
174 195 0
173 195 0
174 197 0
173 196 0
173 197 0
174 197 0
173 196 0
174 197 0
173 197 0
174 196 0
174 196 0
173 195 0
172 196 0
173 196 0
173 196 0
174 197 0
176 198 0
174 197 0
174 197 0
174 198 0
174 197 0
174 197 0
174 197 0
175 198 0
174 197 0
174 197 0
174 198 0
173 197 0
173 196 0
173 197 0
175 198 0
175 197 0
172 196 0
172 195 0
172 196 0
173 197 0
175 198 0
173 197 0
175 197 0
171 194 0
173 197 0
173 197 0
172 196 0
171 195 0
174 197 0
175 198 0
173 197 0
173 196 0
172 196 0
173 197 0
173 197 0
173 197 0
172 196 0
173 197 0
173 196 0
174 197 0
174 197 0
172 196 0
171 194 0
175 198 0
174 197 0
172 196 0
173 195 0
173 197 0
173 197 0
174 198 0
173 196 0
173 197 0
173 197 0
173 196 0
172 195 0
170 194 0
171 194 0
171 194 0
173 196 0
172 196 0
174 198 0
172 195 0
173 197 0
174 197 0
175 198 0
173 196 0
172 195 0
173 196 0
173 196 0
173 196 0
171 195 0
174 196 0
173 196 0
173 196 0
171 195 0
173 196 0
173 196 0
172 196 0
172 195 0
173 197 0
173 197 0
174 198 0
173 196 0
175 197 0
170 193 0
173 196 0
175 198 0
175 197 0
172 196 0
172 196 0
173 196 0
173 197 0
173 197 0
172 196 0
173 196 0
174 197 0
171 193 0
172 194 0
174 197 0
174 197 0
173 196 0
174 197 0
170 194 0
167 191 0
167 191 0
173 196 0
172 196 0
173 196 0
174 197 0
174 197 0
171 195 0
171 195 0
171 195 0
171 194 0
171 195 0
167 190 0
174 196 0
173 196 0
174 197 0
171 195 0
170 193 0
173 196 0
175 197 0
170 193 0
171 194 0
172 195 0
173 196 0
171 195 0
171 195 0
135 160 107
62 99 166
62 98 168
62 98 167
62 99 168
62 99 175
61 98 169
63 99 175
62 99 176
62 98 173
63 100 177
62 99 177
62 99 177
62 99 177
62 99 177
62 99 179
62 99 176
61 98 178
62 99 179
62 99 178
63 100 180
62 99 176
62 99 178
62 99 181
62 99 179
63 100 181
62 99 179
62 99 180
61 98 177
62 99 179
62 99 181
62 99 181
62 99 178
62 99 179
63 100 181
61 99 180
63 100 179
62 99 180
62 99 181
62 99 181
61 98 179
62 99 180
62 99 180
62 99 180
62 99 179
62 99 181
62 99 180
62 99 181
62 99 179
62 99 179
62 99 181
62 99 180
63 99 179
62 99 180
62 99 180
62 99 180
62 99 180
63 100 181
62 99 178
62 99 180
62 99 180
63 100 181
62 99 181
62 99 180
62 99 181
61 99 179
62 99 180
62 99 180
62 99 180
61 98 178
62 99 179
62 99 179
61 99 180
61 99 177
62 99 180
62 99 180
61 98 180
62 99 180
62 99 181
61 99 180
62 99 179
63 100 180
62 99 179
62 99 179
62 99 179
61 99 180
62 99 179
61 98 174
62 99 180
62 99 180
61 98 172
62 98 174
62 99 178
62 99 174
62 99 177
62 99 176
62 98 175
62 99 178
62 99 179
62 99 176
62 99 173
62 98 173
62 98 174
61 98 171
62 98 175
62 98 172
62 98 173
62 98 173
62 97 171
61 97 170
61 97 171
61 96 164
61 97 167
62 98 173
61 96 164
60 95 161
72 90 104
50 65 54
48 63 55
48 64 57
47 62 54
47 61 55
49 64 59
49 64 59
49 65 59
48 64 59
49 65 61
47 62 55
47 62 54
49 66 63
50 67 61
51 68 65
50 66 62
49 66 62
52 69 67
50 68 66
52 70 68
52 70 67
53 72 68
54 74 74
54 74 73
54 73 71
54 74 74
55 74 73
55 75 77
108 113 89
183 175 114
184 176 114
183 175 114
183 175 114
183 175 114
182 175 114
182 175 114
181 175 114
181 174 114
181 174 114
181 174 114
180 174 114
180 174 114
180 174 114
180 174 114
179 174 114
179 173 114
179 173 114
179 173 114
179 173 114
179 173 114
179 173 114
178 173 114
178 173 114
178 173 114
178 173 114
178 173 114
178 173 114
178 173 114
178 173 114
178 173 114
178 173 114
178 173 114
179 173 114
179 173 114
179 173 114
179 173 114
179 173 114
179 173 114
180 174 114
180 174 114
180 174 114
180 174 114
180 174 114
181 174 114
181 174 114
181 174 114
182 175 114
182 175 114
182 175 114
183 175 114
183 175 114
183 175 114
184 176 114
184 176 114
185 176 114
185 176 114
186 177 114
186 177 114
187 177 114
187 177 114
188 178 114
189 178 114
189 178 114
190 178 114
190 179 114
191 179 114
192 179 114
192 180 114
193 180 114
194 180 114
195 181 114
195 181 114
196 182 114
197 182 114
198 182 114
199 183 114
200 183 114
201 184 114
199 183 110
156 153 11
155 153 0
156 153 0
157 154 0
156 153 0
156 152 0
155 152 0
166 179 0
173 196 0
175 197 0
172 195 0
176 197 0
174 197 0
173 197 0
172 195 0
173 194 0
173 196 0
174 197 0
174 196 0
173 196 0
173 197 0
174 196 0
173 196 0
173 196 0
174 198 0
175 197 0
174 196 0
174 197 0
172 195 0
174 197 0
174 196 0
174 197 0
173 197 0
174 196 0
175 198 0
174 196 0
173 196 0
173 196 0
173 197 0
173 197 0
173 197 0
175 198 0
172 196 0
172 196 0
174 195 0
173 196 0
174 197 0
175 198 0
174 197 0
175 196 0
175 197 0
176 198 0
174 197 0
175 198 0
171 195 0
174 197 0
175 198 0
173 197 0
172 196 0
174 198 0
174 197 0
173 196 0
174 197 0
173 196 0
174 197 0
172 196 0
175 198 0
174 197 0
174 198 0
174 197 0
173 196 0
174 197 0
171 195 0
173 197 0
174 197 0
174 197 0
173 196 0
174 198 0
174 197 0
170 194 0
174 197 0
172 195 0
173 196 0
172 196 0
172 196 0
172 196 0
173 196 0
173 196 0
173 196 0
173 197 0
175 197 0
171 194 0
172 196 0
174 196 0
173 197 0
171 195 0
173 196 0
170 194 0
174 197 0
175 198 0
172 196 0
173 196 0
175 198 0
174 198 0
173 197 0
172 195 0
174 197 0
172 196 0
171 195 0
174 197 0
172 196 0
175 198 0
173 196 0
172 196 0
171 194 0
171 195 0
174 197 0
171 195 0
172 195 0
173 197 0
173 196 0
173 196 0
175 197 0
174 197 0
173 197 0
172 196 0
171 195 0
172 196 0
175 198 0
174 197 0
174 197 0
174 197 0
172 195 0
171 195 0
172 195 0
173 197 0
175 198 0
171 194 0
172 196 0
173 196 0
174 197 0
172 195 0
174 197 0
172 196 0
173 196 0
173 196 0
172 195 0
171 194 0
172 195 0
172 195 0
170 193 0
173 197 0
173 196 0
170 193 0
173 196 0
171 194 0
172 196 0
170 193 0
172 195 0
171 195 0
171 193 0
170 193 0
173 195 0
171 194 0
172 196 0
172 195 0
169 194 0
170 193 0
173 195 0
171 194 0
172 196 0
173 196 0
171 194 0
158 182 67
74 108 162
63 99 172
63 99 174
62 99 172
63 99 174
62 99 175
61 98 172
61 98 170
62 99 178
62 99 174
62 99 175
62 99 178
62 98 174
62 99 176
63 99 178
62 99 177
62 99 175
62 99 181
62 99 178
62 99 177
62 99 179
63 99 179
62 99 176
63 100 180
62 99 179
62 99 178
62 99 177
62 99 178
62 99 180
62 99 179
62 99 180
62 99 180
62 99 181
62 99 181
61 98 179
62 99 180
62 99 181
62 99 180
62 99 180
62 99 181
62 99 179
62 99 177
62 99 181
62 99 181
61 99 179
62 99 181
62 99 179
62 99 181
62 99 181
62 99 180
61 98 177
62 99 181
62 99 179
62 99 180
62 99 177
62 99 178
62 99 181
61 99 179
61 99 179
62 99 181
62 99 180
62 99 180
62 99 179
61 99 181
62 99 180
62 99 180
62 99 179
62 99 181
62 99 181
61 98 176
62 99 178
63 99 180
62 99 181
62 99 178
61 99 177
62 99 179
62 99 179
63 100 180
62 99 178
62 99 179
62 99 176
62 99 178
62 99 180
62 99 179
62 99 180
63 99 179
61 98 174
62 99 178
62 99 179
62 99 178
62 99 178
62 99 178
62 99 176
62 98 176
61 98 170
63 99 177
61 98 176
62 99 176
61 98 174
62 99 175
61 98 169
61 98 172
61 98 174
62 98 167
62 99 174
62 98 174
62 98 175
62 98 174
62 97 172
61 97 167
62 98 173
62 98 170
62 98 172
62 98 170
62 98 170
61 95 159
61 96 164
51 69 76
47 60 51
48 62 54
47 62 56
47 62 54
47 62 57
47 63 58
48 63 60
49 65 58
50 67 64
50 67 64
49 66 62
47 61 55
49 65 61
49 66 65
50 64 55
51 68 63
51 68 65
51 69 65
52 70 65
51 69 65
52 69 65
54 72 68
53 72 72
53 72 71
54 73 72
55 75 74
55 75 74
55 75 75
136 136 98
184 176 114
184 176 114
184 176 114
183 175 114
183 175 114
183 175 114
182 175 114
182 175 114
182 175 114
181 174 114
181 174 114
181 174 114
181 174 114
181 174 114
180 174 114
180 174 114
180 174 114
180 174 114
180 174 114
180 174 114
179 174 114
179 174 114
179 174 114
179 173 114
179 173 114
179 173 114
179 173 114
179 173 114
179 173 114
179 173 114
179 174 114
179 174 114
180 174 114
180 174 114
180 174 114
180 174 114
180 174 114
180 174 114
180 174 114
181 174 114
181 174 114
181 174 114
181 174 114
182 175 114
182 175 114
182 175 114
182 175 114
183 175 114
183 175 114
183 175 114
184 176 114
184 176 114
185 176 114
185 176 114
186 176 114
186 177 114
187 177 114
187 177 114
188 177 114
188 178 114
189 178 114
189 178 114
190 178 114
190 179 114
191 179 114
192 179 114
192 180 114
193 180 114
194 180 114
194 181 114
195 181 114
196 181 114
197 182 114
198 182 114
198 183 114
199 183 114
200 183 114
201 184 114
182 170 83
156 153 0
155 153 0
156 153 0
155 153 0
156 153 0
154 152 0
157 153 0
166 177 0
173 196 0
174 196 0
173 196 0
173 196 0
173 196 0
175 196 0
174 197 0
173 196 0
174 197 0
172 193 0
174 197 0
172 195 0
174 197 0
173 196 0
172 195 0
173 196 0
172 194 0
173 196 0
172 194 0
175 197 0
172 196 0
174 197 0
172 196 0
174 196 0
175 197 0
174 197 0
174 196 0
174 196 0
174 197 0
174 197 0
173 195 0
175 197 0
175 198 0
174 197 0
173 195 0
176 198 0
173 194 0
173 196 0
172 196 0
173 195 0
173 196 0
172 195 0
174 197 0
174 196 0
174 197 0
173 197 0
174 197 0
172 196 0
172 196 0
173 197 0
174 197 0
173 196 0
173 196 0
174 198 0
174 197 0
172 196 0
173 196 0
173 196 0
173 196 0
172 195 0
171 195 0
173 197 0
174 197 0
173 196 0
174 197 0
173 197 0
171 195 0
171 195 0
170 194 0
174 197 0
172 196 0
175 198 0
174 197 0
172 196 0
174 196 0
175 197 0
174 197 0
175 198 0
174 197 0
175 198 0
171 194 0
171 194 0
175 198 0
173 196 0
172 196 0
174 198 0
173 196 0
173 196 0
171 196 0
172 195 0
172 195 0
173 196 0
173 197 0
175 197 0
171 195 0
173 196 0
171 194 0
174 198 0
171 195 0
171 195 0
173 196 0
173 197 0
175 198 0
172 195 0
170 193 0
175 197 0
172 196 0
172 196 0
173 196 0
173 196 0
175 198 0
173 196 0
171 195 0
174 198 0
172 196 0
173 196 0
173 196 0
173 197 0
173 197 0
171 194 0
172 196 0
170 194 0
171 194 0
173 196 0
172 195 0
170 194 0
170 194 0
171 194 0
173 196 0
170 193 0
172 195 0
173 195 0
171 195 0
172 196 0
170 194 0
173 197 0
173 196 0
174 197 0
174 197 0
172 195 0
173 197 0
175 198 0
172 195 0
172 195 0
171 195 0
174 197 0
171 195 0
171 195 0
172 195 0
172 196 0
174 196 0
171 195 0
171 194 0
174 196 0
170 194 0
170 193 0
173 196 0
173 196 0
171 194 0
171 194 0
173 196 0
172 195 0
172 195 0
168 191 0
172 195 0
104 131 144
63 99 172
62 99 170
62 98 172
62 99 174
63 99 175
62 99 172
62 99 174
62 99 174
62 99 176
62 99 174
62 99 177
62 99 175
62 99 178
62 99 176
62 99 179
61 98 175
62 99 181
62 99 176
62 99 177
62 99 178
62 99 178
62 99 179
62 99 179
61 98 175
62 99 178
62 99 179
62 99 177
61 99 178
62 99 180
62 99 177
62 99 179
62 99 180
61 98 178
62 99 178
61 98 176
62 99 180
62 99 181
62 99 178
62 99 179
62 99 180
62 99 181
62 99 181
62 99 179
63 100 181
62 99 180
62 99 178
62 99 178
62 99 180
62 99 180
62 99 178
61 98 179
62 99 180
62 99 181
62 99 180
62 99 181
62 99 181
62 99 180
62 99 181
62 99 179
62 99 180
62 99 179
62 99 179
62 99 181
62 99 180
61 99 178
62 99 179
62 99 177
63 100 180
62 99 177
62 99 177
62 99 175
62 99 178
62 99 176
62 99 180
62 99 178
62 99 178
62 99 179
62 99 177
62 99 177
62 99 180
62 99 178
62 99 179
62 99 179
62 99 178
63 100 180
62 99 175
62 99 180
62 99 172
62 99 176
62 99 178
62 99 179
62 99 178
62 99 175
62 99 176
62 99 175
62 99 176
62 99 178
62 99 173
62 99 177
62 98 174
62 99 174
62 99 175
62 99 176
62 98 174
62 99 176
62 99 175
62 99 174
62 98 171
61 98 166
62 98 170
62 99 176
62 98 171
62 98 169
61 97 170
61 96 171
61 97 169
61 96 161
57 88 139
46 61 56
43 56 48
46 60 52
46 61 54
46 60 52
47 62 56
45 60 54
46 61 55
45 59 53
48 63 58
47 62 57
50 67 62
50 66 60
47 62 55
52 69 65
51 68 64
51 67 63
52 69 66
51 68 62
54 72 70
51 69 64
53 71 67
53 71 69
54 72 71
54 72 70
54 73 72
54 74 71
55 75 74
61 79 78
166 159 106
185 176 114
185 176 114
184 176 114
184 176 114
184 175 114
183 175 114
183 175 114
183 175 114
182 175 114
182 175 114
182 175 114
182 175 114
181 174 114
181 174 114
181 174 114
181 174 114
181 174 114
181 174 114
180 174 114
180 174 114
180 174 114
180 174 114
180 174 114
180 174 114
180 174 114
180 174 114
180 174 114
180 174 114
180 174 114
180 174 114
180 174 114
180 174 114
180 174 114
181 174 114
181 174 114
181 174 114
181 174 114
181 174 114
181 174 114
182 175 114
182 175 114
182 175 114
182 175 114
183 175 114
183 175 114
183 175 114
184 175 114
184 176 114
184 176 114
185 176 114
185 176 114
185 176 114
186 177 114
186 177 114
187 177 114
187 177 114
188 177 114
188 178 114
189 178 114
189 178 114
190 179 114
190 179 114
191 179 114
192 179 114
192 180 114
193 180 114
194 180 114
194 181 114
195 181 114
196 181 114
197 182 114
197 182 114
198 182 114
199 183 114
200 183 114
201 184 114
200 183 111
159 155 25
156 153 0
156 153 0
156 153 0
155 152 0
155 153 0
155 152 0
157 153 0
165 176 0
173 195 0
173 196 0
173 195 0
172 193 0
174 197 0
171 193 0
173 194 0
174 197 0
174 196 0
174 197 0
170 194 0
173 195 0
174 197 0
175 197 0
174 197 0
175 198 0
173 195 0
173 195 0
174 196 0
173 196 0
174 197 0
174 197 0
173 196 0
173 195 0
174 197 0
173 196 0
175 197 0
173 197 0
174 196 0
175 198 0
173 197 0
174 197 0
173 197 0
175 198 0
176 199 0
173 196 0
175 198 0
174 197 0
174 197 0
173 196 0
176 197 0
173 196 0
175 196 0
174 197 0
174 197 0
175 198 0
171 194 0
172 195 0
174 197 0
174 197 0
174 197 0
171 196 0
175 198 0
173 197 0
175 198 0
171 195 0
175 198 0
172 195 0
173 197 0
173 196 0
173 196 0
173 197 0
174 197 0
174 197 0
174 197 0
174 197 0
173 196 0
174 197 0
172 196 0
173 197 0
174 197 0
174 198 0
174 197 0
172 196 0
172 196 0
170 194 0
174 197 0
173 196 0
175 198 0
175 198 0
172 196 0
173 197 0
171 195 0
173 197 0
171 194 0
172 196 0
174 197 0
174 197 0
172 196 0
170 193 0
173 196 0
173 197 0
174 197 0
174 197 0
174 197 0
171 195 0
173 195 0
172 196 0
174 197 0
173 197 0
172 196 0
173 197 0
170 194 0
172 195 0
170 194 0
174 197 0
172 196 0
171 194 0
175 198 0
172 196 0
171 194 0
171 194 0
172 196 0
174 197 0
170 193 0
170 195 0
171 195 0
171 194 0
170 193 0
172 195 0
172 195 0
173 196 0
174 197 0
174 198 0
173 196 0
172 195 0
172 196 0
171 194 0
173 196 0
171 194 0
169 193 0
171 193 0
173 196 0
173 196 0
174 197 0
172 196 0
172 195 0
170 193 0
172 195 0
172 195 0
171 194 0
173 196 0
174 197 0
172 196 0
171 195 0
172 195 0
170 193 0
172 196 0
171 194 0
172 195 0
173 196 0
173 196 0
172 195 0
171 195 0
169 193 0
170 193 0
171 194 0
172 194 0
173 196 0
173 196 0
171 194 0
171 194 0
170 193 0
168 192 0
128 153 121
61 98 164
61 98 165
62 99 172
62 98 168
62 99 173
62 98 171
62 99 177
62 99 176
62 98 171
62 99 175
63 99 177
62 99 175
63 99 177
62 99 177
63 99 174
62 99 176
63 100 180
62 99 177
62 99 174
62 99 180
63 99 178
62 99 181
61 98 177
62 99 177
62 99 177
62 99 179
62 99 178
62 99 180
62 99 181
63 100 181
61 98 173
62 99 179
62 99 179
62 99 179
62 99 178
63 100 180
62 99 178
62 99 180
61 98 179
62 99 181
61 99 179
62 99 180
62 99 180
61 98 178
62 99 181
62 99 181
62 99 180
62 99 179
62 100 181
62 99 179
62 99 180
62 99 180
61 99 180
62 99 181
62 99 181
62 99 180
62 99 179
62 99 177
61 99 180
62 99 180
62 99 180
62 99 179
62 99 181
62 99 179
62 99 178
62 99 178
62 99 178
62 99 179
63 100 181
62 99 178
61 98 178
62 99 180
62 99 179
62 99 178
62 99 178
61 98 176
62 99 179
62 99 179
62 99 176
61 99 179
62 99 178
62 99 179
62 99 177
62 99 178
62 99 180
62 99 178
62 99 175
63 99 178
61 98 176
62 99 180
62 99 177
62 98 175
63 100 177
62 99 178
61 98 176
62 99 178
61 98 175
62 99 175
62 99 174
62 99 174
62 99 176
62 98 173
62 98 172
62 99 176
62 99 171
62 99 173
62 98 171
62 99 177
62 98 171
63 99 172
61 97 168
61 97 169
62 98 173
61 97 170
61 97 164
61 97 168
62 97 164
60 95 163
61 96 165
52 75 106
43 56 48
43 57 51
45 59 53
44 58 51
46 61 57
44 58 51
46 61 55
45 59 51
48 64 59
46 62 56
47 63 58
50 65 59
47 63 59
49 65 60
48 64 58
51 68 64
50 68 66
51 69 65
52 70 66
51 68 62
52 71 67
53 72 68
54 72 67
53 72 71
54 73 73
55 74 73
55 75 73
55 74 71
107 112 88
186 177 114
185 176 114
185 176 114
185 176 114
184 176 114
184 176 114
184 176 114
184 175 114
183 175 114
183 175 114
183 175 114
183 175 114
182 175 114
182 175 114
182 175 114
182 175 114
182 175 114
182 175 114
181 174 114
181 174 114
181 174 114
181 174 114
181 174 114
181 174 114
181 174 114
181 174 114
181 174 114
181 174 114
181 174 114
181 174 114
181 174 114
181 174 114
181 174 114
182 175 114
182 175 114
182 175 114
182 175 114
182 175 114
182 175 114
183 175 114
183 175 114
183 175 114
183 175 114
184 175 114
184 176 114
184 176 114
184 176 114
185 176 114
185 176 114
185 176 114
186 177 114
186 177 114
187 177 114
187 177 114
188 177 114
188 178 114
189 178 114
189 178 114
190 178 114
190 179 114
191 179 114
191 179 114
192 179 114
192 180 114
193 180 114
194 180 114
194 181 114
195 181 114
196 181 114
196 182 114
197 182 114
198 182 114
199 183 114
199 183 114
200 184 114
201 184 114
177 167 75
156 153 0
155 153 0
156 153 0
155 153 0
156 153 0
157 153 0
156 153 0
155 152 0
166 180 0
173 195 0
172 195 0
174 196 0
173 196 0
172 193 0
171 192 0
172 195 0
174 197 0
173 196 0
172 194 0
175 198 0
174 198 0
173 196 0
172 194 0
174 197 0
173 196 0
172 196 0
172 196 0
176 198 0
172 196 0
172 196 0
171 194 0
173 197 0
172 194 0
174 197 0
174 196 0
173 196 0
174 196 0
174 197 0
172 195 0
174 197 0
175 197 0
172 196 0
174 197 0
173 196 0
174 197 0
171 196 0
174 196 0
175 197 0
173 196 0
173 196 0
173 196 0
172 195 0
172 196 0
173 196 0
174 197 0
172 195 0
173 196 0
171 195 0
172 197 0
174 198 0
174 198 0
175 198 0
174 197 0
175 198 0
174 197 0
173 196 0
174 196 0
174 197 0
171 195 0
171 195 0
172 195 0
173 196 0
175 198 0
172 196 0
174 197 0
175 197 0
173 196 0
169 193 0
173 196 0
176 199 0
173 197 0
172 196 0
172 196 0
171 195 0
172 195 0
172 196 0
175 198 0
175 198 0
172 196 0
172 196 0
171 195 0
172 196 0
173 197 0
171 195 0
170 193 0
173 197 0
171 194 0
173 196 0
174 197 0
172 196 0
174 198 0
171 195 0
174 197 0
174 197 0
170 194 0
173 197 0
172 195 0
173 196 0
174 197 0
172 195 0
170 194 0
172 195 0
172 196 0
171 195 0
174 197 0
170 193 0
172 196 0
173 197 0
175 197 0
171 195 0
170 193 0
174 197 0
171 194 0
172 196 0
174 197 0
173 197 0
173 196 0
175 197 0
171 194 0
175 197 0
174 197 0
174 196 0
174 197 0
172 195 0
172 195 0
172 195 0
172 196 0
170 194 0
173 195 0
172 196 0
173 196 0
170 194 0
174 197 0
172 195 0
174 197 0
172 195 0
172 195 0
170 194 0
171 195 0
169 193 0
170 194 0
171 194 0
173 197 0
172 195 0
172 195 0
172 195 0
169 192 0
169 193 0
173 196 0
173 197 0
170 193 0
173 195 0
172 195 0
171 194 0
170 193 0
169 193 0
171 194 0
171 195 0
173 196 0
171 194 0
173 195 0
173 196 0
161 185 57
67 102 155
62 99 167
62 98 164
62 99 170
62 99 173
62 99 171
62 98 168
62 99 174
62 99 175
63 99 175
62 98 172
62 99 176
62 99 173
62 99 177
63 100 177
61 98 171
62 99 178
63 99 177
62 99 178
62 99 177
62 99 172
61 98 177
62 99 178
62 99 175
62 98 173
62 99 178
62 99 178
62 99 177
62 99 176
62 99 177
62 99 180
61 99 178
62 99 180
62 99 179
62 99 177
62 99 181
62 99 180
62 99 179
61 98 175
62 99 178
61 99 180
62 99 177
62 99 179
62 99 181
62 99 180
62 99 181
62 99 177
61 98 179
62 99 178
62 99 181
62 99 180
62 99 181
62 99 178
63 100 180
62 99 181
62 99 180
62 99 179
62 99 178
62 99 179
62 99 176
62 99 179
61 98 179
62 99 178
62 99 179
62 99 179
62 99 180
62 99 180
62 99 175
63 99 179
61 98 179
61 98 178
62 99 181
62 99 177
62 99 179
62 99 179
62 99 180
62 99 181
62 99 176
62 99 178
62 99 177
62 99 176
62 99 179
62 99 179
62 99 179
61 98 176
63 100 178
62 99 177
62 99 177
63 99 179
63 99 179
62 99 178
62 99 173
62 99 178
62 99 177
62 99 177
62 99 178
62 99 175
62 99 175
61 98 170
62 99 174
62 99 178
62 98 173
62 98 175
62 99 172
62 98 175
62 99 174
62 98 171
62 98 175
62 98 169
62 98 166
61 98 169
62 98 168
61 98 174
63 98 170
61 97 166
62 97 169
62 98 172
61 96 163
61 96 160
60 94 158
61 96 164
47 65 80
43 55 46
42 55 48
45 59 53
43 56 46
45 59 53
45 60 52
47 62 57
47 61 53
44 58 52
47 62 55
48 64 59
48 64 60
49 65 60
48 63 58
50 66 61
49 67 65
52 70 68
52 69 64
50 67 61
51 68 65
53 71 69
53 70 65
54 74 72
54 73 70
54 72 68
54 74 70
54 74 69
55 76 76
145 142 99
186 177 114
186 177 114
186 176 114
185 176 114
185 176 114
185 176 114
184 176 114
184 176 114
184 176 114
184 176 114
184 175 114
183 175 114
183 175 114
183 175 114
183 175 114
183 175 114
182 175 114
182 175 114
182 175 114
182 175 114
182 175 114
182 175 114
182 175 114
182 175 114
182 175 114
182 175 114
182 175 114
182 175 114
182 175 114
182 175 114
182 175 114
182 175 114
182 175 114
183 175 114
183 175 114
183 175 114
183 175 114
183 175 114
183 175 114
184 176 114
184 176 114
184 176 114
184 176 114
185 176 114
185 176 114
185 176 114
186 176 114
186 177 114
186 177 114
187 177 114
187 177 114
188 177 114
188 178 114
188 178 114
189 178 114
189 178 114
190 178 114
190 179 114
191 179 114
191 179 114
192 179 114
193 180 114
193 180 114
194 180 114
194 181 114
195 181 114
196 181 114
196 182 114
197 182 114
198 182 114
198 183 114
199 183 114
200 183 114
201 184 114
192 178 101
157 153 16
156 153 0
155 152 0
155 152 0
155 153 0
157 153 0
155 153 0
155 152 0
157 153 0
168 182 0
172 196 0
172 194 0
172 195 0
171 194 0
173 196 0
172 195 0
174 196 0
173 195 0
173 195 0
173 194 0
173 195 0
173 195 0
172 196 0
172 195 0
173 194 0
172 194 0
172 194 0
174 197 0
173 196 0
175 197 0
172 194 0
172 195 0
173 195 0
174 197 0
173 196 0
172 196 0
173 196 0
173 195 0
173 195 0
174 197 0
176 197 0
174 198 0
174 197 0
173 196 0
174 196 0
174 196 0
172 195 0
173 197 0
173 196 0
174 197 0
172 196 0
174 197 0
174 197 0
174 197 0
173 196 0
175 198 0
174 197 0
173 197 0
171 195 0
174 198 0
173 196 0
172 196 0
173 197 0
173 197 0
173 197 0
174 197 0
175 198 0
175 198 0
173 197 0
174 197 0
174 197 0
172 196 0
173 196 0
172 195 0
172 196 0
171 195 0
173 196 0
173 196 0
173 195 0
174 197 0
173 196 0
173 197 0
172 195 0
174 198 0
173 197 0
172 196 0
175 198 0
172 196 0
173 197 0
173 197 0
173 196 0
173 196 0
174 197 0
174 197 0
173 197 0
172 195 0
172 195 0
171 195 0
172 195 0
170 193 0
172 196 0
174 197 0
174 197 0
171 194 0
172 196 0
176 198 0
171 195 0
172 196 0
174 197 0
172 196 0
170 193 0
171 195 0
172 195 0
174 197 0
173 196 0
172 195 0
171 195 0
172 196 0
172 194 0
175 198 0
173 197 0
171 195 0
172 196 0
172 196 0
172 195 0
173 196 0
173 197 0
171 195 0
172 194 0
171 195 0
172 196 0
173 196 0
171 195 0
171 195 0
171 194 0
174 197 0
170 195 0
173 196 0
174 197 0
171 194 0
174 197 0
174 198 0
171 194 0
169 192 0
171 195 0
172 195 0
171 195 0
173 196 0
171 194 0
174 197 0
171 193 0
172 194 0
172 195 0
171 194 0
167 191 0
171 194 0
175 197 0
173 196 0
171 195 0
170 194 0
170 194 0
171 194 0
168 191 0
172 196 0
170 194 0
173 196 0
174 197 0
174 196 0
170 193 0
171 195 0
173 196 0
173 196 0
170 194 0
105 133 136
63 100 174
63 99 172
61 98 167
62 98 167
61 98 175
62 98 168
62 98 169
62 99 174
62 99 175
62 99 174
62 98 169
62 98 170
62 99 175
62 99 178
62 99 175
62 99 177
62 99 174
62 99 177
62 99 174
62 98 173
62 98 175
62 99 175
62 99 178
62 99 177
62 99 176
63 100 179
63 100 181
62 99 178
63 100 180
62 99 181
61 98 176
62 100 181
62 99 177
62 99 176
62 99 181
62 99 177
62 99 178
61 99 180
62 99 180
62 99 180
62 99 180
62 99 180
62 99 175
62 99 179
62 99 178
62 99 181
62 99 180
61 99 178
62 99 181
62 99 179
63 100 181
62 99 180
62 99 179
62 99 179
62 99 179
62 99 178
62 99 180
62 99 178
61 99 177
62 99 180
62 99 180
62 99 177
62 99 177
62 99 178
62 99 180
61 99 181
61 99 178
62 99 181
62 99 179
62 99 175
62 99 180
62 99 177
62 99 180
62 99 178
62 99 179
62 99 179
62 99 180
62 99 178
63 100 180
63 100 180
63 100 180
62 99 180
62 99 178
61 99 178
62 99 176
62 99 177
61 99 179
62 99 178
62 99 176
62 99 178
61 98 171
61 98 174
62 99 177
62 99 180
62 99 173
62 99 177
62 99 179
62 99 174
62 98 175
62 99 175
61 98 174
62 99 174
61 98 170
62 98 171
62 99 178
62 99 175
62 98 173
62 98 173
62 99 175
62 98 174
62 99 172
62 98 169
62 98 170
62 98 174
62 98 166
61 96 164
62 98 169
61 95 158
62 98 169
61 96 161
60 96 168
55 85 138
42 54 45
43 56 50
44 57 49
43 56 47
43 57 51
41 54 46
43 58 53
45 59 52
46 62 58
48 63 58
45 58 48
48 63 59
48 64 58
49 65 59
50 66 62
50 67 60
50 66 59
51 68 63
52 70 64
52 70 66
52 69 61
52 69 63
53 71 68
53 71 66
54 74 71
54 73 72
55 74 70
55 75 75
77 90 80
185 176 113
187 177 114
187 177 114
186 177 114
186 177 114
186 176 114
185 176 114
185 176 114
185 176 114
185 176 114
184 176 114
184 176 114
184 176 114
184 176 114
184 176 114
184 176 114
183 175 114
183 175 114
183 175 114
183 175 114
183 175 114
183 175 114
183 175 114
183 175 114
183 175 114
183 175 114
183 175 114
183 175 114
183 175 114
183 175 114
183 175 114
183 175 114
183 175 114
184 175 114
184 176 114
184 176 114
184 176 114
184 176 114
184 176 114
185 176 114
185 176 114
185 176 114
185 176 114
186 176 114
186 177 114
186 177 114
186 177 114
187 177 114
187 177 114
188 177 114
188 178 114
188 178 114
189 178 114
189 178 114
190 178 114
190 179 114
191 179 114
191 179 114
192 179 114
192 180 114
193 180 114
193 180 114
194 180 114
194 181 114
195 181 114
196 181 114
196 182 114
197 182 114
198 182 114
198 183 114
199 183 114
200 183 114
201 184 114
201 184 113
168 161 56
157 153 0
156 153 0
155 153 0
156 153 0
155 153 0
155 153 0
156 153 0
155 152 0
156 153 0
168 184 0
174 196 0
173 195 0
172 194 0
173 196 0
173 195 0
172 195 0
173 195 0
172 194 0
173 195 0
172 194 0
171 193 0
173 195 0
173 196 0
174 196 0
173 196 0
173 196 0
174 196 0
174 197 0
174 195 0
172 195 0
173 196 0
173 195 0
173 195 0
173 196 0
172 196 0
174 196 0
175 198 0
173 197 0
174 197 0
175 197 0
172 195 0
172 194 0
173 197 0
173 197 0
173 196 0
176 199 0
175 197 0
173 196 0
173 197 0
174 197 0
174 196 0
175 197 0
176 198 0
174 198 0
171 195 0
173 197 0
175 198 0
174 197 0
174 197 0
173 197 0
173 196 0
173 196 0
172 196 0
173 197 0
171 195 0
175 198 0
172 196 0
173 196 0
172 194 0
172 196 0
173 197 0
174 197 0
174 197 0
170 194 0
174 196 0
173 196 0
172 196 0
172 195 0
176 199 0
175 198 0
173 196 0
172 196 0
173 197 0
172 196 0
172 195 0
174 197 0
173 196 0
174 197 0
171 195 0
175 198 0
175 198 0
174 198 0
172 195 0
173 197 0
175 198 0
172 195 0
173 196 0
169 193 0
172 196 0
170 195 0
172 196 0
173 196 0
172 196 0
170 195 0
174 197 0
173 197 0
173 196 0
172 196 0
170 193 0
173 197 0
174 198 0
173 196 0
170 194 0
173 196 0
174 196 0
172 195 0
173 196 0
171 195 0
173 196 0
173 196 0
172 196 0
170 194 0
172 195 0
172 196 0
169 193 0
169 193 0
173 196 0
173 196 0
172 195 0
172 196 0
172 196 0
174 197 0
170 194 0
170 193 0
172 195 0
171 195 0
172 196 0
171 194 0
173 197 0
171 195 0
172 195 0
172 195 0
173 196 0
169 194 0
173 196 0
172 195 0
171 195 0
174 197 0
171 195 0
171 194 0
168 192 0
172 194 0
171 194 0
170 194 0
172 194 0
170 193 0
172 195 0
171 195 0
172 196 0
170 193 0
174 196 0
173 196 0
171 195 0
169 193 0
172 195 0
174 197 0
171 194 0
174 197 0
172 195 0
170 194 0
170 194 0
173 196 0
145 169 95
62 98 169
62 98 164
61 97 161
62 98 165
62 98 172
62 99 171
62 99 170
62 99 174
62 99 178
61 98 174
62 99 174
62 99 171
62 99 175
62 99 176
61 98 175
62 99 171
62 99 180
63 99 176
62 99 174
63 99 176
62 99 176
62 99 178
62 99 177
62 99 181
62 99 179
62 99 177
62 99 176
62 99 178
63 100 179
62 99 179
62 99 179
63 99 177
62 99 181
62 99 179
62 99 177
62 99 175
62 99 176
63 99 178
62 99 178
63 99 180
62 99 178
62 99 179
62 99 178
62 99 181
63 100 179
62 99 180
61 98 180
62 99 180
62 99 180
62 99 179
62 99 179
62 99 179
62 99 180
62 99 178
62 99 181
62 99 180
62 99 178
61 99 177
63 100 181
62 99 178
62 99 181
61 98 177
62 99 179
62 99 179
62 99 176
62 99 179
62 99 179
62 99 179
62 99 179
61 98 179
63 100 181
61 98 177
62 99 179
62 99 179
62 99 179
62 99 180
62 99 178
62 99 176
63 100 180
61 98 176
62 99 177
61 98 176
61 99 178
63 99 176
62 99 178
61 98 178
62 99 178
62 99 175
62 99 177
61 98 176
62 99 176
62 99 177
62 99 177
62 99 175
63 100 177
62 99 176
62 99 173
62 98 174
62 98 174
62 99 174
63 99 177
63 99 174
62 99 176
61 98 175
62 99 173
61 98 168
62 98 172
62 98 172
62 99 175
61 97 167
63 99 175
62 98 170
62 97 165
62 98 170
62 98 168
61 97 167
61 96 161
62 97 166
62 97 168
61 97 164
61 95 158
61 94 153
61 96 166
48 69 93
40 53 47
42 55 48
40 51 41
41 53 45
38 50 41
43 57 49
46 61 54
45 60 54
48 63 58
46 61 55
48 62 55
49 64 58
47 63 60
48 63 57
50 67 58
51 68 66
50 67 63
53 71 67
50 68 62
51 68 63
53 70 65
53 72 69
55 73 71
54 73 71
53 72 67
53 72 67
55 74 72
55 75 74
147 144 99
188 178 114
187 177 114
187 177 114
187 177 114
187 177 114
186 177 114
186 177 114
186 177 114
186 176 114
185 176 114
185 176 114
185 176 114
185 176 114
185 176 114
185 176 114
184 176 114
184 176 114
184 176 114
184 176 114
184 176 114
184 176 114
184 176 114
184 176 114
184 176 114
184 176 114
184 176 114
184 176 114
184 176 114
184 176 114
184 176 114
184 176 114
184 176 114
184 176 114
185 176 114
185 176 114
185 176 114
185 176 114
185 176 114
185 176 114
186 176 114
186 177 114
186 177 114
186 177 114
187 177 114
187 177 114
187 177 114
188 177 114
188 178 114
188 178 114
189 178 114
189 178 114
190 178 114
190 179 114
190 179 114
191 179 114
191 179 114
192 179 114
192 180 114
193 180 114
193 180 114
194 180 114
195 181 114
195 181 114
196 181 114
196 182 114
197 182 114
198 182 114
198 183 114
199 183 114
200 183 114
200 184 114
201 184 114
178 168 77
155 153 0
155 153 0
156 153 0
155 153 0
155 153 0
157 153 0
157 153 0
157 153 0
155 152 0
155 152 0
171 190 0
172 194 0
173 194 0
171 191 0
172 194 0
174 197 0
174 196 0
172 196 0
173 195 0
173 197 0
174 196 0
175 197 0
173 196 0
173 195 0
173 195 0
172 194 0
172 195 0
173 196 0
173 197 0
173 196 0
172 195 0
174 196 0
172 195 0
173 196 0
173 196 0
173 197 0
173 196 0
172 195 0
173 196 0
172 195 0
173 195 0
174 196 0
174 197 0
175 198 0
174 197 0
174 197 0
173 196 0
173 196 0
173 196 0
174 197 0
174 197 0
172 196 0
173 196 0
174 196 0
174 196 0
175 198 0
173 196 0
174 198 0
174 198 0
173 196 0
172 196 0
174 197 0
173 197 0
174 197 0
173 196 0
173 196 0
174 198 0
171 195 0
173 196 0
174 197 0
172 196 0
175 198 0
174 197 0
174 198 0
174 197 0
171 195 0
173 196 0
172 196 0
174 197 0
174 198 0
173 196 0
173 197 0
172 196 0
172 195 0
173 196 0
172 195 0
173 197 0
173 197 0
174 197 0
172 196 0
175 198 0
171 194 0
172 195 0
171 194 0
172 196 0
174 197 0
172 196 0
173 196 0
171 195 0
174 197 0
174 196 0
171 195 0
172 195 0
175 198 0
174 197 0
171 194 0
171 195 0
171 194 0
170 194 0
173 195 0
171 194 0
174 198 0
173 197 0
172 196 0
170 194 0
172 196 0
173 196 0
171 195 0
174 197 0
171 194 0
174 197 0
168 191 0
173 197 0
173 196 0
172 196 0
173 196 0
170 194 0
174 197 0
172 196 0
173 197 0
170 194 0
172 195 0
171 194 0
172 195 0
171 194 0
174 196 0
174 197 0
170 193 0
172 195 0
171 195 0
174 197 0
173 197 0
168 191 0
171 195 0
171 195 0
172 196 0
171 195 0
171 196 0
170 193 0
172 195 0
170 193 0
172 196 0
169 192 0
172 195 0
173 196 0
172 195 0
170 194 0
173 195 0
168 191 0
171 194 0
169 192 0
175 198 0
170 193 0
171 195 0
171 194 0
168 191 0
168 191 0
171 193 0
170 194 0
171 194 0
173 196 0
172 195 0
170 193 18
88 118 157
62 98 163
62 98 167
62 98 159
62 99 174
62 99 172
62 99 172
62 98 170
62 99 172
62 99 176
62 99 172
63 100 177
62 99 172
62 99 173
61 98 174
62 98 170
61 98 173
62 98 173
62 99 173
61 98 174
62 99 178
62 99 176
62 99 173
62 99 175
62 99 177
62 99 180
63 99 179
63 100 178
62 99 177
62 99 177
62 99 177
62 99 178
62 99 178
62 99 177
62 99 178
62 99 179
62 99 179
63 100 181
63 100 178
63 99 177
61 98 177
62 99 180
62 99 179
61 99 179
62 99 179
62 99 180
62 99 179
62 99 178
61 99 177
62 99 180
63 100 180
62 99 179
62 99 180
61 98 177
62 99 179
62 99 180
62 99 179
62 99 179
62 99 176
62 99 177
62 99 180
62 99 178
62 100 181
62 99 174
62 98 175
63 99 174
62 99 174
62 99 178
62 99 178
62 99 179
62 99 177
62 99 179
62 99 178
62 99 177
63 100 180
62 99 178
62 99 180
62 99 177
62 99 175
62 99 176
62 99 180
62 99 179
62 99 175
61 99 178
62 99 178
62 99 177
62 99 177
62 99 174
62 99 178
63 100 178
62 99 177
62 99 179
62 99 174
62 99 178
62 99 178
62 99 175
63 99 176
62 99 176
63 99 177
62 99 174
62 99 173
62 99 175
62 99 175
62 99 175
62 99 176
62 99 176
62 98 173
62 98 173
63 99 174
62 99 173
62 98 170
62 98 168
62 97 170
62 97 167
62 98 167
62 99 171
61 97 168
62 98 173
61 97 169
62 97 168
61 97 168
62 97 164
61 96 162
61 95 160
58 90 146
40 53 51
40 54 48
38 48 38
41 55 50
44 58 50
43 56 49
45 60 55
45 60 54
46 60 52
47 63 58
46 62 55
46 61 53
49 64 55
50 65 57
49 65 59
50 67 59
49 66 58
50 66 60
51 68 59
52 69 64
51 68 64
54 73 69
54 72 69
54 72 68
54 73 69
54 72 68
54 74 70
55 75 72
89 98 80
188 177 114
188 178 114
188 178 114
188 178 114
187 177 114
187 177 114
187 177 114
187 177 114
187 177 114
186 177 114
186 177 114
186 177 114
186 177 114
186 176 114
185 176 114
185 176 114
185 176 114
185 176 114
185 176 114
185 176 114
185 176 114
185 176 114
185 176 114
185 176 114
185 176 114
185 176 114
185 176 114
185 176 114
185 176 114
185 176 114
185 176 114
185 176 114
185 176 114
186 176 114
186 176 114
186 177 114
186 177 114
186 177 114
186 177 114
187 177 114
187 177 114
187 177 114
187 177 114
188 177 114
188 178 114
188 178 114
189 178 114
189 178 114
189 178 114
190 178 114
190 179 114
190 179 114
191 179 114
191 179 114
192 179 114
192 180 114
193 180 114
193 180 114
194 180 114
194 181 114
195 181 114
195 181 114
196 181 114
196 182 114
197 182 114
198 182 114
198 183 114
199 183 114
200 183 114
200 184 114
201 184 114
191 177 98
156 153 16
156 153 0
157 154 0
157 153 0
156 153 0
155 153 0
156 153 0
156 152 0
155 152 0
155 152 0
155 152 0
171 190 0
174 195 0
174 195 0
174 196 0
174 196 0
175 196 0
175 197 0
172 195 0
169 192 0
173 196 0
173 194 0
174 195 0
172 194 0
173 197 0
174 196 0
174 197 0
173 196 0
174 197 0
174 196 0
174 195 0
173 196 0
174 197 0
172 194 0
173 194 0
172 197 0
173 197 0
173 196 0
172 195 0
172 195 0
171 193 0
175 198 0
174 197 0
172 195 0
173 196 0
173 195 0
174 197 0
174 197 0
174 196 0
173 196 0
175 198 0
174 197 0
174 197 0
173 195 0
174 197 0
173 196 0
174 196 0
172 195 0
173 197 0
173 197 0
174 197 0
173 197 0
175 198 0
174 197 0
174 197 0
173 197 0
172 196 0
172 195 0
175 198 0
174 197 0
172 195 0
172 196 0
173 196 0
175 198 0
173 197 0
174 197 0
175 198 0
173 196 0
173 197 0
174 198 0
172 196 0
173 196 0
173 196 0
174 197 0
170 194 0
175 197 0
173 197 0
172 196 0
172 195 0
175 198 0
173 196 0
174 197 0
174 197 0
173 197 0
174 197 0
172 195 0
173 197 0
173 197 0
171 195 0
172 196 0
174 197 0
173 196 0
172 195 0
172 196 0
172 196 0
171 195 0
172 196 0
173 197 0
173 196 0
174 198 0
172 196 0
172 195 0
173 196 0
171 194 0
172 196 0
173 197 0
171 194 0
176 198 0
174 197 0
172 195 0
172 196 0
172 195 0
173 197 0
171 194 0
172 196 0
169 193 0
173 197 0
172 196 0
172 196 0
174 196 0
173 196 0
172 196 0
171 194 0
173 197 0
173 197 0
172 196 0
174 197 0
172 195 0
174 197 0
175 198 0
172 196 0
172 196 0
172 195 0
171 194 0
173 196 0
171 195 0
172 195 0
172 195 0
169 192 0
173 196 0
169 193 0
171 195 0
168 191 0
169 192 0
169 193 0
169 192 0
172 195 0
172 195 0
171 194 0
172 196 0
169 192 0
172 195 0
172 195 0
170 193 0
170 193 0
171 195 0
173 197 0
174 198 0
174 196 0
173 196 0
172 195 0
172 195 0
174 196 0
140 165 102
61 97 157
62 98 172
62 98 164
62 98 170
62 98 168
63 99 171
62 99 171
62 99 168
62 99 173
62 98 172
62 98 170
63 99 178
62 99 176
62 99 176
62 99 176
62 99 176
62 99 176
62 98 172
62 98 173
62 99 174
62 99 177
62 99 177
63 99 176
62 99 178
61 99 179
62 99 179
62 99 176
63 99 178
62 99 179
62 99 176
62 99 179
62 99 177
62 99 178
62 99 178
62 99 179
62 99 177
62 99 179
62 99 178
62 99 179
62 99 179
62 99 177
62 99 177
62 99 177
63 100 180
62 99 179
62 99 178
62 99 178
62 99 178
62 99 180
62 99 180
63 100 179
62 99 179
62 99 177
62 99 178
62 99 181
62 99 178
62 99 174
62 100 181
62 99 179
62 99 179
61 99 180
62 99 175
62 99 178
62 99 181
63 100 179
62 99 179
62 99 178
62 99 179
62 99 176
62 99 177
62 99 179
62 99 179
62 99 177
62 99 177
62 99 174
62 99 178
62 99 178
61 98 174
62 99 177
62 99 177
61 98 176
62 99 176
63 100 179
62 99 175
61 98 177
63 99 179
62 99 177
61 98 180
62 99 173
62 99 176
62 99 179
62 99 176
62 99 177
62 99 176
62 99 175
63 99 177
62 99 177
63 100 179
62 99 174
62 99 176
63 100 174
63 99 175
62 99 174
63 99 175
62 98 173
62 99 174
62 99 175
61 98 173
62 98 171
62 98 171
62 98 173
62 99 174
62 99 168
61 97 163
61 97 164
62 98 172
62 98 168
62 96 161
61 97 164
61 97 168
61 97 166
61 96 162
61 96 160
60 95 155
61 95 165
50 74 116
38 49 43
37 49 42
40 53 47
42 55 47
43 57 51
43 57 48
42 55 48
47 61 54
45 59 51
47 61 54
47 63 55
47 64 58
46 60 54
49 65 59
48 63 57
50 66 60
50 67 62
51 68 61
51 68 61
52 69 63
52 70 63
54 72 66
54 72 66
53 71 66
54 72 67
55 74 70
55 75 72
56 76 74
149 144 99
189 178 114
189 178 114
189 178 114
188 178 114
188 178 114
188 178 114
188 177 114
188 177 114
187 177 114
187 177 114
187 177 114
187 177 114
187 177 114
186 177 114
186 177 114
186 177 114
186 177 114
186 177 114
186 177 114
186 177 114
186 177 114
186 177 114
186 177 114
186 177 114
186 177 114
186 177 114
186 177 114
186 177 114
186 177 114
186 177 114
186 177 114
186 177 114
186 177 114
187 177 114
187 177 114
187 177 114
187 177 114
187 177 114
188 177 114
188 177 114
188 178 114
188 178 114
188 178 114
189 178 114
189 178 114
189 178 114
190 178 114
190 179 114
191 179 114
191 179 114
191 179 114
192 179 114
192 180 114
192 180 114
193 180 114
193 180 114
194 180 114
194 181 114
195 181 114
195 181 114
196 181 114
197 182 114
197 182 114
198 182 114
198 183 114
199 183 114
200 183 114
200 184 114
201 184 114
194 179 103
156 154 19
157 154 0
155 153 0
156 153 0
156 153 0
155 153 0
156 153 0
156 153 0
154 152 0
157 153 0
156 153 0
156 153 0
174 195 0
173 195 0
174 196 0
174 196 0
174 197 0
173 195 0
173 196 0
172 194 0
171 193 0
173 196 0
172 193 0
173 194 0
172 196 0
174 196 0
173 195 0
173 196 0
172 196 0
171 194 0
173 196 0
173 195 0
174 193 0
174 196 0
173 195 0
173 196 0
174 197 0
176 197 0
173 195 0
175 197 0
173 196 0
174 196 0
173 196 0
175 197 0
174 196 0
172 196 0
174 197 0
174 196 0
174 197 0
176 198 0
175 197 0
173 196 0
174 197 0
173 196 0
172 195 0
173 196 0
175 196 0
174 197 0
171 195 0
173 196 0
172 196 0
173 196 0
175 198 0
176 198 0
174 197 0
172 196 0
173 196 0
174 197 0
174 197 0
172 195 0
174 197 0
174 197 0
172 196 0
173 197 0
174 197 0
175 198 0
175 198 0
173 197 0
173 197 0
176 198 0
174 197 0
174 197 0
172 195 0
172 196 0
177 199 0
174 197 0
172 195 0
173 197 0
170 195 0
174 197 0
171 195 0
173 196 0
173 196 0
171 194 0
172 195 0
174 197 0
174 197 0
174 197 0
171 194 0
175 197 0
172 195 0
172 195 0
174 197 0
175 198 0
174 197 0
169 193 0
172 195 0
175 198 0
173 196 0
171 193 0
173 196 0
174 196 0
174 197 0
173 196 0
171 195 0
173 196 0
172 196 0
174 197 0
175 198 0
174 197 0
174 197 0
174 197 0
173 197 0
172 195 0
175 197 0
172 195 0
172 196 0
170 194 0
174 197 0
170 194 0
170 193 0
173 196 0
175 198 0
169 193 0
171 195 0
171 196 0
171 195 0
171 195 0
171 194 0
172 195 0
175 198 0
170 194 0
171 195 0
171 195 0
171 195 0
173 196 0
172 196 0
171 194 0
172 195 0
168 192 0
172 196 0
170 193 0
173 196 0
171 195 0
169 191 0
173 197 0
172 195 0
172 195 0
170 193 0
172 195 0
172 195 0
170 192 0
171 195 0
170 194 0
172 195 0
175 198 0
171 195 0
171 195 0
172 196 0
173 195 0
172 194 0
173 196 0
171 194 0
160 184 54
74 106 159
62 98 165
63 99 168
62 98 171
62 99 166
62 99 171
62 98 165
62 99 172
62 99 171
62 99 171
61 98 167
62 99 174
63 100 177
62 98 169
62 99 176
62 98 173
62 98 175
62 99 175
62 99 173
62 98 173
62 99 174
62 99 177
62 99 178
63 99 177
62 99 178
63 99 176
62 99 178
62 99 178
62 99 176
62 99 177
62 99 174
62 99 178
62 99 178
62 99 177
62 99 177
62 99 180
62 99 179
62 99 178
62 99 178
63 100 179
62 99 175
62 99 178
62 99 180
62 99 180
62 99 176
62 99 180
62 99 176
61 99 177
63 100 176
62 99 177
62 99 181
62 99 178
62 99 180
62 99 179
62 99 178
61 98 175
62 99 177
62 99 178
62 99 180
62 99 179
62 99 179
62 99 179
61 98 177
61 98 178
62 99 181
62 99 181
62 99 176
62 99 178
62 99 177
62 99 179
62 99 177
62 99 176
62 99 178
63 100 178
61 98 175
62 99 178
62 99 180
62 99 176
62 99 178
62 99 176
63 100 181
62 99 176
62 99 177
62 99 177
62 99 180
62 99 179
61 99 177
62 99 179
62 99 177
61 98 171
63 100 177
63 99 177
62 99 175
61 98 176
62 99 175
62 99 176
62 99 173
61 98 175
62 99 172
62 98 175
62 99 174
62 98 168
62 99 175
62 99 179
62 99 175
62 99 172
62 99 173
62 99 174
62 98 168
62 98 170
61 98 169
62 99 177
62 99 173
62 99 172
62 99 176
61 97 163
62 98 171
61 98 168
62 98 166
62 98 171
61 97 162
62 99 169
61 95 156
60 95 155
61 96 165
60 94 161
59 91 151
38 51 48
42 57 51
39 50 41
38 50 44
41 54 48
39 51 43
43 57 51
44 59 54
46 60 53
43 56 47
46 60 52
48 62 52
48 64 57
48 64 60
49 65 57
51 68 61
50 66 58
51 68 62
51 68 64
52 70 64
52 69 62
52 71 66
53 71 65
53 70 63
53 71 66
55 73 70
55 74 71
55 75 71
128 127 92
190 179 114
190 179 114
190 178 114
189 178 114
189 178 114
189 178 114
189 178 114
188 178 114
188 178 114
188 178 114
188 178 114
188 177 114
188 177 114
187 177 114
187 177 114
187 177 114
187 177 114
187 177 114
187 177 114
187 177 114
187 177 114
187 177 114
187 177 114
187 177 114
187 177 114
187 177 114
187 177 114
187 177 114
187 177 114
187 177 114
187 177 114
187 177 114
187 177 114
188 177 114
188 177 114
188 178 114
188 178 114
188 178 114
188 178 114
189 178 114
189 178 114
189 178 114
189 178 114
190 178 114
190 179 114
190 179 114
191 179 114
191 179 114
191 179 114
192 179 114
192 180 114
193 180 114
193 180 114
193 180 114
194 180 114
194 181 114
195 181 114
195 181 114
196 181 114
196 182 114
197 182 114
197 182 114
198 182 114
198 183 114
199 183 114
200 183 114
200 184 114
201 184 114
196 180 105
158 154 28
156 153 0
154 152 0
156 153 0
156 153 0
155 152 0
155 152 0
155 152 0
156 153 0
157 153 0
156 153 0
155 152 0
159 160 0
172 193 0
171 193 0
173 196 0
174 196 0
174 197 0
172 194 0
172 195 0
173 194 0
173 195 0
172 193 0
173 196 0
174 197 0
174 196 0
173 196 0
173 195 0
174 196 0
173 195 0
174 197 0
172 195 0
173 197 0
172 195 0
171 193 0
173 195 0
173 196 0
174 196 0
174 197 0
173 194 0
174 195 0
173 196 0
174 196 0
172 194 0
172 196 0
174 195 0
173 194 0
173 196 0
173 197 0
173 197 0
172 195 0
173 196 0
174 196 0
173 195 0
174 197 0
174 196 0
174 197 0
174 197 0
172 194 0
173 196 0
173 196 0
171 195 0
175 198 0
174 198 0
174 197 0
172 196 0
172 196 0
172 195 0
174 197 0
172 196 0
174 197 0
175 198 0
173 196 0
171 194 0
172 196 0
173 196 0
173 196 0
173 197 0
172 196 0
175 198 0
174 197 0
171 195 0
172 196 0
172 196 0
174 197 0
173 196 0
172 195 0
173 196 0
173 196 0
170 193 0
172 195 0
173 195 0
173 196 0
173 196 0
173 196 0
174 198 0
171 195 0
174 196 0
175 198 0
172 195 0
174 197 0
171 195 0
174 197 0
172 195 0
173 196 0
173 197 0
171 194 0
171 194 0
172 195 0
174 197 0
172 196 0
170 194 0
173 197 0
169 193 0
174 197 0
171 195 0
170 195 0
172 196 0
171 194 0
171 195 0
173 196 0
172 196 0
172 196 0
172 196 0
172 196 0
172 196 0
173 196 0
172 195 0
173 196 0
173 196 0
172 195 0
173 196 0
172 196 0
169 193 0
172 196 0
173 195 0
170 194 0
171 194 0
173 196 0
172 195 0
172 196 0
171 194 0
172 195 0
172 196 0
173 196 0
169 193 0
173 195 0
170 194 0
168 192 0
170 192 0
170 193 0
173 196 0
171 193 0
169 193 0
171 195 0
171 195 0
171 195 0
171 195 0
174 196 0
172 195 0
173 195 0
170 194 0
169 193 0
175 196 0
169 192 0
172 195 0
170 193 0
169 193 0
173 195 0
171 193 0
173 196 0
172 195 0
172 195 0
169 193 0
130 155 117
62 98 163
63 99 169
62 99 169
62 98 169
62 98 167
62 99 168
62 99 172
62 98 168
62 99 171
62 99 173
62 99 175
62 99 174
62 99 173
62 99 174
62 99 174
63 99 174
62 98 175
62 99 175
63 100 177
62 99 173
62 99 175
61 98 175
62 99 178
62 99 179
62 99 177
63 100 177
61 98 174
62 99 177
62 99 177
62 99 178
62 99 179
63 100 181
63 99 177
62 99 179
62 99 175
63 100 178
62 99 178
62 99 176
62 99 177
62 99 177
61 98 172
63 100 180
62 99 177
62 99 177
62 99 179
62 99 177
62 99 180
63 99 179
61 98 175
62 99 177
62 99 179
62 99 172
63 100 178
63 100 180
61 99 178
62 99 179
61 98 177
62 99 178
62 98 175
61 98 177
62 99 177
62 99 175
62 99 179
62 99 177
63 100 179
62 99 180
63 99 178
62 99 176
62 99 177
62 99 175
62 99 179
62 99 178
62 99 177
62 99 179
61 98 175
62 99 180
62 99 177
62 99 178
63 99 178
61 98 174
63 99 177
62 99 180
62 99 177
62 99 176
62 99 174
63 100 178
62 99 176
62 99 177
63 99 177
62 99 173
62 99 176
63 99 177
62 99 177
63 99 179
61 98 173
62 98 175
61 98 173
62 99 172
62 99 178
62 99 170
62 99 170
62 99 173
63 99 170
62 99 173
62 99 173
62 99 174
62 98 171
62 99 180
61 98 167
62 99 169
62 99 171
63 99 171
62 98 170
62 98 172
62 99 170
62 98 170
61 97 167
62 97 169
61 97 165
62 98 168
63 99 175
61 96 159
61 96 162
61 96 162
62 97 164
60 95 157
59 92 151
52 78 118
37 49 43
37 48 38
39 51 40
42 55 48
38 50 42
42 55 47
44 58 51
45 59 53
47 62 55
45 60 54
47 62 56
46 60 53
47 62 55
50 67 61
49 64 57
51 68 59
50 65 54
52 69 62
51 67 62
52 71 66
52 70 64
52 71 66
52 70 64
54 74 70
54 73 69
54 73 69
54 74 68
71 85 75
190 178 114
191 179 114
191 179 114
190 179 114
190 179 114
190 178 114
190 178 114
189 178 114
189 178 114
189 178 114
189 178 114
189 178 114
189 178 114
188 178 114
188 178 114
188 178 114
188 178 114
188 178 114
188 178 114
188 178 114
188 178 114
188 177 114
188 178 114
188 177 114
188 178 114
188 178 114
188 178 114
188 178 114
188 178 114
188 178 114
188 178 114
188 178 114
188 178 114
189 178 114
189 178 114
189 178 114
189 178 114
189 178 114
189 178 114
190 178 114
190 178 114
190 179 114
190 179 114
191 179 114
191 179 114
191 179 114
192 179 114
192 179 114
192 180 114
193 180 114
193 180 114
193 180 114
194 180 114
194 181 114
195 181 114
195 181 114
196 181 114
196 181 114
196 182 114
197 182 114
198 182 114
198 182 114
199 183 114
199 183 114
200 183 114
200 184 114
201 184 114
195 180 104
159 155 25
156 153 0
156 153 0
157 153 0
155 153 0
157 154 0
155 152 0
155 153 0
156 153 0
155 152 0
157 153 0
157 153 0
157 153 0
159 161 0
172 193 0
173 194 0
171 193 0
174 196 0
173 195 0
174 195 0
172 194 0
172 195 0
170 191 0
172 194 0
172 193 0
173 196 0
173 196 0
173 196 0
171 195 0
173 195 0
172 195 0
173 195 0
172 195 0
173 196 0
172 195 0
173 196 0
172 195 0
172 194 0
173 197 0
173 195 0
172 194 0
173 195 0
172 195 0
174 197 0
175 197 0
175 197 0
173 196 0
172 196 0
172 195 0
173 196 0
174 196 0
173 195 0
172 195 0
174 196 0
172 195 0
173 197 0
175 197 0
172 195 0
173 196 0
174 197 0
173 197 0
171 195 0
172 196 0
173 196 0
173 196 0
175 198 0
174 198 0
174 197 0
171 194 0
173 197 0
175 198 0
171 196 0
172 196 0
174 197 0
171 195 0
173 196 0
172 197 0
175 198 0
172 195 0
172 196 0
172 196 0
172 195 0
173 196 0
173 196 0
173 197 0
171 195 0
173 197 0
172 196 0
173 196 0
170 194 0
170 194 0
174 197 0
173 197 0
172 195 0
173 197 0
172 196 0
174 197 0
172 196 0
172 195 0
171 194 0
174 197 0
174 198 0
174 197 0
173 197 0
174 197 0
172 195 0
172 196 0
172 196 0
174 197 0
172 195 0
169 193 0
172 195 0
171 194 0
171 194 0
172 195 0
173 197 0
173 196 0
172 195 0
173 197 0
170 193 0
173 197 0
175 197 0
174 197 0
173 195 0
175 198 0
172 196 0
171 195 0
171 194 0
172 195 0
174 197 0
168 192 0
170 194 0
172 196 0
170 194 0
171 194 0
169 192 0
171 195 0
171 195 0
171 195 0
167 190 0
173 196 0
172 196 0
171 194 0
170 193 0
171 195 0
172 195 0
171 194 0
170 194 0
171 194 0
172 196 0
169 192 0
168 192 0
171 195 0
171 194 0
170 193 0
172 195 0
171 193 0
170 193 0
169 192 0
172 195 0
172 196 0
174 197 0
172 195 0
171 194 0
169 193 0
169 193 0
172 195 0
169 191 0
173 196 0
168 192 0
165 189 0
172 196 0
170 193 0
171 194 0
165 188 47
76 108 159
62 98 163
62 98 164
63 99 170
62 98 169
62 98 164
63 99 167
62 99 172
62 99 174
62 99 171
63 99 177
62 99 170
62 99 169
63 100 178
62 99 173
61 98 172
62 98 172
62 99 174
62 98 173
62 99 176
62 99 177
63 99 178
62 99 176
63 99 176
63 100 179
62 99 178
62 99 177
62 99 175
63 99 178
62 99 176
62 99 176
62 99 178
62 99 173
63 100 180
62 99 177
62 99 177
62 99 178
61 98 173
62 99 176
62 99 178
62 99 176
62 99 176
63 100 180
62 99 178
62 99 176
61 99 177
62 99 180
62 99 179
62 99 179
62 99 178
62 99 177
62 99 177
61 99 180
62 99 177
62 99 179
62 99 179
61 99 177
62 99 178
62 99 179
62 99 177
62 99 179
62 99 176
62 99 177
61 98 175
62 99 179
62 98 174
62 99 177
62 99 180
62 99 176
61 98 175
61 99 178
62 99 179
62 99 179
62 99 176
62 99 176
61 98 176
62 99 181
63 99 175
63 99 177
62 99 176
62 99 177
62 99 178
62 98 177
62 99 179
62 99 176
63 99 178
62 99 180
62 99 175
63 99 177
62 99 177
62 99 175
62 99 174
62 99 176
62 99 176
62 99 172
62 99 172
62 99 173
62 99 177
62 99 179
62 99 178
63 100 176
62 99 176
62 99 178
61 98 171
62 99 173
62 98 169
61 98 167
62 99 177
62 98 169
61 97 165
62 98 173
63 99 165
63 99 175
62 99 172
62 99 170
62 98 171
62 98 167
63 98 172
62 98 170
62 98 169
61 97 165
63 98 170
62 98 165
61 96 162
61 97 160
62 97 163
60 94 156
61 95 158
59 92 152
39 51 45
40 53 45
40 52 44
39 51 43
41 54 47
43 57 48
44 58 48
46 59 48
45 59 50
46 60 52
44 57 50
47 60 50
47 62 54
49 64 53
47 62 53
50 65 58
51 66 59
51 68 60
50 67 59
51 68 61
53 72 68
52 70 62
53 71 65
54 73 69
54 73 67
54 73 67
54 74 68
56 76 71
152 146 98
192 179 114
192 179 114
191 179 114
191 179 114
191 179 114
191 179 114
190 179 114
190 179 114
190 179 114
190 179 114
190 178 114
190 178 114
189 178 114
189 178 114
189 178 114
189 178 114
189 178 114
189 178 114
189 178 114
189 178 114
189 178 114
189 178 114
189 178 114
189 178 114
189 178 114
189 178 114
189 178 114
189 178 114
189 178 114
189 178 114
189 178 114
189 178 114
189 178 114
190 178 114
190 178 114
190 179 114
190 179 114
190 179 114
191 179 114
191 179 114
191 179 114
191 179 114
192 179 114
192 179 114
192 180 114
192 180 114
193 180 114
193 180 114
193 180 114
194 180 114
194 181 114
195 181 114
195 181 114
195 181 114
196 181 114
196 182 114
197 182 114
197 182 114
198 182 114
198 183 114
199 183 114
199 183 114
200 183 114
200 184 114
201 184 114
195 180 104
156 154 19
157 154 0
155 153 0
156 153 0
157 154 0
156 153 0
155 153 0
156 152 0
154 152 0
157 153 0
155 152 0
156 153 0
155 152 0
155 152 0
161 171 0
173 194 0
171 193 0
172 194 0
171 194 0
173 195 0
173 194 0
174 195 0
173 196 0
174 195 0
174 196 0
172 194 0
173 196 0
174 195 0
173 194 0
172 194 0
173 195 0
171 193 0
172 194 0
173 197 0
175 197 0
173 194 0
172 195 0
173 196 0
173 195 0
173 195 0
173 196 0
172 195 0
176 199 0
172 196 0
174 197 0
173 197 0
172 195 0
174 196 0
174 197 0
173 196 0
174 195 0
172 196 0
172 194 0
176 197 0
173 196 0
173 195 0
175 196 0
173 195 0
175 198 0
173 197 0
172 195 0
174 197 0
174 197 0
171 195 0
172 195 0
175 198 0
175 198 0
174 197 0
175 198 0
174 197 0
173 197 0
173 197 0
174 197 0
173 197 0
175 198 0
173 197 0
173 197 0
173 197 0
172 195 0
173 197 0
172 196 0
171 193 0
172 196 0
171 195 0
174 196 0
172 195 0
174 198 0
173 197 0
174 197 0
174 197 0
174 197 0
173 196 0
174 197 0
172 196 0
172 195 0
173 196 0
173 197 0
172 196 0
174 197 0
174 197 0
172 195 0
175 198 0
172 196 0
173 197 0
172 196 0
170 193 0
172 196 0
172 196 0
175 198 0
174 197 0
173 196 0
174 197 0
173 196 0
171 195 0
174 197 0
173 197 0
172 195 0
173 197 0
174 197 0
172 196 0
172 196 0
173 197 0
172 195 0
173 196 0
171 195 0
173 197 0
173 196 0
171 194 0
172 195 0
172 196 0
172 196 0
172 195 0
174 197 0
170 193 0
171 195 0
174 196 0
170 193 0
171 195 0
172 196 0
172 195 0
172 195 0
170 193 0
169 193 0
171 194 0
175 197 0
173 197 0
173 196 0
173 196 0
172 194 0
173 195 0
174 197 0
172 195 0
170 194 0
172 196 0
170 193 0
173 195 0
172 195 0
171 194 0
168 192 0
173 196 0
172 196 0
171 195 0
172 195 0
171 194 0
169 193 0
167 191 0
169 192 0
171 194 0
172 194 0
172 195 0
168 192 0
170 193 0
171 195 0
168 191 0
172 195 0
131 155 111
62 99 163
62 98 163
63 99 168
61 97 162
62 99 174
61 98 168
62 99 171
62 99 172
62 99 171
62 98 172
62 99 171
62 98 171
63 99 172
62 99 173
62 99 171
62 99 172
61 98 168
62 99 174
62 98 171
62 99 175
63 100 179
62 99 173
62 99 176
62 99 174
62 99 173
63 99 177
62 99 172
62 99 174
62 99 177
62 99 175
62 99 176
62 99 175
62 99 180
62 99 174
62 99 176
62 99 177
62 99 179
62 99 177
62 99 178
62 99 178
61 99 178
62 99 178
62 99 178
62 99 179
63 100 178
62 99 180
62 99 178
63 99 178
61 98 178
62 99 175
61 99 177
63 100 180
63 100 180
62 99 176
62 99 179
62 99 179
61 98 175
62 99 179
62 99 178
62 99 179
62 99 176
62 99 176
62 99 177
63 99 176
63 100 179
62 99 175
62 99 180
62 99 178
63 99 179
61 98 177
62 99 176
61 98 173
61 98 173
62 99 176
62 99 177
62 99 176
63 100 180
63 100 179
62 99 175
62 99 178
62 99 175
62 99 174
62 99 176
63 100 180
61 98 176
61 98 174
62 99 175
62 99 178
62 99 177
62 99 178
62 99 177
62 99 176
62 99 177
62 99 177
62 99 175
62 98 171
62 99 174
63 99 177
63 99 170
62 99 179
62 99 175
62 99 174
62 99 176
62 99 177
62 99 174
62 99 176
62 98 169
62 99 172
62 98 167
62 98 170
62 98 171
62 98 170
61 98 166
62 98 168
62 98 168
62 98 169
62 99 176
61 98 171
62 98 168
62 97 165
62 98 166
61 96 159
62 98 166
62 97 161
61 96 160
61 96 162
61 96 160
61 95 156
60 94 155
49 74 113
37 49 40
38 49 40
36 46 36
39 49 37
42 55 48
41 54 44
42 55 47
43 55 44
47 62 54
47 61 52
47 61 51
44 59 49
49 65 56
50 66 57
50 67 59
51 67 56
51 68 60
51 68 59
51 68 62
53 69 60
52 70 64
53 70 61
54 72 67
53 72 69
54 72 65
54 73 65
55 74 70
141 137 94
193 180 114
193 180 114
192 180 114
192 180 114
192 179 114
192 179 114
191 179 114
191 179 114
191 179 114
191 179 114
191 179 114
191 179 114
190 179 114
190 179 114
190 179 114
190 179 114
190 179 114
190 179 114
190 178 114
190 178 114
190 178 114
190 178 114
190 178 114
190 178 114
190 178 114
190 178 114
190 179 114
190 179 114
190 179 114
190 179 114
190 179 114
190 179 114
190 179 114
191 179 114
191 179 114
191 179 114
191 179 114
191 179 114
192 179 114
192 179 114
192 179 114
192 180 114
192 180 114
193 180 114
193 180 114
193 180 114
194 180 114
194 180 114
194 181 114
195 181 114
195 181 114
196 181 114
196 181 114
196 182 114
197 182 114
197 182 114
198 182 114
198 182 114
199 183 114
199 183 114
200 183 114
200 183 114
201 184 114
201 184 114
181 170 80
156 153 11
155 153 0
154 152 0
155 153 0
155 153 0
155 153 0
156 153 0
157 153 0
156 153 0
155 152 0
156 152 0
155 152 0
156 152 0
155 152 0
156 152 0
167 179 0
170 192 0
174 195 0
173 195 0
173 194 0
173 196 0
171 193 0
173 193 0
171 193 0
172 196 0
173 194 0
174 195 0
173 193 0
171 193 0
175 196 0
174 197 0
174 197 0
173 195 0
175 197 0
173 196 0
173 196 0
175 197 0
173 194 0
173 195 0
173 196 0
173 196 0
173 194 0
174 195 0
175 197 0
173 196 0
174 196 0
173 196 0
174 196 0
174 197 0
174 196 0
174 197 0
172 195 0
173 196 0
174 196 0
173 195 0
174 196 0
174 197 0
174 197 0
171 194 0
174 197 0
173 196 0
175 197 0
173 196 0
174 197 0
173 196 0
173 195 0
173 197 0
174 197 0
171 195 0
170 193 0
172 196 0
174 197 0
173 197 0
171 194 0
174 198 0
175 198 0
172 196 0
174 197 0
170 194 0
173 196 0
173 197 0
172 195 0
175 198 0
168 190 0
172 196 0
174 198 0
173 197 0
174 197 0
172 195 0
174 197 0
173 196 0
173 197 0
172 196 0
172 196 0
171 195 0
174 197 0
173 197 0
173 197 0
175 198 0
171 195 0
173 197 0
171 194 0
173 197 0
175 198 0
166 189 0
173 196 0
172 195 0
173 196 0
172 195 0
171 195 0
172 196 0
173 197 0
173 196 0
170 194 0
171 195 0
173 197 0
175 198 0
173 196 0
172 196 0
173 196 0
172 195 0
173 196 0
170 194 0
171 194 0
173 196 0
173 196 0
170 194 0
172 196 0
173 196 0
169 192 0
173 197 0
172 196 0
174 196 0
171 195 0
173 196 0
172 195 0
170 193 0
174 197 0
173 197 0
172 195 0
171 195 0
172 196 0
170 194 0
170 193 0
173 195 0
174 197 0
173 197 0
169 194 0
171 194 0
170 192 0
170 193 0
171 195 0
171 195 0
166 190 0
172 196 0
169 192 0
170 193 0
173 196 0
172 196 0
172 195 0
171 195 0
172 195 0
170 194 0
171 194 0
170 193 0
166 189 0
171 195 0
169 193 0
172 195 0
171 194 0
171 195 0
170 194 0
167 191 0
170 193 0
171 194 0
169 192 18
77 109 152
62 98 159
63 99 165
61 98 168
63 99 170
62 98 165
63 99 172
62 99 173
62 98 166
62 99 169
62 98 164
62 99 175
62 99 171
62 99 172
62 99 174
62 98 170
62 99 175
62 99 174
62 98 170
62 99 176
62 99 172
62 99 175
62 99 174
62 99 176
62 99 179
62 99 177
62 99 177
62 98 172
63 99 175
63 99 177
62 99 175
61 98 172
61 98 172
62 99 177
62 99 180
63 100 177
62 99 179
62 99 177
63 99 176
62 99 177
62 98 174
62 99 178
62 99 177
62 98 174
63 100 179
61 98 174
62 99 174
62 99 176
62 99 178
62 99 179
62 98 173
62 99 179
63 99 177
62 99 179
62 99 179
62 99 176
63 100 179
62 99 178
62 99 177
62 99 179
62 99 179
62 99 177
62 99 177
63 100 180
62 99 179
62 99 179
62 99 175
62 99 179
63 99 180
63 100 179
62 99 175
62 99 176
62 99 176
62 98 175
62 99 177
62 99 175
62 99 177
62 99 175
62 99 180
62 98 172
62 99 176
61 98 171
62 99 176
62 99 176
62 99 176
62 99 176
63 100 176
62 98 168
62 99 176
62 99 180
61 98 170
61 98 172
62 99 176
62 99 180
62 99 177
62 99 174
62 98 170
63 99 172
62 99 172
62 99 176
62 99 173
63 100 175
62 99 175
62 99 173
63 99 172
62 98 170
63 99 171
62 98 166
62 99 174
62 99 172
62 99 176
62 99 171
62 98 172
63 99 172
62 98 172
62 98 172
62 98 173
62 98 170
62 98 170
62 97 164
60 95 158
61 97 165
62 98 168
63 98 166
62 98 168
61 96 157
62 98 168
61 95 155
60 94 150
60 93 151
58 90 151
33 44 39
38 50 41
38 50 44
39 51 38
39 50 41
42 55 48
44 59 49
45 59 49
43 57 49
46 60 53
47 61 53
46 61 52
49 64 56
47 62 52
49 65 57
48 64 55
50 66 59
52 69 62
50 68 61
51 69 60
52 69 61
53 71 63
54 73 67
54 72 65
54 72 65
54 73 69
55 74 65
100 105 78
194 180 114
194 180 114
193 180 114
193 180 114
193 180 114
193 180 114
192 180 114
192 180 114
192 180 114
192 179 114
192 179 114
192 179 114
191 179 114
191 179 114
191 179 114
191 179 114
191 179 114
191 179 114
191 179 114
191 179 114
191 179 114
191 179 114
191 179 114
191 179 114
191 179 114
191 179 114
191 179 114
191 179 114
191 179 114
191 179 114
191 179 114
191 179 114
191 179 114
192 179 114
192 179 114
192 179 114
192 180 114
192 180 114
192 180 114
193 180 114
193 180 114
193 180 114
193 180 114
194 180 114
194 180 114
194 181 114
195 181 114
195 181 114
195 181 114
196 181 114
196 181 114
196 182 114
197 182 114
197 182 114
198 182 114
198 182 114
198 183 114
199 183 114
199 183 114
200 183 114
200 184 114
201 184 114
199 183 111
174 165 70
156 153 0
157 154 0
157 154 0
155 153 0
156 153 0
156 153 0
156 153 0
155 152 0
155 152 0
155 152 0
156 153 0
155 153 0
155 152 0
154 152 0
157 154 0
155 151 0
167 185 0
172 194 0
171 194 0
174 196 0
171 190 0
173 196 0
172 195 0
172 194 0
174 196 0
173 195 0
174 196 0
173 195 0
171 194 0
171 195 0
173 196 0
172 194 0
173 196 0
173 195 0
173 195 0
173 196 0
174 195 0
171 193 0
175 198 0
174 196 0
173 194 0
174 196 0
175 198 0
173 195 0
173 196 0
174 196 0
173 196 0
174 196 0
175 197 0
174 196 0
174 196 0
172 195 0
174 198 0
174 196 0
172 195 0
173 196 0
173 196 0
175 197 0
174 196 0
173 195 0
171 194 0
173 196 0
175 196 0
174 198 0
175 198 0
174 198 0
170 194 0
172 195 0
172 197 0
174 197 0
172 196 0
172 196 0
173 196 0
171 195 0
174 197 0
172 196 0
173 197 0
175 198 0
173 196 0
172 195 0
173 196 0
175 198 0
174 197 0
173 196 0
173 197 0
171 194 0
174 197 0
174 197 0
174 197 0
173 196 0
173 196 0
173 197 0
171 195 0
172 196 0
174 197 0
174 197 0
170 194 0
173 197 0
172 195 0
174 197 0
172 196 0
170 193 0
172 196 0
174 197 0
170 194 0
171 195 0
172 196 0
175 198 0
172 195 0
174 197 0
173 196 0
174 198 0
172 194 0
171 194 0
173 196 0
172 195 0
174 197 0
172 195 0
171 195 0
174 196 0
170 193 0
172 196 0
173 196 0
173 197 0
172 195 0
172 195 0
173 196 0
173 195 0
172 196 0
172 195 0
172 195 0
171 194 0
170 194 0
172 195 0
170 193 0
171 194 0
171 195 0
172 196 0
171 194 0
170 194 0
171 193 0
174 197 0
172 195 0
170 193 0
173 196 0
173 196 0
174 198 0
170 194 0
171 194 0
168 193 0
169 192 0
171 194 0
170 194 0
173 196 0
171 194 0
169 193 0
170 193 0
171 194 0
169 192 0
173 196 0
168 191 0
169 191 0
169 193 0
174 196 0
171 194 0
168 191 0
170 192 0
169 193 0
170 194 0
167 191 0
169 192 0
168 192 0
175 198 0
168 190 0
169 193 0
173 195 0
138 162 97
62 99 165
61 97 160
61 97 161
62 98 169
62 98 167
61 97 161
62 98 166
62 98 164
62 99 168
63 100 177
62 98 173
62 98 172
62 99 170
62 98 171
62 98 169
63 100 174
62 99 173
62 99 176
63 99 169
62 99 177
62 99 175
62 99 178
62 99 173
62 99 172
62 99 176
62 99 174
62 99 176
63 99 177
62 99 175
62 99 175
61 98 173
62 99 176
61 98 176
61 98 174
62 99 176
62 99 177
62 99 179
62 99 175
62 99 178
62 99 175
62 99 175
63 99 177
63 100 177
61 99 178
62 99 178
61 99 179
62 99 179
62 99 178
63 99 179
62 99 177
62 99 174
63 100 177
62 99 177
62 99 178
62 99 175
61 98 177
62 99 177
62 99 177
62 99 177
62 99 177
62 99 176
62 99 175
62 99 178
62 99 177
62 99 176
61 98 174
62 99 178
62 99 176
62 99 177
62 99 175
62 99 177
62 99 176
62 99 178
62 99 176
62 99 173
62 99 179
62 99 178
62 99 173
62 99 175
61 98 173
62 99 175
62 99 176
62 99 178
63 99 175
62 98 173
62 99 179
62 98 173
63 100 176
62 99 172
62 99 175
62 98 171
61 98 173
62 99 178
63 99 175
61 98 173
62 99 177
62 98 170
62 99 173
62 99 169
62 99 168
61 98 164
62 99 174
62 98 172
62 99 172
62 99 174
62 98 171
61 98 176
61 98 172
62 99 172
61 97 165
61 97 167
62 99 169
62 98 166
62 98 173
62 98 167
62 98 169
62 98 166
63 99 169
62 98 168
62 98 169
62 97 164
63 98 168
62 97 163
61 97 165
61 96 163
61 97 169
61 97 162
61 95 155
61 95 157
60 94 151
60 94 152
47 70 109
36 46 36
36 48 41
39 50 39
39 51 42
40 52 44
42 56 49
42 55 47
44 57 45
44 57 47
47 63 51
47 62 53
49 64 56
48 63 51
48 64 57
51 68 61
50 67 60
51 68 62
50 66 53
52 70 63
52 70 61
51 67 58
53 71 65
53 71 63
53 72 66
54 73 64
54 74 68
58 77 72
193 179 113
195 181 114
194 181 114
194 181 114
194 180 114
194 180 114
193 180 114
193 180 114
193 180 114
193 180 114
193 180 114
193 180 114
192 180 114
192 180 114
192 180 114
192 180 114
192 180 114
192 180 114
192 179 114
192 179 114
192 179 114
192 179 114
192 179 114
192 179 114
192 179 114
192 179 114
192 179 114
192 179 114
192 180 114
192 180 114
192 180 114
192 180 114
192 180 114
193 180 114
193 180 114
193 180 114
193 180 114
193 180 114
193 180 114
194 180 114
194 180 114
194 181 114
194 181 114
195 181 114
195 181 114
195 181 114
195 181 114
196 181 114
196 182 114
196 182 114
197 182 114
197 182 114
198 182 114
198 182 114
198 183 114
199 183 114
199 183 114
200 183 114
200 183 114
201 184 114
201 184 114
190 176 96
160 156 32
155 153 0
156 153 0
156 153 0
156 153 0
156 153 0
156 153 0
156 153 0
156 153 0
156 152 0
155 153 0
155 152 0
155 152 0
156 153 0
156 152 0
157 152 0
154 150 0
157 154 0
170 191 0
172 193 0
172 193 0
173 194 0
172 194 0
175 196 0
171 193 0
172 193 0
173 195 0
172 194 0
172 194 0
172 196 0
173 195 0
173 195 0
170 192 0
171 193 0
173 195 0
173 195 0
173 195 0
172 194 0
173 195 0
173 195 0
172 194 0
174 197 0
175 197 0
172 195 0
173 196 0
174 195 0
173 195 0
174 196 0
172 196 0
173 197 0
174 196 0
171 194 0
172 195 0
174 195 0
175 197 0
173 196 0
173 196 0
173 195 0
175 197 0
174 196 0
173 195 0
173 197 0
173 196 0
175 198 0
172 196 0
172 195 0
174 197 0
173 196 0
173 196 0
173 196 0
174 197 0
173 196 0
172 196 0
175 198 0
173 196 0
173 196 0
174 197 0
173 196 0
175 198 0
175 198 0
174 197 0
174 198 0
175 198 0
175 198 0
175 198 0
174 197 0
173 197 0
172 196 0
174 197 0
173 196 0
174 198 0
172 196 0
171 195 0
173 197 0
173 197 0
172 195 0
175 197 0
175 198 0
173 196 0
174 197 0
172 196 0
170 194 0
173 196 0
170 193 0
174 197 0
173 197 0
174 197 0
172 196 0
173 196 0
172 196 0
170 193 0
174 196 0
174 198 0
173 196 0
173 197 0
174 196 0
171 195 0
175 197 0
172 196 0
172 195 0
175 198 0
172 196 0
174 197 0
170 195 0
171 194 0
172 196 0
172 196 0
173 197 0
171 194 0
170 194 0
172 195 0
172 195 0
172 196 0
171 194 0
172 194 0
174 197 0
171 194 0
172 195 0
173 196 0
171 194 0
172 196 0
174 197 0
171 194 0
171 194 0
169 193 0
170 193 0
171 194 0
174 196 0
172 196 0
170 194 0
168 192 0
169 193 0
172 196 0
172 195 0
172 195 0
170 193 0
171 194 0
171 194 0
170 194 0
170 193 0
173 196 0
171 195 0
173 196 0
171 194 0
169 193 0
170 193 0
171 195 0
171 195 0
168 191 0
169 192 0
170 193 0
170 193 0
167 190 0
172 196 0
170 193 0
172 194 0
170 194 0
172 194 0
96 124 141
62 98 163
61 97 164
62 98 168
62 99 168
61 97 160
62 98 169
61 98 167
62 98 166
62 98 170
62 98 170
62 99 174
62 99 173
62 99 173
62 99 167
62 99 172
62 99 175
61 98 167
62 99 177
62 99 173
62 99 171
63 99 172
62 99 177
62 99 177
61 98 176
62 99 172
62 99 176
62 99 176
62 99 174
62 99 176
62 99 177
62 99 174
63 100 176
62 99 177
62 99 178
62 99 176
62 99 175
63 99 175
63 100 179
62 99 178
62 99 177
62 99 180
63 99 177
61 98 173
62 99 178
62 99 176
62 98 173
62 99 177
62 99 180
62 99 178
62 99 179
62 99 177
62 99 176
61 98 176
62 99 177
62 99 177
62 99 175
62 99 176
62 99 176
62 99 174
61 98 178
62 99 174
62 99 177
62 99 178
62 99 180
62 99 176
62 99 178
62 99 179
62 99 176
62 99 174
61 98 176
62 99 175
62 99 177
62 99 176
61 98 175
62 99 178
62 98 175
62 99 171
62 99 177
62 99 174
62 99 172
63 100 181
63 99 176
62 99 173
62 99 179
62 99 177
62 99 175
63 99 177
63 100 177
63 99 176
62 99 176
62 99 175
62 99 177
62 99 179
62 99 174
62 99 173
63 99 176
63 100 180
62 99 171
62 99 175
62 98 167
62 99 171
61 98 171
63 100 176
62 99 174
62 98 172
62 98 172
62 98 170
62 98 168
63 99 172
62 99 171
62 99 170
62 98 165
61 98 165
63 99 173
62 98 175
62 98 167
61 97 163
62 98 168
61 97 166
62 97 168
61 98 170
62 98 170
62 98 168
62 98 169
62 98 168
61 96 161
61 97 167
61 96 161
61 96 156
61 95 153
61 95 153
56 86 137
35 45 38
39 50 41
37 48 39
39 52 44
40 52 41
44 57 45
43 56 45
45 58 50
45 59 49
45 60 54
47 62 53
49 63 54
45 60 50
47 62 52
50 66 60
50 67 62
48 64 56
50 66 55
50 67 61
51 69 60
51 67 58
53 71 62
53 70 61
54 73 65
54 72 64
55 74 67
55 75 68
172 161 104
196 181 114
195 181 114
195 181 114
195 181 114
195 181 114
194 181 114
194 181 114
194 180 114
194 180 114
194 180 114
194 180 114
193 180 114
193 180 114
193 180 114
193 180 114
193 180 114
193 180 114
193 180 114
193 180 114
193 180 114
193 180 114
193 180 114
193 180 114
193 180 114
193 180 114
193 180 114
193 180 114
193 180 114
193 180 114
193 180 114
193 180 114
193 180 114
194 180 114
194 180 114
194 180 114
194 180 114
194 181 114
194 181 114
195 181 114
195 181 114
195 181 114
195 181 114
196 181 114
196 181 114
196 181 114
196 182 114
197 182 114
197 182 114
197 182 114
198 182 114
198 182 114
198 183 114
199 183 114
199 183 114
200 183 114
200 183 114
200 184 114
201 184 114
198 182 109
169 162 60
156 153 0
155 153 0
155 153 0
156 153 0
154 152 0
156 153 0
156 153 0
155 152 0
156 153 0
154 151 0
157 153 0
155 153 0
155 152 0
154 151 0
155 153 0
155 151 0
156 152 0
153 150 0
156 158 0
171 192 0
174 196 0
173 195 0
173 195 0
172 194 0
172 194 0
173 194 0
173 196 0
172 194 0
173 196 0
172 194 0
173 196 0
172 195 0
174 196 0
174 197 0
173 195 0
173 196 0
173 194 0
174 196 0
173 196 0
174 194 0
173 196 0
173 195 0
172 193 0
174 196 0
171 194 0
174 196 0
173 195 0
172 195 0
173 197 0
174 197 0
172 195 0
172 195 0
172 196 0
174 195 0
173 195 0
172 195 0
173 195 0
174 197 0
175 197 0
173 195 0
173 196 0
173 196 0
173 196 0
172 193 0
173 196 0
173 195 0
173 197 0
173 197 0
174 198 0
174 198 0
172 196 0
174 197 0
174 196 0
173 196 0
174 198 0
174 197 0
174 198 0
174 197 0
172 196 0
172 196 0
174 197 0
172 196 0
173 196 0
174 197 0
172 196 0
173 195 0
173 196 0
176 199 0
175 198 0
175 197 0
173 196 0
171 194 0
172 195 0
172 196 0
172 195 0
173 197 0
173 196 0
174 197 0
173 197 0
172 196 0
172 195 0
173 196 0
174 197 0
173 197 0
170 194 0
174 198 0
174 197 0
171 195 0
174 197 0
173 196 0
175 197 0
171 194 0
171 194 0
172 196 0
172 196 0
170 194 0
170 194 0
175 198 0
173 196 0
171 195 0
171 195 0
173 196 0
173 195 0
172 195 0
170 194 0
174 197 0
173 196 0
170 194 0
173 196 0
171 195 0
172 195 0
171 195 0
170 194 0
173 196 0
167 190 0
171 194 0
171 194 0
172 195 0
172 195 0
170 194 0
169 191 0
168 192 0
172 195 0
171 194 0
168 192 0
169 192 0
171 194 0
172 195 0
171 195 0
169 191 0
170 192 0
169 193 0
174 198 0
170 193 0
170 194 0
171 193 0
171 194 0
172 196 0
172 195 0
172 196 0
169 193 0
172 195 0
170 194 0
172 195 0
169 192 0
172 195 0
170 194 0
172 196 0
170 193 0
169 193 0
174 196 0
169 193 0
170 192 0
169 192 0
169 192 0
168 191 0
168 191 0
172 195 0
157 180 70
64 100 166
61 97 161
61 98 163
62 99 167
62 99 166
63 99 170
63 99 168
62 99 172
63 99 170
63 99 174
62 98 166
62 98 168
62 99 173
63 99 171
62 99 167
61 98 175
63 99 170
62 99 173
62 98 172
63 99 175
62 99 170
62 98 171
62 99 174
62 99 176
62 99 174
62 99 176
62 99 175
62 99 176
61 98 175
62 99 176
62 99 177
62 99 178
63 99 177
61 98 171
62 99 173
62 99 179
62 99 180
62 99 176
62 99 176
62 98 174
62 99 175
62 99 175
63 99 178
62 99 177
62 99 179
62 99 178
62 99 173
62 99 179
62 99 176
62 99 179
62 98 169
62 99 176
63 100 180
61 98 173
62 99 177
62 99 172
63 99 178
61 98 176
62 99 175
62 99 178
62 99 176
62 99 178
62 99 176
62 99 175
63 100 179
62 99 178
62 99 177
63 100 178
62 99 174
62 99 173
63 99 179
62 99 177
62 99 174
62 99 175
62 99 174
61 98 176
62 99 177
62 99 178
61 98 173
62 99 175
62 99 178
63 99 175
62 99 179
62 99 174
62 99 178
62 98 172
62 98 172
62 99 175
61 98 175
63 99 175
62 99 174
62 98 169
62 99 178
62 99 173
63 100 177
62 99 173
62 99 176
62 99 174
62 99 174
62 98 169
62 99 171
62 99 174
62 99 171
62 99 172
62 99 177
62 98 168
62 99 170
63 99 175
61 98 168
62 99 170
63 99 175
62 99 169
62 99 167
62 98 167
62 98 168
63 99 171
62 98 167
62 98 170
61 98 167
62 97 167
62 98 165
62 98 168
60 96 158
62 98 169
62 97 167
60 96 153
62 98 166
62 98 170
61 96 158
61 97 164
61 96 160
60 94 153
59 91 147
43 59 72
33 43 32
36 48 38
37 49 42
40 52 45
40 52 42
40 54 46
43 57 49
42 55 43
45 59 49
43 58 50
46 61 48
48 63 56
47 62 51
49 65 57
49 64 54
48 63 52
51 67 56
51 68 61
51 68 60
52 70 63
53 70 62
53 71 63
53 71 60
54 73 68
55 74 68
55 74 67
164 155 101
197 182 114
196 182 114
196 181 114
196 181 114
196 181 114
195 181 114
195 181 114
195 181 114
195 181 114
195 181 114
195 181 114
194 181 114
194 181 114
194 181 114
194 181 114
194 181 114
194 180 114
194 180 114
194 180 114
194 180 114
194 180 114
194 180 114
194 180 114
194 180 114
194 180 114
194 180 114
194 180 114
194 180 114
194 181 114
194 181 114
194 181 114
194 181 114
195 181 114
195 181 114
195 181 114
195 181 114
195 181 114
195 181 114
196 181 114
196 181 114
196 181 114
196 182 114
196 182 114
197 182 114
197 182 114
197 182 114
198 182 114
198 182 114
198 183 114
199 183 114
199 183 114
199 183 114
200 183 114
200 183 114
201 184 114
201 184 114
199 182 110
181 170 82
157 154 22
157 154 0
156 153 0
155 153 0
156 153 0
155 152 0
156 153 0
155 153 0
156 153 0
156 153 0
155 152 0
154 152 0
155 153 0
155 152 0
155 152 0
155 152 0
154 151 0
154 151 0
155 153 0
155 151 0
163 170 0
173 194 0
171 193 0
173 195 0
174 197 0
173 195 0
171 193 0
171 195 0
173 195 0
173 196 0
172 193 0
173 194 0
173 194 0
172 194 0
171 193 0
171 192 0
174 195 0
173 196 0
172 195 0
173 195 0
172 194 0
174 196 0
173 196 0
176 198 0
172 195 0
173 195 0
174 195 0
172 194 0
172 194 0
175 196 0
174 195 0
173 196 0
172 195 0
173 195 0
174 197 0
175 197 0
175 197 0
173 195 0
174 196 0
172 194 0
174 197 0
172 196 0
174 197 0
171 194 0
173 196 0
171 195 0
174 195 0
173 195 0
171 196 0
173 196 0
172 197 0
174 197 0
173 197 0
172 195 0
172 196 0
173 197 0
171 196 0
172 195 0
174 197 0
175 198 0
173 197 0
171 195 0
173 197 0
174 197 0
171 196 0
174 198 0
174 197 0
173 197 0
172 195 0
172 195 0
174 197 0
172 195 0
169 192 0
173 196 0
173 197 0
171 195 0
171 194 0
172 196 0
175 197 0
172 196 0
172 195 0
173 196 0
173 197 0
169 193 0
168 192 0
174 197 0
171 194 0
173 196 0
171 195 0
173 196 0
170 194 0
173 196 0
172 195 0
174 197 0
172 195 0
174 197 0
172 195 0
172 195 0
172 196 0
171 194 0
169 193 0
174 197 0
169 193 0
172 196 0
172 195 0
172 194 0
172 195 0
172 195 0
172 195 0
172 195 0
172 195 0
170 195 0
170 193 0
170 194 0
172 196 0
174 197 0
171 195 0
175 198 0
173 196 0
172 196 0
170 194 0
172 196 0
172 195 0
172 195 0
170 193 0
169 192 0
171 194 0
169 192 0
169 192 0
170 194 0
171 194 0
166 189 0
170 194 0
172 195 0
172 195 0
173 196 0
172 196 0
172 195 0
171 194 0
169 192 0
171 195 0
171 195 0
171 195 0
170 194 0
170 193 0
167 191 0
168 192 0
171 194 0
171 193 0
171 195 0
172 195 0
170 194 0
170 194 0
174 197 0
170 194 0
170 193 0
167 189 0
168 191 0
170 193 0
171 194 0
124 150 124
61 97 153
62 98 164
62 98 165
61 98 163
61 97 157
61 97 160
62 98 165
61 98 170
63 100 175
61 98 164
62 98 170
62 99 172
62 99 171
62 99 173
62 99 175
62 99 177
62 99 176
62 99 168
62 99 174
62 99 176
62 99 176
63 100 179
62 99 172
63 99 173
62 99 177
62 99 175
62 99 175
62 99 173
62 99 174
63 99 177
62 98 172
63 99 178
62 98 175
62 99 177
63 99 177
62 99 178
62 99 176
62 99 176
62 99 176
63 99 177
62 99 173
63 99 179
63 99 176
62 99 178
62 99 176
62 99 175
62 99 178
62 98 171
62 99 176
63 100 175
62 98 175
62 99 177
62 99 177
62 99 178
62 99 176
62 99 174
63 99 177
63 99 174
62 99 177
63 100 177
62 99 177
62 99 178
62 99 173
62 99 172
62 99 175
62 99 175
63 100 179
62 99 178
62 99 178
63 100 178
61 99 178
62 99 173
62 99 179
61 98 176
62 98 173
62 99 176
62 99 172
63 99 177
62 99 174
62 99 176
62 99 171
62 99 177
62 99 174
62 99 178
62 99 175
62 99 178
62 99 176
61 98 174
62 99 173
62 99 176
62 99 171
62 99 176
62 98 171
62 99 174
62 99 175
62 98 172
61 98 169
62 98 172
62 99 172
62 98 172
63 99 175
61 98 169
62 99 175
62 99 176
61 98 170
63 99 174
62 99 174
62 99 172
61 97 166
62 98 168
62 98 167
61 98 165
62 99 171
61 98 172
63 99 170
62 98 167
62 98 169
63 98 166
61 97 165
62 98 168
62 97 163
61 97 162
62 98 169
62 98 169
62 98 164
61 96 156
61 97 164
62 98 167
60 95 156
62 97 160
61 96 158
61 95 155
61 95 155
49 74 109
37 48 36
38 50 41
34 46 38
38 48 35
42 54 43
42 55 45
42 54 44
41 55 45
45 59 48
45 59 47
45 59 47
48 62 49
46 61 50
46 60 48
49 66 57
49 64 51
49 64 53
51 68 60
50 65 53
51 67 56
51 69 60
53 70 63
54 72 63
54 73 62
55 73 66
54 74 67
146 140 94
198 182 114
197 182 114
197 182 114
197 182 114
197 182 114
196 182 114
196 182 114
196 181 114
196 181 114
196 181 114
196 181 114
195 181 114
195 181 114
195 181 114
195 181 114
195 181 114
195 181 114
195 181 114
195 181 114
195 181 114
195 181 114
195 181 114
195 181 114
195 181 114
195 181 114
195 181 114
195 181 114
195 181 114
195 181 114
195 181 114
195 181 114
195 181 114
196 181 114
196 181 114
196 181 114
196 181 114
196 182 114
196 182 114
197 182 114
197 182 114
197 182 114
197 182 114
197 182 114
198 182 114
198 182 114
198 183 114
198 183 114
199 183 114
199 183 114
200 183 114
200 183 114
200 183 114
201 184 114
201 184 114
197 181 109
180 169 80
159 155 30
156 153 0
156 153 0
155 153 0
156 153 0
156 153 0
156 153 0
155 153 0
155 152 0
155 153 0
156 153 0
155 153 0
155 152 0
155 152 0
157 153 0
155 153 0
155 152 0
154 151 0
154 152 0
156 152 0
155 152 0
154 151 0
166 182 0
172 193 0
172 194 0
172 193 0
174 195 0
172 194 0
171 192 0
172 194 0
172 194 0
172 195 0
171 193 0
172 194 0
173 195 0
173 195 0
172 195 0
172 195 0
173 196 0
173 195 0
174 197 0
173 194 0
172 195 0
172 195 0
172 195 0
171 192 0
174 196 0
173 195 0
172 194 0
173 196 0
174 196 0
173 196 0
174 197 0
174 197 0
175 196 0
173 196 0
174 196 0
173 195 0
173 196 0
171 194 0
175 196 0
173 197 0
174 197 0
174 197 0
173 195 0
175 197 0
172 194 0
174 197 0
172 195 0
174 197 0
173 196 0
171 195 0
174 197 0
171 195 0
172 196 0
171 195 0
171 195 0
175 198 0
172 196 0
175 197 0
174 198 0
173 197 0
172 196 0
173 196 0
173 196 0
172 196 0
173 197 0
171 195 0
172 195 0
173 196 0
172 195 0
174 197 0
173 195 0
173 197 0
175 198 0
171 195 0
171 194 0
174 198 0
171 195 0
175 198 0
173 196 0
172 196 0
171 195 0
171 195 0
172 195 0
173 196 0
176 198 0
169 192 0
174 197 0
175 197 0
174 197 0
173 197 0
173 196 0
170 194 0
171 194 0
172 195 0
171 196 0
170 194 0
170 194 0
171 194 0
172 196 0
173 196 0
174 198 0
172 195 0
174 197 0
174 197 0
172 195 0
173 197 0
173 197 0
173 196 0
173 195 0
169 193 0
173 197 0
171 195 0
170 194 0
171 195 0
171 194 0
168 191 0
171 195 0
170 194 0
169 192 0
173 196 0
169 194 0
173 195 0
173 196 0
173 196 0
171 194 0
168 191 0
174 197 0
169 192 0
173 197 0
172 195 0
171 195 0
165 190 0
169 194 0
169 193 0
172 195 0
169 193 0
171 194 0
171 195 0
169 194 0
169 192 0
173 196 0
172 195 0
169 192 0
170 192 0
167 190 0
172 196 0
171 194 0
168 192 0
168 192 0
172 194 0
172 194 0
172 194 0
170 193 0
170 193 0
172 195 0
168 191 0
170 193 0
167 191 0
170 194 0
166 190 31
77 109 156
61 97 163
63 99 164
61 97 160
62 98 165
62 97 156
63 99 169
62 98 168
61 97 166
61 98 167
63 99 172
62 98 165
62 98 169
62 99 174
63 99 174
62 98 167
62 98 171
62 98 168
63 99 175
62 99 171
63 99 172
62 98 170
62 99 174
62 99 174
63 100 178
62 99 175
62 99 176
62 98 169
62 98 175
62 99 174
62 99 174
62 99 176
62 99 178
62 99 175
62 99 179
63 99 174
62 98 173
62 99 176
62 99 177
61 98 173
62 99 178
62 99 181
62 99 175
62 99 174
62 99 179
62 99 176
62 99 176
63 100 178
63 99 177
61 98 170
63 100 177
61 98 178
62 99 175
62 99 177
62 99 179
62 99 179
62 99 175
63 99 174
63 99 176
62 99 178
62 99 176
62 99 174
62 99 176
62 99 175
62 99 173
63 99 176
63 99 177
63 100 177
62 99 179
62 99 177
62 99 176
62 99 176
63 100 178
62 99 175
62 99 174
62 99 174
62 99 177
63 99 176
62 99 175
62 99 177
62 99 176
61 98 171
62 99 173
62 99 176
62 99 176
61 98 174
62 98 172
62 99 178
62 98 172
61 98 173
62 99 174
61 98 173
61 98 171
63 99 176
62 99 171
62 99 170
62 98 171
62 99 176
62 99 170
63 99 170
62 99 172
62 98 172
62 99 177
62 98 171
62 98 168
62 98 169
62 99 168
62 98 165
61 98 166
62 98 171
61 98 164
62 98 169
62 98 171
62 99 173
62 98 172
62 99 172
62 98 169
62 98 170
62 98 168
61 97 166
62 98 165
62 98 166
62 98 170
62 98 172
62 98 170
61 97 162
61 96 160
62 97 166
61 95 156
61 96 156
61 96 156
62 97 165
60 94 153
60 94 155
57 89 139
33 44 39
34 44 32
36 46 38
38 49 36
39 51 39
40 53 46
40 52 41
42 55 43
44 56 44
44 58 46
47 61 50
47 60 47
47 61 50
48 63 55
48 63 53
50 66 57
49 64 50
50 67 58
51 68 57
52 69 59
50 67 55
52 71 63
52 69 58
53 71 60
53 72 64
54 73 61
134 130 89
198 183 114
198 183 114
198 182 114
198 182 114
198 182 114
197 182 114
197 182 114
197 182 114
197 182 114
197 182 114
197 182 114
197 182 114
196 182 114
196 182 114
196 182 114
196 181 114
196 181 114
196 181 114
196 181 114
196 181 114
196 181 114
196 181 114
196 181 114
196 181 114
196 181 114
196 181 114
196 181 114
196 181 114
196 182 114
196 182 114
196 182 114
196 182 114
197 182 114
197 182 114
197 182 114
197 182 114
197 182 114
197 182 114
197 182 114
198 182 114
198 182 114
198 182 114
198 183 114
199 183 114
199 183 114
199 183 114
199 183 114
200 183 114
200 183 114
200 184 114
201 184 114
201 184 114
198 182 109
174 165 69
157 154 16
155 153 0
155 153 0
154 152 0
156 153 0
156 153 0
155 153 0
157 154 0
154 152 0
155 153 0
154 152 0
156 153 0
156 153 0
155 152 0
156 153 0
154 152 0
155 152 0
155 152 0
156 153 0
154 152 0
154 151 0
155 152 0
156 152 0
156 152 0
170 189 0
173 195 0
173 194 0
173 192 0
175 195 0
170 191 0
174 195 0
173 195 0
172 194 0
172 192 0
172 195 0
171 192 0
173 195 0
173 195 0
171 192 0
172 195 0
173 196 0
173 195 0
173 195 0
174 197 0
173 195 0
173 195 0
173 196 0
175 197 0
172 194 0
171 194 0
173 196 0
173 195 0
173 195 0
173 195 0
172 194 0
172 195 0
173 195 0
173 197 0
172 194 0
173 195 0
174 197 0
175 198 0
174 196 0
172 194 0
174 196 0
172 195 0
174 197 0
173 196 0
173 197 0
174 196 0
172 196 0
174 194 0
175 198 0
172 196 0
172 196 0
175 198 0
171 195 0
174 198 0
173 196 0
174 197 0
172 196 0
171 195 0
174 198 0
174 198 0
172 196 0
174 197 0
172 196 0
173 197 0
173 197 0
175 197 0
171 195 0
174 197 0
172 196 0
171 195 0
174 197 0
174 197 0
173 196 0
172 196 0
171 195 0
171 195 0
173 196 0
174 197 0
174 197 0
172 196 0
174 197 0
171 194 0
172 195 0
172 195 0
172 196 0
172 195 0
169 192 0
172 195 0
174 197 0
173 197 0
172 196 0
172 195 0
170 195 0
171 194 0
171 195 0
171 195 0
172 196 0
173 197 0
173 196 0
174 196 0
172 196 0
171 195 0
168 192 0
170 193 0
172 195 0
174 197 0
174 198 0
171 195 0
173 197 0
167 191 0
172 195 0
172 195 0
174 197 0
173 197 0
174 197 0
170 193 0
172 195 0
171 195 0
170 194 0
173 196 0
174 197 0
173 196 0
168 190 0
171 195 0
172 196 0
168 192 0
170 193 0
169 191 0
170 193 0
169 192 0
170 193 0
172 195 0
169 192 0
169 192 0
171 194 0
168 192 0
170 193 0
170 193 0
173 197 0
168 193 0
170 193 0
170 194 0
166 189 0
170 192 0
171 194 0
172 194 0
168 192 0
173 196 0
167 191 0
170 194 0
172 195 0
168 191 0
167 190 0
171 193 0
171 195 0
171 194 0
168 191 0
171 193 0
172 196 0
155 179 72
61 97 161
62 98 164
61 97 158
62 99 165
63 99 170
62 98 165
62 99 169
62 99 173
62 98 162
61 98 164
62 98 166
62 98 173
62 98 171
62 99 175
62 99 175
61 98 167
63 99 174
61 98 165
62 98 167
62 99 171
62 99 174
62 98 169
62 99 173
62 99 173
63 100 177
62 99 177
62 99 172
62 99 178
62 99 175
62 99 174
63 100 180
61 98 172
62 98 174
62 99 175
62 99 174
62 99 178
62 99 177
62 99 174
61 98 173
63 99 177
62 99 176
62 98 171
62 99 178
62 99 172
63 100 178
63 100 179
63 100 177
62 99 173
62 99 174
63 99 176
63 100 178
62 99 176
62 99 176
63 99 178
62 99 174
62 99 177
62 98 174
62 99 174
62 99 174
62 99 178
62 99 174
62 99 178
61 98 175
62 99 176
62 99 176
62 99 178
62 99 171
62 99 173
62 99 178
62 99 178
62 99 178
62 99 175
62 99 174
63 99 178
62 99 175
61 98 171
62 99 177
62 99 174
62 99 178
62 99 176
62 99 176
61 98 174
62 99 173
62 99 176
62 99 172
62 99 175
62 99 174
62 99 175
62 99 175
63 100 175
62 99 173
62 99 172
63 100 177
61 98 168
62 99 174
62 99 173
62 99 174
62 99 174
63 99 173
62 98 170
62 99 172
63 99 173
63 99 176
62 99 171
62 98 168
62 98 168
62 99 172
62 99 173
62 98 170
63 99 173
62 98 169
61 98 167
62 99 170
62 98 171
62 98 167
63 99 174
62 98 167
62 98 167
62 99 170
62 98 165
62 98 166
61 97 164
62 98 167
63 99 173
62 98 167
62 98 163
62 97 158
62 97 164
61 96 156
61 96 159
62 97 163
62 96 159
61 95 156
61 95 155
61 94 157
42 59 76
35 46 39
37 48 37
35 46 34
39 50 38
40 52 40
42 56 47
46 59 48
46 58 45
45 58 45
43 56 44
47 62 52
47 62 51
49 64 54
50 67 58
47 63 53
48 63 51
51 68 55
51 68 58
50 67 56
52 68 56
52 70 60
52 70 59
54 71 61
52 70 62
54 74 66
126 124 84
200 183 114
199 183 114
199 183 114
199 183 114
199 183 114
198 183 114
198 183 114
198 182 114
198 182 114
198 182 114
198 182 114
198 182 114
197 182 114
197 182 114
197 182 114
197 182 114
197 182 114
197 182 114
197 182 114
197 182 114
197 182 114
197 182 114
197 182 114
197 182 114
197 182 114
197 182 114
197 182 114
197 182 114
197 182 114
197 182 114
197 182 114
197 182 114
198 182 114
198 182 114
198 182 114
198 182 114
198 182 114
198 183 114
198 183 114
199 183 114
199 183 114
199 183 114
199 183 114
200 183 114
200 183 114
200 183 114
200 184 114
201 184 114
201 184 114
199 182 110
182 171 84
165 159 48
156 153 0
156 153 0
156 153 0
156 153 0
156 153 0
155 153 0
157 154 0
155 152 0
155 152 0
156 153 0
156 153 0
154 151 0
156 153 0
156 153 0
156 153 0
157 153 0
154 152 0
155 152 0
155 152 0
156 153 0
156 153 0
155 152 0
156 152 0
155 150 0
154 151 0
161 167 0
171 194 0
172 194 0
171 192 0
169 190 0
172 193 0
172 194 0
172 194 0
169 191 0
173 194 0
172 194 0
172 193 0
174 195 0
172 194 0
171 192 0
172 194 0
170 192 0
172 193 0
173 196 0
173 195 0
171 192 0
172 192 0
173 195 0
175 196 0
173 194 0
172 194 0
174 197 0
172 196 0
174 195 0
173 195 0
172 195 0
174 195 0
174 197 0
173 196 0
172 195 0
174 196 0
173 195 0
174 196 0
171 193 0
172 194 0
174 197 0
174 195 0
173 197 0
172 195 0
173 196 0
173 195 0
171 194 0
173 195 0
173 196 0
170 195 0
174 197 0
171 195 0
173 197 0
175 198 0
172 196 0
174 197 0
173 196 0
172 196 0
174 198 0
174 197 0
173 196 0
172 196 0
171 194 0
172 196 0
172 196 0
174 197 0
175 197 0
171 193 0
175 198 0
169 192 0
171 195 0
174 197 0
174 197 0
170 194 0
172 196 0
173 195 0
173 197 0
175 198 0
174 197 0
172 196 0
171 195 0
173 197 0
173 196 0
174 197 0
172 195 0
170 195 0
173 196 0
173 196 0
173 196 0
171 194 0
172 195 0
171 195 0
174 196 0
171 195 0
172 195 0
174 197 0
169 193 0
172 195 0
172 195 0
171 194 0
175 198 0
172 195 0
173 197 0
172 196 0
170 194 0
171 195 0
173 195 0
168 192 0
172 195 0
172 195 0
173 196 0
171 195 0
173 197 0
173 197 0
173 196 0
169 193 0
172 195 0
173 195 0
172 197 0
170 194 0
171 193 0
170 194 0
169 192 0
172 195 0
171 195 0
171 195 0
170 194 0
172 196 0
172 195 0
171 195 0
172 195 0
169 193 0
170 192 0
170 194 0
170 193 0
172 196 0
173 197 0
167 190 0
175 198 0
171 195 0
169 193 0
171 194 0
166 190 0
172 196 0
167 191 0
170 193 0
170 192 0
171 195 0
172 195 0
168 193 0
166 190 0
168 192 0
173 196 0
171 194 0
166 190 0
171 194 0
175 197 0
172 196 0
168 192 0
172 195 0
123 149 114
63 99 164
63 99 166
61 97 163
61 98 162
62 98 164
61 97 162
62 98 168
62 99 170
61 98 165
62 98 168
62 99 169
63 99 172
63 99 171
62 98 171
62 99 174
62 99 169
62 99 173
62 99 173
63 99 172
63 99 174
62 99 173
62 99 173
62 98 171
62 98 171
62 99 174
61 98 174
62 98 172
63 100 176
62 99 175
62 99 176
62 99 177
63 99 178
62 99 176
62 98 176
62 99 173
62 99 176
63 100 178
62 99 174
62 99 175
62 99 178
62 99 176
63 100 175
62 99 175
62 99 175
62 99 174
63 100 179
62 98 174
62 99 177
62 99 176
62 99 175
62 99 179
62 99 178
61 98 174
62 99 177
61 98 174
62 99 175
62 99 174
61 98 175
62 99 179
62 98 174
62 99 176
62 99 176
62 99 178
62 99 174
62 99 173
62 99 175
63 99 176
63 100 177
62 99 173
62 99 177
63 99 172
62 99 175
62 98 173
63 100 179
63 100 178
62 98 173
63 99 173
62 99 176
61 98 172
62 99 173
61 98 172
63 100 178
62 99 176
62 99 172
63 100 178
62 99 173
62 99 174
63 100 178
62 99 175
63 99 173
62 99 175
63 99 174
63 99 174
62 99 174
63 99 174
62 99 172
62 98 170
62 98 169
62 99 169
62 99 174
61 98 166
62 98 168
63 99 171
62 98 165
62 99 168
62 99 175
62 99 172
63 100 178
62 98 171
62 98 168
61 97 165
63 99 170
61 97 163
62 98 166
62 99 171
62 99 171
62 97 161
61 98 167
62 99 172
63 98 165
63 99 167
62 98 163
62 98 167
62 98 167
62 98 167
62 98 169
61 96 162
62 98 164
61 97 162
61 96 159
61 96 160
62 97 161
62 97 161
60 95 155
61 95 154
54 84 133
34 44 30
37 48 33
35 45 35
40 52 42
40 52 40
41 54 40
40 52 38
42 55 47
45 59 50
47 62 49
46 61 51
48 63 51
47 62 54
47 62 54
50 66 59
50 66 50
50 67 54
51 68 57
52 69 61
52 70 62
51 68 52
52 70 60
55 74 69
53 72 61
53 73 60
126 123 81
200 184 114
200 184 114
200 183 114
200 183 114
200 183 114
199 183 114
199 183 114
199 183 114
199 183 114
199 183 114
199 183 114
199 183 114
198 183 114
198 183 114
198 183 114
198 182 114
198 182 114
198 182 114
198 182 114
198 182 114
198 182 114
198 182 114
198 182 114
198 182 114
198 182 114
198 182 114
198 182 114
198 182 114
198 182 114
198 183 114
198 183 114
198 183 114
199 183 114
199 183 114
199 183 114
199 183 114
199 183 114
199 183 114
199 183 114
200 183 114
200 183 114
200 183 114
200 184 114
201 184 114
201 184 114
201 184 114
194 179 104
179 168 79
166 160 52
155 153 0
156 153 0
155 153 0
156 153 0
156 153 0
156 153 0
155 153 0
156 153 0
155 153 0
156 152 0
155 153 0
156 153 0
155 152 0
155 153 0
155 152 0
155 152 0
156 153 0
157 154 0
154 152 0
155 152 0
155 152 0
156 153 0
155 151 0
154 152 0
154 151 0
156 152 0
154 151 0
155 151 0
165 173 0
173 193 0
172 194 0
170 192 0
171 192 0
174 196 0
173 193 0
172 194 0
174 195 0
172 195 0
171 192 0
172 193 0
170 192 0
171 193 0
171 193 0
173 196 0
174 195 0
173 195 0
170 194 0
173 196 0
172 193 0
171 193 0
170 193 0
171 192 0
173 196 0
174 197 0
172 195 0
172 193 0
173 195 0
172 195 0
173 195 0
173 196 0
174 195 0
173 195 0
173 195 0
174 197 0
174 197 0
175 197 0
172 195 0
173 196 0
172 194 0
172 193 0
172 195 0
172 195 0
175 196 0
173 196 0
173 196 0
174 198 0
171 194 0
174 197 0
172 196 0
174 197 0
174 197 0
173 196 0
173 197 0
172 196 0
173 196 0
173 197 0
173 196 0
175 198 0
172 196 0
173 196 0
174 196 0
172 196 0
172 196 0
174 197 0
173 196 0
172 196 0
171 195 0
171 194 0
172 195 0
171 194 0
172 194 0
170 193 0
170 194 0
172 196 0
174 198 0
171 195 0
175 197 0
175 197 0
172 196 0
173 196 0
168 191 0
171 195 0
169 193 0
174 197 0
172 196 0
174 197 0
173 196 0
172 196 0
172 195 0
173 196 0
169 193 0
172 195 0
171 195 0
170 194 0
173 196 0
169 193 0
172 195 0
171 195 0
172 195 0
173 196 0
173 197 0
173 196 0
172 194 0
174 197 0
171 194 0
172 196 0
171 195 0
171 195 0
173 196 0
171 195 0
173 196 0
173 195 0
175 196 0
171 194 0
169 193 0
166 189 0
174 196 0
171 195 0
175 197 0
171 195 0
171 195 0
171 195 0
167 191 0
174 197 0
170 194 0
172 195 0
175 197 0
172 195 0
168 192 0
172 195 0
169 192 0
171 194 0
170 193 0
174 196 0
168 191 0
171 194 0
171 195 0
171 195 0
169 192 0
170 195 0
171 194 0
171 193 0
167 192 0
171 194 0
170 194 0
169 191 0
170 193 0
169 193 0
164 187 0
166 190 0
170 194 0
168 191 0
171 193 0
164 187 0
171 194 0
169 191 0
171 194 0
169 192 18
85 115 151
61 97 158
62 98 162
62 98 160
62 99 165
62 99 167
62 98 166
61 98 167
61 98 163
63 99 169
62 99 169
62 99 170
62 99 170
62 99 172
61 97 168
61 98 168
62 98 168
62 99 173
62 99 175
63 99 173
62 99 173
62 98 174
62 98 169
61 98 170
62 99 175
63 99 173
62 99 174
62 99 175
62 99 175
62 99 179
62 99 173
62 99 176
62 99 171
61 98 172
61 98 168
62 99 174
62 99 175
62 99 172
62 99 175
63 100 175
62 99 174
61 98 169
63 99 178
62 99 178
62 99 174
62 99 176
62 99 174
62 99 176
62 99 174
62 99 178
62 99 174
62 99 174
61 98 172
61 98 175
62 99 174
61 98 175
61 98 175
62 99 173
63 99 174
62 99 175
62 99 176
63 100 179
62 99 178
62 99 173
62 99 176
62 99 174
62 99 174
62 99 175
62 99 178
62 99 176
62 98 175
62 98 172
62 99 174
62 99 172
62 99 171
62 99 176
62 99 175
62 99 173
62 99 172
62 99 172
62 99 174
61 98 170
62 99 173
62 99 173
62 99 175
63 99 174
62 99 173
61 98 173
62 99 173
62 99 173
62 99 173
63 100 177
62 99 179
62 98 174
62 99 173
61 98 174
61 98 169
61 98 169
62 99 174
63 99 172
62 99 175
62 98 171
63 99 174
62 99 173
63 99 172
62 99 172
62 98 168
63 99 172
61 98 172
62 99 171
62 99 170
63 100 174
62 98 167
63 99 170
62 99 173
62 99 173
61 98 169
62 99 166
61 97 163
62 98 166
62 99 167
63 99 170
62 98 162
61 97 162
62 98 163
62 98 166
62 98 170
62 97 163
62 97 154
61 97 163
62 97 162
60 95 154
61 96 156
61 96 157
61 95 152
61 95 153
58 89 143
36 47 39
35 45 33
36 46 33
37 47 35
41 53 39
41 53 40
41 54 43
41 54 44
45 58 41
45 59 42
46 60 44
47 61 49
47 62 50
47 63 52
49 65 54
48 63 51
50 66 56
51 68 55
50 66 57
52 69 56
53 71 60
53 71 61
52 70 58
53 71 60
54 73 63
111 114 49
170 163 63
178 167 75
189 176 97
198 182 110
201 184 114
201 184 114
200 184 114
200 183 114
200 183 114
200 183 114
200 183 114
200 183 114
199 183 114
199 183 114
199 183 114
199 183 114
199 183 114
199 183 114
199 183 114
199 183 114
199 183 114
199 183 114
199 183 114
199 183 114
199 183 114
199 183 114
199 183 114
199 183 114
199 183 114
199 183 114
199 183 114
199 183 114
199 183 114
200 183 114
200 183 114
200 183 114
200 183 114
200 184 114
200 184 114
201 184 114
201 184 114
201 184 114
192 178 101
185 173 90
172 164 63
160 156 34
157 153 0
157 153 0
155 153 0
157 153 0
156 153 0
155 153 0
155 152 0
156 153 0
157 154 0
156 153 0
155 152 0
158 154 0
155 152 0
156 153 0
156 153 0
154 152 0
156 153 0
155 153 0
155 153 0
156 152 0
154 151 0
157 154 0
155 152 0
153 151 0
155 152 0
155 152 0
155 151 0
153 150 0
154 151 0
155 151 0
153 149 0
172 190 0
171 191 0
172 194 0
172 194 0
172 195 0
174 194 0
172 193 0
172 194 0
171 192 0
173 195 0
169 190 0
172 195 0
172 194 0
171 192 0
173 195 0
174 196 0
171 193 0
172 192 0
173 194 0
173 195 0
172 193 0
174 197 0
172 195 0
174 195 0
172 193 0
170 190 0
174 196 0
172 194 0
172 195 0
173 194 0
172 193 0
173 195 0
173 195 0
174 196 0
172 194 0
173 196 0
175 198 0
173 196 0
173 194 0
172 195 0
174 197 0
171 195 0
174 196 0
174 196 0
172 195 0
173 196 0
174 194 0
172 194 0
174 196 0
173 197 0
172 195 0
173 197 0
171 194 0
173 196 0
172 195 0
176 198 0
172 195 0
171 194 0
172 196 0
171 195 0
172 196 0
168 191 0
171 194 0
174 197 0
173 197 0
173 197 0
173 196 0
173 197 0
172 196 0
173 196 0
176 198 0
173 197 0
172 196 0
172 195 0
174 198 0
172 195 0
174 198 0
173 196 0
171 195 0
174 197 0
174 197 0
171 195 0
172 196 0
171 195 0
174 197 0
171 195 0
174 197 0
169 193 0
173 197 0
171 195 0
175 198 0
171 194 0
173 196 0
170 193 0
171 195 0
172 195 0
172 196 0
172 196 0
172 196 0
175 198 0
171 195 0
171 195 0
170 193 0
174 197 0
173 195 0
171 194 0
174 197 0
172 196 0
174 197 0
171 194 0
170 193 0
173 196 0
172 196 0
171 193 0
172 195 0
172 196 0
170 194 0
172 195 0
172 196 0
172 194 0
170 193 0
172 195 0
172 195 0
173 195 0
171 194 0
170 194 0
173 196 0
174 197 0
171 194 0
172 195 0
171 194 0
170 194 0
170 194 0
172 195 0
171 194 0
172 195 0
170 193 0
171 195 0
170 193 0
167 191 0
174 197 0
168 191 0
171 194 0
172 196 0
168 192 0
172 195 0
171 193 0
172 196 0
172 195 0
171 195 0
168 192 0
169 192 0
169 193 0
172 195 0
171 194 0
173 196 0
169 191 0
171 193 0
168 192 0
151 174 72
61 97 155
62 99 165
61 97 155
61 98 165
62 98 163
61 97 162
63 99 169
62 98 165
62 98 164
62 98 168
62 98 165
62 98 167
63 99 176
62 98 169
62 99 169
63 99 175
62 98 170
62 98 173
62 99 166
62 98 168
62 99 174
62 99 168
62 98 170
62 99 177
62 99 173
62 99 172
62 99 176
63 100 173
63 99 178
62 99 179
62 99 171
62 99 176
62 99 172
62 99 176
62 98 168
62 99 173
62 99 173
62 99 175
62 99 174
63 100 179
61 98 171
62 99 176
62 99 173
62 99 172
63 100 178
63 99 176
62 99 173
62 99 175
62 99 174
61 98 176
62 99 174
62 99 176
62 99 174
62 99 175
63 99 176
62 99 179
62 99 173
62 99 173
62 98 173
62 99 175
62 99 170
62 99 176
62 99 176
63 100 178
62 99 176
62 99 175
62 99 175
63 99 176
63 99 178
62 99 176
62 98 173
62 99 173
63 100 178
62 99 175
63 100 177
62 99 178
62 99 173
61 98 172
62 98 170
62 99 175
62 98 169
62 99 173
62 99 175
62 99 174
63 99 178
61 98 170
62 98 168
62 98 171
62 99 173
62 99 171
62 99 177
63 100 176
61 98 171
62 98 168
62 99 176
63 99 172
62 99 173
62 98 168
62 98 168
61 98 169
63 99 176
62 99 172
61 98 170
62 99 168
62 99 175
62 99 173
62 99 171
62 99 174
62 98 166
62 98 170
62 97 165
62 99 170
62 99 169
63 99 166
62 99 171
62 99 170
62 98 170
62 99 168
62 98 168
62 98 167
62 98 166
62 98 163
62 98 165
62 98 162
62 97 161
61 97 162
62 97 164
61 97 160
62 98 167
61 96 157
61 97 159
61 95 158
62 97 155
61 95 152
61 96 154
60 94 146
61 94 150
41 56 69
36 46 32
37 49 37
41 52 43
41 53 37
40 53 39
42 56 44
40 51 40
43 56 42
44 58 43
47 61 54
46 60 46
46 60 48
47 63 53
47 62 49
47 61 45
50 66 56
51 68 54
51 68 56
51 68 56
51 69 57
52 70 59
53 70 58
53 72 60
53 72 60
125 126 39
157 154 0
156 153 0
156 153 0
155 153 0
160 156 32
168 161 57
175 166 71
187 174 93
192 178 101
198 182 109
200 183 113
201 184 114
201 184 114
200 184 114
200 184 114
200 183 114
200 183 114
200 183 114
200 183 114
200 183 114
200 183 114
200 183 114
200 183 114
200 183 114
200 183 114
200 183 114
200 183 114
200 183 114
200 183 114
200 184 114
200 184 114
200 184 114
201 184 114
201 184 114
201 184 114
201 184 114
200 183 112
192 178 101
190 176 97
178 168 75
168 161 54
157 154 25
156 153 0
156 153 0
156 153 0
157 154 0
155 152 0
156 153 0
156 153 0
156 153 0
156 153 0
156 153 0
157 153 0
156 153 0
155 152 0
155 153 0
155 153 0
154 152 0
156 153 0
155 153 0
154 152 0
154 152 0
156 153 0
155 153 0
154 151 0
156 152 0
156 153 0
155 152 0
154 151 0
156 153 0
154 151 0
153 151 0
155 151 0
155 151 0
154 150 0
154 151 0
158 161 0
172 194 0
171 192 0
171 193 0
172 192 0
173 194 0
173 194 0
172 193 0
172 195 0
170 191 0
171 192 0
174 196 0
172 192 0
173 195 0
173 195 0
171 194 0
171 193 0
174 195 0
172 192 0
173 195 0
174 195 0
172 195 0
173 195 0
172 194 0
173 196 0
172 194 0
172 194 0
172 194 0
172 195 0
172 194 0
172 194 0
172 194 0
174 196 0
172 195 0
174 196 0
171 194 0
172 194 0
173 196 0
172 194 0
171 193 0
173 196 0
173 195 0
172 195 0
171 193 0
173 194 0
171 195 0
174 197 0
172 195 0
174 196 0
174 197 0
173 197 0
175 198 0
173 196 0
171 195 0
171 195 0
172 196 0
172 196 0
172 196 0
172 195 0
171 195 0
172 196 0
169 194 0
173 197 0
173 197 0
172 196 0
173 196 0
174 197 0
173 196 0
173 196 0
174 197 0
172 196 0
173 196 0
171 195 0
172 196 0
171 195 0
170 194 0
172 196 0
172 196 0
171 195 0
168 191 0
175 198 0
173 196 0
172 195 0
172 195 0
170 193 0
170 194 0
169 193 0
171 196 0
171 195 0
173 196 0
169 193 0
173 197 0
172 195 0
174 196 0
174 197 0
171 194 0
175 198 0
173 195 0
173 196 0
170 194 0
171 194 0
172 196 0
171 195 0
169 193 0
173 196 0
170 194 0
170 192 0
168 192 0
170 194 0
171 195 0
170 194 0
171 194 0
170 194 0
170 194 0
168 191 0
174 197 0
172 195 0
170 194 0
173 197 0
172 196 0
169 193 0
172 196 0
171 194 0
173 196 0
174 196 0
171 194 0
170 193 0
173 197 0
171 195 0
171 195 0
170 194 0
170 193 0
170 193 0
167 191 0
172 196 0
170 194 0
171 194 0
167 191 0
171 194 0
167 190 0
170 193 0
173 196 0
167 191 0
166 189 0
170 193 0
169 193 0
168 192 0
174 197 0
168 192 0
166 189 0
171 194 0
172 195 0
168 191 0
166 189 0
171 193 0
170 193 0
171 194 0
164 187 0
168 191 0
166 189 0
127 153 108
61 97 159
63 99 161
62 99 166
61 97 161
62 99 168
62 98 166
62 98 164
62 98 166
61 97 163
62 98 160
62 99 173
61 97 163
62 98 166
61 98 171
61 98 163
62 98 167
61 98 168
62 99 175
61 98 166
62 98 169
62 98 168
62 98 174
61 98 171
62 99 177
63 99 175
62 99 176
62 99 173
62 99 174
61 98 169
62 99 172
61 98 170
61 98 171
62 99 175
62 99 172
62 99 174
61 98 173
62 99 174
62 98 171
62 99 173
62 99 168
61 98 174
62 99 175
63 99 173
62 99 179
62 99 175
62 98 173
62 99 178
63 100 179
63 99 177
62 98 172
62 99 176
62 99 176
62 99 178
62 99 178
62 99 172
62 99 175
62 99 179
63 99 174
62 99 176
62 99 176
62 98 172
62 99 175
62 99 175
62 99 178
62 99 175
62 99 175
62 99 174
62 99 174
62 99 175
62 99 172
62 99 177
63 99 171
62 99 175
62 99 174
61 98 175
62 99 177
62 99 173
63 99 175
62 99 173
62 98 171
62 99 171
61 98 173
61 98 167
61 98 171
62 99 175
63 99 173
62 99 176
61 98 170
62 99 173
63 99 172
62 98 169
62 99 168
62 99 171
62 99 174
63 99 173
62 98 167
62 99 170
63 99 174
62 98 167
62 98 170
62 98 164
62 99 171
62 98 164
62 99 171
62 99 168
62 98 162
62 98 171
62 98 164
62 98 168
63 99 173
62 99 169
62 98 168
62 98 164
61 97 166
62 99 173
62 99 167
62 98 163
62 98 168
62 98 168
62 98 163
62 98 164
61 97 161
62 98 161
62 98 168
62 97 165
62 97 156
62 99 166
60 95 153
62 97 160
61 97 155
62 97 163
62 97 159
61 95 156
61 96 158
60 95 152
60 94 150
59 92 145
46 68 105
38 50 39
33 43 35
38 48 29
39 51 37
40 52 39
42 55 42
41 53 38
39 50 41
45 59 49
46 59 44
45 59 43
47 61 49
45 60 50
47 62 52
49 64 52
48 63 53
48 64 50
50 67 56
51 68 57
51 68 56
52 69 57
52 70 55
52 70 57
53 72 62
123 125 37
155 153 0
155 152 0
155 153 0
156 153 0
155 153 0
156 153 0
155 152 0
157 153 0
156 153 0
155 153 0
161 156 28
162 158 44
167 161 59
174 165 69
175 166 73
179 168 79
185 173 88
189 176 96
192 178 102
193 178 101
196 180 106
196 180 106
197 181 108
198 182 110
194 179 104
195 180 106
192 178 101
191 177 100
193 178 101
186 174 92
183 172 87
185 173 88
173 165 69
172 164 64
167 160 51
161 156 37
156 153 0
156 153 0
156 153 0
156 153 0
155 153 0
154 152 0
156 153 0
155 152 0
155 153 0
157 153 0
154 152 0
155 153 0
158 154 0
156 153 0
156 153 0
156 153 0
154 152 0
154 152 0
154 152 0
156 153 0
156 153 0
155 152 0
156 152 0
155 152 0
155 152 0
155 152 0
156 153 0
155 152 0
155 152 0
156 153 0
152 150 0
154 151 0
155 152 0
154 151 0
153 149 0
155 152 0
155 152 0
153 151 0
154 151 0
155 151 0
165 176 0
172 194 0
172 194 0
171 192 0
171 193 0
172 194 0
172 193 0
173 195 0
172 194 0
170 191 0
171 194 0
171 191 0
172 195 0
172 194 0
169 192 0
170 192 0
172 192 0
174 196 0
172 195 0
173 196 0
171 193 0
175 195 0
173 195 0
173 194 0
172 194 0
174 196 0
171 193 0
171 193 0
173 195 0
174 196 0
172 194 0
172 195 0
173 196 0
172 194 0
174 195 0
173 195 0
175 196 0
173 196 0
175 197 0
173 195 0
174 196 0
173 195 0
172 195 0
173 197 0
173 195 0
172 194 0
174 196 0
171 194 0
171 194 0
174 196 0
173 197 0
174 197 0
174 197 0
172 196 0
173 197 0
174 197 0
174 198 0
174 197 0
173 196 0
170 194 0
173 196 0
172 196 0
173 195 0
174 197 0
175 198 0
174 198 0
174 198 0
174 197 0
174 197 0
171 194 0
175 198 0
172 196 0
166 190 0
171 194 0
173 196 0
173 197 0
172 196 0
171 195 0
172 196 0
174 197 0
172 196 0
171 195 0
173 196 0
173 197 0
172 195 0
172 195 0
171 195 0
171 195 0
171 195 0
174 197 0
171 195 0
170 193 0
172 195 0
170 194 0
172 195 0
172 195 0
172 196 0
170 193 0
170 194 0
174 197 0
171 195 0
172 194 0
169 193 0
171 194 0
169 194 0
173 196 0
172 196 0
172 195 0
172 195 0
173 196 0
171 194 0
172 195 0
172 195 0
172 195 0
171 194 0
169 192 0
172 196 0
172 196 0
172 196 0
172 195 0
169 193 0
172 195 0
168 192 0
173 196 0
170 194 0
172 195 0
171 194 0
173 195 0
171 194 0
172 195 0
169 193 0
170 194 0
173 195 0
171 194 0
173 196 0
170 194 0
171 195 0
171 195 0
170 193 0
169 191 0
173 197 0
171 195 0
168 192 0
171 194 0
170 193 0
168 191 0
169 192 0
170 193 0
172 195 0
170 193 0
171 194 0
168 191 0
170 194 0
169 193 0
170 194 0
169 192 0
171 194 0
163 186 0
170 193 0
170 193 0
100 127 130
62 98 159
62 98 158
61 97 155
63 99 167
62 98 160
62 98 163
62 98 169
62 98 168
62 98 169
62 99 170
62 98 166
62 98 167
61 98 166
63 99 171
62 98 168
62 99 174
62 99 170
62 99 173
61 98 166
62 98 170
62 99 172
62 98 169
62 99 174
62 98 167
62 99 179
62 99 169
61 98 174
62 98 172
62 98 171
62 99 177
62 98 173
62 99 174
63 100 180
61 98 172
62 99 172
61 97 169
62 99 172
61 98 174
62 99 177
62 99 177
62 99 174
62 99 173
63 99 177
62 99 177
61 98 173
62 99 178
63 99 178
62 99 173
63 99 172
62 99 175
63 100 180
62 99 173
62 99 173
62 99 176
62 99 174
62 99 173
63 100 179
62 99 177
62 99 177
61 98 171
62 99 174
62 99 175
62 98 175
62 99 174
62 98 169
62 99 176
62 98 168
62 99 173
62 99 173
63 99 175
62 99 172
62 99 172
62 99 172
62 98 173
62 99 173
62 99 172
62 99 176
63 100 177
62 99 168
63 100 174
62 99 171
62 99 172
62 98 168
62 99 173
62 99 175
62 98 171
62 99 172
62 99 171
61 98 169
62 99 176
61 98 169
62 99 171
63 100 178
63 99 173
62 98 172
62 99 173
62 99 174
63 99 177
62 99 168
63 99 174
62 99 170
62 99 172
62 98 165
62 99 173
62 99 172
62 99 172
62 98 171
62 99 170
62 98 166
62 98 168
61 98 169
62 99 169
63 99 171
62 99 168
61 98 166
62 98 162
62 99 169
63 99 174
63 99 174
62 99 171
62 98 167
63 100 175
62 98 170
62 98 161
62 97 161
61 97 164
61 97 164
62 98 164
62 97 162
62 97 158
62 97 158
63 98 164
62 97 159
61 95 155
61 96 155
61 95 146
60 93 147
55 85 130
36 46 29
35 46 31
35 46 32
40 52 41
40 52 35
42 54 39
40 53 42
43 55 42
42 56 39
46 60 47
46 59 46
45 58 41
45 60 48
49 65 51
50 65 51
50 66 54
50 65 49
52 69 58
52 69 55
52 69 57
50 67 51
52 69 58
52 70 58
53 72 60
132 132 30
153 151 0
155 152 0
156 153 0
155 152 0
155 153 0
157 153 0
155 153 0
155 153 0
156 153 0
156 153 0
155 152 0
157 154 0
156 153 0
156 153 0
156 153 0
155 152 0
156 153 0
154 152 0
156 153 0
156 153 0
156 153 0
157 153 0
154 152 0
155 152 0
156 153 0
156 153 0
156 153 0
157 154 0
156 153 0
157 153 0
156 153 0
156 153 0
155 153 0
155 153 0
155 153 0
155 152 0
156 153 0
155 153 0
155 153 0
156 153 0
154 152 0
156 153 0
155 153 0
157 154 0
155 153 0
156 153 0
155 152 0
156 153 0
155 152 0
157 153 0
155 153 0
155 153 0
154 152 0
156 153 0
156 153 0
155 152 0
155 152 0
156 153 0
155 152 0
155 152 0
156 153 0
153 150 0
154 152 0
156 153 0
155 151 0
154 152 0
155 151 0
155 152 0
156 153 0
155 152 0
154 151 0
155 152 0
152 150 0
155 151 0
154 151 0
155 150 0
171 189 0
171 193 0
171 192 0
172 193 0
173 195 0
172 192 0
173 194 0
174 195 0
172 193 0
171 193 0
172 193 0
173 196 0
174 194 0
173 192 0
171 192 0
174 195 0
172 195 0
171 192 0
172 194 0
172 194 0
173 194 0
173 194 0
171 194 0
173 195 0
172 194 0
171 194 0
172 193 0
171 194 0
173 196 0
172 194 0
173 194 0
171 193 0
174 196 0
172 194 0
173 195 0
173 196 0
173 196 0
172 195 0
172 194 0
173 196 0
174 197 0
172 194 0
174 197 0
175 198 0
174 197 0
174 195 0
172 195 0
172 195 0
172 195 0
172 196 0
175 198 0
173 196 0
172 196 0
171 195 0
173 196 0
171 195 0
174 198 0
175 198 0
170 193 0
174 197 0
173 197 0
172 196 0
174 197 0
170 194 0
174 197 0
172 196 0
171 195 0
173 196 0
173 197 0
175 198 0
174 197 0
173 197 0
173 196 0
170 194 0
171 195 0
171 194 0
171 195 0
173 196 0
172 196 0
172 196 0
173 196 0
173 196 0
172 195 0
174 197 0
169 194 0
172 196 0
173 197 0
173 196 0
175 198 0
173 196 0
173 197 0
170 194 0
171 195 0
172 196 0
171 196 0
172 195 0
172 195 0
170 194 0
170 193 0
176 198 0
172 195 0
172 195 0
171 196 0
171 194 0
171 194 0
173 196 0
172 195 0
169 192 0
171 194 0
172 196 0
169 192 0
171 194 0
172 196 0
168 191 0
167 191 0
171 194 0
173 196 0
173 196 0
170 193 0
173 195 0
172 195 0
171 194 0
172 195 0
172 195 0
169 192 0
171 195 0
168 191 0
170 193 0
166 190 0
170 193 0
170 193 0
170 194 0
170 194 0
170 194 0
173 196 0
171 194 0
168 192 0
172 195 0
170 194 0
167 190 0
167 190 0
171 194 0
170 193 0
169 192 0
168 191 0
170 194 0
171 195 0
170 193 0
170 193 0
170 192 0
169 193 0
169 192 0
169 191 0
166 189 0
167 191 0
169 191 0
167 190 0
169 193 0
169 192 0
165 189 18
65 100 154
61 97 155
61 96 154
61 97 157
62 98 161
62 98 159
62 99 164
61 98 163
62 98 161
62 98 166
62 98 168
61 98 164
62 98 168
62 98 169
61 98 170
62 99 166
61 98 166
62 98 170
61 98 167
62 98 168
62 99 173
62 98 170
61 98 170
62 99 172
62 98 173
62 98 175
62 98 172
62 99 170
63 99 176
62 99 174
62 99 172
63 100 174
62 99 176
63 100 176
62 99 176
62 99 174
63 99 176
62 99 174
63 99 173
61 98 173
62 99 175
63 100 179
62 99 177
62 99 175
62 99 174
62 99 173
62 99 178
62 98 166
61 98 170
63 99 174
62 99 172
62 99 173
63 99 175
62 99 172
61 98 175
62 99 176
61 98 175
62 99 171
61 97 169
62 99 172
63 99 177
61 98 169
61 98 170
62 99 169
63 99 174
63 100 176
62 99 177
62 99 174
63 99 174
62 99 169
62 99 175
62 99 174
62 98 170
63 99 174
62 99 172
62 99 174
61 98 172
62 99 172
63 99 175
62 99 176
62 99 174
62 99 172
62 99 173
62 99 176
62 99 173
62 99 173
62 99 171
62 98 171
62 99 173
62 99 172
62 99 175
62 99 176
62 99 169
62 99 175
62 98 171
62 99 172
61 98 167
62 99 174
62 99 173
63 100 174
62 98 169
63 99 173
62 98 169
63 99 173
61 98 167
61 98 168
63 99 168
62 98 167
62 98 167
62 98 161
62 99 170
61 98 171
62 99 170
62 99 171
62 99 172
62 98 166
62 99 168
62 98 165
63 99 166
62 98 168
62 98 166
62 98 168
62 98 166
61 97 157
62 98 169
61 97 159
62 98 163
61 97 165
61 97 160
62 98 166
61 97 160
62 98 166
61 96 154
62 97 156
61 97 157
62 96 156
60 93 147
60 93 147
60 93 143
35 46 39
34 45 26
35 45 29
39 50 35
39 50 31
40 51 35
42 54 41
44 57 38
42 53 40
43 56 40
46 59 43
46 61 43
48 64 52
47 60 48
48 64 53
48 63 46
50 66 51
50 66 52
50 67 52
50 67 52
51 69 56
52 69 56
53 72 59
55 73 61
147 146 21
156 153 0
155 153 0
157 154 0
154 152 0
155 153 0
156 152 0
157 153 0
157 154 0
156 153 0
156 153 0
156 153 0
154 152 0
157 154 0
156 153 0
153 152 0
155 152 0
156 153 0
155 152 0
154 152 0
156 153 0
155 153 0
156 153 0
157 154 0
155 153 0
156 153 0
155 152 0
155 153 0
157 154 0
157 154 0
156 153 0
157 154 0
153 151 0
158 154 0
156 153 0
156 153 0
156 153 0
156 153 0
155 153 0
156 153 0
156 153 0
157 153 0
155 153 0
155 153 0
157 154 0
155 153 0
155 152 0
156 153 0
155 152 0
156 153 0
154 152 0
154 152 0
154 151 0
156 153 0
155 152 0
155 152 0
156 152 0
155 152 0
157 153 0
152 150 0
154 151 0
156 153 0
156 153 0
154 151 0
156 152 0
156 152 0
154 151 0
156 153 0
156 153 0
155 152 0
155 152 0
154 151 0
154 151 0
156 152 0
154 151 0
153 148 0
163 168 0
169 188 0
171 190 0
171 193 0
170 191 0
172 192 0
172 192 0
173 195 0
173 194 0
172 194 0
169 190 0
171 191 0
170 190 0
173 196 0
172 194 0
173 195 0
171 192 0
173 193 0
173 194 0
173 196 0
172 195 0
173 194 0
174 195 0
172 194 0
172 192 0
173 193 0
172 194 0
173 195 0
173 196 0
173 195 0
174 195 0
173 195 0
171 193 0
172 195 0
172 194 0
174 196 0
175 197 0
172 195 0
172 195 0
171 194 0
173 195 0
174 195 0
173 194 0
173 194 0
174 195 0
174 197 0
172 195 0
173 196 0
172 194 0
174 196 0
174 196 0
172 196 0
175 198 0
174 197 0
172 196 0
173 196 0
172 196 0
173 196 0
172 195 0
172 195 0
174 197 0
172 196 0
173 196 0
170 194 0
173 197 0
171 194 0
174 197 0
171 194 0
171 194 0
174 197 0
173 196 0
172 196 0
173 195 0
174 197 0
172 196 0
172 196 0
170 193 0
169 192 0
172 195 0
174 197 0
174 197 0
173 197 0
173 197 0
172 195 0
172 194 0
174 197 0
173 196 0
172 196 0
172 195 0
171 195 0
174 197 0
173 197 0
173 196 0
171 195 0
173 197 0
171 193 0
172 196 0
170 194 0
171 194 0
174 197 0
172 196 0
173 196 0
168 191 0
173 197 0
171 194 0
172 196 0
171 195 0
168 192 0
170 194 0
171 195 0
170 194 0
172 195 0
170 193 0
169 194 0
170 193 0
170 193 0
172 196 0
172 196 0
172 196 0
170 194 0
170 193 0
169 192 0
174 197 0
171 194 0
169 194 0
172 195 0
174 197 0
172 196 0
173 197 0
171 194 0
169 192 0
173 197 0
169 193 0
169 193 0
169 193 0
174 197 0
169 193 0
171 195 0
173 197 0
171 194 0
170 192 0
171 194 0
172 195 0
169 193 0
173 197 0
171 194 0
171 194 0
169 192 0
170 193 0
170 193 0
171 193 0
168 191 0
171 194 0
168 191 0
167 190 0
170 194 0
166 190 0
170 194 0
171 194 0
171 194 0
148 171 62
62 98 159
63 98 157
61 98 161
61 97 158
61 97 153
63 100 172
61 97 163
62 98 166
62 98 169
62 98 167
61 98 167
62 98 165
62 98 168
63 99 172
61 97 162
61 98 168
62 98 170
62 99 170
61 98 170
61 98 162
62 98 167
62 99 171
62 99 172
63 99 170
61 98 173
62 98 170
62 98 171
62 98 169
62 98 168
62 98 168
62 98 174
63 100 176
62 99 172
62 98 173
62 98 172
61 98 170
62 99 176
63 100 172
62 99 175
62 99 173
62 99 178
62 99 173
62 99 177
63 99 178
62 99 179
63 99 178
63 99 175
62 98 171
62 99 176
62 99 175
62 99 178
62 99 173
62 99 178
63 99 172
62 98 170
63 99 175
62 99 175
62 99 170
61 98 173
61 98 166
62 99 172
62 99 172
62 98 170
62 99 173
63 100 179
62 99 171
62 98 174
62 98 174
63 99 175
62 99 170
62 99 172
62 99 169
62 99 172
62 99 172
62 99 170
62 99 175
61 98 172
62 99 172
63 99 176
62 99 172
63 99 175
62 98 169
62 99 174
61 98 168
62 99 172
62 98 172
63 99 172
62 99 172
62 99 172
62 98 164
62 98 169
62 99 173
62 98 169
62 99 172
61 97 161
63 99 168
62 99 168
62 98 163
62 99 168
62 99 173
62 99 170
62 99 170
62 98 165
62 98 168
62 99 173
62 98 167
63 99 173
62 99 172
62 99 172
62 98 169
62 99 168
62 99 171
61 98 167
63 99 169
63 99 172
62 98 174
62 99 167
62 98 159
62 99 167
61 97 164
62 98 167
62 98 165
61 98 165
63 99 169
63 99 170
62 97 160
62 98 166
62 97 162
62 97 160
61 97 163
61 96 154
62 98 167
61 96 156
62 97 157
62 97 160
61 96 157
60 95 150
62 96 155
60 93 143
47 69 91
36 46 33
37 47 35
38 50 33
37 49 32
39 51 33
39 50 35
40 52 34
41 53 39
44 58 44
45 58 42
46 59 40
47 61 46
47 61 45
46 61 45
50 65 49
48 64 50
51 67 51
51 68 56
51 68 55
50 67 54
51 68 56
52 70 53
68 82 53
153 151 0
154 151 0
154 152 0
154 151 0
156 153 0
157 153 0
155 153 0
153 151 0
156 153 0
155 152 0
156 153 0
156 153 0
155 153 0
155 152 0
154 152 0
156 153 0
156 153 0
155 153 0
156 153 0
154 152 0
155 152 0
154 152 0
155 153 0
157 153 0
156 153 0
155 153 0
156 153 0
155 152 0
157 153 0
156 153 0
157 154 0
157 153 0
155 153 0
156 153 0
155 153 0
156 153 0
157 153 0
156 153 0
155 152 0
156 153 0
155 152 0
154 152 0
155 152 0
156 153 0
157 153 0
156 153 0
157 154 0
155 152 0
154 151 0
154 151 0
155 152 0
155 152 0
155 153 0
156 153 0
154 151 0
155 152 0
154 151 0
154 152 0
155 152 0
155 152 0
156 152 0
155 152 0
153 151 0
156 153 0
155 152 0
155 152 0
153 150 0
154 152 0
153 150 0
156 153 0
153 149 0
155 151 0
155 150 0
154 151 0
154 150 0
153 149 0
167 183 0
171 191 0
171 191 0
171 192 0
172 191 0
172 193 0
170 193 0
172 192 0
171 193 0
171 191 0
174 195 0
172 194 0
170 191 0
174 195 0
173 195 0
171 192 0
170 191 0
173 194 0
172 193 0
172 192 0
173 195 0
171 192 0
172 195 0
174 196 0
172 194 0
173 194 0
169 191 0
173 194 0
174 195 0
173 195 0
172 195 0
173 195 0
172 195 0
171 193 0
175 197 0
173 195 0
173 195 0
172 194 0
174 197 0
173 193 0
173 196 0
174 197 0
173 195 0
175 197 0
172 195 0
171 195 0
172 193 0
173 196 0
173 195 0
175 197 0
175 197 0
173 196 0
172 196 0
173 196 0
174 196 0
170 194 0
173 197 0
171 194 0
171 195 0
171 195 0
172 196 0
174 197 0
174 197 0
174 197 0
172 196 0
174 197 0
171 194 0
171 194 0
173 196 0
173 197 0
172 195 0
173 196 0
171 193 0
173 196 0
173 196 0
174 198 0
172 196 0
172 196 0
172 195 0
173 196 0
173 196 0
170 193 0
174 196 0
170 194 0
171 195 0
173 196 0
171 195 0
165 189 0
175 198 0
170 193 0
173 196 0
173 197 0
173 197 0
172 195 0
170 193 0
173 196 0
173 196 0
172 194 0
172 195 0
170 193 0
169 194 0
173 196 0
172 195 0
173 196 0
170 193 0
170 193 0
173 197 0
170 193 0
169 193 0
170 194 0
172 195 0
169 193 0
171 194 0
172 195 0
173 196 0
169 193 0
171 195 0
171 194 0
168 192 0
171 194 0
172 196 0
174 197 0
172 196 0
166 190 0
171 194 0
172 195 0
171 195 0
169 193 0
173 196 0
172 196 0
173 196 0
171 194 0
171 195 0
172 195 0
172 195 0
171 195 0
168 192 0
169 192 0
168 191 0
173 196 0
173 195 0
169 192 0
168 191 0
173 196 0
171 194 0
169 192 0
169 192 0
168 190 0
171 193 0
166 189 0
167 190 0
170 192 0
168 192 0
173 196 0
166 190 0
166 190 0
169 192 0
168 191 0
164 188 0
168 191 0
125 150 102
62 98 165
61 98 162
62 98 159
62 98 155
62 98 160
61 97 157
62 98 161
63 99 168
61 98 163
63 99 165
62 98 164
62 98 165
62 98 161
62 97 162
61 97 160
62 98 170
62 98 167
61 98 167
62 98 169
62 98 172
61 98 168
61 98 164
62 99 170
62 99 170
62 98 168
62 99 176
62 98 172
62 98 170
62 99 171
62 99 173
61 98 173
63 99 175
62 99 172
62 98 161
63 100 174
63 99 170
63 99 173
62 99 175
62 99 171
62 99 170
62 99 173
62 99 173
61 98 171
63 99 173
61 98 171
62 99 171
62 98 172
62 99 175
62 99 170
61 97 169
63 100 179
63 99 172
62 98 175
62 98 169
63 99 172
62 99 175
61 98 172
62 99 173
62 99 174
62 98 170
62 99 173
62 98 175
62 99 178
62 99 176
62 99 171
62 98 173
62 99 175
62 99 169
62 99 172
62 99 170
62 98 170
62 99 173
62 99 174
62 98 173
61 98 170
62 99 171
62 99 170
63 99 175
62 99 175
62 99 175
61 98 171
62 98 169
63 99 174
62 98 170
62 99 173
62 99 176
63 99 173
62 99 171
62 99 174
62 99 175
62 99 175
62 99 172
62 99 170
61 98 174
62 98 166
63 99 168
62 99 172
62 99 169
63 99 174
62 98 167
62 98 164
62 98 166
63 99 172
62 98 169
63 99 175
61 98 164
62 98 167
62 99 168
62 98 166
62 99 175
62 99 168
63 99 169
63 99 162
63 99 172
62 99 166
63 99 170
61 98 164
63 99 172
63 99 165
62 98 166
62 98 168
62 98 160
61 96 158
62 98 169
63 99 168
62 98 167
62 98 161
62 98 157
61 96 155
62 97 160
62 98 160
61 97 159
61 96 150
61 96 159
61 96 160
62 96 158
60 95 154
61 95 157
60 95 149
50 75 110
35 46 34
37 47 29
37 47 29
38 50 28
39 50 31
42 54 41
43 55 37
42 54 38
43 58 44
48 62 44
47 63 46
47 61 41
44 58 40
47 62 46
48 63 50
50 67 53
52 68 55
51 68 54
49 67 47
52 71 56
52 70 55
51 69 49
99 104 44
153 150 0
153 151 0
153 151 0
155 152 0
154 151 0
155 152 0
155 152 0
155 152 0
156 153 0
154 151 0
155 153 0
156 153 0
155 152 0
154 152 0
155 152 0
154 152 0
155 152 0
155 153 0
155 152 0
157 154 0
157 154 0
156 153 0
154 152 0
157 154 0
154 152 0
157 153 0
155 153 0
155 152 0
155 153 0
156 153 0
154 152 0
155 153 0
156 153 0
155 152 0
155 153 0
156 153 0
155 152 0
155 153 0
156 153 0
155 152 0
155 152 0
156 153 0
155 152 0
154 151 0
155 152 0
155 152 0
156 153 0
156 153 0
154 152 0
156 153 0
155 152 0
154 152 0
154 152 0
155 152 0
155 152 0
155 151 0
154 150 0
154 151 0
155 152 0
155 153 0
155 152 0
155 152 0
155 152 0
153 150 0
155 152 0
154 150 0
154 152 0
155 151 0
154 150 0
154 152 0
153 149 0
154 150 0
155 149 0
153 151 0
154 149 0
157 158 0
170 188 0
173 191 0
172 193 0
170 190 0
170 189 0
173 193 0
171 192 0
172 192 0
174 194 0
170 188 0
173 193 0
172 193 0
174 194 0
171 190 0
172 194 0
170 192 0
173 195 0
171 190 0
173 195 0
171 192 0
172 194 0
173 194 0
171 190 0
172 194 0
172 193 0
171 194 0
172 192 0
174 196 0
173 196 0
172 193 0
173 194 0
173 196 0
174 196 0
173 193 0
174 194 0
173 195 0
173 195 0
173 195 0
172 193 0
171 192 0
172 194 0
174 196 0
175 198 0
173 195 0
173 195 0
174 196 0
174 195 0
174 197 0
173 196 0
171 193 0
172 193 0
174 197 0
173 197 0
172 196 0
174 197 0
172 196 0
173 197 0
172 195 0
171 195 0
174 197 0
172 195 0
171 196 0
174 197 0
172 195 0
173 196 0
173 196 0
171 194 0
171 194 0
173 197 0
171 195 0
173 195 0
173 197 0
172 194 0
172 195 0
172 196 0
173 196 0
172 195 0
171 195 0
172 195 0
175 197 0
174 197 0
174 198 0
172 196 0
173 196 0
171 195 0
174 197 0
174 197 0
168 193 0
173 196 0
172 195 0
173 196 0
168 191 0
172 196 0
170 193 0
171 194 0
173 197 0
171 194 0
174 197 0
174 196 0
171 194 0
173 196 0
173 197 0
174 196 0
173 196 0
172 196 0
174 197 0
169 192 0
170 193 0
171 195 0
170 194 0
169 192 0
168 191 0
174 197 0
172 194 0
170 193 0
171 194 0
171 195 0
171 195 0
173 197 0
172 195 0
170 193 0
170 195 0
173 197 0
172 195 0
172 195 0
171 194 0
170 194 0
172 195 0
171 194 0
172 194 0
168 191 0
169 192 0
169 192 0
169 191 0
167 191 0
171 194 0
172 195 0
169 192 0
173 195 0
172 195 0
170 194 0
169 193 0
167 191 0
173 196 0
170 194 0
172 195 0
169 193 0
168 191 0
168 191 0
168 191 0
172 194 0
168 193 0
171 194 0
167 191 0
169 192 0
165 188 0
169 193 0
173 196 0
168 192 0
170 193 0
107 134 125
61 97 149
62 98 165
62 98 160
61 97 154
62 98 163
60 96 156
61 97 154
62 99 168
61 98 162
62 98 165
61 97 157
62 98 170
62 98 165
61 98 167
62 98 167
62 98 168
62 98 161
62 98 170
63 99 167
61 98 169
62 99 171
62 98 171
62 99 171
62 99 174
62 98 168
62 98 169
62 99 173
63 100 176
62 99 170
62 99 171
62 99 172
63 100 175
61 98 170
62 99 171
63 99 174
62 99 171
62 99 174
62 98 173
62 99 175
62 99 171
62 99 176
62 99 174
62 99 170
61 98 169
62 98 169
62 99 175
62 99 172
63 99 173
63 99 172
62 99 172
62 98 167
63 99 174
61 98 171
63 99 168
62 99 173
62 99 174
61 98 168
62 98 171
63 99 173
62 98 173
63 100 175
63 99 174
63 100 178
62 99 170
62 99 173
62 99 174
62 99 172
62 99 176
62 98 169
63 99 172
62 99 176
62 98 173
61 97 166
62 99 170
62 98 170
62 99 171
61 97 165
62 99 172
62 99 173
63 99 175
62 99 171
62 98 168
62 99 174
63 100 176
62 99 170
63 99 172
62 99 174
62 99 172
62 99 170
62 99 173
62 98 172
62 98 168
62 99 171
62 98 171
62 99 168
63 99 173
61 98 163
62 98 168
62 99 168
62 99 168
62 99 176
62 99 172
62 99 173
62 99 171
62 99 167
61 98 164
61 97 164
62 99 169
62 99 165
61 97 162
62 99 172
61 97 160
62 99 168
62 98 167
62 98 169
62 98 165
62 98 162
62 98 163
62 99 169
62 98 169
62 98 168
62 98 162
62 98 165
62 98 164
61 97 154
62 98 161
62 98 163
61 97 164
63 98 163
61 97 160
61 96 156
61 97 156
62 97 160
61 96 156
61 96 154
61 96 159
62 96 158
60 93 148
61 95 157
53 82 120
37 47 31
38 48 29
38 50 35
37 48 27
39 51 32
43 56 44
43 56 40
44 57 41
45 58 41
46 60 43
46 61 46
49 64 48
45 60 44
46 61 45
48 63 49
48 64 49
49 66 48
51 68 53
50 66 52
51 69 56
50 68 51
51 69 53
130 130 25
154 151 0
154 151 0
153 150 0
153 151 0
153 151 0
152 151 0
153 152 0
150 149 0
153 151 0
156 153 0
153 151 0
154 151 0
152 150 0
154 151 0
154 151 0
154 151 0
155 152 0
156 153 0
154 152 0
156 153 0
156 153 0
152 150 0
155 153 0
156 153 0
155 152 0
156 153 0
153 151 0
155 153 0
157 153 0
156 153 0
155 153 0
157 154 0
157 154 0
156 153 0
154 152 0
154 152 0
154 151 0
158 154 0
156 153 0
156 153 0
157 153 0
155 152 0
153 151 0
157 153 0
155 152 0
155 152 0
156 153 0
154 151 0
154 151 0
156 153 0
156 153 0
154 151 0
154 152 0
155 152 0
155 152 0
152 151 0
153 151 0
153 151 0
152 151 0
154 151 0
154 151 0
155 152 0
154 151 0
157 153 0
153 151 0
155 151 0
152 148 0
155 151 0
154 151 0
153 150 0
155 151 0
154 150 0
153 147 0
152 148 0
153 148 0
167 180 0
170 191 0
168 185 0
171 191 0
171 192 0
173 193 0
172 191 0
174 195 0
172 193 0
171 192 0
173 192 0
170 191 0
172 192 0
170 190 0
173 195 0
172 194 0
172 193 0
171 191 0
173 194 0
175 196 0
172 193 0
172 194 0
172 194 0
173 195 0
174 195 0
172 192 0
172 195 0
172 192 0
172 194 0
171 193 0
172 194 0
174 196 0
173 195 0
172 195 0
172 194 0
173 194 0
173 196 0
173 195 0
174 196 0
172 195 0
173 194 0
173 195 0
174 196 0
172 194 0
173 196 0
174 196 0
171 194 0
175 198 0
171 194 0
173 197 0
173 195 0
173 197 0
173 197 0
172 196 0
172 196 0
172 196 0
176 198 0
173 196 0
173 195 0
173 197 0
173 197 0
174 197 0
174 197 0
172 196 0
173 197 0
171 195 0
173 196 0
172 194 0
174 197 0
170 194 0
173 196 0
172 196 0
173 197 0
173 197 0
171 194 0
170 194 0
174 197 0
169 193 0
173 196 0
174 197 0
170 194 0
172 195 0
171 195 0
172 194 0
171 194 0
171 195 0
172 195 0
172 196 0
173 196 0
173 197 0
172 196 0
173 195 0
169 192 0
174 197 0
171 194 0
172 194 0
173 197 0
173 197 0
172 195 0
171 194 0
167 191 0
169 193 0
171 194 0
170 193 0
170 194 0
168 192 0
172 195 0
170 194 0
171 195 0
168 192 0
174 197 0
171 194 0
170 194 0
172 196 0
171 195 0
173 196 0
174 196 0
171 195 0
171 194 0
171 194 0
172 196 0
172 195 0
167 191 0
169 193 0
168 191 0
168 191 0
172 195 0
171 193 0
169 192 0
174 197 0
169 192 0
172 195 0
172 195 0
171 195 0
169 192 0
169 193 0
172 194 0
171 195 0
169 193 0
165 188 0
168 192 0
171 194 0
166 190 0
168 191 0
168 191 0
168 193 0
171 194 0
170 193 0
167 190 0
168 192 0
168 191 0
165 189 0
171 193 0
165 188 0
166 190 0
170 193 0
169 192 0
168 191 0
170 193 0
169 193 0
168 190 0
83 113 145
62 97 158
62 98 160
62 99 170
62 98 164
62 98 163
62 98 164
62 98 162
62 98 165
62 98 162
62 99 169
63 100 174
62 98 170
62 98 161
61 97 160
63 99 171
62 99 167
63 99 175
62 98 167
61 98 167
62 99 171
62 98 166
62 98 172
62 98 172
62 98 166
62 99 171
62 99 168
62 99 175
62 98 173
62 98 167
62 98 169
62 99 173
62 99 172
62 99 171
62 99 172
61 98 170
61 98 174
62 99 173
62 99 170
61 98 172
61 98 172
62 99 172
62 98 167
62 98 172
62 99 171
62 99 172
62 99 174
62 99 172
63 100 179
62 98 168
62 99 178
63 100 175
62 98 172
62 98 170
61 98 170
62 99 173
62 99 170
62 99 176
62 98 173
62 98 173
63 99 177
62 99 169
63 100 174
61 98 171
62 99 172
62 99 172
62 99 172
62 98 171
62 99 171
63 99 174
62 99 173
62 99 175
61 98 166
62 99 172
62 98 169
62 99 171
61 98 168
62 98 168
62 99 171
62 99 168
62 98 170
62 98 168
62 99 170
62 99 172
62 98 171
62 99 171
62 98 168
62 98 169
62 99 171
62 98 168
62 99 174
61 98 167
62 98 169
62 99 176
62 99 170
63 99 174
62 99 174
62 98 170
62 98 168
62 99 164
62 99 172
61 98 163
62 99 170
62 99 167
62 98 171
62 98 167
62 98 166
62 99 169
62 99 172
62 98 167
62 98 169
63 99 168
63 100 175
62 98 167
62 98 168
61 98 168
62 98 170
61 98 167
63 99 168
62 98 161
62 98 164
61 97 159
62 98 162
62 98 159
62 97 160
62 98 163
61 97 157
62 97 159
62 98 163
62 98 165
62 97 159
62 98 164
62 98 158
61 97 158
61 97 159
62 98 166
61 96 152
61 95 146
60 94 144
61 95 149
57 89 127
34 44 30
33 43 24
38 49 34
39 50 35
40 53 36
43 55 37
43 56 39
43 56 37
44 56 39
45 59 41
45 60 46
49 64 49
46 60 43
48 62 43
50 66 50
46 62 41
50 67 52
51 68 49
49 66 49
50 67 50
51 69 53
65 79 52
147 145 8
151 149 0
150 148 0
150 148 0
151 149 0
151 150 0
151 149 0
154 152 0
152 149 0
155 152 0
152 150 0
155 152 0
154 151 0
155 152 0
156 152 0
154 151 0
154 151 0
155 153 0
155 152 0
154 152 0
153 151 0
154 152 0
154 152 0
155 152 0
153 151 0
156 153 0
153 151 0
154 152 0
154 152 0
155 152 0
154 152 0
156 152 0
154 152 0
153 151 0
154 152 0
155 152 0
153 151 0
153 150 0
154 151 0
155 153 0
156 153 0
154 152 0
155 153 0
156 153 0
155 152 0
154 152 0
156 153 0
154 151 0
156 152 0
154 152 0
154 151 0
156 153 0
155 153 0
154 151 0
156 153 0
154 151 0
155 152 0
152 151 0
153 151 0
154 151 0
155 152 0
155 152 0
157 152 0
154 151 0
155 152 0
153 150 0
152 147 0
154 151 0
153 149 0
152 149 0
154 149 0
155 151 0
153 149 0
155 151 0
153 149 0
159 160 0
169 189 0
172 192 0
171 193 0
172 193 0
170 190 0
169 192 0
170 190 0
170 191 0
171 193 0
172 192 0
171 193 0
172 194 0
169 188 0
174 193 0
173 194 0
170 191 0
171 192 0
175 197 0
173 195 0
171 193 0
173 195 0
174 196 0
172 195 0
172 194 0
175 197 0
173 193 0
171 193 0
173 196 0
172 193 0
173 195 0
171 193 0
171 194 0
171 194 0
173 196 0
172 194 0
173 195 0
170 192 0
171 192 0
173 195 0
172 193 0
171 193 0
172 194 0
172 195 0
175 197 0
172 196 0
173 196 0
172 196 0
174 195 0
172 194 0
173 195 0
172 195 0
173 195 0
173 196 0
169 193 0
172 195 0
174 197 0
173 197 0
173 195 0
170 194 0
173 197 0
174 198 0
174 197 0
172 197 0
173 196 0
174 197 0
173 196 0
169 192 0
171 195 0
171 196 0
173 197 0
175 197 0
172 196 0
172 195 0
171 193 0
171 194 0
173 196 0
173 197 0
169 194 0
173 196 0
172 196 0
173 196 0
175 197 0
173 197 0
172 196 0
169 191 0
171 194 0
172 196 0
171 195 0
169 193 0
172 195 0
170 194 0
173 195 0
171 195 0
171 194 0
171 194 0
170 193 0
171 193 0
173 196 0
173 196 0
170 194 0
171 194 0
171 195 0
173 195 0
173 196 0
172 195 0
168 192 0
172 195 0
170 194 0
172 196 0
169 193 0
173 196 0
174 197 0
169 193 0
171 195 0
169 192 0
169 193 0
169 192 0
173 197 0
171 193 0
170 193 0
170 194 0
169 191 0
169 193 0
172 195 0
167 190 0
168 191 0
170 194 0
169 193 0
168 192 0
172 195 0
171 195 0
169 192 0
168 191 0
169 193 0
170 194 0
167 190 0
170 194 0
169 191 0
172 195 0
169 193 0
169 192 0
170 194 0
172 195 0
169 193 0
169 193 0
168 191 0
167 191 0
173 195 0
170 192 0
170 191 0
166 190 0
173 195 0
169 192 0
172 194 0
169 191 0
169 192 0
167 191 0
170 193 0
168 191 0
168 191 0
157 180 47
63 98 147
62 98 155
61 97 158
61 97 156
62 98 160
61 98 161
62 98 167
62 99 172
61 98 164
62 98 165
61 97 166
62 99 172
61 98 166
62 98 165
61 97 160
62 98 165
62 98 167
62 99 171
62 98 172
62 98 168
61 98 168
61 98 170
62 98 169
62 99 172
62 98 162
62 98 169
63 99 169
62 98 174
62 99 170
62 99 174
61 97 167
62 98 169
62 99 174
62 98 167
61 98 163
62 99 173
63 99 174
62 98 174
62 99 173
62 98 169
62 99 172
62 99 175
62 98 171
63 99 175
62 99 176
62 99 176
63 100 178
62 99 166
62 98 174
62 99 173
62 99 173
62 99 174
62 98 170
62 99 171
62 99 175
62 99 171
62 99 175
62 98 167
62 98 172
62 98 173
61 98 168
62 99 172
62 99 176
62 98 168
62 99 174
62 99 172
62 99 170
62 98 171
63 99 168
62 99 173
62 99 172
62 98 171
62 98 169
62 99 175
63 99 174
62 98 170
63 99 172
62 99 170
61 98 170
62 99 173
63 99 171
63 99 171
62 99 169
62 99 172
63 100 176
61 98 165
62 98 166
62 99 172
61 98 169
62 98 165
62 98 164
63 99 174
62 99 170
62 98 161
62 98 170
62 98 169
62 98 168
62 99 169
62 99 170
62 99 171
61 98 164
62 99 172
63 99 166
62 99 171
62 98 168
63 99 170
61 97 164
62 99 173
63 99 168
63 99 170
62 98 169
62 98 162
63 99 165
62 98 166
62 99 168
62 98 163
61 97 163
62 99 170
62 97 157
61 98 162
62 98 163
62 97 157
62 98 164
62 98 164
62 97 162
62 98 163
63 99 173
63 99 170
61 97 154
61 97 156
61 97 155
60 95 149
62 98 163
61 97 154
61 95 154
62 96 158
62 97 159
61 95 144
61 96 154
60 94 147
59 92 140
37 49 40
37 48 26
36 47 32
38 48 28
37 47 29
40 51 32
38 48 26
41 53 40
40 53 32
45 59 45
46 60 44
46 60 42
43 57 34
49 65 50
46 62 41
48 64 48
49 64 45
49 65 50
49 66 46
50 67 50
50 67 46
104 107 32
141 139 0
147 145 0
145 143 0
147 145 0
151 148 0
146 145 0
148 146 0
151 149 0
150 148 0
151 150 0
154 151 0
152 149 0
153 151 0
155 153 0
154 151 0
152 150 0
151 149 0
152 150 0
155 152 0
153 151 0
154 152 0
156 152 0
152 150 0
154 151 0
153 150 0
155 152 0
152 150 0
155 152 0
155 153 0
154 152 0
156 153 0
154 152 0
153 151 0
155 152 0
155 152 0
157 153 0
154 152 0
153 151 0
155 152 0
155 152 0
156 153 0
154 151 0
154 151 0
153 151 0
155 152 0
154 152 0
156 153 0
154 152 0
155 152 0
154 152 0
154 151 0
154 152 0
154 151 0
155 152 0
154 151 0
152 149 0
156 152 0
156 152 0
155 151 0
154 151 0
154 151 0
153 150 0
154 151 0
154 151 0
154 151 0
154 151 0
155 151 0
155 151 0
154 150 0
156 152 0
154 150 0
152 150 0
153 149 0
152 148 0
153 148 0
164 172 0
169 187 0
172 192 0
172 191 0
172 192 0
172 192 0
172 194 0
171 193 0
172 192 0
170 190 0
171 191 0
170 188 0
171 192 0
170 190 0
171 191 0
171 192 0
171 192 0
173 194 0
173 194 0
172 192 0
169 190 0
172 194 0
174 195 0
174 195 0
173 194 0
172 192 0
173 194 0
171 193 0
171 192 0
173 196 0
171 194 0
173 196 0
172 193 0
172 194 0
173 196 0
174 195 0
173 195 0
172 193 0
172 195 0
174 196 0
173 194 0
174 195 0
172 194 0
172 193 0
172 192 0
175 196 0
172 193 0
171 194 0
172 194 0
173 195 0
173 195 0
172 195 0
175 196 0
171 195 0
173 197 0
171 195 0
174 197 0
172 195 0
170 194 0
174 196 0
172 195 0
172 196 0
170 195 0
171 194 0
172 196 0
174 197 0
172 195 0
172 196 0
171 195 0
170 193 0
173 196 0
174 197 0
174 198 0
172 195 0
172 196 0
172 195 0
172 196 0
172 195 0
170 193 0
172 196 0
172 196 0
172 195 0
170 194 0
172 196 0
173 196 0
169 193 0
172 195 0
171 195 0
173 196 0
172 196 0
170 193 0
172 195 0
169 192 0
169 192 0
171 194 0
171 195 0
174 198 0
171 194 0
170 194 0
173 196 0
171 194 0
172 195 0
172 195 0
169 192 0
174 196 0
174 197 0
169 192 0
173 196 0
172 196 0
171 195 0
171 195 0
171 194 0
169 192 0
171 193 0
171 194 0
173 197 0
172 195 0
168 193 0
170 193 0
169 193 0
173 197 0
173 197 0
174 198 0
168 192 0
173 195 0
172 195 0
171 194 0
169 192 0
169 192 0
172 195 0
168 191 0
167 189 0
170 193 0
169 193 0
171 193 0
168 191 0
172 196 0
172 196 0
172 195 0
173 196 0
167 190 0
170 192 0
169 193 0
167 189 0
166 190 0
167 190 0
164 188 0
164 187 0
165 187 0
170 194 0
165 188 0
170 194 0
170 193 0
166 190 0
164 188 0
168 191 0
171 194 0
167 191 0
168 192 0
173 195 0
169 193 0
144 169 78
62 97 155
61 96 150
62 98 163
61 96 153
62 98 163
61 97 159
61 97 154
62 98 160
62 98 159
62 98 167
61 97 162
61 97 167
62 98 168
62 98 162
61 97 164
61 97 167
62 98 163
62 98 162
62 99 167
62 98 169
62 98 172
61 97 164
62 98 171
62 99 172
61 98 168
62 98 168
62 98 166
62 98 167
62 99 171
61 98 165
63 99 170
61 98 171
63 99 170
62 99 172
62 99 173
63 99 172
61 98 170
62 98 167
62 99 171
62 98 169
62 99 174
62 99 168
62 98 172
63 99 174
62 98 169
62 98 172
62 99 172
62 99 173
61 98 173
63 99 173
62 99 172
61 98 168
62 98 169
62 99 171
62 98 169
62 99 175
61 98 168
62 99 175
62 98 170
62 98 171
62 98 169
63 99 173
62 99 170
63 99 174
62 98 170
61 98 166
63 99 171
62 98 171
62 99 175
62 98 167
61 98 163
62 99 173
62 99 173
61 97 165
63 99 172
62 99 174
63 99 172
62 99 170
62 98 167
62 99 172
62 99 172
62 98 168
62 98 167
63 99 169
62 98 166
63 99 175
63 99 173
62 99 172
62 98 163
62 98 169
62 98 174
61 98 171
62 99 170
62 98 168
63 100 175
63 99 168
62 98 169
62 99 169
62 99 174
62 98 166
63 99 169
62 99 174
62 98 166
63 100 179
62 98 162
62 99 165
62 99 167
62 98 161
62 98 168
62 98 167
61 97 158
62 98 165
62 98 163
62 98 168
62 98 168
64 100 169
62 98 166
62 98 166
61 97 164
61 97 161
62 98 167
61 97 157
62 98 158
62 98 165
63 99 165
62 98 163
62 98 162
62 98 163
60 95 151
62 97 152
62 97 158
61 97 157
62 98 161
61 96 155
61 96 159
61 96 148
61 96 150
61 96 159
59 93 143
62 96 154
59 93 146
45 63 77
35 45 25
36 47 32
39 48 29
40 50 29
39 50 30
41 53 36
40 53 34
41 53 33
46 60 40
46 59 40
43 56 42
47 61 43
48 63 45
47 63 42
48 63 42
48 63 43
51 67 50
51 67 50
51 68 51
59 74 49
141 140 8
145 142 0
139 138 0
149 146 0
146 144 0
148 146 0
149 147 0
148 145 0
149 147 0
148 147 0
152 149 0
151 148 0
149 147 0
152 149 0
153 150 0
151 149 0
155 152 0
153 150 0
151 149 0
152 150 0
154 150 0
154 151 0
153 151 0
155 151 0
155 152 0
153 151 0
155 152 0
157 153 0
154 151 0
153 151 0
154 151 0
155 152 0
155 152 0
155 152 0
154 151 0
154 152 0
154 151 0
154 151 0
152 150 0
153 150 0
153 151 0
154 152 0
154 151 0
156 153 0
151 149 0
154 152 0
155 152 0
153 151 0
154 151 0
153 150 0
153 151 0
154 151 0
157 153 0
154 152 0
154 151 0
152 150 0
155 152 0
151 149 0
154 151 0
153 151 0
153 150 0
156 153 0
155 152 0
154 151 0
152 149 0
154 150 0
153 151 0
154 149 0
153 149 0
153 150 0
153 149 0
153 150 0
157 152 0
154 148 0
152 148 0
155 156 0
170 190 0
172 191 0
171 191 0
170 189 0
172 192 0
171 190 0
170 189 0
169 191 0
173 194 0
171 190 0
170 190 0
173 194 0
172 194 0
171 193 0
171 192 0
171 190 0
171 193 0
173 194 0
173 194 0
172 194 0
172 194 0
171 192 0
171 191 0
172 191 0
170 189 0
173 194 0
170 191 0
172 194 0
172 193 0
172 194 0
172 194 0
173 193 0
173 195 0
174 196 0
173 195 0
170 191 0
172 192 0
173 196 0
173 196 0
174 196 0
173 195 0
172 195 0
172 193 0
173 196 0
172 195 0
173 195 0
174 196 0
173 195 0
173 195 0
173 195 0
174 194 0
175 196 0
172 193 0
171 194 0
170 195 0
172 196 0
173 196 0
173 197 0
172 196 0
174 197 0
173 196 0
172 196 0
171 194 0
173 197 0
171 196 0
172 195 0
172 195 0
172 196 0
172 196 0
174 197 0
172 195 0
170 194 0
173 196 0
171 195 0
174 198 0
174 197 0
172 195 0
170 193 0
174 196 0
171 194 0
173 196 0
169 192 0
171 194 0
169 192 0
172 196 0
171 194 0
171 195 0
170 193 0
173 196 0
173 196 0
171 195 0
172 195 0
173 196 0
174 197 0
171 195 0
171 194 0
172 197 0
173 195 0
174 196 0
171 194 0
171 194 0
170 193 0
174 196 0
169 192 0
173 197 0
170 193 0
167 191 0
172 195 0
169 192 0
170 194 0
168 192 0
167 191 0
172 195 0
174 197 0
171 194 0
169 193 0
172 196 0
170 193 0
169 193 0
167 190 0
172 195 0
172 195 0
171 194 0
173 196 0
173 196 0
172 195 0
171 195 0
171 194 0
171 194 0
169 193 0
169 192 0
170 193 0
171 194 0
171 194 0
173 196 0
173 196 0
171 195 0
168 191 0
173 196 0
170 193 0
165 188 0
171 195 0
170 193 0
167 190 0
167 190 0
171 194 0
167 191 0
171 194 0
171 193 0
166 190 0
171 194 0
166 190 0
169 191 0
169 193 0
171 194 0
167 190 0
164 187 0
162 185 0
167 189 0
170 193 0
166 190 0
137 162 100
61 97 150
61 97 156
61 96 149
63 98 159
62 98 162
61 97 160
61 97 161
61 97 160
62 98 163
61 97 160
62 98 166
61 97 158
62 98 169
61 97 165
62 99 168
62 99 172
62 98 163
62 98 170
62 98 166
62 98 165
62 98 170
61 97 163
61 98 170
62 98 168
62 99 169
61 97 160
61 97 163
62 99 167
61 98 168
63 99 172
62 98 167
62 99 173
62 98 168
62 99 169
62 99 170
62 99 173
62 99 174
62 98 170
63 100 175
62 99 171
62 98 166
62 99 172
62 99 173
62 99 171
62 99 175
62 98 169
61 98 170
62 98 174
62 98 169
61 97 169
62 99 171
62 99 171
62 98 171
62 98 167
62 99 172
62 99 175
62 99 173
63 100 176
61 97 167
62 99 171
62 98 169
62 99 170
62 99 171
62 99 176
62 99 170
62 99 175
63 99 171
61 98 165
62 99 172
62 99 170
62 98 169
63 99 170
62 99 171
63 99 169
61 98 165
62 98 168
62 99 170
62 98 166
63 99 173
62 98 169
63 99 171
63 99 175
62 98 170
62 99 173
62 98 170
63 99 168
62 99 175
62 99 169
62 98 168
62 98 169
62 98 161
62 99 169
62 99 173
61 97 161
62 98 167
62 98 170
63 99 170
63 99 167
62 99 171
62 99 171
62 98 169
63 99 173
63 99 173
62 99 170
62 99 172
62 98 165
61 98 165
63 99 172
62 99 167
62 98 168
62 98 167
62 98 163
62 98 164
63 99 166
63 99 167
62 99 168
63 99 169
62 98 164
62 98 164
62 98 160
62 98 166
62 98 167
61 98 165
62 99 166
62 98 166
61 96 155
63 98 164
61 96 150
62 97 158
61 97 158
62 97 160
60 95 148
61 97 156
61 97 158
62 97 157
61 95 145
62 96 155
61 96 153
60 95 151
60 94 146
60 93 139
46 69 90
37 48 28
33 43 20
38 49 32
40 51 34
41 53 32
42 54 29
42 55 34
44 58 39
45 58 43
45 58 35
46 60 39
47 62 45
47 62 43
46 61 45
47 62 45
48 64 42
48 63 41
49 66 48
52 69 52
103 107 29
144 142 0
143 142 0
146 144 0
143 142 0
147 145 0
144 142 0
147 146 0
149 147 0
151 149 0
149 147 0
146 144 0
151 149 0
150 147 0
149 147 0
150 148 0
151 149 0
151 149 0
150 148 0
153 151 0
153 151 0
153 150 0
151 149 0
153 150 0
154 151 0
152 150 0
153 151 0
153 149 0
153 151 0
153 151 0
150 148 0
153 151 0
153 151 0
155 151 0
151 149 0
154 152 0
155 151 0
153 151 0
154 151 0
154 151 0
154 151 0
151 149 0
153 150 0
155 153 0
149 147 0
154 151 0
154 151 0
155 152 0
154 150 0
152 150 0
155 152 0
152 150 0
154 151 0
154 151 0
157 153 0
154 151 0
151 149 0
153 151 0
153 150 0
155 151 0
154 151 0
153 149 0
152 149 0
155 151 0
154 150 0
155 151 0
151 148 0
155 152 0
153 150 0
153 149 0
155 151 0
153 148 0
153 148 0
154 148 0
154 149 0
154 149 0
168 184 0
168 186 0
171 190 0
173 193 0
171 192 0
171 191 0
172 192 0
171 191 0
170 190 0
173 191 0
170 191 0
172 191 0
173 193 0
174 195 0
171 191 0
173 194 0
170 189 0
171 194 0
173 194 0
170 190 0
171 191 0
171 193 0
172 194 0
171 191 0
172 194 0
172 194 0
172 192 0
173 194 0
173 195 0
172 193 0
172 194 0
172 193 0
170 191 0
170 192 0
171 193 0
173 194 0
172 194 0
170 191 0
171 194 0
172 193 0
171 193 0
172 193 0
172 194 0
172 194 0
173 196 0
173 194 0
173 194 0
170 193 0
171 194 0
174 197 0
173 196 0
174 196 0
174 196 0
174 197 0
172 195 0
172 195 0
172 196 0
171 194 0
171 195 0
171 195 0
171 195 0
172 195 0
173 197 0
172 196 0
172 195 0
173 196 0
170 194 0
175 198 0
173 197 0
174 198 0
174 197 0
170 195 0
173 196 0
174 197 0
170 194 0
173 197 0
174 197 0
170 193 0
172 195 0
174 197 0
172 195 0
171 195 0
169 193 0
174 197 0
172 195 0
175 198 0
168 192 0
170 193 0
171 195 0
173 196 0
171 195 0
173 196 0
173 196 0
175 198 0
173 196 0
171 194 0
170 194 0
169 192 0
171 194 0
170 193 0
172 196 0
170 193 0
169 192 0
170 193 0
175 198 0
173 196 0
173 196 0
171 195 0
172 195 0
170 193 0
172 195 0
170 193 0
170 194 0
170 194 0
170 193 0
167 191 0
171 194 0
175 198 0
171 195 0
170 194 0
169 192 0
168 191 0
172 195 0
165 187 0
171 194 0
171 195 0
170 194 0
171 195 0
169 193 0
168 191 0
171 194 0
171 194 0
167 190 0
171 195 0
173 195 0
168 192 0
165 188 0
169 191 0
171 194 0
168 191 0
171 194 0
168 191 0
170 193 0
172 194 0
168 191 0
172 195 0
168 191 0
171 193 0
170 194 0
168 192 0
168 192 0
169 192 0
169 193 0
164 188 0
169 192 0
169 191 0
171 193 0
165 189 0
167 188 0
172 195 0
167 190 0
163 187 0
126 152 103
61 97 150
60 96 147
60 95 151
62 98 162
61 97 159
61 97 156
61 97 157
61 97 160
61 98 165
61 97 158
62 99 163
62 98 163
62 98 162
62 98 166
62 98 164
62 98 166
61 98 164
62 99 166
62 98 166
62 99 172
62 98 169
61 98 165
62 98 169
62 98 170
61 98 168
62 98 167
61 98 165
62 98 168
62 98 169
61 98 167
62 99 169
62 99 176
62 99 171
62 99 174
61 97 171
62 99 173
62 99 174
62 98 170
61 98 167
61 98 168
62 99 173
62 99 171
62 99 168
62 98 171
63 99 176
62 99 169
63 100 178
62 99 172
63 99 176
62 98 168
61 98 169
61 98 168
62 99 178
61 97 163
63 99 173
62 98 170
62 99 173
62 98 167
62 99 173
61 98 165
62 98 169
62 99 173
62 99 175
62 99 173
62 99 170
62 99 172
61 98 165
62 98 172
63 99 171
63 99 176
62 99 175
61 98 170
62 98 170
62 98 163
62 98 171
62 99 169
63 100 176
62 98 168
62 99 173
62 98 167
63 99 172
61 98 167
62 99 171
63 99 173
63 99 175
62 98 169
61 97 163
62 99 170
62 98 166
62 99 173
63 99 172
62 99 173
62 98 168
62 98 162
63 99 169
62 99 173
62 98 162
62 99 165
63 99 167
62 98 166
62 99 169
62 99 170
62 98 168
62 99 169
62 98 160
62 98 166
62 99 169
62 99 170
62 98 162
61 97 163
62 98 165
63 99 170
62 98 164
62 99 171
62 98 164
62 98 162
62 98 166
62 98 160
62 99 169
62 98 164
62 97 164
61 97 159
62 98 166
62 98 163
61 97 163
62 98 159
61 97 159
61 97 155
62 97 154
62 97 157
62 97 157
62 97 157
61 96 158
62 98 164
61 96 156
61 96 156
62 97 157
60 95 148
60 95 149
61 94 148
61 95 147
48 72 99
36 46 22
38 49 30
39 50 23
38 50 30
39 49 28
40 51 28
44 56 36
42 53 31
44 57 37
45 59 39
46 60 39
46 61 43
47 61 41
47 63 45
49 64 45
48 65 43
49 65 43
48 65 45
75 85 37
128 127 8
134 133 0
140 139 0
142 140 0
143 141 0
140 139 0
145 143 0
146 144 0
148 146 0
151 148 0
149 147 0
145 143 0
150 148 0
153 151 0
150 148 0
150 148 0
149 147 0
149 146 0
147 147 0
152 149 0
152 150 0
153 150 0
150 149 0
153 150 0
153 150 0
153 151 0
156 153 0
151 149 0
154 151 0
153 150 0
153 150 0
154 151 0
152 149 0
151 148 0
153 150 0
153 150 0
156 153 0
155 152 0
152 150 0
151 149 0
152 150 0
154 151 0
154 151 0
152 150 0
156 152 0
157 154 0
156 152 0
153 151 0
154 150 0
153 150 0
156 153 0
151 148 0
153 151 0
154 150 0
153 150 0
153 150 0
152 149 0
154 151 0
155 151 0
154 151 0
154 150 0
156 151 0
154 151 0
151 147 0
152 148 0
153 150 0
152 147 0
154 150 0
154 148 0
155 150 0
152 148 0
152 149 0
152 147 0
151 147 0
154 148 0
158 160 0
170 190 0
169 187 0
172 191 0
170 191 0
172 193 0
172 191 0
172 192 0
171 192 0
172 191 0
170 189 0
171 191 0
170 190 0
171 192 0
172 192 0
170 192 0
173 193 0
172 194 0
172 193 0
172 192 0
173 194 0
171 190 0
171 191 0
172 193 0
173 193 0
173 194 0
168 187 0
173 194 0
172 194 0
170 192 0
171 191 0
172 193 0
172 195 0
173 194 0
171 194 0
170 191 0
171 193 0
172 193 0
172 194 0
173 193 0
172 193 0
173 195 0
171 193 0
175 198 0
170 191 0
174 196 0
173 196 0
172 195 0
174 197 0
173 195 0
172 194 0
171 194 0
172 194 0
172 195 0
170 193 0
173 197 0
172 196 0
173 196 0
172 195 0
171 195 0
171 195 0
173 196 0
174 197 0
176 199 0
173 197 0
173 197 0
171 196 0
171 196 0
170 194 0
174 198 0
174 197 0
172 195 0
174 196 0
173 196 0
172 195 0
168 191 0
173 196 0
170 194 0
170 194 0
169 193 0
173 196 0
171 194 0
173 196 0
171 194 0
173 196 0
173 197 0
171 195 0
171 194 0
172 195 0
174 197 0
172 195 0
174 196 0
174 197 0
172 195 0
171 195 0
174 197 0
168 191 0
171 195 0
169 192 0
170 193 0
172 195 0
168 191 0
172 195 0
171 193 0
174 196 0
169 192 0
169 192 0
171 194 0
172 195 0
170 194 0
170 193 0
173 197 0
169 193 0
168 192 0
167 191 0
170 193 0
171 194 0
172 195 0
168 191 0
170 193 0
171 195 0
170 194 0
170 193 0
172 196 0
168 192 0
172 195 0
170 194 0
173 197 0
170 194 0
169 192 0
169 193 0
169 192 0
170 193 0
165 187 0
171 195 0
170 194 0
167 191 0
170 194 0
170 193 0
172 195 0
171 193 0
165 189 0
166 190 0
164 187 0
169 192 0
169 192 0
171 194 0
170 194 0
168 191 0
170 192 0
171 194 0
167 190 0
165 188 0
172 194 0
164 189 0
171 195 0
166 190 0
169 194 0
165 189 0
173 196 0
169 191 0
165 189 0
169 192 0
111 138 124
62 98 161
61 97 153
61 97 153
61 96 154
61 98 158
62 98 161
61 97 158
62 98 169
62 98 159
61 97 161
62 99 169
61 98 166
63 99 168
62 98 165
62 98 167
61 98 162
61 98 165
62 99 169
61 98 164
61 97 166
63 99 170
61 98 162
62 98 167
62 99 169
61 97 167
62 98 172
62 98 169
62 99 170
62 99 169
61 98 171
62 99 168
61 98 165
62 98 171
61 98 169
61 98 169
63 99 174
63 99 173
62 99 171
62 99 171
62 98 169
61 98 167
61 98 167
62 98 169
62 98 165
63 99 176
61 98 170
61 98 165
62 98 169
62 98 167
62 99 171
61 98 169
62 99 172
62 98 168
62 98 169
62 99 172
62 98 168
63 99 171
62 99 175
61 98 167
62 99 170
62 98 164
62 98 170
62 99 170
62 99 167
62 99 171
62 99 174
62 98 167
62 99 174
62 98 167
62 99 173
62 99 170
62 99 169
61 98 167
63 100 177
62 98 165
62 99 173
62 99 167
62 98 169
63 100 172
61 98 171
62 99 169
63 99 173
62 99 168
62 98 168
62 99 170
62 99 168
63 99 167
62 98 166
62 98 163
63 100 170
61 98 168
62 99 172
62 98 165
62 98 167
61 98 163
62 98 166
62 98 165
63 99 169
62 98 167
62 99 171
62 98 168
62 99 171
63 99 168
62 98 162
62 99 168
62 98 165
62 98 164
61 97 160
62 98 162
62 99 174
62 99 166
62 98 168
62 99 165
61 98 164
62 98 165
61 97 162
62 98 163
62 99 167
61 97 161
62 98 160
61 97 158
61 97 164
61 97 165
61 98 167
62 98 163
62 97 161
61 97 158
62 98 166
62 98 163
61 96 152
61 97 155
61 97 152
62 98 165
61 97 156
62 97 160
61 96 158
60 95 148
63 99 168
60 94 147
59 93 142
60 93 141
53 81 118
35 45 18
42 53 33
37 47 25
40 52 32
43 55 35
43 56 35
41 53 31
42 55 33
43 56 34
44 57 41
45 58 33
46 61 45
45 59 38
46 61 42
49 65 44
49 65 42
47 63 43
65 77 39
123 123 14
124 124 0
139 136 0
138 136 0
136 135 0
139 137 0
146 145 0
141 140 0
146 144 0
146 144 0
145 143 0
145 143 0
147 144 0
145 143 0
147 146 0
149 147 0
149 146 0
152 150 0
150 148 0
153 150 0
151 149 0
152 150 0
150 149 0
150 147 0
151 148 0
153 151 0
151 149 0
150 148 0
151 149 0
150 148 0
152 149 0
150 148 0
150 148 0
154 152 0
155 152 0
155 153 0
150 148 0
153 151 0
152 149 0
152 149 0
153 151 0
153 149 0
151 149 0
154 151 0
151 148 0
152 149 0
153 150 0
154 151 0
154 151 0
154 150 0
153 149 0
153 151 0
155 151 0
153 150 0
151 149 0
155 152 0
154 152 0
152 150 0
153 151 0
153 149 0
153 150 0
156 152 0
155 151 0
153 150 0
152 148 0
152 148 0
155 152 0
154 149 0
153 149 0
152 148 0
154 148 0
153 147 0
153 149 0
153 146 0
153 149 0
154 150 0
166 180 0
172 191 0
169 189 0
169 187 0
171 190 0
173 191 0
170 190 0
171 189 0
169 188 0
170 188 0
170 189 0
171 192 0
170 188 0
170 191 0
169 189 0
174 196 0
172 194 0
173 195 0
172 193 0
170 190 0
170 190 0
174 195 0
170 191 0
169 190 0
174 196 0
172 193 0
171 191 0
171 191 0
171 193 0
174 195 0
172 193 0
174 194 0
172 192 0
171 192 0
171 194 0
171 192 0
173 196 0
171 192 0
172 193 0
173 193 0
173 194 0
171 193 0
173 194 0
172 195 0
171 193 0
173 195 0
173 195 0
173 195 0
170 192 0
171 193 0
172 195 0
172 194 0
173 196 0
172 194 0
172 192 0
174 197 0
173 197 0
174 197 0
172 195 0
173 196 0
172 196 0
173 197 0
172 196 0
172 195 0
174 198 0
175 198 0
173 196 0
172 196 0
170 194 0
172 196 0
173 196 0
172 195 0
171 195 0
171 196 0
172 195 0
173 196 0
172 195 0
172 196 0
171 194 0
174 197 0
172 196 0
170 193 0
169 193 0
171 195 0
174 196 0
171 195 0
175 198 0
170 194 0
171 195 0
172 195 0
168 192 0
172 195 0
171 195 0
171 195 0
171 195 0
171 195 0
171 195 0
173 196 0
172 196 0
169 192 0
174 197 0
174 197 0
172 196 0
173 196 0
173 196 0
172 196 0
172 195 0
171 194 0
164 187 0
170 194 0
171 194 0
170 194 0
174 197 0
173 197 0
169 193 0
168 192 0
169 193 0
169 193 0
171 194 0
172 195 0
169 192 0
168 191 0
172 196 0
166 188 0
167 191 0
169 192 0
171 194 0
170 193 0
169 192 0
168 192 0
172 195 0
168 192 0
168 192 0
170 192 0
172 195 0
173 196 0
169 192 0
169 193 0
164 186 0
167 190 0
169 193 0
169 192 0
167 190 0
169 192 0
168 191 0
168 192 0
168 192 0
167 190 0
166 189 0
164 187 0
165 189 0
165 188 0
168 192 0
171 194 0
169 193 0
166 189 0
163 187 0
169 192 0
171 194 0
169 192 0
169 192 0
166 189 0
165 188 0
102 129 122
61 97 155
62 98 154
61 97 158
61 96 148
62 98 157
62 98 162
61 97 159
61 97 157
62 98 166
60 96 157
61 97 164
61 98 165
61 97 160
62 99 167
62 98 166
60 97 160
60 97 166
60 96 157
61 97 158
62 99 169
61 98 166
61 97 159
61 97 162
63 99 170
62 99 174
61 98 168
62 99 171
62 98 168
61 98 165
61 98 169
61 98 168
63 99 170
61 98 170
63 100 177
62 98 169
62 99 172
62 99 172
62 99 170
61 98 166
61 97 170
62 98 169
62 98 167
62 98 168
62 98 166
62 98 172
62 98 171
62 98 167
62 98 169
62 99 172
62 99 169
62 98 166
62 98 166
62 99 171
62 98 168
63 100 178
63 100 176
62 99 172
62 98 169
62 99 173
62 99 169
63 99 170
61 98 164
62 98 170
62 98 168
62 98 170
62 98 171
62 99 172
61 98 168
62 99 169
62 99 169
62 99 169
62 99 171
62 99 166
62 99 169
62 99 169
61 98 170
62 99 171
62 98 166
62 99 174
61 97 165
62 98 166
62 99 168
62 99 174
63 99 172
62 99 168
63 99 169
62 98 163
62 99 171
62 99 167
62 98 164
63 99 169
62 99 171
62 98 167
62 98 161
62 98 168
62 98 166
61 98 164
63 99 168
63 99 174
62 99 167
62 98 172
62 98 161
62 98 161
61 97 161
62 98 161
62 98 172
62 98 166
62 98 159
62 99 163
62 98 164
62 99 169
62 98 162
62 98 162
62 98 166
61 97 160
61 97 160
62 99 173
63 99 167
62 98 164
62 98 163
62 98 158
61 97 164
62 98 162
61 97 156
62 98 159
61 96 158
62 98 163
62 97 159
61 97 159
61 96 151
62 97 160
62 97 160
61 97 155
61 97 158
62 97 158
62 97 155
60 95 154
61 96 153
61 95 152
60 94 149
61 94 147
55 85 127
35 45 19
37 48 27
39 50 29
41 53 28
37 49 27
41 52 28
42 55 27
43 56 38
44 57 34
44 58 39
43 57 35
45 59 37
46 61 38
47 62 41
47 62 38
46 63 38
49 64 37
104 106 20
129 128 0
121 121 0
126 125 0
133 132 0
136 135 0
137 136 0
140 138 0
140 138 0
146 144 0
140 138 0
142 141 0
143 141 0
149 147 0
148 146 0
149 147 0
143 142 0
147 145 0
148 146 0
144 142 0
150 148 0
146 144 0
149 148 0
149 147 0
153 150 0
151 149 0
153 150 0
149 147 0
150 147 0
152 148 0
153 150 0
151 149 0
154 152 0
153 150 0
151 149 0
151 149 0
151 149 0
154 152 0
152 150 0
153 150 0
154 151 0
151 148 0
154 151 0
152 149 0
154 149 0
152 149 0
151 148 0
154 151 0
152 149 0
154 151 0
152 150 0
152 150 0
155 152 0
153 150 0
153 150 0
153 151 0
153 151 0
152 148 0
152 149 0
152 148 0
151 148 0
154 150 0
154 150 0
154 150 0
151 148 0
152 148 0
153 150 0
152 148 0
152 148 0
153 150 0
154 149 0
152 147 0
152 146 0
153 148 0
154 149 0
154 149 0
163 174 0
171 190 0
170 188 0
170 191 0
170 189 0
170 188 0
171 191 0
174 195 0
172 192 0
171 189 0
171 191 0
170 191 0
170 189 0
171 190 0
170 190 0
171 191 0
169 190 0
172 193 0
171 192 0
173 195 0
170 191 0
172 193 0
173 193 0
173 193 0
171 192 0
171 191 0
172 194 0
172 194 0
173 193 0
171 193 0
170 190 0
172 193 0
173 195 0
173 194 0
174 194 0
173 193 0
171 192 0
173 194 0
172 195 0
172 193 0
173 194 0
172 195 0
173 195 0
172 194 0
170 191 0
171 192 0
173 195 0
173 194 0
173 195 0
171 195 0
173 195 0
173 194 0
174 196 0
172 194 0
173 195 0
172 195 0
174 197 0
173 196 0
176 198 0
174 197 0
172 196 0
174 197 0
174 197 0
173 197 0
174 196 0
171 195 0
172 196 0
173 197 0
173 197 0
171 194 0
172 195 0
173 196 0
171 193 0
173 196 0
172 195 0
171 194 0
171 195 0
171 194 0
173 197 0
172 195 0
171 195 0
171 195 0
172 195 0
172 196 0
169 193 0
172 196 0
173 196 0
171 194 0
171 195 0
170 194 0
174 197 0
169 193 0
172 195 0
172 196 0
172 196 0
171 194 0
172 196 0
169 193 0
169 192 0
174 196 0
170 193 0
172 195 0
172 196 0
170 194 0
171 195 0
174 197 0
168 191 0
171 195 0
170 194 0
172 196 0
171 195 0
173 196 0
173 196 0
171 194 0
170 193 0
171 195 0
168 192 0
171 194 0
174 197 0
169 192 0
171 194 0
169 193 0
169 193 0
170 194 0
170 193 0
172 195 0
169 192 0
168 192 0
170 194 0
170 193 0
168 191 0
168 192 0
173 196 0
170 193 0
169 192 0
170 193 0
170 193 0
170 193 0
168 192 0
171 194 0
167 190 0
171 193 0
167 190 0
171 194 0
169 193 0
170 194 0
166 190 0
167 190 0
168 192 0
173 197 0
166 189 0
167 190 0
165 189 0
169 192 0
163 186 0
167 190 0
168 191 0
166 189 0
170 193 0
167 188 0
163 187 0
169 192 0
165 188 0
171 194 0
85 114 140
61 97 156
60 96 153
63 99 162
61 98 159
61 97 154
61 97 148
61 97 161
61 97 157
62 98 166
63 99 168
62 98 164
61 97 156
61 97 155
61 98 160
62 99 167
61 97 163
61 96 164
62 99 167
61 98 164
62 98 165
61 98 166
61 98 166
62 99 176
61 97 166
62 98 167
62 99 170
62 98 168
62 98 166
61 98 169
62 98 168
62 99 167
62 98 165
61 98 166
62 98 165
61 97 166
62 99 170
62 98 170
62 98 169
62 98 168
62 98 165
62 99 176
62 99 171
61 98 166
62 99 171
62 99 173
62 99 173
62 98 168
62 98 168
62 98 165
62 98 167
62 99 171
62 98 169
62 98 166
62 99 169
62 99 171
62 98 168
62 98 165
63 99 169
62 99 174
61 97 168
63 100 172
62 98 163
62 99 170
62 98 168
62 98 171
61 98 163
62 98 168
62 98 170
62 99 172
61 98 163
61 98 166
62 99 173
62 98 167
62 98 167
62 99 173
63 99 170
62 98 168
62 99 171
62 98 168
62 98 173
62 99 175
63 99 164
62 98 163
62 98 168
62 99 171
63 99 166
63 99 165
62 99 168
61 98 164
62 98 170
62 98 166
63 99 166
61 98 169
61 97 160
62 98 167
61 98 168
62 99 175
61 97 164
63 99 168
63 99 167
61 97 155
63 99 168
61 98 165
62 98 166
62 98 167
63 99 167
62 98 167
62 98 165
62 98 160
61 97 155
62 97 161
63 99 165
63 99 169
62 98 165
62 98 160
62 98 164
62 98 166
62 98 165
62 98 163
61 97 159
62 98 163
62 98 162
61 97 154
62 98 162
61 97 155
62 98 154
62 98 163
61 97 158
62 98 163
62 98 159
62 97 160
60 96 156
61 96 159
62 98 161
62 98 160
61 96 150
62 97 159
61 95 141
61 95 144
60 94 150
58 91 134
58 89 127
36 46 20
37 48 23
39 50 27
43 55 28
42 54 33
40 53 34
42 55 29
45 59 33
45 60 33
44 57 31
45 58 33
46 60 37
45 59 37
47 62 40
46 62 40
57 69 37
97 99 19
123 121 0
123 122 0
131 130 0
135 134 0
134 133 0
131 129 0
132 132 0
132 132 0
136 135 0
140 139 0
145 144 0
145 143 0
142 140 0
142 141 0
146 144 0
141 140 0
138 137 0
145 142 0
146 143 0
146 144 0
146 145 0
151 148 0
147 145 0
146 143 0
149 147 0
151 149 0
150 147 0
151 148 0
150 147 0
152 150 0
152 149 0
151 149 0
150 148 0
152 149 0
150 147 0
156 152 0
151 148 0
154 152 0
152 149 0
154 150 0
152 149 0
154 151 0
153 150 0
150 147 0
155 151 0
154 150 0
151 148 0
151 149 0
152 149 0
152 150 0
152 150 0
149 147 0
152 149 0
152 149 0
153 150 0
155 150 0
154 150 0
153 150 0
152 147 0
151 148 0
152 149 0
155 151 0
153 149 0
152 147 0
152 148 0
153 150 0
153 148 0
151 147 0
154 149 0
151 146 0
152 148 0
154 149 0
153 149 0
154 149 0
153 147 0
156 159 0
168 186 0
170 189 0
171 189 0
167 187 0
171 189 0
171 192 0
171 189 0
169 186 0
172 191 0
168 186 0
171 189 0
171 190 0
172 192 0
171 189 0
169 188 0
169 190 0
169 186 0
169 189 0
173 192 0
173 192 0
172 190 0
171 192 0
170 190 0
170 189 0
170 191 0
171 193 0
172 193 0
172 193 0
171 191 0
172 193 0
173 194 0
173 194 0
172 193 0
169 190 0
173 193 0
173 195 0
172 194 0
171 192 0
173 194 0
173 195 0
172 193 0
174 195 0
172 195 0
173 195 0
173 195 0
173 195 0
171 192 0
171 192 0
173 194 0
172 194 0
174 195 0
174 195 0
173 196 0
172 194 0
173 195 0
174 196 0
173 196 0
172 195 0
169 193 0
169 193 0
172 196 0
172 195 0
172 196 0
170 195 0
174 198 0
173 197 0
172 196 0
168 192 0
172 195 0
171 195 0
169 192 0
173 196 0
172 195 0
172 196 0
173 197 0
172 196 0
171 194 0
174 197 0
174 197 0
170 194 0
170 194 0
171 195 0
169 193 0
172 195 0
172 195 0
173 197 0
173 196 0
168 192 0
170 193 0
169 192 0
173 197 0
174 197 0
169 193 0
171 195 0
172 196 0
173 196 0
168 192 0
169 193 0
171 195 0
173 196 0
173 196 0
172 196 0
173 197 0
173 197 0
171 194 0
170 193 0
168 191 0
170 193 0
173 195 0
173 196 0
172 196 0
173 196 0
170 193 0
170 193 0
171 194 0
170 193 0
172 196 0
167 191 0
169 192 0
171 195 0
169 193 0
169 192 0
172 195 0
170 194 0
170 192 0
169 193 0
170 194 0
170 193 0
169 193 0
171 194 0
168 192 0
171 194 0
167 191 0
170 194 0
171 194 0
170 193 0
170 193 0
174 197 0
171 195 0
168 192 0
170 194 0
171 194 0
170 193 0
164 186 0
168 191 0
168 190 0
170 193 0
169 193 0
168 191 0
166 190 0
166 190 0
165 189 0
167 190 0
169 192 0
170 192 0
169 192 0
167 190 0
163 186 0
165 188 0
166 189 0
166 190 0
168 191 0
169 191 0
169 191 0
87 116 136
61 97 151
61 96 154
61 97 154
61 96 150
62 98 162
61 96 153
61 97 156
61 97 161
61 97 158
62 98 156
61 97 164
62 98 167
61 97 166
61 98 166
62 98 167
61 97 161
62 98 166
61 97 167
62 99 170
61 97 165
61 98 161
61 98 166
63 99 172
61 98 168
61 97 164
61 97 160
61 97 163
62 98 163
61 98 169
62 98 169
61 98 166
62 99 171
62 98 169
61 97 166
61 97 160
62 99 171
61 97 167
62 99 166
62 99 172
61 98 172
62 99 173
62 98 171
61 98 167
62 98 166
63 99 175
62 99 169
62 99 168
62 98 171
62 98 168
62 98 168
63 99 169
62 98 169
63 99 173
62 99 173
62 98 171
62 99 173
63 99 172
62 99 171
62 99 171
62 98 166
62 98 171
62 99 169
62 99 172
62 99 171
63 99 170
62 98 165
62 99 174
62 98 166
62 99 168
63 99 171
62 99 170
62 99 173
63 99 174
62 98 168
63 99 172
62 98 169
62 99 173
62 98 168
62 98 172
62 98 166
62 98 169
62 99 170
62 99 168
62 99 166
61 98 167
62 99 170
63 99 169
63 99 170
62 98 167
63 99 164
63 99 169
62 99 171
63 99 176
62 98 160
63 99 169
62 98 164
62 98 165
61 98 167
61 98 162
63 99 164
62 98 166
63 99 168
62 98 167
61 97 158
61 98 166
63 100 172
62 99 166
62 98 167
62 98 162
62 98 163
63 99 168
62 98 163
62 97 159
62 98 164
61 97 156
63 99 168
62 98 162
62 98 161
62 98 169
61 97 155
62 98 162
62 97 154
62 97 161
61 97 153
61 97 158
62 98 161
62 98 156
61 96 154
61 96 156
62 98 164
61 97 159
62 98 162
62 97 160
62 98 161
61 96 149
62 97 160
62 97 155
61 96 150
60 94 146
60 94 147
60 94 141
59 91 134
36 47 25
40 51 29
39 50 26
38 50 15
41 52 23
39 50 22
42 55 34
44 57 35
40 52 28
42 55 32
45 60 32
46 61 36
45 60 39
47 61 41
80 84 28
114 113 14
110 110 0
118 118 0
124 123 0
123 123 0
121 121 0
135 133 0
129 129 0
133 133 0
139 137 0
131 130 0
137 136 0
136 134 0
144 142 0
138 136 0
141 139 0
145 143 0
144 143 0
142 141 0
141 139 0
150 147 0
147 145 0
149 146 0
148 146 0
146 144 0
148 147 0
149 147 0
149 147 0
148 145 0
148 146 0
152 148 0
150 147 0
152 149 0
149 148 0
154 150 0
150 148 0
153 150 0
150 147 0
153 150 0
148 147 0
152 149 0
152 148 0
153 150 0
153 150 0
154 151 0
151 148 0
152 149 0
152 149 0
154 150 0
152 148 0
155 152 0
153 149 0
153 150 0
151 149 0
154 150 0
153 150 0
150 147 0
153 150 0
155 151 0
152 150 0
155 152 0
154 150 0
153 150 0
151 148 0
153 149 0
153 150 0
153 147 0
153 149 0
153 149 0
154 149 0
153 148 0
153 149 0
154 149 0
152 146 0
152 147 0
154 147 0
153 149 0
167 183 0
166 183 0
172 190 0
169 186 0
170 188 0
169 189 0
171 191 0
171 190 0
169 188 0
169 188 0
167 186 0
171 189 0
169 186 0
170 190 0
171 192 0
171 191 0
168 188 0
172 193 0
174 194 0
170 189 0
173 193 0
171 191 0
170 189 0
171 191 0
171 193 0
171 194 0
171 192 0
173 194 0
170 191 0
170 190 0
172 194 0
172 194 0
171 192 0
173 194 0
173 193 0
173 194 0
172 194 0
172 194 0
172 192 0
171 193 0
172 194 0
171 193 0
171 193 0
171 192 0
174 195 0
173 195 0
173 194 0
172 194 0
173 194 0
173 196 0
172 194 0
173 195 0
172 193 0
171 194 0
171 193 0
173 196 0
173 195 0
174 197 0
174 198 0
172 196 0
172 195 0
172 196 0
172 196 0
174 197 0
174 197 0
175 198 0
175 198 0
168 192 0
171 195 0
171 195 0
169 193 0
173 196 0
170 194 0
170 194 0
171 195 0
174 197 0
174 197 0
171 195 0
172 196 0
171 194 0
172 196 0
169 194 0
172 196 0
175 198 0
174 197 0
174 197 0
174 197 0
173 196 0
173 196 0
174 197 0
172 196 0
173 197 0
168 192 0
172 195 0
170 194 0
171 194 0
168 192 0
167 190 0
170 193 0
171 194 0
170 194 0
173 197 0
170 194 0
173 196 0
173 196 0
172 196 0
174 197 0
166 189 0
169 193 0
169 192 0
172 195 0
171 194 0
171 195 0
172 196 0
171 193 0
168 192 0
170 193 0
170 193 0
171 194 0
170 193 0
171 196 0
168 191 0
168 192 0
169 192 0
170 194 0
169 192 0
172 195 0
172 196 0
170 194 0
169 192 0
169 191 0
169 193 0
168 192 0
171 195 0
168 191 0
165 189 0
167 191 0
172 196 0
170 193 0
171 194 0
172 195 0
171 193 0
170 193 0
169 193 0
169 193 0
170 193 0
167 191 0
168 191 0
166 190 0
169 192 0
169 191 0
168 191 0
168 191 0
171 194 0
171 194 0
167 189 0
169 193 0
167 190 0
172 194 0
169 192 0
169 193 0
171 195 0
167 189 0
167 190 0
163 187 0
67 100 135
61 96 148
62 97 150
62 98 158
61 96 150
61 96 159
61 97 153
62 98 162
63 99 164
61 97 159
60 96 157
60 95 150
61 97 163
61 97 159
61 97 158
62 99 169
61 98 163
61 98 160
61 97 160
61 97 164
61 98 165
62 98 168
61 97 162
62 98 169
61 98 166
62 98 164
62 98 164
62 99 170
62 98 169
60 96 159
62 99 172
61 98 164
61 98 166
62 98 167
62 99 172
62 99 168
62 98 169
62 99 168
61 97 166
62 98 169
61 97 163
63 99 174
62 98 170
63 99 172
61 98 170
62 99 170
62 99 169
62 98 168
62 98 169
63 99 176
63 99 169
62 98 167
62 99 173
62 98 167
61 97 162
62 99 173
62 98 169
62 98 169
61 98 166
63 99 169
62 99 171
62 98 168
63 99 170
62 99 173
62 98 163
62 98 164
61 98 160
61 97 165
63 99 173
62 98 168
63 99 171
63 99 173
62 98 165
63 99 169
63 99 167
62 99 173
61 98 164
62 99 169
62 99 171
62 99 170
61 97 160
62 98 166
63 99 173
62 98 169
62 98 163
62 98 163
62 99 167
62 98 165
62 98 166
63 100 178
63 99 164
63 99 170
62 98 165
61 97 162
62 98 162
62 98 165
62 99 167
62 99 163
61 98 163
62 98 163
62 98 157
62 98 167
62 99 168
62 98 164
62 98 163
62 98 170
62 98 166
62 98 162
62 98 166
62 98 163
62 98 164
63 99 168
62 98 163
62 99 165
62 98 162
63 99 163
63 99 163
62 99 168
62 98 167
63 99 164
63 98 161
61 97 159
62 98 164
62 98 160
61 97 152
62 98 167
61 97 158
61 97 155
62 98 156
61 97 153
61 97 157
61 97 158
62 98 154
62 97 154
61 96 150
61 96 152
61 96 157
61 95 146
61 95 151
61 95 148
60 94 149
61 96 155
58 91 134
50 57 26
39 49 21
40 52 24
38 49 17
43 56 32
38 49 21
43 56 32
40 52 32
42 55 35
44 58 30
45 59 34
47 60 35
60 69 33
91 93 21
107 106 0
111 111 0
108 107 0
108 108 0
113 112 0
122 121 0
124 122 0
117 118 0
130 129 0
130 129 0
129 129 0
126 126 0
131 131 0
136 136 0
136 135 0
142 139 0
143 141 0
141 140 0
143 140 0
144 142 0
137 136 0
141 139 0
149 147 0
147 145 0
141 139 0
150 147 0
149 147 0
144 144 0
145 143 0
145 143 0
150 147 0
153 150 0
149 147 0
150 147 0
147 144 0
150 147 0
153 149 0
150 147 0
152 150 0
150 148 0
149 147 0
152 149 0
150 148 0
150 147 0
153 151 0
150 146 0
153 150 0
151 148 0
146 143 0
148 146 0
154 151 0
151 148 0
154 151 0
149 147 0
153 150 0
151 147 0
153 150 0
156 151 0
153 149 0
152 149 0
151 149 0
155 151 0
151 147 0
152 148 0
153 149 0
154 149 0
152 149 0
155 150 0
152 148 0
154 149 0
152 147 0
153 148 0
151 144 0
152 146 0
154 148 0
150 144 0
153 147 0
160 168 0
165 183 0
170 187 0
168 185 0
169 188 0
171 189 0
169 188 0
170 189 0
170 189 0
170 187 0
171 189 0
170 190 0
170 191 0
172 193 0
171 192 0
172 192 0
170 188 0
170 191 0
170 189 0
171 193 0
171 191 0
170 190 0
174 193 0
169 189 0
172 194 0
172 193 0
172 192 0
171 191 0
172 192 0
170 190 0
172 193 0
173 196 0
172 193 0
170 191 0
171 191 0
172 193 0
174 195 0
172 191 0
171 192 0
172 194 0
172 193 0
174 196 0
170 192 0
174 196 0
172 193 0
172 194 0
171 193 0
171 192 0
170 194 0
169 191 0
173 195 0
172 195 0
172 193 0
172 194 0
172 194 0
173 196 0
174 195 0
173 197 0
173 196 0
172 196 0
173 196 0
174 198 0
175 197 0
172 196 0
173 197 0
174 197 0
173 196 0
172 196 0
172 196 0
170 194 0
169 194 0
173 196 0
173 195 0
172 196 0
173 196 0
172 195 0
172 195 0
173 196 0
170 195 0
172 195 0
169 193 0
173 196 0
171 194 0
173 195 0
172 196 0
171 195 0
169 194 0
173 196 0
172 195 0
172 195 0
171 195 0
173 196 0
170 194 0
169 194 0
169 192 0
171 194 0
170 193 0
170 193 0
169 193 0
170 193 0
169 192 0
173 196 0
169 193 0
168 192 0
174 197 0
170 193 0
166 189 0
170 194 0
173 195 0
173 196 0
170 193 0
169 193 0
172 195 0
166 189 0
172 195 0
171 195 0
172 196 0
170 194 0
170 194 0
170 193 0
166 189 0
167 190 0
171 194 0
168 192 0
171 195 0
167 190 0
169 192 0
166 190 0
172 195 0
170 194 0
168 191 0
170 194 0
172 196 0
170 194 0
170 194 0
169 193 0
166 188 0
168 192 0
169 193 0
165 189 0
170 193 0
164 187 0
165 187 0
173 195 0
163 187 0
170 193 0
167 190 0
168 191 0
171 194 0
166 189 0
171 193 0
167 191 0
167 190 0
171 194 0
168 191 0
169 192 0
172 195 0
167 191 0
165 189 0
167 189 0
164 187 0
170 193 0
165 188 0
164 186 0
167 189 0
162 184 25
61 97 157
61 96 147
61 97 152
61 97 156
62 98 158
61 97 151
60 95 152
62 98 164
61 97 159
62 97 158
60 96 155
62 98 169
61 97 157
62 98 165
62 99 167
61 97 160
60 96 158
61 97 164
61 97 159
62 98 164
61 98 169
62 98 168
62 98 169
61 97 163
61 97 165
61 98 170
61 97 163
61 97 168
62 98 169
62 98 170
62 98 171
62 98 165
62 98 166
62 98 168
62 98 168
62 98 167
62 98 168
62 98 163
62 99 173
62 99 172
63 99 175
61 97 165
61 97 157
62 98 169
61 98 169
61 98 169
61 97 163
62 98 168
62 99 171
62 98 170
63 99 173
62 98 165
62 98 165
62 98 169
62 99 173
63 99 173
62 99 175
61 98 167
62 98 171
63 99 172
62 99 170
62 99 174
62 98 168
62 99 170
62 99 174
61 97 163
62 99 164
62 99 169
62 98 165
63 99 168
63 99 168
62 98 167
62 98 167
62 98 169
63 99 171
62 99 167
62 98 172
62 99 172
62 98 165
61 98 164
62 98 165
62 98 169
62 98 168
62 99 172
62 99 170
62 99 171
63 99 173
62 99 170
62 98 165
62 98 162
63 99 168
62 99 171
62 98 166
62 98 170
62 98 161
62 99 171
62 98 167
62 98 164
61 97 165
63 99 169
61 98 167
62 98 166
62 99 168
62 98 161
62 98 162
63 99 169
62 98 166
63 99 167
62 98 163
62 98 158
61 97 162
63 99 169
63 99 169
62 99 171
62 98 158
62 98 163
63 99 169
62 98 161
62 99 171
62 97 159
62 98 163
61 98 159
62 98 161
62 98 158
62 98 162
62 98 159
62 98 163
62 98 162
62 98 161
61 96 152
62 98 163
62 97 155
60 96 155
62 97 156
62 97 154
61 95 147
61 96 153
62 97 158
61 95 151
61 96 148
60 94 143
60 93 135
58 90 125
94 92 37
76 74 11
74 73 3
50 56 19
55 60 17
51 58 20
46 55 26
44 52 25
51 58 18
68 71 18
70 73 14
90 90 8
98 97 0
92 91 0
105 105 0
107 105 0
117 115 0
102 102 0
119 118 0
123 120 0
126 124 0
126 124 0
126 124 0
129 129 0
131 130 0
128 126 0
131 128 0
134 133 0
135 133 0
139 137 0
138 137 0
143 142 0
140 138 0
142 139 0
148 145 0
144 142 0
141 139 0
144 140 0
146 144 0
151 148 0
146 144 0
146 143 0
149 146 0
151 149 0
147 144 0
151 148 0
147 145 0
144 142 0
149 146 0
147 146 0
150 148 0
149 146 0
148 146 0
148 146 0
153 149 0
151 147 0
152 150 0
148 146 0
152 149 0
151 148 0
153 149 0
151 147 0
152 149 0
152 150 0
153 150 0
151 147 0
151 148 0
151 147 0
152 148 0
149 146 0
152 150 0
151 147 0
153 149 0
154 149 0
149 146 0
151 147 0
152 148 0
150 145 0
153 150 0
152 148 0
153 149 0
151 146 0
150 147 0
155 149 0
152 146 0
151 145 0
152 146 0
150 144 0
152 146 0
151 145 0
155 155 0
168 185 0
167 182 0
168 187 0
168 183 0
170 189 0
171 190 0
168 188 0
171 188 0
172 191 0
169 187 0
173 190 0
169 185 0
172 192 0
171 190 0
170 189 0
167 184 0
171 192 0
170 193 0
171 190 0
172 190 0
171 191 0
173 195 0
172 193 0
174 195 0
172 191 0
172 193 0
173 192 0
172 192 0
170 191 0
170 190 0
171 193 0
173 194 0
170 190 0
172 193 0
173 193 0
171 191 0
171 191 0
170 191 0
171 193 0
172 192 0
174 196 0
172 193 0
174 196 0
173 195 0
171 192 0
172 195 0
172 195 0
172 193 0
173 193 0
172 195 0
171 193 0
173 197 0
174 195 0
173 194 0
173 196 0
173 195 0
174 196 0
174 196 0
174 198 0
170 194 0
171 195 0
171 194 0
173 196 0
172 195 0
172 196 0
171 194 0
172 195 0
173 196 0
172 196 0
170 194 0
173 196 0
173 196 0
173 196 0
172 195 0
169 193 0
171 196 0
174 197 0
170 194 0
169 193 0
170 194 0
170 194 0
172 195 0
171 196 0
171 195 0
170 194 0
171 195 0
173 196 0
166 190 0
172 195 0
170 193 0
170 193 0
174 197 0
172 195 0
174 197 0
169 193 0
170 194 0
172 194 0
175 198 0
170 193 0
171 195 0
173 196 0
171 195 0
171 194 0
171 195 0
173 195 0
171 194 0
172 195 0
172 196 0
170 194 0
171 194 0
169 192 0
169 192 0
168 191 0
173 196 0
170 193 0
170 193 0
166 189 0
166 190 0
172 194 0
171 194 0
168 192 0
168 191 0
169 193 0
172 194 51
171 193 57
177 200 76
172 194 62
175 197 80
182 202 102
174 197 88
185 205 125
181 202 111
184 204 114
178 199 88
177 198 95
182 202 108
177 198 80
175 197 84
175 196 99
180 202 80
178 201 62
168 191 36
168 191 0
172 196 0
171 195 0
170 192 0
172 196 0
168 190 0
167 190 0
170 192 0
171 194 0
166 190 0
170 194 0
166 189 0
168 192 0
165 188 0
168 191 0
169 193 0
168 192 0
172 195 0
165 187 0
165 188 0
166 190 0
166 190 0
165 189 0
168 191 18
61 96 148
62 98 157
61 96 151
61 97 152
61 96 156
62 97 158
62 98 161
61 97 160
60 96 151
62 98 159
61 97 156
61 97 156
62 98 164
61 97 158
62 98 165
61 97 158
61 97 165
62 98 165
62 98 164
60 96 159
61 97 159
60 96 158
63 99 171
61 97 162
60 96 155
61 98 164
62 99 171
61 97 162
62 99 170
61 97 165
62 98 170
61 98 174
61 97 169
62 98 166
60 97 163
63 99 170
62 99 172
61 97 160
61 97 165
62 98 170
62 98 167
62 98 171
61 98 163
61 97 165
62 98 164
62 98 166
61 97 164
61 97 163
62 98 167
62 98 168
62 99 171
61 98 165
62 98 171
62 98 169
62 99 173
62 98 168
61 98 165
62 99 169
62 98 168
62 98 163
62 99 173
61 97 164
62 98 169
61 98 165
62 99 168
62 98 169
62 98 170
62 98 169
62 98 170
62 98 163
62 98 169
62 98 164
62 98 171
61 97 159
62 98 170
63 99 172
61 98 166
62 99 172
63 99 172
62 98 163
62 99 168
63 99 165
61 98 166
62 99 173
62 98 169
61 98 167
62 99 168
61 98 167
62 98 166
62 98 171
62 99 173
62 98 168
62 98 166
62 98 160
61 98 160
63 99 173
62 98 167
61 97 158
61 97 165
63 98 163
62 98 169
62 99 169
62 99 164
62 98 162
62 98 163
62 99 167
62 98 161
62 98 160
62 98 157
62 98 159
62 98 165
61 97 157
62 99 167
62 99 167
62 98 165
61 97 159
62 98 158
63 99 165
62 98 162
63 99 167
61 97 154
62 98 161
61 98 164
62 98 160
62 98 165
62 98 160
61 97 156
61 97 153
61 97 152
61 97 155
61 97 157
62 98 158
61 96 151
62 97 156
61 96 152
61 95 142
61 96 152
61 96 153
61 96 148
61 94 146
60 95 147
59 93 144
60 93 142
89 87 35
78 75 0
71 70 0
80 78 0
90 85 0
78 75 0
84 80 0
78 77 0
83 81 0
89 87 0
97 95 0
86 86 0
108 104 0
105 103 0
99 98 0
100 100 0
104 103 0
114 113 0
115 114 0
122 119 0
117 117 0
119 118 0
130 128 0
129 127 0
127 125 0
125 124 0
128 127 0
126 125 0
140 138 0
143 140 0
143 141 0
141 140 0
142 139 0
143 141 0
140 139 0
141 140 0
145 144 0
145 142 0
145 143 0
144 142 0
147 145 0
149 146 0
145 143 0
148 146 0
145 142 0
149 147 0
149 145 0
146 143 0
151 148 0
149 146 0
149 145 0
149 146 0
150 147 0
155 152 0
145 143 0
151 148 0
150 147 0
149 145 0
153 149 0
148 146 0
152 148 0
148 145 0
152 149 0
150 147 0
149 146 0
150 146 0
151 147 0
152 148 0
152 149 0
149 145 0
150 146 0
149 147 0
148 144 0
149 145 0
151 147 0
148 146 0
151 147 0
153 149 0
150 144 0
150 146 0
151 146 0
149 144 0
151 146 0
154 148 0
150 145 0
152 148 0
151 147 0
148 141 0
151 146 0
155 152 0
167 184 0
163 180 0
169 185 0
172 190 0
170 188 0
172 192 0
170 189 0
169 188 0
172 191 0
171 190 0
170 190 0
171 189 0
171 191 0
168 187 0
172 191 0
172 191 0
172 190 0
168 186 0
172 193 0
170 189 0
172 194 0
171 190 0
171 192 0
170 191 0
170 188 0
172 191 0
172 192 0
172 193 0
169 191 0
169 188 0
169 190 0
173 194 0
173 191 0
170 191 0
171 193 0
169 189 0
170 192 0
170 191 0
169 190 0
170 191 0
173 192 0
170 193 0
172 193 0
172 193 0
172 194 0
173 194 0
173 193 0
173 195 0
170 191 0
174 195 0
171 194 0
174 196 0
171 193 0
173 194 0
173 196 0
174 196 0
174 195 0
173 195 0
174 196 0
172 196 0
173 196 0
174 197 0
171 195 0
173 196 0
171 195 0
172 195 0
171 195 0
173 196 0
173 197 0
173 196 0
174 197 0
174 197 0
172 196 0
173 196 0
172 195 0
174 196 0
175 197 0
170 193 0
171 195 0
172 195 0
170 194 0
172 195 0
171 194 0
173 195 0
173 197 0
172 196 0
172 195 0
173 196 0
172 195 0
171 195 0
172 195 0
170 193 0
171 194 0
171 194 0
169 192 0
170 194 0
173 197 0
172 195 0
172 195 0
173 196 0
171 194 0
172 195 0
172 195 0
172 195 0
171 194 0
170 194 0
170 193 0
171 193 0
172 195 0
169 192 0
171 194 0
170 193 0
171 194 0
172 196 0
173 196 0
168 190 0
174 197 0
170 193 25
178 199 67
181 203 99
182 203 111
186 206 125
184 204 125
190 209 147
187 206 137
187 207 128
186 206 130
187 207 144
181 202 120
187 207 122
191 211 147
180 202 120
187 207 135
186 206 133
181 202 114
179 200 114
189 209 142
181 202 105
186 207 128
180 201 102
185 205 133
181 201 117
186 205 135
188 207 137
181 202 111
184 204 125
174 195 88
176 198 84
173 196 57
165 190 0
169 192 0
169 192 0
167 191 0
167 189 0
167 191 0
169 192 0
168 190 0
165 189 0
167 190 0
166 188 0
166 189 0
166 190 0
170 193 0
166 189 0
167 190 0
168 191 0
159 182 40
62 97 150
60 95 137
61 97 154
60 95 145
62 98 162
62 98 155
61 96 153
62 97 162
62 98 159
62 97 160
61 96 152
61 97 158
62 98 156
61 97 162
61 97 154
62 99 165
62 98 162
61 97 159
61 98 164
61 98 171
61 98 162
61 97 168
61 96 159
60 96 158
61 97 159
62 98 167
62 98 168
61 97 162
62 98 173
61 98 168
62 99 171
61 97 161
61 98 168
61 96 161
61 98 171
62 98 171
62 98 168
61 97 168
62 98 170
62 98 173
62 98 165
62 99 168
62 99 169
62 99 172
62 99 173
61 98 165
62 98 169
62 98 161
62 99 173
62 99 172
62 99 169
62 98 166
62 98 172
62 98 171
63 99 169
61 98 168
62 98 170
62 99 172
62 99 169
61 98 170
62 98 166
62 99 174
62 98 169
62 98 165
62 99 171
62 99 172
62 98 164
63 99 167
62 98 165
62 99 169
61 98 165
61 98 167
61 97 161
62 98 164
62 99 168
61 98 170
62 98 164
62 98 161
62 99 167
63 99 167
62 98 166
63 99 169
62 98 165
62 98 165
63 99 170
60 96 153
61 98 159
62 98 162
62 98 166
62 98 168
62 99 170
62 98 161
63 99 169
62 98 165
62 98 163
61 97 159
62 98 161
63 99 164
62 98 163
62 99 168
62 98 165
63 99 170
62 99 165
62 98 161
61 97 158
62 98 170
62 98 163
63 99 169
61 98 163
61 98 164
62 98 162
62 98 163
62 99 163
62 98 162
63 99 167
62 98 156
62 98 160
62 98 162
61 97 156
60 96 152
62 99 171
63 98 163
61 97 156
61 97 159
63 99 163
61 96 154
62 98 164
62 97 151
60 95 148
62 97 153
61 97 155
61 97 155
61 97 157
62 97 157
61 96 149
59 95 154
62 97 157
61 96 145
60 94 139
60 94 143
61 96 157
61 94 146
59 92 138
84 86 61
86 83 0
77 75 0
96 91 0
83 81 0
84 80 0
87 84 0
85 82 0
91 89 0
92 89 0
94 90 0
103 100 0
98 97 0
94 94 0
103 101 0
106 105 0
107 106 0
120 118 0
123 120 0
116 116 0
115 114 0
116 115 0
120 120 0
131 130 0
134 130 0
127 125 0
129 128 0
129 129 0
140 137 0
125 124 0
140 138 0
140 137 0
144 142 0
143 141 0
145 143 0
138 136 0
145 143 0
142 141 0
137 136 0
141 140 0
148 146 0
140 139 0
148 144 0
146 142 0
146 144 0
150 147 0
150 146 0
145 142 0
147 144 0
152 149 0
146 144 0
149 146 0
150 147 0
151 148 0
151 148 0
147 143 0
147 145 0
149 147 0
149 146 0
150 147 0
147 143 0
148 144 0
150 146 0
148 144 0
150 147 0
151 148 0
149 145 0
151 146 0
151 146 0
152 148 0
153 150 0
150 145 0
150 145 0
152 147 0
152 148 0
150 145 0
151 147 0
149 144 0
150 146 0
148 145 0
152 147 0
153 149 0
153 147 0
152 149 0
152 145 0
153 146 0
150 144 0
153 147 0
153 145 0
161 170 0
169 184 0
168 185 0
168 185 0
168 186 0
169 187 0
171 188 0
171 191 0
168 187 0
170 186 0
172 190 0
170 187 0
171 189 0
168 188 0
170 187 0
168 186 0
171 189 0
169 188 0
172 191 0
170 189 0
169 189 0
170 189 0
172 192 0
172 191 0
173 193 0
171 190 0
172 190 0
170 188 0
172 193 0
172 192 0
173 195 0
172 194 0
171 191 0
169 190 0
170 192 0
173 191 0
172 192 0
171 193 0
173 195 0
173 194 0
171 192 0
172 194 0
172 194 0
172 193 0
171 192 0
172 193 0
174 196 0
173 194 0
173 195 0
169 191 0
172 193 0
172 195 0
172 194 0
172 194 0
172 194 0
172 194 0
172 192 0
173 193 0
175 197 0
173 195 0
172 195 0
173 196 0
173 196 0
175 197 0
173 196 0
171 195 0
172 196 0
173 196 0
174 196 0
174 197 0
172 195 0
172 195 0
174 198 0
171 194 0
174 197 0
173 196 0
171 195 0
170 194 0
172 196 0
172 196 0
171 195 0
173 197 0
172 196 0
170 193 0
172 196 0
169 193 0
172 195 0
167 190 0
170 194 0
170 193 0
173 197 0
173 196 0
173 197 0
172 195 0
166 190 0
173 196 0
171 194 0
165 188 0
169 192 0
170 193 0
167 189 0
172 195 0
172 196 0
173 196 0
170 194 0
171 194 0
171 195 0
173 196 0
170 194 0
171 194 0
171 195 0
172 196 0
166 190 0
170 193 25
174 197 36
182 203 108
185 205 120
189 208 149
184 204 133
186 206 135
187 207 144
184 203 128
183 203 122
189 209 135
180 202 105
188 208 135
185 205 125
183 203 120
185 205 130
182 204 111
177 199 92
184 205 114
187 207 130
181 202 108
182 203 117
183 204 120
182 203 102
178 200 84
179 202 102
180 202 99
185 206 122
182 203 114
183 204 117
185 205 130
184 205 122
183 203 122
178 199 102
180 201 99
183 202 120
184 204 135
183 203 122
178 200 114
179 200 102
172 193 76
171 194 44
168 191 0
168 191 0
164 188 0
164 188 0
164 187 0
169 192 0
166 190 0
167 189 0
168 192 0
164 188 0
165 188 0
165 188 0
157 179 51
59 94 134
61 96 149
61 97 153
61 97 150
63 98 157
62 97 157
61 97 156
61 97 153
62 98 165
62 98 165
61 97 160
60 96 154
61 98 160
61 97 159
62 98 164
60 96 157
61 98 164
63 99 166
61 97 161
61 98 162
62 99 167
61 98 162
62 98 168
62 98 168
61 98 168
62 99 169
63 99 165
61 97 169
62 98 171
62 98 167
62 98 172
61 97 169
61 97 164
61 97 164
61 97 163
62 98 169
62 99 168
61 97 166
62 98 171
62 98 170
61 97 164
62 99 169
62 98 168
62 99 169
61 97 162
62 98 165
63 99 173
63 99 175
62 98 169
62 98 170
61 98 164
62 99 170
62 99 175
63 99 170
62 98 169
60 96 162
62 99 171
62 99 166
61 98 165
62 99 171
61 98 165
62 98 168
61 97 163
62 99 170
61 98 163
62 98 168
63 99 171
62 98 174
63 99 172
62 98 163
61 98 164
62 98 166
62 98 166
62 98 167
62 99 168
62 98 164
62 99 167
62 98 168
61 98 166
62 99 169
62 98 164
62 98 165
62 98 168
62 98 165
62 98 164
63 99 168
62 99 164
62 98 164
62 98 166
62 98 166
62 98 163
63 99 172
62 98 167
62 98 163
63 99 171
62 98 162
62 99 169
63 99 165
62 98 164
62 98 163
62 99 168
61 97 157
62 99 166
61 97 159
62 98 165
62 98 164
60 96 156
63 99 171
63 99 160
62 98 161
61 97 153
62 98 164
62 98 164
62 98 159
63 99 165
62 97 156
62 98 161
62 98 158
61 98 162
61 97 159
62 98 164
62 98 159
61 97 155
62 98 164
62 98 162
62 98 161
62 98 162
62 98 161
62 99 167
61 96 147
62 98 161
62 98 161
61 96 147
61 96 154
61 96 149
60 94 138
61 97 154
62 97 152
60 95 149
60 94 135
61 95 145
61 94 141
59 92 142
84 89 70
98 96 0
102 96 0
92 89 0
85 83 0
95 91 0
91 89 0
103 99 0
92 90 0
100 96 0
83 81 0
100 97 0
101 100 0
95 95 0
104 102 0
116 112 0
111 109 0
107 105 0
114 112 0
123 121 0
123 122 0
116 114 0
125 125 0
124 123 0
122 119 0
134 133 0
130 129 0
133 130 0
130 129 0
133 131 0
131 129 0
138 136 0
130 129 0
142 139 0
139 137 0
141 137 0
139 136 0
141 139 0
144 142 0
143 139 0
143 141 0
145 142 0
145 143 0
143 141 0
149 145 0
148 145 0
148 144 0
146 143 0
147 144 0
148 145 0
149 145 0
146 143 0
150 147 0
148 145 0
148 146 0
145 141 0
149 146 0
145 141 0
151 148 0
150 146 0
153 149 0
150 145 0
151 148 0
147 143 0
150 146 0
147 145 0
151 147 0
150 145 0
149 146 0
153 148 0
150 145 0
154 149 0
150 145 0
151 146 0
150 147 0
153 148 0
151 147 0
148 144 0
146 141 0
151 147 0
149 146 0
147 143 0
153 147 0
151 143 0
151 144 0
153 148 0
149 144 0
151 143 0
163 172 0
167 183 0
167 183 0
163 177 0
168 184 0
169 186 0
165 181 0
168 186 0
170 188 0
166 183 0
170 188 0
169 188 0
173 193 0
173 190 0
171 188 0
169 188 0
171 191 0
170 189 0
170 188 0
169 188 0
170 188 0
170 190 0
171 189 0
171 192 0
171 193 0
172 191 0
171 192 0
172 192 0
170 192 0
171 193 0
171 191 0
172 191 0
174 192 0
170 191 0
171 192 0
171 192 0
169 190 0
171 189 0
173 193 0
172 192 0
172 194 0
171 193 0
172 194 0
173 194 0
171 192 0
171 191 0
171 193 0
169 191 0
171 192 0
173 193 0
170 191 0
173 194 0
173 195 0
172 194 0
174 196 0
173 194 0
173 194 0
173 195 0
172 195 0
172 195 0
172 195 0
172 196 0
173 197 0
170 194 0
173 197 0
172 195 0
171 194 0
174 197 0
173 197 0
172 196 0
172 195 0
172 195 0
172 195 0
172 195 0
168 191 0
172 196 0
173 197 0
171 193 0
171 194 0
172 196 0
169 193 0
172 195 0
170 193 0
172 195 0
173 196 0
174 197 0
172 195 0
169 192 0
174 197 0
169 192 0
173 196 0
175 197 0
173 195 0
169 192 0
172 196 0
173 196 0
171 194 0
173 196 0
166 190 0
170 194 0
165 189 0
173 195 0
172 196 0
170 193 0
173 197 0
167 190 0
169 193 0
166 189 0
168 192 0
170 193 0
172 195 25
175 197 72
177 199 95
187 207 125
184 205 117
183 204 122
186 206 128
185 206 122
185 206 117
181 202 102
182 202 125
181 203 114
184 205 117
181 202 111
181 203 108
184 205 111
183 205 117
182 204 108
182 204 105
179 200 102
182 204 105
182 204 105
183 204 117
181 203 84
180 203 99
181 203 111
185 206 122
183 205 114
181 203 99
178 199 80
179 201 102
179 201 92
181 203 114
181 202 105
177 199 105
179 201 95
179 200 99
183 203 114
181 202 108
182 202 120
187 208 133
181 202 99
183 204 114
179 199 117
186 206 128
186 205 140
185 205 122
175 197 84
171 194 72
166 190 25
166 188 0
172 195 0
163 187 0
168 192 0
161 185 40
141 166 97
140 166 86
160 183 40
164 187 40
61 96 143
61 96 150
62 97 150
62 98 156
62 97 159
62 98 163
61 96 157
60 96 150
60 96 149
61 96 153
61 97 156
62 98 159
60 96 155
62 98 158
61 97 157
61 97 158
61 97 154
61 97 164
60 96 155
61 97 164
60 96 152
61 97 163
62 99 171
61 97 164
61 97 162
61 98 169
63 99 172
62 98 164
61 97 162
62 98 168
62 98 161
61 97 162
61 97 163
62 98 163
62 99 171
62 98 169
62 98 170
62 98 168
62 98 167
62 98 169
62 99 170
61 98 170
61 98 164
63 99 171
62 98 170
61 98 168
62 98 164
62 99 171
62 98 167
62 98 167
62 98 168
61 97 158
61 98 162
62 98 167
62 98 168
62 99 171
62 99 172
62 98 164
62 98 163
62 98 168
62 99 172
62 98 170
62 98 167
62 98 169
62 98 166
62 98 164
63 99 170
61 97 162
62 99 168
62 98 162
62 98 167
61 97 156
63 99 170
61 97 158
62 98 163
62 98 165
62 99 168
62 99 172
62 98 162
62 98 167
62 98 163
63 99 170
62 98 159
61 98 169
62 98 163
62 99 166
62 98 162
62 99 170
62 98 166
62 98 162
61 97 157
62 98 163
62 98 166
61 97 161
61 98 162
62 98 162
61 97 158
62 99 165
63 99 166
61 97 160
62 98 165
62 98 162
62 98 167
63 99 165
62 98 163
61 96 152
61 97 157
61 97 160
63 99 171
62 98 161
63 99 166
62 98 163
62 98 164
61 97 157
62 98 160
63 99 169
62 99 168
63 99 166
63 99 167
61 97 152
61 97 160
62 98 158
60 96 155
61 97 154
61 97 153
62 98 163
62 99 163
61 97 155
61 96 152
61 96 148
61 96 151
61 97 150
61 97 155
61 96 151
61 96 155
61 97 155
61 96 155
60 94 143
61 95 136
63 98 159
59 93 138
59 92 132
59 92 134
93 94 47
110 105 0
98 95 0
99 96 0
102 98 0
94 91 0
90 87 0
102 98 0
99 97 0
102 99 0
110 106 0
94 90 0
111 108 0
110 107 0
104 104 0
106 105 0
114 110 0
121 118 0
102 100 0
120 117 0
123 120 0
128 123 0
125 123 0
126 124 0
127 124 0
132 130 0
129 126 0
131 129 0
124 123 0
134 132 0
136 133 0
137 136 0
138 136 0
136 133 0
137 134 0
137 135 0
136 135 0
143 141 0
147 144 0
143 139 0
144 141 0
146 143 0
142 140 0
142 138 0
148 145 0
145 143 0
145 143 0
147 145 0
149 147 0
146 143 0
148 145 0
146 141 0
150 146 0
146 143 0
153 148 0
145 142 0
149 145 0
151 146 0
145 143 0
149 146 0
148 146 0
148 143 0
151 148 0
151 148 0
151 147 0
149 145 0
150 145 0
147 143 0
149 146 0
150 147 0
151 148 0
150 146 0
153 148 0
149 144 0
150 144 0
150 144 0
151 146 0
150 144 0
148 143 0
148 143 0
150 145 0
151 146 0
152 147 0
151 147 0
150 143 0
150 144 0
150 143 0
161 168 0
168 185 0
171 187 0
166 182 0
167 182 0
167 183 0
170 187 0
170 187 0
169 188 0
170 186 0
172 189 0
170 188 0
171 188 0
170 189 0
169 186 0
169 186 0
172 190 0
170 187 0
172 190 0
172 192 0
171 192 0
172 194 0
172 191 0
169 187 0
173 193 0
171 191 0
171 189 0
173 194 0
169 189 0
172 191 0
171 190 0
173 194 0
169 189 0
173 194 0
170 190 0
173 194 0
171 191 0
170 189 0
171 191 0
170 193 0
173 195 0
172 192 0
169 190 0
173 194 0
173 195 0
170 193 0
173 195 0
172 193 0
172 195 0
172 193 0
172 192 0
172 193 0
173 195 0
171 193 0
173 194 0
172 195 0
171 194 0
173 195 0
170 192 0
173 196 0
171 193 0
172 194 0
173 196 0
172 195 0
172 197 0
173 196 0
170 194 0
172 195 0
171 196 0
172 196 0
174 197 0
171 195 0
175 198 0
173 196 0
173 197 0
174 197 0
169 193 0
173 195 0
172 195 0
174 197 0
171 195 0
171 195 0
171 194 0
171 193 0
170 194 0
169 193 0
171 194 0
172 196 0
170 194 0
171 195 0
172 195 0
171 195 0
173 196 0
171 194 0
171 195 0
170 193 0
170 194 0
172 195 0
169 194 0
174 197 0
173 196 0
167 191 0
172 194 0
171 194 0
169 193 0
169 193 0
170 194 0
170 194 0
171 194 25
173 195 67
179 201 102
187 206 142
189 209 140
188 208 135
185 206 122
184 205 125
183 204 111
182 203 99
180 201 99
179 201 95
183 205 122
181 202 80
181 203 108
182 204 111
179 201 76
180 202 95
179 202 84
179 202 99
183 204 111
176 199 67
181 203 95
180 203 92
182 204 105
178 201 76
180 202 99
182 204 105
180 202 102
181 203 95
180 203 102
181 203 95
183 204 111
182 204 102
179 202 99
180 202 95
178 200 88
179 202 95
182 204 111
182 203 105
179 201 84
180 202 99
181 204 99
180 201 99
181 203 105
175 198 92
179 201 108
179 201 72
180 200 111
183 203 117
184 205 128
184 204 125
181 201 108
182 202 122
170 194 57
168 191 36
166 190 0
168 191 18
137 162 90
121 146 111
105 132 134
126 151 111
77 108 137
65 100 159
61 97 152
61 97 151
61 97 157
61 96 150
60 96 147
60 96 153
62 98 159
60 96 157
62 97 158
61 96 151
60 96 145
61 96 161
62 98 163
61 98 162
62 98 159
62 98 156
60 96 161
62 98 160
62 98 162
61 97 151
61 98 164
60 96 156
62 98 166
62 98 166
61 97 165
61 97 162
62 98 167
61 97 163
62 99 169
61 98 173
61 97 166
62 98 165
61 98 168
62 98 164
61 97 165
62 98 166
61 97 159
60 97 166
60 96 162
61 98 170
62 98 169
62 98 159
62 98 165
62 99 170
61 97 163
62 98 169
62 98 170
62 98 163
61 98 169
61 98 163
62 98 162
62 99 169
61 97 162
61 98 165
62 99 172
61 97 161
62 98 167
62 98 164
62 98 165
62 98 165
62 98 165
61 97 167
62 98 169
62 98 162
62 99 170
61 97 156
61 98 168
62 98 164
62 98 166
62 98 164
62 98 161
61 98 163
61 98 167
62 98 164
61 98 163
62 98 166
61 98 168
61 97 159
62 98 164
63 99 164
62 98 164
62 98 164
62 98 162
62 99 169
62 98 162
62 98 162
62 98 162
62 98 165
62 98 167
62 98 164
63 99 167
61 97 158
62 99 167
62 98 165
62 98 168
62 99 168
61 98 160
62 98 162
63 99 162
62 98 163
62 98 162
63 99 165
62 98 162
62 98 161
62 98 159
62 98 161
62 99 166
63 99 168
63 99 163
62 98 163
61 97 159
61 97 158
62 98 159
62 98 157
62 98 158
62 98 155
62 98 156
63 99 162
62 98 159
61 96 154
61 96 151
62 98 162
62 98 158
61 97 151
62 97 157
61 96 150
62 97 151
61 96 149
61 97 147
61 96 145
62 97 155
62 98 157
62 97 155
60 95 144
61 96 152
62 97 155
60 95 150
61 95 149
59 93 140
59 93 139
59 92 134
92 94 57
110 105 0
100 96 0
102 97 0
85 85 0
91 87 0
97 94 0
100 95 0
96 94 0
100 97 0
97 95 0
92 91 0
101 98 0
102 101 0
100 98 0
101 98 0
110 108 0
106 104 0
118 116 0
115 114 0
122 121 0
120 117 0
126 124 0
121 118 0
128 125 0
130 128 0
126 124 0
131 128 0
128 124 0
147 142 0
130 127 0
135 134 0
135 131 0
137 134 0
142 140 0
139 137 0
138 136 0
141 138 0
140 138 0
149 145 0
140 138 0
140 137 0
145 142 0
143 140 0
145 141 0
145 142 0
146 141 0
151 147 0
145 141 0
147 144 0
147 143 0
148 144 0
144 140 0
150 145 0
147 144 0
147 144 0
148 145 0
149 146 0
152 149 0
151 148 0
148 144 0
146 142 0
146 142 0
147 142 0
150 145 0
147 143 0
147 143 0
148 144 0
151 146 0
146 140 0
149 145 0
150 145 0
150 144 0
150 144 0
152 147 0
149 143 0
151 147 0
149 143 0
149 144 0
150 143 0
150 144 0
150 145 0
150 143 0
151 145 0
151 143 0
149 140 0
156 157 0
167 181 0
165 177 0
172 190 0
170 187 0
169 187 0
168 184 0
167 184 0
168 185 0
168 184 0
169 187 0
171 187 0
169 184 0
170 188 0
167 184 0
170 189 0
170 189 0
168 187 0
171 190 0
167 184 0
171 190 0
167 186 0
170 190 0
172 192 0
171 190 0
172 190 0
168 188 0
170 188 0
169 189 0
171 191 0
172 193 0
171 191 0
175 194 0
171 189 0
169 188 0
172 194 0
172 191 0
172 193 0
170 191 0
171 193 0
173 194 0
172 194 0
173 195 0
173 196 0
173 194 0
170 191 0
172 192 0
172 193 0
170 192 0
173 194 0
173 194 0
172 193 0
173 196 0
170 192 0
173 195 0
172 193 0
173 194 0
172 195 0
172 193 0
174 195 0
172 194 0
172 194 0
172 194 0
173 197 0
172 195 0
173 197 0
174 197 0
171 194 0
172 196 0
172 196 0
173 197 0
172 195 0
172 196 0
173 197 0
171 194 0
172 196 0
173 196 0
171 195 0
170 195 0
173 196 0
170 194 0
173 197 0
170 194 0
173 196 0
168 192 0
170 194 0
175 197 0
173 196 0
170 194 0
173 196 0
167 191 0
171 194 0
171 194 0
170 194 0
171 194 0
172 195 0
171 195 0
172 195 0
171 194 0
170 193 0
172 195 0
171 194 0
167 190 0
170 193 0
172 195 0
169 193 0
174 197 44
172 194 51
185 205 133
189 208 142
188 208 140
186 207 130
184 205 120
184 206 114
188 208 140
182 203 99
184 205 117
181 203 105
184 205 114
181 203 102
179 201 72
179 201 102
182 204 114
178 200 92
183 205 105
182 204 102
179 202 99
180 202 92
180 202 84
177 201 92
178 201 76
179 201 88
174 197 62
178 201 92
181 204 105
178 200 62
178 200 72
177 200 80
179 202 95
179 201 92
179 201 76
179 201 84
180 202 80
179 202 99
179 202 92
179 202 76
179 202 92
179 202 95
180 202 105
178 201 99
176 199 76
183 205 117
180 202 99
179 201 102
179 201 95
180 203 92
178 200 95
184 206 130
179 201 92
179 201 99
183 203 114
178 199 99
177 199 105
181 202 117
188 207 137
180 200 122
171 192 84
156 181 57
138 162 86
131 156 100
134 159 113
122 146 113
108 135 128
83 113 134
66 100 152
60 96 144
61 96 154
60 95 148
61 97 153
61 96 153
61 97 155
61 98 166
60 96 150
60 96 157
61 97 159
61 97 164
61 97 160
61 97 164
62 98 167
60 96 155
61 97 166
62 98 166
62 99 166
62 98 159
63 99 170
61 97 157
61 97 163
62 98 170
61 97 167
61 98 168
61 97 165
62 98 161
61 97 160
61 97 162
62 98 169
62 98 166
61 98 166
61 98 162
62 98 166
61 97 160
61 98 167
62 99 169
63 99 169
62 98 164
61 97 166
61 97 166
62 98 163
62 98 164
62 98 169
61 97 165
62 98 159
61 97 162
62 98 167
62 98 166
62 98 164
62 98 161
61 97 159
62 99 167
62 98 165
62 98 164
62 99 167
61 97 158
61 98 163
62 99 170
62 99 169
62 99 169
62 98 165
62 99 168
61 98 166
61 97 164
61 98 164
63 99 171
62 98 165
61 98 165
62 98 168
62 98 164
61 98 163
61 98 164
62 98 165
61 97 165
62 98 168
62 98 165
62 98 160
61 98 161
63 99 168
62 98 160
62 98 160
63 99 167
62 98 164
61 98 162
62 97 159
62 98 171
61 97 158
63 99 169
62 99 168
62 98 158
62 98 166
62 98 165
62 98 157
62 98 160
61 97 165
62 98 164
62 99 166
62 98 162
62 98 161
62 98 157
61 97 164
61 96 154
62 98 161
62 98 160
61 97 153
62 98 159
62 98 160
62 98 161
62 99 162
61 97 153
62 98 157
61 97 154
62 98 162
62 98 162
61 97 155
63 99 163
62 97 159
62 98 156
63 98 159
62 97 153
62 98 161
62 97 155
62 98 160
63 99 166
62 97 156
62 97 154
62 97 154
60 95 143
61 96 148
60 95 142
61 96 147
61 95 145
61 96 146
61 95 145
60 94 143
60 93 141
60 94 147
60 92 134
103 99 45
109 103 0
101 97 0
94 90 0
103 98 0
112 106 0
102 97 0
109 106 0
97 94 0
101 99 0
96 94 0
112 106 0
99 95 0
100 96 0
108 104 0
120 116 0
110 107 0
105 102 0
111 108 0
121 119 0
122 118 0
121 117 0
128 125 0
127 124 0
124 121 0
128 125 0
126 124 0
128 126 0
130 128 0
125 123 0
132 129 0
129 127 0
136 135 0
141 138 0
136 133 0
142 138 0
137 134 0
137 134 0
139 136 0
139 136 0
141 137 0
139 137 0
143 140 0
143 139 0
142 139 0
142 138 0
139 137 0
148 145 0
148 146 0
147 144 0
148 143 0
144 141 0
146 143 0
150 147 0
144 141 0
146 141 0
147 143 0
151 148 0
149 144 0
150 145 0
147 143 0
148 145 0
148 142 0
146 142 0
147 142 0
148 144 0
151 147 0
151 146 0
146 142 0
149 144 0
151 145 0
147 142 0
148 143 0
150 145 0
148 143 0
148 142 0
149 143 0
151 144 0
148 142 0
150 143 0
150 143 0
151 144 0
152 144 0
150 142 0
146 138 0
156 158 0
169 185 0
164 180 0
168 184 0
169 185 0
170 185 0
167 183 0
168 183 0
169 185 0
171 187 0
167 183 0
171 190 0
170 187 0
167 185 0
166 183 0
169 186 0
169 187 0
170 190 0
170 188 0
170 189 0
172 192 0
171 189 0
172 190 0
169 187 0
170 187 0
171 188 0
170 188 0
172 191 0
171 193 0
169 188 0
173 192 0
170 189 0
169 189 0
171 191 0
170 189 0
171 192 0
169 191 0
171 193 0
171 192 0
169 188 0
173 194 0
173 194 0
171 193 0
172 191 0
172 193 0
171 190 0
174 196 0
172 192 0
171 193 0
173 193 0
174 196 0
172 195 0
172 193 0
171 192 0
173 194 0
173 193 0
170 192 0
173 194 0
170 191 0
171 194 0
173 195 0
173 195 0
174 196 0
174 197 0
172 196 0
175 198 0
174 198 0
171 194 0
171 195 0
171 195 0
172 195 0
172 195 0
173 196 0
170 194 0
171 195 0
168 192 0
172 197 0
172 196 0
170 194 0
172 194 0
173 195 0
173 197 0
174 197 0
171 194 0
172 195 0
172 195 0
171 195 0
174 196 0
171 194 0
170 193 0
172 195 0
172 195 0
174 197 0
173 196 0
173 196 0
172 195 0
169 193 0
174 197 0
170 193 0
170 193 0
165 188 0
173 197 0
171 195 0
175 198 0
171 194 0
176 199 62
191 210 137
187 207 130
185 206 125
183 204 120
185 205 117
186 207 120
184 205 108
181 202 108
183 205 111
180 202 88
178 200 76
181 203 102
182 204 95
185 206 125
181 204 102
181 203 99
179 201 84
179 202 102
180 202 95
181 203 92
177 200 67
180 203 95
179 202 72
180 202 92
184 206 114
188 208 130
189 210 144
200 218 179
203 220 194
201 219 182
199 217 177
201 218 184
200 218 182
204 221 194
200 218 188
198 216 173
195 214 165
192 212 147
192 212 153
184 205 114
180 202 95
177 200 76
178 200 67
175 198 44
179 202 88
180 203 92
179 201 84
176 199 67
181 203 99
183 205 111
180 202 108
177 200 99
181 203 92
183 203 111
181 204 102
178 199 92
180 201 92
182 202 114
181 202 108
183 204 125
183 203 128
183 204 111
186 206 125
167 188 124
141 164 95
134 159 95
136 161 95
130 155 106
123 148 108
114 140 111
90 120 144
75 108 153
61 97 149
61 97 161
61 97 157
60 96 153
61 96 152
60 96 153
62 98 157
61 97 157
60 95 155
62 98 163
61 97 159
62 98 166
62 98 166
61 97 156
61 97 159
61 97 161
61 97 163
62 98 170
61 98 162
62 98 159
61 97 160
62 98 165
62 98 166
61 98 165
61 98 163
62 98 163
62 98 163
61 97 161
61 97 159
62 99 166
61 97 163
61 97 162
62 98 163
62 98 167
61 97 166
62 99 170
62 98 169
62 98 169
62 98 163
61 97 163
61 97 158
61 98 165
62 98 165
62 99 171
62 98 164
62 98 165
62 99 169
61 98 162
62 99 167
62 98 165
62 98 168
63 99 172
62 98 161
61 97 164
62 98 168
62 99 169
61 98 166
62 99 171
62 98 163
62 98 163
63 99 170
63 100 174
62 98 165
62 98 163
62 99 168
62 98 164
61 97 158
62 98 159
62 98 161
62 99 166
62 98 162
63 99 168
62 98 160
61 97 158
61 97 162
63 99 170
62 98 167
62 98 164
62 99 166
62 98 159
62 98 165
61 97 162
62 98 167
62 98 166
62 98 161
62 98 160
62 98 162
62 98 161
62 98 163
61 98 159
63 99 164
62 98 163
63 99 164
61 97 157
62 98 165
61 97 151
63 99 160
62 98 164
61 98 158
62 98 163
61 97 158
62 98 164
62 98 160
62 99 165
61 97 153
61 97 157
61 97 155
62 99 168
62 98 158
62 97 157
61 97 155
62 97 152
62 97 149
62 98 162
63 99 168
62 98 157
62 98 161
62 98 161
61 97 153
61 97 152
62 98 156
62 97 155
62 97 152
61 96 152
62 97 159
61 97 153
61 97 150
62 97 154
61 96 145
62 98 159
61 95 148
59 93 137
61 95 152
60 94 136
61 95 146
60 94 137
60 94 141
95 93 48
106 101 0
103 99 0
106 101 0
108 104 0
102 99 0
105 99 0
101 99 0
102 98 0
99 97 0
103 100 0
109 106 0
113 109 0
109 104 0
112 108 0
109 107 0
115 111 0
111 107 0
110 106 0
121 118 0
128 125 0
115 111 0
119 116 0
126 122 0
125 123 0
128 125 0
128 125 0
126 125 0
122 120 0
131 127 0
138 134 0
123 120 0
135 133 0
141 137 0
138 134 0
135 133 0
139 137 0
138 134 0
141 138 0
140 137 0
139 137 0
147 142 0
143 140 0
141 138 0
145 141 0
146 142 0
140 135 0
148 143 0
146 141 0
148 144 0
140 138 0
142 140 0
147 142 0
143 140 0
150 146 0
144 140 0
151 146 0
147 142 0
151 146 0
148 142 0
148 143 0
145 141 0
150 146 0
150 144 0
149 145 0
147 142 0
150 146 0
149 144 0
152 146 0
149 143 0
149 145 0
151 148 0
151 145 0
147 140 0
152 147 0
150 143 0
150 144 0
150 144 0
148 141 0
150 144 0
148 142 0
148 141 0
151 144 0
150 143 0
153 150 0
165 177 0
166 183 0
164 180 0
167 183 0
166 180 0
164 180 0
166 182 0
169 184 0
168 185 0
168 184 0
171 188 0
169 185 0
167 186 0
171 191 0
170 188 0
169 186 0
170 186 0
171 190 0
169 187 0
168 185 0
169 188 0
171 188 0
170 189 0
169 189 0
171 189 0
172 193 0
172 190 0
168 189 0
171 192 0
171 192 0
167 184 0
168 186 0
172 191 0
173 192 0
171 190 0
170 190 0
172 193 0
170 189 0
170 189 0
169 190 0
169 191 0
169 191 0
170 191 0
172 191 0
171 192 0
173 195 0
171 192 0
173 195 0
171 191 0
172 194 0
172 194 0
170 189 0
169 189 0
172 195 0
170 191 0
174 196 0
172 195 0
171 192 0
171 194 0
174 194 0
171 194 0
172 194 0
172 193 0
173 195 0
172 196 0
171 194 0
173 196 0
173 197 0
174 198 0
170 194 0
173 197 0
172 195 0
168 192 0
173 197 0
172 195 0
171 195 0
170 193 0
172 195 0
169 193 0
169 193 0
172 195 0
170 193 0
170 193 0
170 193 0
172 195 0
172 196 0
172 195 0
172 196 0
174 197 0
170 194 0
173 196 0
172 195 0
169 192 0
174 196 0
173 197 0
171 194 0
173 195 0
171 194 0
167 190 0
174 197 0
172 195 0
168 191 0
173 196 0
176 198 80
185 205 120
185 206 122
189 209 142
180 202 105
180 202 99
183 205 117
179 202 99
179 202 80
181 203 102
180 202 99
182 204 108
178 201 84
178 200 84
180 202 80
177 200 80
178 201 67
179 202 80
181 203 88
181 204 108
184 206 122
194 213 159
200 218 179
205 222 201
211 227 218
218 232 238
222 236 253
222 236 252
223 236 254
223 237 255
223 237 255
222 236 253
222 236 254
220 234 252
221 235 253
221 235 250
220 234 249
219 234 246
222 236 253
220 234 248
223 236 255
222 236 254
223 236 253
222 235 250
219 233 241
213 228 224
209 225 207
202 219 184
199 217 182
185 207 125
181 203 99
181 204 108
179 201 76
182 204 102
181 203 105
177 200 62
178 200 72
179 202 88
178 201 88
184 204 117
184 206 125
180 202 99
180 201 88
171 192 128
134 156 164
116 139 179
117 140 176
121 143 179
70 103 159
76 108 149
103 129 128
108 135 129
130 154 108
122 148 111
118 144 122
97 124 136
71 103 142
61 96 149
59 94 143
60 96 152
61 96 151
61 97 161
61 97 158
62 98 161
62 98 162
61 97 161
61 97 154
61 97 158
60 96 155
62 98 161
62 98 169
61 97 159
61 97 168
60 96 155
61 97 159
61 97 160
62 99 169
62 98 172
60 96 160
62 98 166
61 97 160
61 97 163
62 98 166
62 97 156
62 97 160
62 99 166
62 98 169
61 98 163
62 97 161
62 98 166
60 96 160
63 99 173
62 99 170
62 98 166
61 97 157
61 97 165
61 97 156
62 98 166
62 98 159
61 97 153
61 97 161
62 98 163
61 97 161
62 99 166
61 98 165
62 99 168
62 98 166
62 98 166
62 98 167
62 98 163
61 97 159
62 98 165
63 99 166
62 98 166
62 98 160
62 98 164
62 98 165
62 98 165
61 97 168
62 98 167
61 98 164
62 98 163
62 98 161
63 99 167
61 96 157
62 98 165
62 99 166
61 98 161
61 97 158
62 99 170
62 98 165
61 97 155
62 98 163
62 98 158
63 99 168
62 99 172
62 99 169
62 98 163
63 99 168
62 99 167
62 98 165
62 98 161
62 98 162
63 99 164
62 98 167
62 98 159
61 97 157
62 98 159
61 97 156
61 98 159
61 97 162
62 98 162
61 97 157
62 99 164
61 96 147
63 99 165
62 98 157
62 98 162
62 99 171
62 98 162
61 97 154
62 98 155
62 98 162
61 97 157
61 97 160
61 97 150
61 97 155
62 98 158
62 98 162
61 96 149
62 98 161
62 98 164
62 98 162
62 98 152
62 98 157
61 97 152
62 98 159
61 97 156
61 97 158
62 97 152
60 96 153
61 96 146
60 95 145
61 96 150
61 96 144
60 94 139
61 97 154
62 96 152
61 95 145
61 95 139
59 93 134
58 90 130
105 102 25
113 108 0
103 99 0
107 101 0
98 92 0
108 103 0
92 90 0
99 96 0
96 93 0
109 103 0
94 90 0
109 105 0
117 113 0
105 99 0
116 112 0
114 110 0
113 109 0
119 115 0
122 119 0
118 116 0
123 121 0
123 120 0
113 111 0
127 123 0
122 119 0
125 122 0
123 121 0
133 130 0
126 122 0
134 131 0
133 128 0
137 134 0
132 129 0
134 131 0
137 133 0
131 127 0
139 134 0
136 133 0
140 137 0
136 133 0
138 132 0
145 140 0
141 136 0
132 130 0
145 142 0
143 139 0
147 143 0
139 135 0
145 140 0
144 140 0
143 139 0
147 143 0
146 143 0
146 141 0
143 139 0
143 139 0
145 142 0
151 146 0
150 146 0
149 145 0
145 140 0
149 145 0
146 142 0
147 141 0
145 138 0
148 144 0
148 142 0
149 143 0
150 143 0
147 141 0
146 139 0
148 142 0
148 142 0
149 144 0
146 141 0
150 144 0
147 140 0
151 146 0
149 142 0
149 142 0
147 139 0
146 136 0
150 142 0
155 155 0
166 181 0
168 184 0
165 179 0
169 187 0
166 179 0
169 185 0
166 181 0
169 182 0
171 187 0
165 181 0
164 179 0
166 181 0
170 186 0
168 185 0
171 188 0
167 185 0
169 187 0
172 190 0
170 188 0
170 188 0
168 184 0
172 189 0
168 186 0
168 184 0
172 192 0
174 193 0
172 190 0
171 190 0
170 190 0
169 188 0
169 190 0
171 190 0
171 188 0
169 188 0
170 191 0
171 192 0
172 192 0
169 188 0
169 189 0
171 192 0
171 191 0
173 194 0
171 193 0
172 190 0
171 193 0
171 192 0
172 192 0
174 194 0
173 194 0
173 194 0
172 194 0
173 194 0
171 192 0
171 192 0
170 190 0
172 193 0
172 194 0
171 194 0
172 192 0
171 192 0
173 193 0
172 193 0
171 193 0
174 196 0
173 195 0
173 196 0
171 194 0
170 193 0
173 197 0
174 197 0
173 197 0
171 195 0
169 193 0
169 192 0
168 191 0
169 193 0
171 195 0
173 197 0
172 196 0
173 196 0
172 196 0
174 197 0
171 195 0
171 194 0
172 195 0
172 196 0
170 193 0
170 193 0
171 195 0
171 195 0
171 194 0
172 195 0
171 194 0
172 196 0
171 195 0
168 192 0
173 196 0
172 195 0
173 196 0
168 191 0
170 192 0
174 197 44
180 201 95
180 200 108
186 206 128
191 210 149
181 203 108
184 205 120
181 204 108
179 201 84
181 203 99
181 203 105
183 205 108
179 201 80
182 204 102
177 200 76
180 202 84
177 200 76
175 199 51
182 204 92
196 215 169
202 219 188
210 226 215
221 234 246
220 234 249
221 235 250
222 236 254
221 235 252
221 236 254
220 235 250
219 234 250
219 234 248
219 234 250
220 235 254
220 235 254
220 234 252
217 233 248
219 234 250
220 235 254
220 235 253
219 234 249
219 233 252
220 235 253
220 235 253
222 236 255
218 233 250
219 234 249
220 235 252
220 234 250
220 234 250
221 235 253
222 236 253
220 234 248
222 236 253
217 231 238
212 227 217
195 214 165
193 213 157
178 201 88
177 200 62
177 199 72
176 200 67
179 202 84
180 202 92
178 201 84
178 201 88
175 197 103
114 138 169
98 125 174
117 141 178
98 125 166
114 137 176
109 133 166
76 107 161
74 107 149
67 101 157
65 99 149
79 110 143
80 111 141
105 132 130
113 139 122
97 126 137
70 104 151
60 95 155
60 96 156
61 96 155
60 96 154
61 97 159
61 96 155
63 99 166
62 98 159
62 98 159
61 97 161
61 97 159
62 98 158
61 97 156
61 97 157
60 96 155
60 96 158
61 97 166
61 97 161
61 97 160
61 97 157
61 97 166
61 98 162
62 98 163
61 97 163
60 96 156
61 98 162
61 97 162
62 99 171
61 97 161
61 97 160
62 98 166
61 97 164
60 96 159
61 97 163
62 98 163
61 97 162
61 98 165
60 96 157
62 98 166
62 98 169
61 97 159
62 99 169
62 99 167
62 98 164
61 98 164
61 98 167
62 98 165
62 98 161
62 98 168
61 98 164
62 98 170
62 98 164
62 99 167
61 98 159
63 98 162
63 99 167
62 98 164
62 98 162
61 97 161
61 97 161
63 99 168
62 98 168
62 98 163
61 98 164
61 97 162
62 98 156
62 98 165
62 98 166
61 98 161
62 98 166
62 98 161
63 99 164
62 99 169
62 97 159
62 98 159
63 99 169
62 98 163
62 99 167
62 98 167
61 97 158
62 98 166
62 98 164
61 97 154
63 99 162
61 97 156
61 98 163
62 98 159
62 98 157
62 98 161
62 98 158
62 98 165
62 98 165
61 98 163
63 99 165
62 98 165
62 98 161
62 98 154
62 98 161
61 97 152
62 99 168
61 97 157
62 98 160
62 97 158
61 97 154
62 98 159
61 97 153
63 98 160
62 98 158
62 97 153
62 98 159
61 97 155
63 98 157
62 97 149
61 96 156
61 96 144
62 97 152
62 97 153
62 97 149
61 96 149
61 97 150
61 97 150
62 97 157
60 96 151
61 95 145
62 97 152
61 95 145
60 95 140
59 92 131
61 96 150
59 92 129
57 90 123
60 94 139
61 93 131
111 103 0
109 102 0
110 104 0
117 111 0
104 99 0
108 103 0
104 100 0
104 99 0
107 102 0
112 105 0
105 101 0
107 103 0
115 110 0
115 111 0
103 100 0
111 108 0
116 112 0
116 112 0
122 118 0
118 114 0
116 113 0
121 117 0
123 120 0
117 115 0
122 118 0
130 127 0
121 116 0
131 127 0
132 128 0
134 131 0
131 128 0
134 130 0
136 132 0
135 131 0
126 124 0
132 130 0
136 133 0
132 129 0
136 132 0
142 136 0
143 141 0
146 141 0
150 145 0
146 142 0
142 138 0
138 134 0
145 142 0
144 140 0
144 140 0
144 138 0
140 136 0
143 140 0
146 141 0
146 141 0
142 138 0
145 141 0
144 140 0
143 137 0
145 140 0
146 142 0
147 143 0
147 142 0
149 143 0
145 141 0
148 142 0
149 142 0
148 141 0
147 142 0
148 142 0
149 145 0
148 143 0
147 141 0
149 144 0
147 142 0
148 142 0
148 142 0
147 140 0
148 141 0
149 140 0
149 140 0
146 138 0
149 142 0
153 154 0
163 177 0
165 179 0
165 177 0
165 177 0
165 180 0
168 181 0
167 183 0
166 182 0
168 181 0
166 183 0
164 176 0
168 185 0
168 184 0
168 186 0
165 182 0
168 185 0
170 187 0
169 187 0
171 191 0
169 185 0
172 190 0
169 189 0
169 187 0
170 188 0
173 193 0
167 181 0
171 190 0
172 192 0
171 192 0
169 188 0
170 190 0
170 190 0
172 192 0
171 190 0
170 189 0
172 192 0
170 190 0
172 192 0
174 193 0
170 192 0
172 192 0
169 188 0
169 189 0
172 193 0
173 194 0
169 189 0
171 193 0
170 191 0
172 193 0
173 194 0
172 194 0
174 193 0
172 193 0
172 193 0
172 193 0
173 193 0
170 192 0
172 193 0
173 195 0
173 194 0
173 194 0
172 192 0
170 193 0
171 191 0
173 194 0
170 193 0
172 195 0
172 196 0
174 197 0
173 196 0
170 194 0
172 196 0
170 194 0
173 196 0
170 194 0
171 194 0
174 196 0
173 196 0
172 195 0
171 194 0
173 197 0
171 195 0
170 194 0
170 194 0
169 191 0
173 197 0
169 192 0
170 193 0
172 195 0
166 190 0
169 192 0
170 194 0
171 194 0
171 194 0
171 194 0
170 193 0
171 195 0
171 194 0
172 195 0
173 196 0
173 196 25
179 200 92
189 208 147
183 204 111
182 203 111
184 205 114
179 200 95
181 203 105
183 205 114
182 204 105
183 205 111
180 202 95
181 204 102
182 204 108
175 199 57
182 204 105
179 202 92
191 211 144
203 220 193
211 227 218
222 235 250
222 236 253
222 236 254
221 235 250
221 235 254
220 235 254
217 232 249
220 235 252
218 233 249
218 233 250
219 234 250
218 233 250
218 234 252
218 234 254
217 232 250
218 234 253
217 233 249
217 232 250
216 232 248
217 232 250
218 233 252
217 233 253
217 232 248
217 233 252
217 233 250
219 234 254
218 233 249
218 234 253
218 233 249
216 231 246
219 234 252
219 234 254
220 234 250
220 235 252
219 234 249
221 235 253
221 235 250
220 235 250
222 236 253
218 233 242
209 225 217
198 216 177
188 209 128
180 202 95
178 201 72
178 200 76
180 202 95
172 195 117
101 127 177
107 133 177
95 122 176
115 139 183
107 132 172
110 134 181
91 118 162
77 108 158
64 99 156
69 102 153
71 104 153
62 97 154
64 99 157
78 110 153
107 133 126
111 137 125
89 118 145
68 102 151
61 97 159
62 98 162
61 97 153
61 97 162
60 96 151
61 97 158
61 97 158
60 96 161
61 97 161
61 97 156
61 96 155
62 98 168
62 97 159
62 98 162
61 97 159
61 97 157
62 98 165
62 97 155
61 97 167
61 97 163
60 96 152
61 96 156
61 97 158
61 97 159
61 97 161
61 97 159
61 97 160
62 98 162
61 97 166
61 97 161
61 97 154
61 97 162
61 97 158
62 98 162
61 98 166
61 97 165
62 98 163
61 97 165
61 98 163
61 98 160
61 98 165
62 99 166
62 98 165
62 98 162
61 97 165
62 98 168
62 98 162
62 98 159
62 98 165
61 98 163
61 97 159
63 99 169
62 98 166
62 98 163
62 98 164
61 97 156
61 97 161
62 98 164
62 98 160
62 98 164
62 98 161
62 98 165
62 98 161
61 98 164
63 99 168
62 99 163
61 97 150
62 99 167
62 98 161
62 98 161
63 99 163
62 98 161
62 98 157
62 98 162
63 99 165
60 96 153
62 98 162
62 98 164
62 98 162
62 98 162
61 97 164
62 98 159
62 98 158
62 99 166
62 98 161
62 98 163
62 97 153
61 97 156
62 98 163
60 96 154
62 98 165
63 98 158
62 98 163
63 99 162
61 97 157
62 98 159
63 98 159
61 97 158
62 99 163
61 97 153
62 98 161
61 97 156
62 98 159
62 98 162
62 98 159
62 97 154
61 97 157
61 96 151
61 97 153
61 97 156
62 98 161
61 97 154
61 97 153
62 98 156
61 96 150
62 97 153
62 98 156
61 96 145
62 97 153
61 96 155
61 97 151
61 96 146
61 96 146
61 96 148
61 95 145
61 96 148
60 96 149
61 96 147
60 94 135
60 93 139
70 94 118
109 101 0
121 115 0
114 108 0
110 101 0
110 103 0
113 107 0
108 102 0
96 91 0
107 102 0
111 105 0
115 111 0
109 106 0
121 115 0
107 103 0
109 105 0
124 120 0
113 110 0
118 114 0
107 103 0
119 114 0
125 121 0
128 123 0
122 118 0
129 126 0
133 128 0
132 129 0
128 124 0
134 129 0
130 125 0
129 126 0
130 126 0
132 126 0
129 126 0
138 133 0
138 135 0
137 133 0
138 135 0
134 130 0
139 135 0
135 130 0
140 136 0
141 137 0
139 134 0
142 139 0
142 138 0
146 140 0
142 138 0
141 136 0
143 139 0
144 140 0
140 137 0
141 136 0
146 140 0
144 138 0
149 145 0
147 143 0
144 139 0
147 143 0
145 142 0
147 143 0
146 143 0
144 140 0
146 140 0
149 144 0
148 143 0
149 141 0
147 141 0
149 144 0
146 138 0
151 144 0
147 141 0
150 142 0
145 135 0
143 136 0
145 137 0
151 143 0
149 140 0
150 142 0
147 139 0
148 137 0
148 139 0
155 158 0
164 177 0
164 175 0
167 181 0
167 178 0
168 181 0
166 180 0
164 179 0
165 179 0
169 186 0
170 185 0
168 184 0
170 186 0
172 190 0
166 184 0
165 179 0
167 182 0
171 189 0
168 187 0
167 182 0
169 186 0
169 185 0
169 188 0
170 190 0
170 188 0
171 191 0
170 187 0
170 187 0
170 190 0
169 188 0
171 191 0
170 188 0
172 192 0
166 183 0
170 190 0
170 190 0
170 190 0
171 190 0
170 192 0
171 191 0
172 192 0
173 194 0
170 190 0
171 191 0
169 190 0
172 194 0
173 195 0
171 190 0
171 191 0
169 190 0
170 191 0
172 194 0
170 192 0
174 196 0
172 193 0
173 195 0
173 195 0
171 194 0
171 193 0
171 193 0
172 195 0
172 194 0
172 193 0
173 193 0
172 193 0
170 192 0
174 195 0
172 196 0
170 193 0
173 196 0
171 195 0
167 191 0
175 198 0
173 196 0
172 195 0
172 195 0
174 197 0
169 193 0
169 193 0
172 195 0
173 196 0
173 196 0
173 196 0
172 195 0
172 196 0
169 192 0
173 196 0
172 195 0
170 193 0
171 195 0
169 192 0
171 195 0
168 192 0
171 194 0
173 196 0
173 196 0
173 196 0
168 192 0
170 193 0
168 192 0
174 197 25
181 202 105
186 207 125
187 207 137
186 206 130
182 203 105
182 203 111
182 204 117
182 204 108
184 206 114
180 201 99
179 201 84
179 202 102
180 202 88
178 201 84
178 201 67
188 209 135
204 221 196
212 227 220
220 234 249
218 233 245
220 234 250
221 235 252
219 233 246
218 233 248
220 234 252
218 233 248
216 232 248
217 233 250
218 233 252
218 233 252
217 233 252
217 233 252
217 233 252
216 232 250
216 232 252
215 231 248
216 233 254
215 232 249
216 233 253
216 232 253
214 231 246
216 233 253
216 232 252
216 232 252
216 233 253
217 233 252
216 232 252
215 231 245
217 233 253
217 233 252
217 233 253
218 233 252
215 232 248
218 233 252
218 234 253
220 235 254
217 232 246
217 233 248
217 232 245
221 235 253
220 234 252
222 236 253
221 235 248
221 235 252
209 225 207
202 220 191
184 205 105
179 201 67
176 199 82
85 115 168
100 127 171
93 121 174
102 129 181
112 137 182
106 131 180
100 127 170
120 142 173
76 106 155
65 100 164
74 108 164
68 102 154
69 103 155
65 100 145
62 97 152
61 97 156
82 112 145
107 133 128
91 121 145
63 98 160
60 96 154
62 98 162
61 97 159
61 97 159
61 97 154
60 96 152
61 98 163
61 96 157
62 98 162
61 97 157
60 96 162
61 97 160
61 97 163
62 98 165
61 97 164
60 95 158
61 97 163
60 96 153
61 98 163
60 96 157
61 97 167
61 97 164
61 97 161
62 98 166
61 97 164
62 98 167
61 98 167
62 98 165
62 98 169
62 98 165
61 98 165
60 96 156
60 96 154
62 98 164
61 97 162
61 96 155
62 98 161
61 97 161
62 98 163
62 98 165
62 98 162
62 98 163
62 98 163
61 97 165
62 98 167
62 99 173
61 97 156
61 98 163
62 99 172
62 98 164
62 98 169
61 97 162
62 98 161
63 99 171
62 98 165
61 97 161
62 98 164
62 98 166
61 97 156
62 98 165
62 98 164
62 98 168
61 97 158
62 98 165
61 97 156
63 99 166
61 97 157
62 98 164
62 98 162
62 98 159
61 97 164
63 99 165
62 99 167
62 98 164
62 98 163
61 97 157
62 99 168
62 98 166
63 99 166
62 98 157
61 97 158
62 98 164
62 98 162
61 97 150
62 98 162
62 98 160
62 98 156
63 99 162
62 98 166
62 98 165
61 97 154
62 99 163
62 97 159
62 98 158
62 98 159
62 98 159
62 98 157
62 98 162
61 97 155
62 98 160
63 98 159
62 97 154
62 97 156
62 97 161
62 98 154
62 97 155
62 97 153
60 96 149
61 96 149
62 97 154
60 96 149
61 96 152
63 98 156
62 97 151
61 97 156
61 97 155
61 97 152
60 95 144
61 96 149
61 96 154
61 96 142
60 94 140
61 95 145
61 95 142
61 95 146
60 94 140
59 92 132
59 92 125
65 89 112
109 102 0
113 106 0
105 98 0
112 104 0
104 98 0
105 100 0
108 100 0
116 109 0
107 102 0
107 100 0
110 102 0
112 109 0
109 103 0
114 110 0
115 111 0
111 106 0
119 114 0
124 117 0
120 116 0
112 108 0
119 114 0
124 119 0
124 121 0
125 122 0
125 119 0
124 120 0
126 121 0
130 127 0
132 128 0
134 131 0
132 128 0
131 127 0
133 129 0
131 127 0
130 127 0
136 133 0
136 131 0
134 130 0
135 129 0
138 134 0
139 132 0
136 134 0
139 133 0
142 138 0
139 135 0
146 143 0
143 139 0
143 138 0
145 139 0
145 140 0
142 138 0
146 142 0
144 141 0
141 135 0
145 139 0
144 140 0
145 141 0
146 140 0
147 141 0
147 140 0
145 141 0
139 134 0
143 136 0
146 139 0
147 142 0
148 140 0
153 147 0
145 137 0
145 138 0
148 140 0
145 138 0
149 143 0
144 136 0
147 138 0
145 139 0
148 140 0
146 137 0
148 139 0
148 140 0
150 139 0
158 161 0
168 182 0
164 176 0
165 178 0
161 171 0
169 182 0
164 176 0
162 174 0
165 178 0
166 179 0
167 184 0
163 179 0
165 180 0
166 179 0
169 186 0
170 187 0
168 185 0
165 180 0
169 187 0
167 185 0
171 190 0
171 187 0
168 184 0
170 189 0
168 185 0
169 187 0
170 187 0
170 189 0
171 186 0
171 190 0
169 186 0
171 189 0
168 187 0
170 187 0
168 187 0
170 190 0
170 189 0
170 188 0
168 188 0
170 189 0
172 192 0
172 191 0
171 190 0
170 190 0
170 191 0
172 192 0
170 190 0
171 191 0
170 191 0
171 191 0
172 194 0
170 191 0
170 191 0
171 194 0
171 192 0
172 191 0
172 194 0
172 194 0
172 192 0
171 193 0
173 195 0
173 196 0
169 192 0
171 190 0
171 192 0
170 191 0
172 194 0
173 195 0
170 191 0
171 195 0
171 195 0
170 194 0
172 196 0
171 195 0
173 196 0
172 196 0
170 193 0
172 196 0
169 194 0
171 195 0
169 193 0
169 192 0
173 196 0
166 189 0
174 197 0
168 191 0
172 196 0
169 193 0
171 195 0
171 195 0
173 196 0
172 195 0
173 195 0
175 198 0
173 197 0
170 194 0
169 193 0
171 195 0
170 194 0
171 195 25
180 201 88
186 207 122
182 202 120
188 208 135
182 203 108
182 204 108
185 206 125
181 203 95
181 203 99
182 204 102
178 201 84
178 201 84
181 203 105
179 202 95
188 208 130
203 220 191
217 231 233
220 234 248
222 236 254
219 234 249
219 234 252
219 234 249
218 233 249
218 234 252
218 234 255
218 233 250
217 233 250
217 232 250
217 233 253
216 232 252
215 232 248
215 232 250
215 232 252
216 233 255
213 230 248
215 232 253
215 231 252
214 231 249
214 231 252
212 230 248
214 231 250
213 231 252
214 231 253
212 230 246
214 231 252
215 232 254
214 231 253
214 231 252
214 231 250
214 231 250
213 230 245
214 231 249
215 231 250
214 231 248
216 232 253
216 232 252
216 232 252
216 232 250
217 233 252
217 232 248
218 233 252
218 233 250
220 234 253
219 234 253
219 234 250
220 234 250
220 234 249
222 235 250
222 236 250
210 226 212
195 214 159
135 159 147
85 115 171
88 118 170
100 127 180
87 117 170
121 144 177
108 133 177
112 136 185
108 133 181
83 113 170
76 108 156
62 98 162
64 100 164
66 101 165
72 106 158
60 96 149
67 101 149
68 102 154
82 112 135
90 118 137
75 107 155
60 96 158
60 96 156
61 97 157
61 97 160
61 96 152
60 96 156
61 97 152
61 97 159
62 98 164
61 97 167
62 98 163
62 98 164
61 97 163
61 97 160
61 97 160
61 97 163
60 96 161
62 98 164
62 98 166
61 98 163
61 97 162
60 97 161
61 97 162
61 97 165
60 96 148
60 96 160
61 97 166
61 97 157
62 98 163
62 98 170
62 98 166
62 99 165
62 98 166
62 98 167
62 98 172
61 97 160
61 98 163
62 98 164
61 98 161
61 98 165
62 98 164
61 97 159
61 97 160
61 97 161
62 98 164
62 98 161
63 99 167
62 98 166
62 98 161
62 98 156
62 98 164
62 97 157
62 97 154
62 98 170
62 98 165
61 96 156
62 98 167
61 97 159
62 98 164
62 98 161
62 98 167
61 97 160
61 97 157
62 98 163
62 98 163
62 98 161
62 98 156
61 97 162
62 98 162
62 98 154
63 99 166
61 97 157
62 98 158
61 97 158
62 98 163
62 98 162
62 98 166
62 98 156
62 99 163
62 98 157
62 98 164
62 98 160
62 97 155
62 98 160
62 98 163
62 98 160
62 98 163
62 98 165
62 98 158
62 98 152
62 97 154
62 98 158
61 96 148
63 99 164
61 97 153
62 98 156
62 98 156
61 97 155
61 97 156
61 97 156
61 97 153
60 96 151
61 97 152
61 97 151
61 96 145
62 98 162
63 98 157
62 97 152
62 97 154
62 98 157
62 97 156
60 95 130
61 95 151
62 98 155
62 97 154
61 96 145
61 96 147
61 96 141
62 97 154
61 96 141
61 95 146
61 96 155
60 95 142
60 94 136
61 96 143
59 92 130
59 92 124
82 99 118
98 91 0
107 101 0
107 99 0
108 101 0
113 105 0
104 99 0
110 106 0
105 99 0
118 110 0
118 111 0
111 106 0
106 100 0
106 102 0
114 109 0
114 111 0
117 109 0
116 110 0
121 117 0
115 111 0
116 111 0
126 120 0
115 109 0
124 119 0
121 117 0
122 116 0
121 119 0
126 119 0
130 125 0
129 125 0
133 127 0
127 123 0
131 128 0
129 124 0
139 134 0
136 131 0
133 127 0
143 139 0
130 126 0
141 135 0
137 132 0
139 135 0
138 135 0
137 132 0
141 137 0
135 130 0
139 135 0
136 132 0
145 141 0
145 141 0
148 140 0
146 141 0
142 137 0
144 137 0
141 136 0
140 135 0
142 135 0
136 131 0
141 135 0
146 140 0
144 138 0
141 136 0
147 140 0
142 137 0
149 142 0
147 141 0
150 142 0
145 137 0
148 141 0
149 142 0
152 144 0
146 138 0
150 141 0
147 139 0
146 138 0
146 137 0
147 138 0
149 139 0
148 140 0
150 142 0
158 166 0
166 177 0
164 174 0
163 173 0
163 175 0
169 181 0
167 182 0
165 179 0
164 180 0
166 179 0
167 181 0
166 181 0
167 181 0
166 181 0
170 187 0
168 184 0
167 181 0
167 182 0
166 179 0
167 185 0
169 186 0
165 182 0
167 183 0
168 185 0
169 186 0
171 190 0
166 185 0
169 187 0
169 189 0
172 193 0
171 190 0
172 189 0
170 188 0
170 188 0
169 188 0
169 186 0
168 188 0
170 189 0
171 191 0
168 188 0
168 188 0
173 194 0
170 191 0
171 190 0
168 187 0
173 193 0
170 190 0
167 185 0
170 191 0
170 190 0
168 189 0
170 190 0
170 191 0
173 194 0
172 192 0
170 190 0
172 194 0
170 192 0
173 194 0
171 192 0
172 194 0
173 194 0
173 195 0
174 196 0
171 193 0
173 193 0
170 191 0
171 192 0
171 193 0
173 194 0
169 194 0
171 196 0
173 197 0
172 196 0
171 195 0
172 196 0
171 195 0
174 197 0
173 197 0
174 198 0
168 192 0
171 195 0
170 194 0
171 195 0
170 193 0
173 197 0
173 195 0
172 196 0
172 195 0
171 195 0
174 197 0
174 197 0
171 194 0
171 195 0
173 197 0
171 195 0
169 192 0
171 195 0
172 196 0
180 202 80
188 208 130
188 208 133
179 201 105
190 210 151
182 204 105
182 204 105
178 200 95
180 202 92
180 203 95
178 200 67
177 200 72
182 203 95
180 202 92
195 214 163
216 231 236
222 236 252
222 235 250
221 235 252
219 234 252
219 234 250
220 234 253
218 233 250
219 234 253
218 234 254
214 231 244
215 232 250
216 233 254
216 233 253
215 232 253
215 231 250
214 231 250
213 231 249
214 232 254
214 231 253
213 230 250
212 230 250
214 232 255
212 230 250
212 230 250
213 231 253
212 230 252
213 231 254
212 230 252
213 231 252
211 229 249
213 231 253
211 230 250
212 230 249
211 229 248
213 230 252
213 230 250
212 230 248
212 230 249
212 230 248
214 232 254
214 231 252
214 231 253
216 232 253
215 232 250
217 233 255
215 231 248
217 233 253
217 233 252
217 233 253
216 232 248
217 232 246
219 234 252
220 234 253
218 233 246
221 235 250
221 235 250
222 236 253
207 222 241
111 137 181
101 129 182
91 120 181
106 132 178
92 119 168
91 120 172
104 130 168
102 129 181
105 130 181
86 116 171
67 102 161
67 102 161
69 103 161
68 102 159
65 100 155
66 101 158
70 104 159
68 102 157
61 97 157
76 108 147
88 117 142
67 101 144
60 95 154
61 96 157
62 98 164
60 96 158
61 98 165
61 96 157
59 94 152
60 96 156
62 98 164
61 97 158
62 98 165
62 98 160
61 97 159
60 96 154
60 97 162
61 97 162
62 98 164
62 98 163
62 98 165
62 98 163
61 97 160
61 97 167
62 98 161
62 98 170
62 99 171
60 96 154
62 98 162
61 97 163
61 97 159
60 96 160
62 99 164
63 98 157
61 98 163
61 97 167
62 98 167
61 98 162
62 98 161
62 99 172
62 98 161
61 97 162
62 99 168
61 97 159
61 97 159
62 98 158
62 98 164
62 98 162
62 98 163
62 98 161
61 97 158
61 97 157
62 98 162
62 98 164
62 98 160
62 98 161
62 98 166
62 98 164
62 98 161
62 98 163
62 98 163
62 98 162
62 98 163
61 97 158
62 98 164
62 98 162
62 97 155
61 97 154
61 97 153
62 98 160
60 96 150
62 98 161
62 98 161
62 98 162
62 98 160
62 99 165
62 98 160
60 96 149
62 97 153
61 97 155
61 97 158
62 98 156
62 98 163
62 98 161
62 98 161
62 97 155
62 98 161
62 98 162
62 98 164
61 97 157
62 98 155
63 98 161
62 98 158
62 98 160
62 98 156
61 97 155
62 98 161
61 97 151
61 97 154
62 97 153
62 97 157
62 98 160
61 97 156
62 98 160
61 97 155
62 98 158
62 97 154
62 98 164
61 97 154
62 97 155
61 96 149
60 96 148
61 96 152
62 97 155
60 94 143
61 97 150
62 97 149
60 95 142
61 96 143
61 97 156
60 95 138
61 96 149
60 95 148
61 96 144
61 95 140
59 93 134
59 92 136
93 101 92
113 102 0
116 106 0
115 106 0
113 104 0
108 100 0
100 94 0
97 93 0
107 101 0
107 101 0
106 102 0
110 105 0
114 107 0
115 110 0
112 108 0
110 103 0
122 117 0
116 111 0
117 110 0
112 106 0
128 121 0
124 119 0
120 117 0
126 122 0
118 113 0
125 120 0
121 117 0
125 122 0
123 118 0
130 125 0
129 125 0
129 123 0
133 129 0
141 138 0
133 128 0
129 124 0
133 127 0
129 125 0
134 128 0
137 131 0
139 135 0
140 134 0
138 133 0
141 135 0
138 133 0
140 135 0
143 137 0
140 135 0
137 131 0
139 132 0
146 139 0
141 138 0
145 136 0
145 139 0
141 134 0
142 135 0
145 139 0
141 134 0
145 139 0
145 139 0
145 138 0
141 134 0
148 141 0
148 142 0
141 136 0
148 143 0
146 138 0
143 134 0
145 139 0
148 140 0
146 138 0
143 137 0
146 139 0
144 133 0
146 136 0
147 136 0
145 134 0
149 138 0
150 145 0
161 169 0
165 178 0
161 173 0
166 176 0
168 179 0
162 174 0
168 183 0
164 176 0
167 183 0
169 183 0
164 175 0
166 184 0
167 180 0
171 185 0
168 184 0
167 182 0
167 182 0
168 183 0
168 185 0
167 182 0
168 182 0
167 181 0
170 186 0
168 185 0
166 183 0
168 185 0
172 191 0
169 188 0
169 187 0
169 188 0
170 188 0
171 191 0
170 189 0
171 189 0
171 189 0
170 188 0
172 191 0
168 188 0
169 190 0
170 189 0
170 191 0
171 192 0
171 190 0
171 191 0
169 189 0
170 192 0
170 191 0
170 190 0
173 194 0
168 187 0
170 191 0
171 192 0
168 188 0
172 193 0
171 192 0
173 194 0
170 191 0
170 191 0
174 195 0
172 192 0
171 192 0
172 194 0
171 192 0
169 191 0
169 191 0
171 192 0
172 194 0
169 190 0
172 191 0
173 195 0
172 194 0
170 193 0
168 192 0
173 196 0
172 196 0
174 197 0
172 196 0
171 195 0
174 197 0
171 194 0
173 196 0
171 195 0
171 194 0
173 196 0
173 196 0
172 195 0
171 195 0
171 194 0
174 198 0
172 195 0
172 196 0
171 195 0
170 194 0
170 194 0
170 193 0
171 195 0
169 193 0
170 193 0
175 197 57
183 204 105
182 203 122
188 208 130
182 204 108
182 203 105
182 203 102
182 204 108
184 205 117
179 202 99
176 199 72
176 199 88
181 203 108
182 204 108
201 218 186
217 231 238
221 235 248
222 236 253
220 235 252
217 233 245
220 235 253
218 233 250
217 232 250
218 234 254
215 231 248
215 232 248
215 231 248
214 231 249
215 231 252
214 231 250
214 232 255
214 231 252
211 229 245
213 231 253
213 231 253
211 229 248
211 229 246
211 229 248
213 230 253
210 229 250
211 230 254
211 229 250
212 230 254
211 229 252
212 230 253
212 230 254
212 230 254
212 231 255
212 230 253
211 230 254
212 230 254
212 230 254
212 230 255
212 230 254
212 230 253
212 230 250
212 230 252
212 230 253
213 231 254
212 230 249
213 230 250
214 231 252
214 231 253
215 232 254
214 231 248
213 229 241
215 231 248
216 232 253
218 234 254
217 233 253
217 233 249
217 232 250
218 233 249
218 233 249
218 233 251
221 234 254
167 184 219
84 114 174
89 119 184
82 113 177
96 124 185
76 108 171
81 112 172
91 119 171
100 126 179
104 130 181
89 118 168
65 101 166
65 100 157
65 100 156
64 100 158
63 99 157
64 99 157
72 105 154
67 102 165
63 98 151
69 102 153
84 114 142
79 110 151
61 97 157
62 98 164
61 97 163
61 98 160
61 97 156
60 96 151
60 95 145
61 96 156
62 98 160
60 96 160
61 96 159
61 97 156
61 97 161
61 97 161
61 97 155
61 97 159
60 96 159
62 98 160
62 98 165
61 97 162
61 97 162
61 96 160
59 95 158
62 98 160
62 98 164
61 97 159
62 98 162
62 98 166
61 97 161
61 97 155
62 97 162
61 97 164
62 98 163
62 98 165
61 97 160
61 97 157
61 97 165
62 98 162
62 98 159
61 98 161
62 99 164
61 97 158
62 98 162
60 96 156
61 97 157
61 97 150
62 98 167
62 97 161
62 98 161
61 97 157
61 97 154
62 98 168
62 98 165
61 97 156
61 97 163
61 98 165
61 97 162
62 98 163
63 99 170
62 99 168
62 97 156
62 98 163
62 97 155
63 99 165
61 97 159
61 97 155
62 97 160
60 96 157
62 98 161
61 97 163
63 99 162
61 97 156
61 97 155
62 98 165
63 99 164
63 99 164
62 98 164
63 99 166
62 98 166
61 96 153
62 97 155
61 97 159
61 97 149
62 99 165
61 97 157
62 98 161
61 96 145
62 98 159
61 97 155
62 97 156
62 97 157
61 96 153
62 98 162
62 97 158
62 98 162
61 97 158
62 97 157
62 98 157
61 97 156
62 98 156
61 97 150
61 96 151
62 97 149
63 98 156
61 97 150
62 97 151
62 98 159
62 97 154
62 98 155
61 97 152
61 97 155
61 96 147
60 95 144
60 95 143
62 97 152
61 96 144
60 95 141
59 94 141
60 94 142
60 95 143
57 91 122
60 93 128
60 93 131
57 89 125
100 110 82
118 109 0
116 107 0
109 99 0
106 96 0
112 105 0
107 100 0
116 107 0
100 94 0
112 103 0
105 99 0
111 104 0
113 106 0
115 109 0
117 110 0
115 109 0
106 100 0
120 113 0
124 118 0
114 108 0
116 110 0
124 120 0
125 118 0
121 116 0
121 116 0
121 114 0
129 122 0
129 125 0
130 124 0
128 121 0
132 127 0
130 125 0
132 126 0
128 124 0
127 122 0
137 132 0
137 131 0
132 125 0
134 128 0
141 136 0
131 127 0
144 138 0
134 128 0
133 128 0
141 136 0
138 132 0
139 133 0
147 142 0
141 136 0
140 133 0
145 139 0
141 135 0
139 132 0
140 134 0
145 138 0
140 134 0
138 132 0
145 139 0
148 141 0
147 139 0
143 137 0
141 133 0
145 138 0
145 139 0
143 136 0
145 138 0
148 139 0
150 144 0
149 142 0
146 140 0
146 136 0
147 139 0
147 138 0
144 135 0
144 133 0
143 131 0
145 135 0
157 156 0
163 171 0
161 171 0
166 178 0
164 176 0
166 177 0
167 179 0
162 171 0
166 178 0
168 182 0
166 179 0
167 181 0
166 181 0
167 182 0
167 182 0
166 179 0
168 185 0
169 185 0
170 186 0
169 186 0
166 183 0
169 184 0
166 182 0
168 185 0
169 186 0
169 186 0
171 188 0
168 182 0
169 188 0
171 191 0
170 187 0
171 188 0
167 186 0
171 191 0
169 186 0
170 189 0
169 187 0
171 191 0
169 186 0
173 193 0
172 192 0
171 191 0
170 189 0
170 189 0
171 191 0
172 192 0
170 188 0
172 191 0
171 191 0
172 193 0
170 192 0
171 192 0
171 193 0
169 189 0
173 193 0
168 188 0
172 193 0
170 191 0
171 192 0
169 190 0
171 190 0
172 192 0
172 194 0
172 194 0
173 193 0
170 191 0
172 193 0
172 194 0
170 190 0
172 193 0
173 195 0
171 192 0
174 195 0
174 197 0
169 194 0
173 197 0
169 193 0
170 194 0
169 193 0
172 195 0
171 194 0
173 196 0
174 197 0
173 196 0
173 197 0
172 195 0
170 193 0
169 192 0
172 196 0
173 197 0
170 194 0
173 196 0
174 197 0
170 193 0
172 195 0
169 193 0
172 195 0
166 189 0
168 191 36
181 203 95
186 206 125
184 205 117
186 207 128
186 207 128
182 204 111
184 205 111
180 202 88
184 206 114
180 202 88
179 202 92
178 201 76
181 203 105
202 220 188
219 233 244
222 236 253
220 234 249
220 235 252
219 234 250
220 235 255
218 233 252
219 234 255
216 232 249
216 232 249
216 232 253
214 230 246
213 231 249
215 232 254
214 231 254
213 230 250
213 230 252
212 230 254
210 229 248
212 230 252
212 230 250
212 230 254
211 230 254
212 230 255
211 230 255
211 230 255
212 230 255
210 229 254
210 229 255
210 229 254
210 229 255
211 230 255
211 230 255
210 230 255
210 230 255
210 229 255
210 229 255
211 230 255
211 230 255
211 230 255
211 230 254
211 230 254
212 230 255
212 230 255
212 230 255
212 230 254
212 230 254
212 230 252
212 230 252
211 229 248
212 230 250
214 231 253
212 229 246
212 230 246
215 231 252
215 232 252
216 232 253
216 232 248
216 232 249
217 233 250
213 229 251
215 230 252
217 231 252
214 229 251
118 142 196
80 112 174
79 110 172
84 115 181
83 114 174
84 115 181
82 113 172
99 126 183
88 117 176
99 125 178
89 117 176
63 98 164
71 104 155
75 108 159
68 102 159
69 103 160
65 100 157
65 99 154
68 101 152
64 99 153
68 101 151
68 101 147
93 121 136
65 99 150
62 98 160
60 95 153
61 96 155
60 96 153
62 98 164
60 95 153
61 96 157
61 97 160
62 98 165
60 96 155
61 97 159
61 98 162
61 96 153
61 97 166
61 98 163
61 97 161
60 96 159
60 96 157
62 98 166
62 98 162
61 97 155
61 96 157
62 98 161
61 97 165
61 98 162
62 98 166
62 98 163
63 98 160
62 98 167
62 98 166
61 97 160
61 97 164
62 98 164
62 98 164
61 98 163
62 97 160
62 99 165
62 98 162
63 99 164
62 98 159
62 98 167
61 97 159
61 97 159
61 97 155
63 99 169
61 98 160
62 98 162
62 98 161
62 98 162
61 98 164
61 97 161
63 99 164
62 98 160
61 97 160
62 98 163
62 98 166
62 98 160
61 98 162
62 98 162
61 97 155
61 97 155
62 98 159
61 97 158
61 97 157
61 97 155
61 97 157
61 97 157
63 99 162
62 98 159
61 97 155
62 98 153
62 98 165
62 98 160
62 98 158
63 99 161
60 96 151
62 98 155
62 98 159
62 98 156
62 98 154
61 97 158
61 96 149
62 98 164
62 98 158
61 97 159
61 97 156
61 97 155
62 98 161
62 97 152
62 97 154
61 97 152
62 97 160
62 97 151
61 96 147
62 97 153
62 98 157
61 96 151
62 98 156
62 98 158
59 95 144
62 97 155
62 98 157
62 97 154
60 96 148
62 97 152
62 97 151
61 97 149
61 97 153
62 97 152
60 95 142
61 96 150
61 96 143
61 97 153
61 96 146
61 96 142
60 95 147
60 94 132
60 94 136
61 95 147
61 95 139
59 93 139
60 94 134
122 131 62
129 129 0
111 104 0
102 93 0
113 104 0
103 94 0
115 104 0
107 100 0
108 100 0
115 107 0
112 104 0
110 103 0
118 110 0
123 114 0
119 109 0
115 108 0
118 112 0
115 108 0
118 111 0
119 111 0
123 116 0
116 110 0
121 114 0
121 112 0
120 115 0
128 122 0
119 114 0
124 119 0
127 123 0
129 122 0
128 121 0
130 126 0
131 125 0
136 128 0
131 125 0
135 130 0
129 124 0
139 132 0
133 125 0
128 124 0
132 126 0
134 128 0
139 132 0
136 128 0
131 124 0
136 130 0
142 135 0
136 129 0
137 131 0
140 134 0
139 135 0
142 134 0
141 134 0
143 137 0
139 131 0
144 138 0
143 137 0
145 140 0
145 138 0
145 138 0
141 132 0
144 137 0
145 137 0
146 139 0
147 138 0
145 136 0
146 138 0
146 136 0
148 139 0
147 138 0
142 132 0
143 132 0
145 133 0
149 139 0
145 134 0
145 139 0
155 161 0
164 174 0
158 166 0
165 176 0
161 168 0
163 174 0
166 177 0
165 177 0
166 180 0
167 181 0
165 178 0
165 179 0
162 173 0
163 174 0
168 181 0
167 181 0
168 180 0
166 180 0
165 179 0
170 187 0
168 184 0
170 187 0
166 180 0
169 188 0
169 185 0
168 183 0
165 182 0
169 188 0
169 188 0
171 189 0
171 189 0
168 187 0
169 188 0
170 188 0
171 190 0
170 191 0
170 189 0
172 191 0
171 189 0
170 189 0
171 191 0
170 190 0
170 191 0
169 187 0
173 193 0
168 187 0
171 192 0
170 190 0
172 193 0
170 189 0
171 192 0
171 190 0
171 191 0
172 192 0
170 191 0
172 192 0
171 192 0
172 193 0
172 193 0
170 191 0
170 192 0
171 193 0
172 192 0
170 191 0
174 194 0
171 193 0
171 192 0
171 193 0
173 195 0
172 193 0
172 194 0
172 195 0
171 192 0
173 193 0
171 193 0
172 195 0
174 197 0
171 195 0
172 195 0
173 196 0
171 195 0
173 197 0
171 195 0
172 196 0
172 194 0
172 195 0
171 194 0
173 196 0
172 196 0
170 194 0
173 197 0
174 197 0
172 195 0
171 195 0
170 194 0
171 195 0
170 193 0
169 193 0
178 200 72
187 207 130
189 209 147
186 207 130
181 202 105
184 205 105
180 202 88
183 205 114
179 201 72
180 202 80
177 200 72
177 200 88
184 205 120
204 221 196
220 234 246
220 234 249
221 235 254
220 235 252
220 235 254
217 233 249
218 233 252
217 232 249
215 232 249
216 232 253
215 231 250
215 232 254
213 231 250
212 230 250
213 231 254
212 230 250
213 230 253
211 229 249
212 230 254
212 230 254
210 229 254
212 230 255
211 230 255
210 230 255
210 229 255
210 229 255
210 229 255
209 229 255
210 229 255
209 229 255
209 229 255
209 229 255
208 228 255
209 229 255
209 229 255
208 228 252
209 229 254
208 228 253
209 229 255
210 229 255
209 229 254
209 229 255
209 229 255
209 229 254
209 229 254
210 229 255
210 229 254
211 230 255
210 229 254
212 230 254
211 230 254
213 231 255
212 230 253
212 231 254
213 231 254
213 231 254
213 231 252
213 230 250
214 231 252
215 231 250
214 230 249
213 230 250
215 231 253
213 229 252
216 231 251
215 230 251
193 209 237
94 123 187
93 122 187
82 113 178
84 115 180
82 113 182
101 128 185
82 112 174
91 120 177
82 112 171
103 129 177
78 109 172
62 98 165
63 98 157
66 101 164
68 102 159
71 105 156
71 105 157
67 101 149
66 100 154
61 97 156
61 96 154
62 97 156
74 106 147
78 109 153
60 95 150
61 97 159
61 97 162
61 97 161
60 96 157
61 97 162
61 97 154
61 97 163
62 98 159
61 98 167
60 96 161
60 96 158
61 97 164
60 95 152
61 97 162
61 97 153
61 97 159
61 97 160
61 97 162
60 96 158
61 97 156
61 97 159
61 96 156
61 97 160
61 97 161
61 96 156
61 97 163
61 97 154
61 97 151
61 97 159
61 97 159
61 97 154
60 95 158
62 98 160
62 98 157
60 96 154
61 97 157
61 98 160
61 98 160
61 97 157
61 97 159
62 98 162
62 99 166
62 98 160
62 98 166
62 97 161
62 98 162
61 97 162
62 98 164
61 97 158
62 98 160
61 97 149
61 97 162
62 99 169
61 97 152
62 99 168
62 98 155
62 98 161
62 98 158
62 98 157
63 99 168
62 98 162
63 99 165
63 98 161
62 98 158
61 97 159
62 98 163
62 98 159
61 97 154
62 98 163
62 98 161
61 98 160
62 98 159
62 98 157
62 99 164
61 97 156
61 97 154
61 97 153
62 98 159
61 97 152
62 98 160
62 98 165
62 98 159
60 95 137
61 97 159
62 97 161
61 97 155
62 98 156
61 97 153
62 98 158
62 98 159
61 97 153
63 98 156
62 98 153
63 98 157
61 96 152
62 98 162
62 97 155
61 96 153
61 97 153
60 95 144
61 96 149
61 97 153
60 96 148
62 97 150
61 97 149
61 96 144
60 96 141
61 97 148
61 96 141
61 96 148
61 96 152
61 97 149
61 97 151
60 94 138
61 96 144
60 95 138
59 93 136
58 92 136
60 93 135
59 91 126
113 114 31
127 132 0
133 133 0
119 113 0
114 103 0
105 95 0
114 104 0
112 100 0
111 102 0
109 102 0
117 108 0
108 101 0
115 107 0
119 111 0
119 111 0
113 105 0
111 105 0
117 111 0
122 112 0
119 114 0
123 117 0
122 114 0
115 109 0
120 114 0
121 115 0
126 119 0
121 116 0
124 119 0
127 121 0
123 119 0
132 124 0
131 123 0
127 121 0
129 123 0
134 128 0
133 126 0
135 128 0
133 126 0
133 126 0
132 126 0
131 126 0
141 136 0
140 133 0
133 127 0
137 132 0
135 128 0
141 132 0
144 138 0
137 131 0
138 132 0
136 130 0
137 131 0
138 132 0
141 134 0
142 134 0
140 133 0
138 131 0
143 136 0
144 138 0
139 132 0
143 136 0
143 134 0
142 133 0
144 135 0
142 133 0
147 138 0
145 137 0
146 135 0
146 137 0
147 137 0
145 136 0
146 134 0
145 133 0
143 131 0
146 143 0
155 162 0
160 168 0
160 169 0
160 169 0
162 171 0
163 175 0
160 171 0
162 173 0
166 176 0
165 177 0
166 178 0
163 174 0
168 180 0
166 179 0
167 179 0
166 180 0
167 181 0
165 180 0
167 181 0
169 184 0
165 177 0
169 184 0
167 183 0
166 182 0
169 185 0
170 186 0
166 182 0
167 184 0
166 184 0
168 186 0
169 187 0
169 185 0
168 186 0
168 184 0
170 188 0
168 186 0
170 190 0
172 190 0
168 186 0
170 188 0
172 191 0
170 190 0
171 191 0
170 189 0
168 187 0
171 189 0
170 188 0
174 192 0
172 192 0
171 190 0
172 192 0
173 195 0
169 190 0
171 192 0
171 193 0
171 191 0
171 191 0
172 193 0
172 193 0
170 190 0
173 195 0
171 190 0
169 189 0
173 193 0
170 192 0
172 192 0
171 192 0
170 191 0
173 193 0
172 192 0
171 191 0
171 192 0
172 192 0
173 195 0
173 194 0
172 196 0
171 195 0
173 196 0
172 195 0
171 195 0
172 195 0
173 196 0
169 192 0
173 197 0
172 195 0
173 196 0
175 198 0
170 193 0
173 196 0
171 195 0
170 192 0
170 194 0
173 196 0
171 195 0
171 194 0
172 195 0
172 195 0
172 195 0
179 202 88
182 203 111
184 205 108
192 212 149
185 206 117
181 202 102
180 202 88
181 202 88
181 202 88
177 200 62
178 202 92
180 203 92
196 215 167
220 233 245
221 235 250
220 234 248
221 235 254
218 233 250
218 233 250
216 231 248
216 232 250
216 232 250
214 231 249
214 231 249
214 231 249
214 231 252
212 230 252
212 230 248
212 230 253
211 230 252
212 230 253
212 231 255
211 230 255
211 230 254
210 230 255
210 229 255
209 229 255
210 229 255
209 229 255
208 228 254
207 227 250
208 228 248
206 226 241
203 223 233
204 223 227
206 225 231
201 220 214
206 224 226
197 216 194
204 222 214
203 221 211
196 215 189
194 213 189
196 215 191
200 219 201
198 217 199
198 217 198
196 215 196
200 219 207
200 219 209
199 219 211
206 225 236
207 226 240
206 226 240
208 228 248
210 229 254
210 229 255
211 230 255
212 230 255
212 230 255
212 231 255
212 230 254
212 230 250
213 231 253
214 231 252
213 230 248
213 230 251
213 229 253
215 231 254
209 226 250
215 231 253
219 234 255
180 197 231
86 116 181
86 116 177
74 107 173
79 111 177
77 109 174
94 122 179
87 117 179
81 112 174
94 122 177
92 120 175
83 113 176
64 100 168
61 98 169
64 100 162
65 100 162
64 99 159
73 106 155
61 97 158
63 98 159
65 100 155
66 101 162
67 101 160
72 104 152
84 114 143
62 98 161
59 95 154
61 98 166
61 98 163
60 95 151
61 97 153
60 96 145
60 96 155
59 95 155
60 96 156
61 97 160
61 97 160
61 97 156
61 98 169
60 96 158
61 97 163
61 97 152
61 97 158
62 99 164
63 99 164
61 97 157
62 98 157
62 98 164
61 97 159
60 96 153
61 97 158
61 98 164
61 97 160
61 97 162
61 97 163
62 98 162
63 99 164
62 98 167
62 98 161
61 97 159
61 97 156
61 97 159
62 98 161
62 97 154
62 98 161
61 97 152
61 98 163
62 97 163
63 99 165
62 98 160
61 97 158
61 97 156
61 97 157
62 98 163
61 97 155
62 97 157
61 97 158
62 98 163
62 98 164
62 98 159
61 97 156
61 97 155
60 96 151
61 97 157
62 98 159
62 98 160
62 98 165
62 98 158
62 98 159
62 97 156
62 98 164
61 97 158
60 96 152
63 99 168
62 98 157
62 98 156
61 97 158
61 97 153
62 98 162
62 97 155
62 98 155
62 98 154
62 98 162
61 97 152
61 96 151
62 97 156
62 97 159
61 97 159
62 98 160
61 97 149
62 97 154
62 98 159
62 98 154
62 97 153
61 97 155
62 98 154
61 97 151
62 98 158
61 97 153
60 95 147
62 98 158
62 97 153
60 96 149
61 97 151
62 97 147
61 96 152
62 97 156
61 96 154
61 97 149
62 98 156
61 97 151
61 97 149
61 95 146
61 97 153
61 96 142
59 93 128
60 95 141
61 96 145
61 95 140
61 95 140
61 96 142
61 95 145
59 92 130
60 94 130
64 93 131
132 139 0
123 123 0
128 130 0
121 122 0
110 108 0
120 114 0
102 90 0
111 97 0
111 101 0
108 99 0
103 95 0
106 96 0
122 113 0
108 101 0
113 106 0
116 107 0
107 99 0
111 102 0
113 106 0
111 105 0
113 106 0
123 116 0
126 117 0
120 113 0
128 121 0
122 115 0
127 120 0
118 112 0
125 119 0
126 120 0
124 118 0
125 117 0
132 125 0
133 126 0
131 123 0
130 123 0
124 117 0
134 126 0
129 122 0
138 130 0
132 123 0
140 131 0
135 130 0
135 130 0
137 129 0
140 132 0
139 132 0
134 128 0
133 125 0
142 134 0
142 134 0
140 132 0
140 135 0
140 133 0
139 131 0
140 131 0
142 132 0
145 137 0
140 130 0
144 135 0
145 134 0
147 138 0
138 130 0
143 134 0
144 135 0
144 136 0
144 133 0
145 133 0
144 134 0
140 129 0
143 132 0
141 129 0
146 135 0
157 160 0
159 164 0
161 170 0
165 172 0
158 166 0
164 173 0
162 171 0
163 174 0
163 172 0
170 184 0
161 170 0
165 175 0
163 174 0
165 176 0
168 181 0
165 179 0
169 183 0
169 183 0
162 172 0
163 176 0
169 185 0
164 178 0
168 184 0
167 182 0
172 190 0
166 182 0
168 180 0
168 184 0
169 185 0
172 187 0
169 186 0
167 186 0
168 185 0
169 186 0
167 185 0
172 190 0
171 189 0
169 187 0
170 189 0
168 185 0
168 187 0
172 190 0
169 186 0
170 188 0
169 188 0
172 192 0
169 187 0
167 185 0
171 192 0
172 191 0
170 189 0
172 192 0
169 189 0
172 192 0
170 189 0
171 192 0
170 192 0
172 192 0
172 193 0
170 191 0
174 195 0
170 191 0
173 195 0
172 193 0
171 191 0
172 189 0
172 194 0
171 191 0
173 194 0
171 191 0
173 194 0
172 195 0
172 193 0
174 197 0
170 192 0
170 191 0
171 192 0
169 193 0
170 194 0
174 197 0
171 195 0
171 195 0
173 196 0
172 196 0
172 195 0
173 196 0
170 194 0
172 196 0
169 192 0
174 197 0
172 196 0
175 198 0
171 194 0
169 192 0
170 194 0
170 193 0
168 192 0
172 195 0
174 197 57
183 205 105
184 205 122
180 202 105
183 204 111
185 207 122
181 202 95
178 201 88
178 201 95
175 198 62
179 202 92
180 203 92
189 209 137
215 230 233
223 236 252
221 235 253
220 234 250
219 234 254
218 234 253
217 232 248
217 233 252
216 232 249
215 232 252
213 230 246
212 229 248
213 230 250
213 231 254
211 229 248
212 230 253
211 230 253
212 230 255
210 229 254
211 230 255
210 229 255
209 229 255
209 229 255
209 229 255
209 228 253
206 227 246
204 223 231
205 224 224
204 222 221
200 219 198
197 216 201
197 216 188
201 220 201
203 221 204
203 221 204
204 222 211
198 217 193
201 219 204
202 220 204
205 223 217
202 220 206
204 221 204
206 223 215
206 224 214
200 218 199
204 221 212
205 223 209
203 221 209
199 217 198
197 216 193
200 219 196
198 217 191
195 214 189
194 213 175
201 220 207
202 221 214
206 225 228
207 226 240
210 229 250
211 230 255
212 230 255
212 230 255
213 231 254
214 231 255
212 230 249
213 231 254
210 228 253
212 229 252
211 227 251
215 231 253
213 230 252
213 228 251
148 168 212
71 106 180
79 111 181
79 111 177
91 120 182
87 117 181
87 116 178
89 118 179
83 113 180
80 111 179
77 109 172
77 109 173
61 98 164
62 98 168
61 98 167
61 97 159
68 102 159
67 101 159
66 100 155
63 98 162
66 101 155
61 97 156
66 101 159
66 99 144
76 108 141
73 106 156
61 96 147
61 97 159
60 95 153
60 95 153
61 98 159
60 96 150
60 96 150
59 95 145
60 95 153
60 95 147
61 97 156
60 96 161
61 96 155
61 97 157
61 98 166
61 97 158
60 96 153
61 97 159
61 96 153
59 95 148
60 96 157
61 97 160
61 97 158
61 97 161
62 99 170
62 98 160
61 97 158
62 98 165
62 98 163
62 98 157
61 97 155
61 96 153
61 97 155
62 98 165
62 98 163
62 98 163
62 98 162
62 98 157
61 97 161
62 99 168
62 98 162
61 97 157
61 97 156
62 98 159
61 97 148
62 98 161
62 98 160
61 97 159
62 98 161
63 99 163
61 97 153
61 96 157
62 98 156
61 97 159
61 96 152
62 98 160
62 98 162
62 97 160
63 99 162
62 98 160
62 98 154
62 97 157
62 98 157
61 96 151
62 98 158
61 97 156
62 98 162
61 97 153
61 97 155
62 98 160
61 97 157
61 97 158
62 98 161
61 97 156
62 98 163
62 98 162
62 98 156
62 97 155
62 98 158
61 97 150
60 96 153
62 98 159
62 97 155
62 98 159
62 97 154
62 98 157
62 98 157
61 97 153
62 98 156
62 97 152
62 97 150
61 96 148
61 97 154
62 98 156
61 97 154
61 96 149
61 97 145
62 97 155
62 97 158
61 97 151
63 98 156
61 96 141
61 97 153
61 96 152
60 95 141
60 96 142
61 96 148
61 96 142
61 96 143
62 96 148
60 95 136
61 95 147
60 95 141
60 93 135
59 92 123
60 94 135
60 93 133
78 95 106
132 129 0
120 124 0
122 124 0
129 132 0
122 122 0
113 113 0
116 117 0
105 94 0
103 89 0
106 96 0
105 96 0
108 99 0
108 99 0
112 102 0
110 100 0
101 95 0
111 102 0
103 94 0
114 104 0
116 108 0
119 111 0
108 98 0
124 113 0
117 109 0
128 120 0
113 104 0
128 122 0
119 113 0
124 118 0
128 121 0
129 119 0
127 122 0
127 116 0
132 126 0
129 123 0
132 124 0
132 126 0
133 125 0
132 123 0
136 127 0
136 128 0
136 129 0
131 122 0
137 128 0
138 129 0
134 126 0
137 128 0
140 132 0
135 127 0
138 132 0
140 134 0
141 132 0
136 127 0
140 131 0
139 130 0
146 136 0
144 134 0
140 130 0
139 129 0
139 129 0
147 137 0
144 133 0
143 133 0
146 134 0
144 132 0
138 127 0
145 134 0
142 130 0
143 129 0
144 131 0
143 132 0
152 152 0
157 160 0
162 171 0
163 171 0
158 163 0
161 168 0
163 173 0
160 167 0
165 174 0
167 180 0
163 171 0
163 174 0
164 176 0
163 175 0
171 189 0
164 175 0
163 175 0
166 179 0
166 178 0
164 176 0
166 180 0
164 179 0
166 181 0
168 182 0
165 178 0
168 184 0
169 186 0
166 180 0
167 184 0
166 182 0
168 184 0
169 187 0
170 188 0
171 189 0
168 187 0
167 186 0
168 182 0
171 190 0
169 187 0
169 188 0
171 191 0
169 189 0
170 189 0
169 188 0
169 186 0
170 190 0
170 188 0
167 184 0
171 190 0
170 188 0
170 190 0
170 190 0
171 191 0
172 191 0
172 191 0
173 192 0
172 192 0
167 186 0
170 189 0
171 193 0
172 193 0
170 191 0
172 192 0
171 191 0
170 191 0
172 193 0
171 191 0
172 194 0
169 190 0
172 191 0
169 190 0
173 195 0
173 195 0
173 193 0
171 192 0
172 193 0
171 193 0
170 192 0
172 194 0
173 196 0
167 190 0
173 196 0
171 195 0
170 194 0
173 196 0
171 194 0
172 195 0
174 198 0
171 195 0
172 196 0
170 194 0
176 198 0
169 192 0
169 193 0
171 194 0
172 196 0
174 196 0
173 196 0
172 195 0
175 197 72
187 207 137
185 206 111
184 205 105
181 203 108
180 203 95
181 203 108
181 203 95
179 202 92
178 201 84
179 202 84
187 208 128
207 224 206
222 236 252
221 234 248
220 234 249
219 234 252
219 234 253
218 233 253
214 231 245
216 232 253
215 232 252
214 231 249
213 230 245
213 231 252
214 231 255
211 229 250
211 230 253
212 230 254
212 230 255
211 230 255
210 229 255
209 228 254
209 229 255
209 228 254
206 225 241
205 224 231
202 221 215
201 220 207
197 216 191
199 218 198
201 219 196
203 221 209
203 221 201
205 223 207
206 223 220
203 220 207
205 222 212
209 225 221
204 221 214
208 224 220
205 221 212
206 223 214
211 227 226
211 227 224
215 230 234
208 224 218
216 231 238
208 223 220
209 224 221
208 225 221
209 224 224
209 225 220
209 225 220
209 225 218
206 223 212
201 218 211
206 222 209
208 224 215
202 220 207
194 213 184
198 216 193
201 219 194
200 219 201
203 221 221
209 228 241
210 229 252
212 230 255
213 231 255
212 230 253
210 228 253
210 228 252
213 230 254
213 230 253
214 230 254
215 231 254
216 232 254
136 158 203
86 116 182
84 115 183
76 108 176
71 105 174
95 123 184
87 117 180
77 109 177
79 110 176
101 128 186
86 116 180
87 116 176
62 99 172
61 97 162
60 96 157
60 96 158
61 97 156
64 99 161
63 98 160
69 104 162
65 99 159
60 96 166
69 102 149
63 97 149
70 103 148
61 97 156
60 96 151
62 98 159
59 94 154
61 96 150
62 98 161
61 96 154
59 95 155
60 95 150
60 96 158
61 96 156
61 97 156
62 98 162
59 95 157
60 96 156
59 95 155
61 96 155
61 97 157
61 97 161
62 99 168
62 98 160
61 97 156
62 98 160
60 96 157
62 98 166
60 95 150
61 96 157
61 97 159
61 97 154
60 96 149
61 97 160
61 97 155
62 97 153
61 97 159
61 98 163
61 97 162
62 98 165
61 97 157
61 97 155
61 97 154
62 98 162
61 97 158
61 97 158
62 98 156
61 97 155
61 97 159
62 98 159
63 99 163
62 98 163
62 98 161
62 98 155
63 99 163
61 96 151
61 97 152
63 99 166
62 97 157
61 97 158
62 97 158
61 97 154
62 97 161
62 98 161
62 98 159
62 98 160
62 98 159
61 97 159
61 97 156
62 98 157
63 99 164
62 98 160
61 97 155
63 98 160
61 97 154
62 98 157
62 98 157
61 97 157
62 98 159
61 97 157
62 97 157
62 98 159
62 98 158
62 97 156
61 97 155
62 97 157
62 98 158
61 97 157
62 97 156
61 97 150
61 97 151
61 97 154
62 97 149
62 97 152
61 97 150
62 98 158
61 97 156
61 96 151
61 96 148
61 96 141
60 96 145
62 98 153
62 98 156
62 97 152
61 96 145
60 95 139
61 96 144
61 95 148
61 96 149
61 97 150
61 95 140
61 96 145
62 97 148
59 93 132
61 95 138
60 94 130
59 93 134
60 94 133
61 95 142
58 90 126
92 106 87
126 127 0
126 130 0
119 120 0
124 127 0
125 126 0
116 115 0
117 117 0
109 106 0
113 106 0
107 97 0
102 88 0
104 93 0
105 95 0
110 98 0
104 93 0
107 97 0
117 109 0
107 98 0
123 114 0
122 113 0
116 109 0
122 111 0
119 108 0
118 111 0
117 109 0
123 114 0
124 115 0
118 110 0
127 120 0
127 117 0
117 109 0
124 118 0
128 118 0
129 121 0
127 118 0
133 125 0
129 121 0
132 126 0
138 129 0
130 123 0
132 124 0
130 122 0
139 132 0
134 127 0
138 130 0
134 125 0
134 127 0
141 131 0
139 130 0
137 130 0
140 130 0
144 134 0
141 132 0
139 129 0
144 133 0
136 128 0
137 129 0
144 135 0
137 127 0
141 129 0
139 127 0
141 130 0
141 130 0
142 132 0
146 134 0
141 129 0
139 124 0
141 126 0
140 126 0
151 147 0
158 164 0
158 164 0
155 165 0
156 163 0
158 165 0
161 170 0
163 170 0
163 170 0
158 168 0
163 175 0
164 176 0
163 172 0
166 178 0
164 174 0
162 172 0
160 171 0
166 178 0
165 178 0
165 178 0
167 182 0
166 181 0
165 177 0
166 179 0
167 184 0
166 181 0
166 182 0
163 177 0
170 188 0
167 185 0
168 183 0
164 179 0
166 183 0
168 186 0
168 184 0
168 184 0
169 187 0
169 187 0
168 186 0
169 188 0
170 187 0
170 188 0
164 183 0
170 188 0
170 190 0
169 187 0
168 186 0
168 187 0
167 184 0
171 190 0
170 190 0
170 190 0
170 190 0
170 190 0
168 187 0
171 189 0
170 190 0
171 192 0
169 189 0
171 191 0
170 191 0
170 192 0
173 194 0
171 191 0
172 192 0
168 189 0
169 188 0
171 193 0
171 194 0
173 195 0
170 190 0
171 190 0
172 194 0
172 193 0
171 192 0
170 190 0
172 192 0
172 194 0
171 193 0
171 193 0
174 195 0
171 194 0
175 198 0
169 193 0
173 197 0
172 196 0
172 194 0
174 196 0
170 194 0
174 196 0
168 192 0
171 194 0
171 195 0
171 195 0
174 197 0
170 194 0
168 192 0
170 194 0
171 195 0
175 198 0
181 202 99
186 206 135
180 201 114
182 203 122
182 204 105
183 205 108
183 204 108
181 203 102
180 203 99
176 199 62
177 200 62
195 214 161
220 234 245
220 234 249
221 235 253
220 234 250
219 234 253
218 233 252
217 233 250
216 232 252
216 232 254
214 231 248
213 231 252
213 230 250
213 230 250
212 230 252
212 230 253
212 230 254
211 230 255
211 230 255
210 229 255
209 229 255
209 228 253
207 227 244
201 221 218
201 220 209
201 220 207
198 216 201
201 220 212
204 221 212
202 220 209
208 225 227
207 223 218
213 229 233
211 228 231
209 225 217
208 225 215
212 227 227
208 225 215
199 216 184
199 217 186
192 212 161
190 209 153
187 207 147
191 210 151
184 205 135
183 205 125
181 202 108
184 205 137
183 204 135
179 202 114
184 204 120
185 205 128
185 205 133
192 212 159
193 212 165
193 212 163
200 217 188
208 224 214
209 225 217
203 220 201
210 225 224
204 221 206
208 225 218
202 219 206
198 217 191
198 216 193
203 221 204
204 222 220
206 224 235
209 228 254
209 228 253
209 227 252
211 229 254
211 229 254
208 225 251
210 227 250
211 228 250
206 222 248
102 129 191
86 117 184
75 108 180
79 111 181
86 116 184
91 120 188
94 123 188
84 114 175
74 107 175
89 119 182
96 123 174
75 108 176
61 98 165
62 98 169
62 98 165
61 97 165
61 97 167
65 99 154
67 101 153
67 101 156
61 97 160
69 103 156
65 99 156
65 99 157
70 103 157
66 100 153
60 95 153
61 97 160
61 97 161
59 94 145
60 96 148
62 97 152
60 96 157
61 98 167
61 97 153
60 96 157
61 98 167
62 98 167
60 96 155
60 96 159
61 97 163
61 96 161
60 96 150
61 97 161
60 96 153
61 97 161
61 97 152
60 95 155
62 98 163
62 98 165
62 98 160
61 98 163
61 97 158
61 97 159
59 95 155
61 97 155
60 96 153
61 97 159
61 97 159
62 97 159
62 98 159
62 98 159
61 97 157
61 97 156
62 98 157
62 98 159
62 98 165
61 98 162
61 96 153
62 98 161
62 98 162
61 97 160
63 99 163
62 98 158
61 98 163
61 97 151
62 98 156
61 96 152
63 99 161
63 99 163
62 98 160
63 98 161
63 99 163
61 97 154
62 98 157
62 98 159
62 98 155
62 98 160
62 98 163
61 97 152
62 97 154
61 97 157
61 96 144
61 97 155
62 98 166
60 96 147
61 97 151
62 98 161
62 98 155
61 96 147
62 98 155
61 97 150
61 97 151
61 96 142
61 97 152
62 97 150
62 97 154
61 98 160
61 97 150
61 97 150
61 97 148
61 97 157
61 96 144
62 98 153
62 97 152
60 95 140
61 96 147
61 97 152
62 97 153
61 97 148
61 96 151
61 97 150
62 97 153
61 96 152
61 97 151
62 98 153
60 95 134
61 96 147
60 95 141
61 96 141
62 96 148
60 95 144
60 95 140
60 95 142
61 95 141
59 94 136
60 94 130
60 94 134
59 93 128
61 96 142
59 93 135
113 121 41
118 123 0
126 129 0
128 132 0
114 115 0
123 124 0
117 120 0
118 117 0
115 115 0
108 108 0
121 118 0
114 109 0
100 89 0
107 94 0
110 97 0
115 104 0
112 102 0
112 102 0
110 99 0
102 94 0
116 106 0
118 106 0
118 107 0
123 114 0
115 106 0
126 117 0
121 112 0
117 107 0
122 111 0
120 110 0
125 115 0
120 111 0
127 117 0
129 121 0
131 120 0
129 120 0
131 122 0
127 119 0
133 122 0
135 128 0
130 120 0
133 124 0
131 123 0
134 125 0
128 118 0
136 128 0
138 126 0
134 124 0
131 124 0
138 128 0
133 124 0
136 127 0
139 131 0
142 131 0
140 132 0
136 126 0
141 130 0
139 128 0
137 128 0
140 130 0
140 129 0
136 124 0
145 133 0
147 136 0
141 129 0
142 129 0
141 127 0
143 132 0
149 145 0
157 161 0
154 157 0
157 162 0
157 163 0
159 167 0
157 164 0
162 171 0
158 166 0
160 166 0
161 171 0
160 168 0
160 165 0
165 174 0
165 177 0
163 173 0
166 179 0
162 172 0
167 182 0
165 178 0
168 182 0
168 184 0
165 179 0
166 179 0
163 174 0
164 176 0
167 182 0
162 175 0
168 181 0
168 183 0
165 178 0
167 181 0
169 187 0
167 181 0
170 187 0
170 187 0
169 185 0
167 184 0
164 182 0
167 185 0
169 186 0
167 188 0
169 184 0
170 188 0
167 186 0
169 188 0
171 188 0
171 191 0
170 188 0
170 190 0
169 188 0
171 189 0
173 192 0
170 188 0
172 191 0
171 190 0
171 190 0
169 188 0
171 190 0
169 186 0
170 189 0
169 187 0
171 191 0
170 189 0
169 190 0
173 194 0
167 188 0
172 192 0
170 192 0
169 190 0
173 193 0
169 188 0
171 192 0
172 194 0
174 194 0
172 192 0
172 193 0
173 194 0
170 192 0
172 192 0
172 194 0
172 194 0
171 192 0
173 197 0
175 198 0
170 193 0
174 196 0
171 194 0
176 198 0
173 196 0
168 192 0
170 194 0
172 195 0
173 196 0
172 196 0
170 194 0
173 197 0
171 196 0
170 195 0
170 194 0
174 197 0
185 205 130
185 206 125
190 210 144
182 204 108
180 202 102
182 204 108
180 202 88
175 198 62
179 202 95
179 201 80
182 204 99
212 228 223
220 234 249
221 235 252
220 235 252
217 232 244
217 233 250
217 233 253
216 232 250
215 231 249
215 232 253
214 231 252
213 230 248
213 230 252
211 230 250
211 230 255
212 230 255
211 230 254
211 230 255
209 229 255
209 229 255
205 224 237
199 219 212
200 218 201
203 221 211
196 215 186
202 220 206
200 218 193
207 224 214
202 219 211
208 225 214
205 222 211
214 229 233
200 217 201
200 218 191
192 212 167
184 205 140
180 203 108
173 197 67
173 197 88
173 196 67
175 199 76
175 198 76
173 197 67
176 199 62
173 195 51
172 196 51
177 200 92
175 199 67
173 197 62
171 196 76
172 196 62
171 195 92
173 197 72
171 195 72
174 198 84
176 199 92
176 199 76
174 198 76
171 194 51
175 198 88
178 201 99
180 201 117
189 209 147
197 215 186
208 224 209
205 221 215
207 223 217
203 220 207
195 213 186
189 207 192
178 196 197
188 206 223
191 210 227
206 224 250
211 229 254
210 228 254
213 231 255
212 229 253
212 229 254
199 216 244
91 121 189
83 114 185
74 107 181
81 113 182
88 118 183
82 114 182
87 117 180
84 115 181
82 112 178
72 105 175
80 111 180
80 112 175
62 98 169
62 99 171
61 97 162
61 98 165
61 97 160
61 97 161
65 100 163
63 99 162
66 100 148
65 100 160
67 101 154
65 99 149
62 97 151
72 105 147
60 96 153
60 96 149
60 96 153
61 97 159
59 95 148
60 96 158
60 95 150
60 96 153
61 96 149
61 97 155
61 97 154
61 97 154
59 94 150
60 96 160
61 96 153
60 96 152
62 98 158
62 98 161
61 97 161
61 97 157
61 96 160
62 97 158
61 97 161
62 97 156
61 97 158
61 97 162
61 98 163
60 96 151
60 96 153
61 97 159
62 97 157
62 98 161
62 98 158
61 97 157
61 96 153
62 98 161
61 98 164
62 98 163
61 97 160
62 98 161
62 98 157
61 97 158
61 97 154
61 97 154
61 97 154
61 96 154
61 97 157
60 95 142
62 97 162
62 98 160
62 97 157
60 96 151
62 98 166
61 97 158
62 97 155
62 97 149
61 96 149
62 98 154
62 98 155
61 96 150
62 97 156
60 96 147
62 97 156
61 97 152
60 96 154
61 97 150
61 97 156
61 97 158
61 97 153
62 98 159
62 97 153
62 97 156
63 99 160
62 98 159
62 98 157
62 98 161
61 97 156
62 97 155
62 98 154
62 97 157
62 97 158
61 97 157
61 97 150
62 98 159
61 96 152
62 98 159
61 96 152
62 97 156
62 97 152
60 95 145
62 97 151
61 96 147
62 98 156
62 97 153
61 97 152
61 96 144
62 97 151
62 97 150
61 97 153
62 97 150
61 96 145
61 96 142
61 96 141
62 97 155
60 95 140
61 96 147
60 95 147
60 95 141
59 94 134
61 96 149
61 95 140
59 93 128
59 92 124
63 92 111
113 117 8
122 126 0
123 128 0
126 129 0
119 122 0
120 121 0
107 108 0
117 115 0
109 106 0
120 119 0
116 116 0
120 123 0
113 112 0
114 105 0
97 85 0
103 91 0
106 94 0
104 91 0
105 91 0
106 95 0
109 97 0
121 109 0
112 101 0
111 102 0
110 101 0
115 104 0
120 112 0
124 114 0
122 114 0
118 108 0
114 105 0
121 111 0
128 119 0
121 111 0
125 116 0
125 116 0
129 118 0
130 119 0
129 120 0
125 115 0
131 122 0
133 123 0
131 122 0
134 123 0
135 125 0
130 121 0
138 127 0
138 128 0
132 123 0
139 129 0
136 126 0
135 125 0
133 119 0
136 125 0
135 125 0
144 133 0
135 126 0
139 129 0
143 130 0
137 125 0
140 129 0
140 128 0
142 129 0
136 123 0
148 133 0
142 130 0
147 143 0
148 149 0
153 154 0
156 162 0
156 161 0
162 169 0
155 163 0
157 163 0
154 159 0
160 168 0
164 172 0
160 169 0
157 165 0
159 167 0
165 176 0
166 177 0
163 174 0
164 173 0
160 173 0
167 177 0
163 175 0
166 178 0
165 179 0
164 175 0
162 175 0
169 182 0
165 179 0
166 179 0
168 181 0
167 180 0
167 181 0
165 182 0
166 182 0
164 177 0
166 182 0
168 184 0
167 182 0
168 185 0
167 185 0
170 186 0
169 188 0
169 186 0
167 183 0
169 186 0
166 182 0
167 186 0
169 186 0
168 188 0
171 189 0
169 188 0
168 186 0
170 188 0
170 187 0
170 186 0
168 186 0
171 193 0
170 190 0
171 192 0
172 193 0
174 195 0
169 189 0
171 190 0
169 186 0
169 189 0
166 187 0
170 189 0
172 193 0
173 194 0
171 192 0
172 192 0
169 189 0
171 191 0
172 193 0
168 187 0
172 193 0
170 191 0
172 194 0
170 191 0
171 193 0
168 188 0
171 192 0
171 192 0
171 192 0
171 193 0
170 191 0
173 197 0
167 191 0
174 197 0
174 198 0
168 192 0
171 195 0
171 195 0
174 198 0
172 196 0
171 195 0
173 196 0
169 192 0
168 192 0
169 192 0
173 195 0
171 195 0
172 195 36
184 205 117
185 205 130
183 205 111
181 203 108
179 202 105
182 203 95
183 204 111
177 201 80
179 202 88
180 202 80
188 209 133
218 232 238
220 234 248
218 233 246
220 235 252
219 234 250
218 234 254
218 234 254
216 233 252
214 231 248
213 231 250
213 231 253
212 230 252
212 230 252
212 230 254
211 230 255
211 230 254
210 229 255
209 229 255
208 228 253
206 225 231
202 220 207
203 222 214
201 219 211
199 218 196
206 223 215
202 219 207
209 225 220
213 228 234
210 226 221
199 217 193
197 215 186
181 202 117
179 201 114
177 200 80
173 197 72
175 198 72
175 198 72
176 199 51
172 197 57
173 197 84
172 195 44
169 193 57
175 198 57
172 196 80
168 192 67
174 197 62
176 199 88
176 200 88
174 198 76
171 195 72
173 197 76
174 197 72
176 200 76
174 198 67
174 198 62
176 199 67
174 198 67
174 198 80
174 198 62
171 194 25
176 200 84
174 197 67
171 195 67
176 199 76
175 199 76
171 194 62
178 200 102
186 206 140
189 210 155
197 214 194
179 197 194
160 181 175
138 160 175
142 164 174
152 173 194
166 186 205
203 221 246
208 226 252
213 230 255
209 227 252
213 230 254
186 204 236
87 117 187
76 109 183
88 119 187
68 103 174
86 117 181
82 113 181
79 111 178
82 113 178
74 107 177
87 117 177
77 109 179
83 113 176
62 98 170
63 99 164
62 98 166
60 96 157
65 101 164
62 98 164
62 97 153
73 106 157
65 100 153
64 98 148
68 102 159
63 96 145
62 96 148
67 101 149
60 95 150
61 97 158
60 96 153
61 97 160
61 97 157
61 97 155
60 96 158
61 97 161
59 95 147
61 97 157
61 96 154
61 97 154
60 96 155
61 97 158
61 97 157
60 96 154
60 95 153
61 98 160
61 97 158
61 96 151
61 97 162
60 97 157
61 97 157
61 97 157
63 99 167
62 97 158
61 97 153
61 97 162
61 97 159
63 99 162
59 95 148
61 97 160
60 95 157
61 97 155
61 97 161
61 96 153
61 97 153
61 97 158
61 97 155
61 97 160
62 98 158
61 97 152
61 97 152
61 97 154
60 96 149
61 96 153
61 96 153
62 98 161
63 99 162
61 97 156
62 98 156
61 97 156
62 98 156
61 97 161
62 98 160
61 97 156
61 96 152
60 96 151
60 96 150
62 98 162
62 97 153
62 98 160
63 99 165
61 96 148
62 97 148
61 97 149
60 96 149
61 97 156
61 96 149
62 98 158
60 96 151
62 98 154
61 97 153
63 99 159
62 98 153
62 97 156
61 97 149
61 96 148
61 97 153
61 96 141
61 96 150
61 96 151
61 96 149
62 98 158
62 97 152
62 98 154
61 96 148
62 97 148
62 97 148
60 96 144
62 98 153
60 95 147
61 96 147
62 98 149
60 96 144
61 96 145
61 96 149
61 96 154
62 97 150
60 95 141
61 96 148
61 96 144
61 96 144
61 96 142
59 93 129
60 94 137
60 95 145
60 94 133
61 96 144
60 93 131
59 93 124
59 92 125
84 102 97
118 121 0
128 131 0
124 129 0
130 134 0
121 124 0
121 123 0
120 122 0
105 103 0
120 121 0
116 114 0
119 116 0
113 112 0
115 112 0
112 110 0
114 112 0
99 95 0
116 106 0
101 87 0
103 91 0
108 94 0
110 98 0
106 95 0
110 100 0
114 103 0
117 107 0
109 98 0
114 102 0
119 106 0
119 107 0
120 109 0
121 110 0
124 114 0
117 106 0
121 112 0
124 115 0
123 112 0
122 111 0
128 118 0
135 123 0
126 115 0
130 121 0
127 117 0
130 119 0
135 123 0
131 122 0
132 120 0
133 124 0
136 125 0
134 123 0
134 122 0
135 121 0
132 120 0
137 124 0
133 121 0
135 125 0
135 122 0
146 134 0
136 125 0
132 118 0
140 125 0
138 125 0
139 124 0
134 119 0
136 124 0
146 146 0
152 154 0
158 162 0
152 156 0
154 158 0
153 154 0
158 165 0
153 155 0
162 169 0
161 169 0
153 158 0
158 165 0
159 168 0
159 168 0
155 164 0
161 170 0
161 172 0
165 178 0
159 168 0
162 173 0
170 185 0
161 174 0
164 178 0
166 176 0
160 170 0
162 174 0
167 182 0
164 177 0
167 181 0
163 176 0
166 179 0
167 183 0
168 182 0
165 177 0
169 185 0
168 186 0
166 181 0
168 183 0
166 182 0
168 184 0
168 186 0
167 185 0
171 189 0
166 182 0
170 189 0
170 188 0
167 186 0
167 182 0
169 187 0
169 187 0
167 185 0
170 189 0
170 188 0
170 188 0
168 187 0
168 187 0
167 185 0
167 186 0
168 187 0
170 191 0
171 191 0
170 190 0
167 185 0
171 192 0
170 191 0
171 192 0
168 188 0
172 193 0
172 192 0
169 188 0
169 189 0
172 192 0
173 194 0
170 190 0
172 194 0
170 190 0
171 192 0
172 193 0
172 195 0
171 191 0
172 193 0
172 194 0
170 192 0
171 192 0
171 193 0
171 193 0
171 193 0
173 196 0
172 196 0
174 197 0
168 192 0
172 196 0
170 194 0
172 195 0
171 194 0
170 194 0
169 192 0
174 197 0
174 197 0
171 194 0
173 195 0
173 196 0
173 196 51
184 205 117
184 205 114
179 201 80
184 205 120
182 204 105
178 201 95
178 201 76
179 201 76
180 202 88
178 201 72
204 220 188
223 236 254
221 235 252
219 233 249
217 232 245
219 235 255
216 232 246
217 232 250
216 232 250
213 230 248
212 230 248
212 230 248
212 230 254
212 230 250
212 230 255
211 230 255
211 230 255
210 229 255
208 227 244
205 224 227
205 223 220
196 216 186
200 218 198
210 227 227
207 223 221
208 224 223
212 227 227
210 226 215
193 212 167
186 206 142
180 203 102
175 199 84
174 197 80
174 198 72
175 199 72
173 196 67
173 197 72
173 197 76
172 196 80
175 198 67
174 198 88
171 195 57
173 196 80
175 199 67
176 199 76
176 199 62
173 197 88
175 199 84
176 199 57
175 199 76
174 197 76
176 198 72
174 197 72
173 197 72
173 197 76
176 199 76
174 196 72
174 198 92
174 197 67
176 199 72
177 200 80
175 199 80
172 196 80
172 196 72
175 198 72
170 193 72
174 198 84
174 197 44
176 199 84
174 196 72
174 197 57
138 164 135
118 144 158
109 136 157
126 151 147
110 137 150
110 136 172
99 127 159
108 134 149
151 173 195
195 213 236
212 229 254
211 229 254
212 229 253
169 188 227
76 109 183
79 111 185
69 104 179
79 111 181
84 115 184
71 105 177
89 118 180
74 107 176
90 119 182
68 103 173
85 115 180
82 113 171
65 100 171
62 98 167
60 97 160
61 97 160
60 96 158
60 96 156
60 97 164
64 99 159
65 99 155
66 100 155
69 102 151
62 97 159
60 95 150
60 95 146
63 98 155
60 96 157
60 96 150
60 96 154
61 96 158
59 95 153
61 97 161
60 95 150
61 96 152
61 97 159
61 96 155
61 97 154
61 96 153
60 95 155
59 94 147
61 96 156
61 97 161
62 98 161
60 96 156
60 95 151
60 96 153
60 96 157
61 96 147
60 96 150
61 96 149
61 96 158
61 96 158
61 97 154
62 98 161
60 96 151
61 97 162
60 95 146
62 98 155
62 98 157
62 98 158
61 97 155
61 96 154
61 97 156
61 97 154
61 97 163
63 99 163
61 97 155
61 96 147
62 98 160
61 97 156
61 97 152
62 97 157
62 97 156
61 97 151
62 98 156
61 97 157
61 97 155
62 98 163
60 95 143
62 98 159
62 98 159
61 97 151
62 97 156
62 97 151
61 97 149
61 97 154
61 97 153
63 98 157
61 97 153
61 97 150
61 96 144
62 98 158
61 96 149
62 97 152
61 97 152
62 97 147
61 97 155
61 96 150
61 97 156
62 98 155
62 97 155
61 97 148
63 99 159
61 96 148
61 97 150
62 97 150
62 98 153
61 96 147
62 98 156
61 97 150
63 99 161
61 96 153
62 97 154
61 96 148
61 96 148
62 97 153
61 96 154
61 97 147
60 95 142
61 96 147
61 96 145
61 95 140
59 94 135
61 96 140
60 94 133
60 95 141
61 96 141
61 96 145
60 95 139
60 95 142
59 93 128
60 94 140
60 94 134
60 94 137
61 94 136
59 93 132
102 117 87
123 127 0
124 128 0
129 136 0
121 123 0
125 129 0
116 116 0
117 119 0
115 116 0
116 117 0
112 114 0
114 113 0
119 122 0
116 116 0
114 113 0
121 121 0
111 109 0
102 97 0
103 98 0
104 95 0
115 103 0
107 92 0
102 89 0
103 90 0
108 93 0
118 105 0
116 105 0
116 104 0
127 114 0
114 102 0
123 110 0
113 100 0
124 112 0
124 112 0
125 112 0
123 111 0
121 108 0
128 118 0
122 112 0
129 118 0
119 107 0
124 115 0
133 122 0
123 111 0
137 126 0
127 117 0
134 120 0
134 124 0
134 121 0
132 118 0
135 125 0
133 121 0
137 123 0
136 124 0
133 120 0
134 122 0
139 126 0
134 120 0
134 121 0
132 116 0
139 125 0
140 128 0
148 146 0
153 157 0
150 153 0
152 153 0
151 154 0
158 163 0
151 154 0
155 160 0
158 163 0
155 161 0
151 156 0
159 165 0
159 164 0
160 170 0
152 158 0
156 165 0
163 168 0
162 170 0
159 167 0
157 164 0
163 174 0
165 179 0
164 176 0
161 171 0
165 177 0
158 167 0
167 181 0
166 179 0
164 175 0
165 180 0
167 181 0
165 180 0
166 179 0
164 176 0
164 177 0
164 178 0
165 179 0
167 181 0
162 173 0
168 182 0
168 182 0
169 186 0
168 183 0
165 181 0
170 188 0
169 187 0
167 182 0
168 186 0
173 191 0
170 187 0
168 187 0
171 189 0
170 187 0
168 188 0
170 190 0
169 187 0
169 188 0
170 190 0
168 186 0
169 190 0
169 189 0
172 191 0
170 192 0
170 191 0
170 190 0
170 189 0
170 190 0
171 191 0
170 189 0
170 190 0
170 189 0
172 192 0
169 190 0
172 192 0
172 191 0
170 190 0
169 190 0
172 194 0
169 189 0
171 192 0
171 192 0
173 193 0
172 192 0
171 191 0
173 194 0
170 192 0
170 192 0
171 191 0
170 193 0
169 192 0
171 194 0
172 195 0
170 194 0
168 192 0
172 196 0
168 192 0
171 194 0
170 193 0
171 194 0
171 194 0
173 197 0
171 194 0
172 196 0
172 195 0
176 198 57
184 205 114
187 207 120
181 202 102
184 206 114
181 202 102
182 203 88
181 204 102
177 200 80
181 203 102
180 202 84
210 226 218
223 237 254
222 236 254
220 234 250
219 234 252
217 233 250
217 232 249
216 232 250
216 232 253
214 231 249
214 231 253
213 231 252
211 229 249
212 230 254
211 230 255
211 230 255
210 229 255
206 225 240
202 221 211
199 218 193
196 215 181
202 220 204
209 225 220
211 227 224
208 224 223
205 222 212
192 211 157
182 203 128
174 197 51
177 200 80
174 199 88
174 197 62
176 200 80
173 196 44
175 198 62
173 197 57
176 199 67
175 199 67
172 196 57
171 195 62
174 198 76
175 198 84
171 193 51
172 197 76
175 198 76
173 197 72
176 199 76
175 199 67
176 199 57
175 198 72
176 199 67
175 199 84
173 198 76
172 196 80
175 198 67
176 199 76
173 197 72
175 198 57
171 195 44
175 199 95
173 196 76
170 195 51
175 199 76
176 198 76
171 195 80
174 198 84
174 198 62
173 197 76
175 198 67
172 196 57
173 196 72
168 192 76
97 126 152
104 131 152
107 134 164
98 126 161
113 139 151
117 143 157
110 138 154
113 140 165
112 138 159
106 133 175
144 167 193
186 205 228
210 228 252
212 229 252
167 187 226
78 111 183
68 103 179
76 109 181
82 113 181
84 115 182
87 117 182
104 131 193
68 102 166
87 117 179
76 108 175
103 129 186
72 105 171
63 99 165
62 98 167
61 97 165
62 98 155
60 96 168
63 98 163
60 95 155
62 98 158
66 100 156
64 99 149
63 98 160
65 98 143
65 99 149
64 98 149
62 97 153
60 95 153
59 94 153
60 95 151
59 95 151
60 95 150
60 95 147
61 97 161
60 95 147
59 95 151
61 96 155
60 96 159
60 96 150
61 97 154
61 97 159
61 97 155
61 97 152
61 97 156
61 97 158
60 96 153
61 97 154
61 97 157
61 96 148
60 95 152
60 95 154
59 95 144
62 98 159
61 97 163
60 95 145
61 97 156
62 98 162
61 97 152
60 96 145
61 97 150
61 97 152
61 97 147
62 98 159
61 97 158
60 95 144
61 97 156
61 97 151
62 99 167
61 97 157
60 96 152
62 98 164
61 97 156
60 95 140
62 98 157
62 97 161
61 97 159
61 96 154
62 98 160
61 96 153
60 96 145
61 97 160
61 97 154
62 98 156
61 97 156
62 98 159
61 97 156
61 97 152
62 98 157
61 97 150
61 97 155
62 98 155
61 97 153
62 97 149
62 97 156
61 97 154
61 97 150
62 97 152
61 97 150
60 95 142
61 97 150
62 97 155
62 97 155
61 97 150
61 96 154
61 97 151
61 96 150
60 96 152
61 97 150
60 96 142
62 97 149
62 97 155
61 97 147
61 96 143
61 97 152
61 96 147
61 97 151
61 96 143
60 95 141
62 97 151
59 94 134
62 97 154
61 97 150
61 95 142
60 95 143
61 96 142
61 96 137
61 97 149
62 97 151
61 95 141
62 97 142
61 96 138
60 93 137
60 94 135
58 91 125
60 93 135
58 90 129
120 128 52
127 132 0
112 117 0
118 122 0
127 130 0
110 114 0
132 134 0
120 124 0
127 129 0
118 122 0
119 121 0
113 113 0
120 118 0
108 106 0
121 118 0
106 101 0
112 110 0
109 106 0
109 104 0
113 110 0
100 96 0
109 102 0
102 92 0
103 89 0
101 90 0
103 88 0
108 95 0
110 94 0
121 110 0
113 99 0
114 100 0
119 105 0
114 103 0
120 106 0
132 118 0
124 110 0
126 116 0
117 103 0
119 105 0
120 106 0
126 112 0
128 116 0
132 119 0
131 118 0
128 117 0
126 113 0
134 121 0
135 123 0
134 120 0
125 112 0
127 114 0
129 117 0
133 119 0
135 119 0
138 123 0
132 116 0
134 119 0
132 117 0
133 121 0
143 138 0
147 146 0
144 143 0
152 153 0
146 145 0
154 158 0
149 151 0
155 158 0
156 161 0
156 162 0
155 156 0
158 163 0
153 159 0
157 164 0
155 161 0
157 163 0
155 158 0
159 168 0
161 170 0
162 169 0
161 168 0
160 173 0
161 170 0
167 179 0
161 173 0
166 177 0
167 176 0
164 175 0
164 178 0
162 171 0
163 177 0
166 180 0
167 181 0
166 178 0
165 180 0
166 183 0
167 180 0
166 181 0
164 179 0
171 186 0
166 180 0
168 183 0
166 180 0
166 182 0
171 189 0
168 186 0
170 187 0
171 190 0
170 189 0
169 184 0
167 184 0
167 183 0
168 186 0
167 184 0
169 187 0
168 186 0
171 190 0
171 191 0
169 188 0
168 186 0
166 184 0
169 187 0
170 189 0
170 187 0
172 191 0
173 194 0
169 189 0
171 190 0
171 191 0
169 189 0
170 189 0
171 191 0
169 190 0
171 190 0
169 190 0
172 193 0
172 193 0
173 193 0
171 192 0
173 194 0
173 194 0
172 192 0
169 189 0
170 191 0
171 191 0
170 190 0
172 193 0
169 190 0
170 191 0
173 194 0
173 195 0
171 192 0
173 192 0
170 194 0
170 193 0
171 194 0
171 195 0
172 195 0
171 195 0
172 195 0
172 196 0
172 195 0
173 196 0
170 194 0
169 193 0
172 195 0
174 198 57
185 205 122
185 206 111
182 203 111
181 203 99
180 202 92
182 204 108
177 201 76
182 204 102
178 201 76
187 207 114
218 232 237
223 236 254
221 235 250
220 235 252
218 233 250
217 233 249
217 233 253
215 231 246
214 231 252
213 231 250
212 230 249
211 229 249
212 231 255
212 230 255
211 230 255
210 229 255
207 226 245
200 219 207
194 213 182
199 218 199
205 222 206
206 222 215
208 224 220
209 224 217
206 222 203
182 204 108
173 196 36
177 200 76
173 197 67
174 198 72
174 198 67
171 194 67
174 197 72
177 201 102
175 199 88
173 195 57
170 195 84
175 199 62
175 198 84
174 198 62
173 195 67
175 199 80
175 199 92
174 198 57
174 197 88
174 197 80
174 198 80
174 198 44
175 199 95
171 195 76
176 200 88
175 198 84
175 199 76
172 195 62
174 198 76
175 198 57
173 197 72
172 195 57
172 195 67
172 196 72
175 199 67
172 196 76
174 198 102
173 195 57
172 195 62
175 199 92
173 197 92
173 197 72
174 197 80
172 194 80
173 196 62
173 196 92
169 193 82
97 125 150
105 132 151
92 121 151
109 136 148
108 135 149
105 132 160
103 130 147
112 139 142
102 129 159
108 135 174
108 135 174
99 128 173
133 157 197
186 205 230
214 231 255
148 169 214
73 107 181
74 107 182
86 117 184
93 122 188
79 111 182
79 111 179
74 107 177
93 122 181
84 114 179
82 113 181
77 109 174
71 104 168
61 98 166
60 97 163
61 97 162
61 97 165
60 96 165
61 96 154
62 98 159
62 96 154
66 100 148
64 99 150
63 98 158
63 98 161
65 99 154
61 96 147
61 96 150
60 96 160
59 95 147
60 96 154
60 95 156
59 93 146
60 95 144
60 95 149
60 95 155
62 98 159
61 97 159
60 95 151
60 96 153
60 95 149
60 96 159
60 96 159
61 97 150
62 98 159
60 96 154
60 96 148
61 96 150
61 97 157
59 94 143
61 97 154
60 96 150
61 98 163
60 96 153
62 98 165
62 98 164
60 96 149
61 96 153
61 97 154
61 96 151
62 98 165
62 97 158
62 98 160
62 98 159
61 97 158
60 96 158
62 98 156
61 97 154
62 98 157
61 97 155
62 97 157
61 97 156
62 97 154
60 96 147
61 97 153
61 96 152
61 96 148
60 96 144
60 96 143
61 97 149
61 97 154
61 97 153
62 98 155
61 96 152
61 97 155
62 98 153
62 98 161
61 96 152
61 97 159
61 96 148
61 96 147
61 97 153
61 96 152
61 97 153
62 98 156
62 97 152
62 98 154
61 97 152
61 96 151
62 98 160
62 98 157
61 97 149
61 97 149
61 97 149
61 97 150
61 96 139
61 96 145
62 97 156
62 98 156
62 97 150
62 97 149
61 96 148
60 96 143
61 96 148
62 97 150
60 95 141
61 96 144
59 94 134
61 96 143
62 97 150
61 96 142
61 96 144
60 94 134
60 95 140
59 95 126
62 97 155
60 95 136
61 96 141
60 95 133
61 96 145
59 93 127
60 94 133
60 93 134
59 92 132
60 93 138
74 97 106
122 127 0
107 112 0
116 120 0
116 122 0
129 134 0
118 122 0
124 128 0
113 116 0
115 119 0
117 122 0
123 125 0
113 115 0
124 126 0
103 102 0
119 119 0
119 119 0
116 114 0
115 114 0
103 101 0
103 99 0
112 109 0
108 102 0
105 103 0
108 104 0
107 102 0
111 106 0
106 97 0
101 87 0
110 98 0
101 87 0
115 101 0
115 101 0
115 99 0
120 105 0
117 103 0
114 98 0
126 111 0
129 114 0
118 102 0
121 106 0
119 105 0
123 108 0
126 111 0
133 117 0
125 112 0
127 114 0
126 110 0
129 113 0
125 113 0
135 121 0
131 115 0
124 105 0
125 107 0
129 112 0
125 113 0
128 117 0
139 132 0
140 134 0
145 143 0
138 136 0
140 137 0
144 145 0
151 152 0
152 157 0
147 145 0
149 149 0
154 158 0
153 157 0
155 158 0
154 159 0
155 159 0
149 155 0
156 161 0
159 163 0
160 169 0
160 167 0
164 172 0
160 167 0
158 168 0
157 164 0
159 169 0
163 174 0
160 170 0
162 170 0
164 175 0
163 176 0
159 168 0
165 177 0
161 172 0
162 173 0
159 171 0
166 181 0
165 178 0
170 185 0
168 184 0
166 179 0
168 182 0
167 182 0
167 182 0
168 185 0
168 182 0
170 184 0
169 184 0
171 187 0
166 182 0
168 184 0
170 187 0
169 183 0
166 181 0
166 182 0
168 184 0
170 188 0
168 186 0
171 189 0
168 186 0
168 188 0
168 186 0
163 180 0
170 189 0
170 190 0
166 183 0
171 191 0
170 188 0
169 187 0
169 189 0
171 191 0
168 187 0
168 187 0
170 188 0
171 192 0
172 192 0
170 190 0
171 191 0
171 191 0
168 188 0
170 191 0
168 189 0
171 191 0
170 191 0
173 194 0
169 191 0
170 191 0
173 195 0
168 187 0
171 193 0
168 188 0
173 195 0
171 191 0
169 190 0
171 192 0
170 190 0
170 191 0
169 192 0
169 193 0
172 196 0
172 195 0
172 195 0
170 193 0
171 194 0
169 192 0
168 192 0
171 194 0
170 194 0
172 194 0
172 196 25
186 207 125
186 206 122
183 204 108
183 204 114
179 202 88
183 205 102
178 201 84
179 201 76
180 202 88
196 215 165
220 234 244
219 233 244
220 234 248
219 234 253
220 235 254
216 232 246
217 233 255
213 230 245
215 232 253
214 232 254
212 230 250
213 231 254
212 230 255
211 230 255
211 230 255
208 227 245
205 223 221
202 221 207
200 219 201
204 222 212
209 225 218
207 223 214
205 221 204
189 209 149
176 199 95
175 199 72
174 198 67
171 195 51
175 199 76
174 198 57
173 197 36
173 197 88
175 199 76
176 199 76
173 197 62
175 198 67
172 195 67
178 201 88
177 200 92
175 199 62
171 195 62
174 198 72
175 199 80
167 192 57
173 197 57
171 195 57
174 198 76
170 194 62
172 195 72
173 195 67
173 197 76
174 198 72
174 197 51
173 197 76
176 199 72
174 198 76
174 197 76
173 197 72
176 199 67
175 198 62
169 192 62
170 194 67
173 197 51
175 199 76
172 195 36
174 198 80
175 199 88
173 197 76
171 195 84
172 195 67
174 197 72
175 197 80
176 199 72
166 190 88
98 126 153
101 129 154
100 128 157
102 130 159
103 131 159
116 142 152
110 136 143
103 130 159
113 140 161
107 135 162
111 138 166
96 125 168
110 136 177
110 137 162
136 159 194
197 215 238
123 147 203
85 116 186
75 109 182
76 109 182
86 117 186
76 109 177
74 107 172
87 116 180
91 119 175
87 117 179
76 108 173
96 124 178
82 113 179
62 98 168
62 98 165
62 98 167
61 97 160
61 97 165
63 99 162
59 95 155
61 97 155
63 98 159
68 102 155
66 99 153
60 95 148
64 98 150
62 98 149
59 94 150
59 94 153
61 97 156
60 95 148
60 95 147
60 95 156
60 95 154
59 94 149
61 97 154
60 96 155
60 96 155
60 95 149
62 98 162
61 97 153
62 98 159
59 94 153
61 96 154
60 96 152
60 95 147
60 96 161
60 96 158
61 97 154
61 97 155
61 97 157
61 96 153
60 95 154
61 97 155
61 96 150
61 96 149
61 97 156
61 97 158
62 98 163
60 96 150
60 96 150
62 98 160
60 95 150
61 97 153
62 98 163
61 96 151
61 97 153
62 98 153
61 97 155
61 97 151
61 97 156
61 96 150
62 97 152
62 98 161
60 96 145
61 97 156
62 98 161
61 97 153
62 97 152
62 98 158
61 97 149
61 96 147
60 95 145
60 96 150
61 97 152
62 97 157
60 96 148
62 98 156
61 96 153
61 97 153
62 97 152
62 97 153
61 96 144
60 95 142
61 97 148
62 97 150
62 97 152
62 98 154
61 97 149
61 97 151
61 96 148
62 98 156
62 97 156
61 96 144
61 97 153
62 97 152
61 96 149
62 97 152
62 98 153
60 96 144
62 97 151
62 97 148
61 96 147
61 96 148
61 97 145
61 96 147
60 95 142
60 95 147
60 95 137
61 96 150
60 95 136
61 95 140
61 96 143
61 96 142
60 94 132
60 95 141
61 96 142
60 94 129
59 93 131
62 96 147
58 91 122
60 94 132
59 93 133
58 91 126
99 111 57
120 128 0
130 135 0
118 121 0
115 121 0
116 118 0
119 121 0
126 130 0
118 120 0
111 111 0
115 118 0
126 130 0
116 117 0
120 121 0
118 120 0
117 121 0
115 114 0
122 124 0
107 101 0
104 105 0
117 116 0
110 107 0
113 113 0
110 103 0
111 108 0
102 96 0
108 102 0
110 104 0
110 102 0
110 103 0
102 98 0
120 115 0
108 97 0
112 102 0
116 104 0
111 100 0
112 96 0
109 94 0
116 100 0
119 104 0
118 102 0
118 102 0
118 102 0
120 105 0
120 102 0
117 102 0
116 101 0
120 105 0
127 112 0
123 113 0
120 108 0
130 124 0
130 123 0
136 127 0
142 141 0
138 134 0
143 141 0
143 143 0
147 149 0
146 147 0
144 143 0
143 144 0
143 141 0
151 152 0
146 149 0
149 151 0
153 155 0
145 146 0
152 157 0
154 158 0
158 165 0
158 164 0
160 166 0
154 159 0
156 161 0
160 166 0
156 163 0
160 170 0
156 164 0
162 169 0
159 167 0
162 174 0
160 169 0
160 169 0
165 177 0
163 173 0
162 173 0
163 174 0
161 175 0
165 176 0
161 173 0
166 179 0
166 183 0
165 178 0
168 183 0
168 182 0
169 184 0
166 179 0
167 183 0
168 183 0
167 183 0
163 177 0
168 184 0
170 185 0
168 184 0
169 186 0
164 181 0
169 183 0
171 188 0
168 185 0
167 184 0
169 188 0
167 186 0
171 189 0
170 188 0
168 184 0
169 187 0
168 186 0
171 190 0
170 189 0
169 186 0
172 190 0
169 187 0
168 189 0
169 187 0
170 190 0
170 190 0
172 193 0
171 190 0
170 190 0
171 191 0
171 190 0
171 189 0
171 191 0
168 187 0
165 184 0
171 192 0
171 193 0
171 191 0
173 194 0
169 192 0
169 189 0
170 191 0
172 191 0
170 191 0
170 192 0
172 193 0
171 190 0
171 192 0
173 194 0
171 193 0
171 192 0
172 194 0
173 196 0
172 195 0
171 195 0
169 192 0
172 196 0
172 196 0
169 192 0
170 193 0
170 193 0
173 196 0
173 196 0
177 199 57
183 204 114
187 207 128
187 207 130
181 203 92
179 201 72
181 203 102
179 202 84
181 203 95
178 201 88
195 214 161
220 234 246
220 234 249
220 234 250
217 232 244
217 233 249
218 233 253
216 232 249
214 231 250
215 232 253
213 231 250
212 230 250
212 230 254
212 230 255
211 230 254
210 229 252
199 219 204
196 215 189
201 219 193
205 222 207
204 221 214
207 223 214
199 217 181
182 203 133
174 197 80
175 198 62
172 195 51
178 201 84
175 198 76
172 195 0
173 196 62
171 195 67
174 198 67
175 198 44
171 196 62
173 196 57
174 198 72
173 197 76
172 196 72
174 198 67
174 198 62
173 197 72
174 198 72
173 197 80
175 199 76
175 199 80
173 197 62
173 197 67
172 195 72
173 196 72
176 199 92
173 196 67
175 198 57
170 194 57
173 196 67
176 200 92
173 197 76
175 198 67
175 199 72
172 196 57
174 198 84
171 194 62
173 197 67
167 191 76
173 197 67
171 194 76
174 197 51
175 199 84
175 198 76
173 197 72
175 199 80
170 193 44
175 198 84
175 199 80
173 197 76
172 195 76
104 132 148
100 127 149
97 125 147
97 126 168
99 127 150
117 144 178
104 131 162
96 124 145
105 133 154
113 140 150
113 139 159
109 135 155
105 131 169
102 129 157
114 140 170
115 140 171
157 177 210
106 132 193
76 109 182
71 105 181
74 107 180
76 108 180
77 109 178
71 105 177
74 107 175
79 111 179
85 115 177
84 114 173
82 113 176
87 115 175
62 99 170
61 97 159
62 98 170
63 99 159
61 97 161
63 99 158
61 96 157
60 96 152
62 97 153
68 102 148
73 105 150
63 96 147
65 99 155
62 96 141
60 95 150
60 96 150
60 96 156
61 96 148
60 96 158
61 97 157
61 96 153
60 96 152
62 98 161
60 96 154
60 96 155
60 96 154
60 96 160
59 93 139
60 95 144
60 96 144
62 98 161
60 95 150
61 97 153
60 96 153
61 96 150
60 95 143
60 96 155
61 97 149
61 96 154
62 97 155
61 96 149
61 97 156
62 98 160
60 96 155
61 97 154
61 96 152
60 95 151
61 97 156
61 96 146
61 96 152
62 98 161
62 97 156
61 96 147
61 96 149
61 97 155
61 97 156
62 97 154
61 97 147
61 97 156
61 97 150
61 96 156
61 96 145
61 97 150
61 97 151
61 96 145
62 98 157
62 97 144
61 97 151
61 96 145
61 97 155
61 97 157
61 97 154
61 96 145
62 97 154
61 96 150
62 98 153
62 98 160
62 97 151
60 96 147
61 97 153
62 98 155
61 97 151
61 97 148
62 98 152
60 96 148
61 96 142
62 98 156
61 97 154
62 98 155
61 96 142
61 96 148
61 96 143
62 97 150
61 97 144
62 97 153
60 95 135
61 96 149
60 95 135
62 97 150
61 96 142
61 97 148
62 97 156
61 96 143
61 96 143
60 95 141
61 96 144
60 94 130
61 96 151
61 96 144
62 97 147
60 95 138
61 95 135
61 96 141
59 93 128
59 94 133
59 92 128
58 92 124
60 94 136
57 90 120
58 91 113
111 120 47
108 115 0
118 125 0
121 128 0
117 122 0
105 113 0
115 120 0
129 134 0
115 120 0
124 128 0
108 110 0
121 123 0
109 109 0
120 124 0
112 114 0
116 119 0
116 116 0
112 112 0
110 111 0
113 110 0
116 117 0
114 111 0
107 104 0
116 117 0
112 108 0
121 118 0
112 111 0
111 107 0
104 101 0
112 110 0
113 110 0
118 113 0
106 103 0
109 105 0
120 115 0
114 106 0
116 109 0
113 109 0
124 121 0
109 100 0
122 116 0
108 99 0
127 122 0
118 111 0
122 115 0
117 108 0
121 116 0
123 117 0
129 123 0
145 143 0
141 139 0
134 131 0
137 133 0
139 137 0
142 140 0
139 138 0
146 146 0
149 150 0
139 139 0
147 146 0
144 141 0
147 150 0
148 148 0
147 150 0
150 154 0
148 151 0
152 152 0
154 158 0
152 156 0
157 164 0
150 155 0
154 157 0
154 157 0
156 162 0
157 164 0
160 167 0
158 167 0
157 164 0
164 175 0
161 169 0
165 176 0
156 165 0
156 165 0
162 171 0
164 176 0
165 176 0
163 175 0
164 175 0
166 179 0
160 174 0
163 174 0
161 174 0
163 175 0
166 180 0
163 175 0
166 181 0
164 178 0
166 181 0
169 184 0
166 182 0
165 182 0
167 181 0
166 182 0
166 182 0
167 182 0
167 185 0
170 188 0
167 184 0
167 182 0
166 184 0
167 184 0
168 182 0
166 180 0
166 184 0
168 189 0
168 186 0
169 188 0
172 190 0
170 188 0
169 187 0
168 186 0
169 187 0
171 189 0
171 191 0
170 189 0
170 190 0
171 191 0
171 193 0
170 190 0
171 191 0
168 188 0
170 191 0
169 189 0
171 193 0
171 190 0
173 193 0
174 195 0
172 193 0
170 190 0
171 192 0
171 193 0
172 193 0
171 191 0
171 194 0
171 192 0
173 192 0
170 191 0
172 193 0
172 194 0
170 192 0
175 196 0
172 193 0
170 191 0
169 193 0
171 194 0
170 193 0
173 197 0
171 194 0
169 192 0
174 197 0
170 194 0
172 196 0
173 196 0
177 199 51
185 206 122
183 204 111
188 208 133
180 201 108
180 202 84
181 203 95
177 200 72
177 199 72
177 201 80
200 218 182
222 235 250
221 235 249
219 234 248
219 234 252
219 234 253
217 233 252
213 230 241
215 232 253
214 231 249
213 230 250
213 231 253
212 231 255
211 230 255
211 230 255
205 224 240
198 217 191
201 219 207
204 222 207
209 225 217
207 223 220
203 220 198
180 203 99
176 199 72
176 199 80
175 198 80
173 197 67
173 197 67
177 199 88
175 198 67
175 198 44
175 198 57
175 198 72
173 197 72
171 195 76
175 198 67
174 197 62
170 194 72
174 198 84
174 198 72
172 196 76
173 197 62
176 199 76
173 197 62
175 198 67
173 197 76
175 199 72
172 196 80
172 196 67
171 196 67
172 196 72
170 193 67
172 194 72
171 194 88
170 194 72
172 195 72
173 197 95
172 196 84
174 198 76
172 194 62
173 198 95
172 195 76
174 198 88
172 195 76
176 199 84
171 194 72
169 192 44
169 193 62
171 194 88
171 194 84
175 198 80
174 198 72
170 193 67
174 198 84
173 196 62
172 195 57
175 199 72
121 146 120
97 125 155
101 129 156
96 124 153
100 128 147
121 147 168
95 123 151
91 120 157
107 135 148
107 134 155
110 137 153
119 144 157
116 141 156
107 134 159
101 129 162
91 120 158
95 124 163
95 123 172
88 118 177
73 107 182
79 111 182
73 107 179
76 109 179
76 109 173
77 110 182
74 107 172
77 109 178
71 105 174
88 117 177
83 113 176
69 103 174
62 99 169
62 98 164
62 98 165
62 98 163
62 97 160
60 96 154
62 98 157
59 95 155
63 99 159
61 97 150
68 100 139
64 98 143
65 98 145
63 97 139
59 94 141
61 96 154
59 94 143
58 93 143
60 95 142
61 97 157
61 97 153
60 94 146
61 96 151
61 96 153
60 96 154
61 97 159
60 96 151
61 96 150
61 96 153
61 97 149
60 96 147
61 97 151
61 96 156
61 97 156
60 95 147
60 95 145
60 96 154
61 96 158
60 96 153
62 97 153
62 98 158
61 97 148
61 97 153
60 95 150
61 97 153
60 96 157
61 97 150
61 97 150
60 95 146
61 97 154
60 96 150
61 97 154
61 96 151
61 97 150
60 95 139
61 97 158
63 98 156
62 98 155
61 97 154
61 97 152
62 98 161
61 96 145
61 97 153
60 96 147
61 97 152
60 95 148
61 96 149
61 97 150
62 97 152
62 98 155
62 97 158
61 96 150
61 96 149
60 95 148
61 97 151
62 97 151
62 98 161
63 98 157
61 96 148
62 98 153
62 97 151
60 95 150
61 97 156
61 96 147
60 96 144
61 96 144
62 97 154
60 96 143
60 95 135
61 97 152
62 97 147
61 96 149
61 97 153
61 97 147
60 95 133
61 97 149
61 96 145
62 97 149
61 95 140
61 96 143
60 96 143
61 96 142
61 97 149
60 95 139
61 95 142
61 96 140
60 94 134
61 96 143
60 95 136
60 95 136
62 97 149
59 93 130
60 94 137
60 94 138
58 92 132
60 93 131
59 92 128
58 91 118
70 94 94
122 126 0
118 124 0
117 124 0
124 131 0
122 128 0
128 134 0
123 131 0
116 119 0
126 131 0
117 120 0
108 112 0
125 131 0
119 121 0
116 117 0
115 115 0
123 124 0
120 122 0
104 105 0
124 127 0
121 122 0
114 113 0
119 121 0
115 114 0
118 117 0
122 120 0
120 118 0
114 111 0
113 108 0
115 111 0
121 117 0
118 115 0
115 113 0
122 120 0
120 115 0
117 115 0
114 111 0
125 120 0
116 111 0
120 113 0
121 115 0
118 108 0
123 116 0
114 109 0
121 113 0
129 124 0
132 129 0
135 133 0
130 126 0
136 134 0
136 132 0
130 126 0
139 137 0
137 136 0
139 136 0
134 131 0
144 144 0
145 146 0
145 147 0
142 140 0
142 140 0
143 142 0
150 153 0
152 153 0
151 151 0
152 157 0
154 160 0
153 156 0
153 157 0
152 157 0
156 164 0
153 157 0
155 160 0
159 165 0
161 166 0
158 165 0
155 159 0
160 167 0
159 168 0
156 163 0
157 165 0
161 170 0
164 175 0
160 171 0
163 172 0
162 173 0
160 170 0
156 168 0
162 174 0
166 177 0
160 172 0
165 176 0
166 180 0
163 174 0
163 172 0
164 181 0
166 181 0
166 183 0
168 182 0
166 183 0
166 182 0
167 180 0
166 183 0
165 181 0
165 180 0
170 185 0
164 180 0
166 184 0
168 186 0
165 180 0
163 179 0
165 182 0
168 187 0
168 185 0
169 185 0
169 186 0
168 185 0
167 184 0
169 190 0
171 190 0
171 191 0
168 186 0
169 187 0
169 188 0
170 187 0
171 190 0
169 187 0
173 191 0
171 191 0
169 188 0
171 190 0
170 190 0
170 190 0
171 192 0
171 191 0
173 192 0
171 190 0
171 192 0
172 192 0
171 192 0
170 190 0
173 194 0
173 193 0
172 193 0
172 192 0
171 193 0
169 191 0
168 188 0
171 193 0
172 193 0
174 195 0
173 194 0
171 191 0
172 193 0
172 196 0
171 195 0
168 192 0
175 197 0
173 197 0
172 195 0
168 190 0
173 196 0
169 192 0
173 197 36
184 205 117
185 206 117
183 204 105
182 204 95
179 201 84
180 202 88
179 201 72
180 202 88
178 200 72
203 220 191
223 236 253
222 236 253
219 233 248
219 234 252
217 232 248
216 232 248
215 232 249
214 231 248
212 230 246
212 230 250
213 231 253
212 231 255
211 230 255
209 228 245
201 220 211
199 217 201
199 217 186
201 218 203
210 226 220
201 219 188
180 201 125
172 195 51
175 198 88
174 197 76
173 197 67
173 196 76
173 197 76
175 199 76
173 197 80
172 195 62
177 201 92
174 197 72
177 200 67
173 198 84
172 196 88
175 198 72
177 200 76
175 199 72
174 199 92
171 196 72
173 197 62
170 194 57
174 198 92
175 199 105
173 197 102
173 197 72
173 196 57
172 196 44
173 197 72
176 200 88
169 193 57
173 197 80
172 197 95
173 197 80
169 193 72
174 197 72
170 194 72
177 201 84
169 192 76
174 197 62
169 193 76
173 197 67
173 197 67
170 194 51
173 197 76
173 196 51
176 199 80
174 198 57
170 194 57
170 194 67
171 195 51
175 199 67
171 194 57
173 197 80
171 195 80
171 194 88
169 192 51
144 169 86
88 117 148
88 117 144
96 123 149
102 129 153
99 127 161
106 132 150
110 136 145
94 123 154
111 137 158
104 131 139
106 133 160
103 130 151
105 132 159
114 141 152
95 123 155
107 132 160
108 135 172
96 124 160
87 117 170
84 115 181
86 117 186
79 112 185
78 110 177
73 106 174
77 109 180
85 115 183
82 113 181
78 110 171
76 108 172
84 114 175
68 102 162
62 98 164
61 97 165
62 98 163
60 96 158
60 96 159
61 97 155
60 96 157
61 96 154
64 99 144
63 98 149
68 101 154
60 95 151
60 94 144
59 94 143
59 94 145
59 94 140
60 95 147
60 96 149
59 94 136
60 96 153
60 95 153
59 94 149
60 96 152
59 94 149
60 95 149
59 94 140
60 96 150
59 94 145
61 96 150
60 96 149
61 97 152
61 97 156
62 98 163
61 97 152
62 97 156
60 95 149
61 96 149
61 97 151
61 96 148
62 97 157
61 97 150
61 96 150
60 96 149
60 95 145
59 95 148
61 96 145
60 96 144
61 96 151
61 97 151
61 96 148
61 97 156
60 96 146
63 99 163
62 97 151
61 97 150
61 97 153
61 97 153
61 96 149
61 96 144
62 98 160
60 95 141
61 97 153
61 97 150
60 95 136
61 97 160
62 98 163
61 96 148
62 97 152
60 95 139
62 97 148
61 96 147
62 97 152
61 97 150
62 98 160
61 96 155
62 98 159
61 97 154
61 96 145
62 97 153
60 96 144
62 97 148
61 96 148
61 96 150
61 96 145
61 96 147
61 97 150
62 98 154
60 96 149
61 96 150
61 97 149
60 96 147
60 96 143
59 94 140
61 96 144
60 95 136
60 95 140
61 95 143
61 96 144
60 95 141
61 96 142
61 97 148
60 95 128
62 98 152
60 95 140
61 96 144
60 94 135
61 95 139
59 94 135
60 95 142
59 94 134
60 94 134
59 94 135
59 92 132
59 92 135
59 92 129
59 93 129
59 92 120
106 122 74
121 130 0
113 119 0
122 129 0
123 130 0
120 122 0
127 132 0
121 126 0
108 113 0
111 115 0
121 125 0
133 135 0
118 122 0
117 121 0
131 134 0
113 118 0
116 120 0
130 131 0
121 123 0
117 120 0
114 115 0
124 125 0
129 131 0
117 116 0
121 121 0
120 118 0
118 116 0
120 119 0
117 113 0
123 121 0
122 120 0
118 116 0
123 121 0
121 118 0
112 108 0
131 126 0
124 118 0
120 117 0
126 123 0
131 129 0
119 117 0
123 119 0
119 114 0
123 120 0
134 134 0
126 122 0
130 125 0
128 126 0
137 134 0
132 129 0
129 125 0
137 135 0
136 137 0
140 139 0
143 142 0
142 141 0
136 136 0
144 145 0
141 142 0
139 137 0
148 151 0
148 150 0
147 149 0
146 147 0
152 155 0
148 150 0
155 159 0
151 154 0
153 159 0
154 157 0
153 158 0
159 166 0
160 165 0
160 168 0
156 159 0
158 168 0
156 164 0
159 166 0
160 166 0
164 174 0
161 173 0
163 175 0
163 172 0
159 168 0
162 174 0
162 173 0
161 175 0
160 172 0
165 176 0
160 172 0
159 168 0
167 180 0
162 173 0
164 177 0
166 183 0
167 180 0
165 179 0
166 180 0
166 180 0
163 177 0
167 181 0
165 179 0
165 180 0
166 180 0
163 177 0
167 183 0
164 178 0
165 181 0
169 185 0
168 186 0
169 187 0
169 189 0
167 183 0
170 187 0
168 185 0
170 187 0
166 185 0
166 183 0
169 186 0
168 187 0
169 186 0
168 187 0
169 187 0
170 190 0
170 189 0
168 188 0
170 187 0
172 191 0
172 192 0
173 194 0
170 190 0
172 191 0
170 189 0
172 192 0
170 192 0
169 189 0
169 191 0
171 193 0
171 192 0
169 189 0
170 191 0
170 188 0
171 192 0
169 191 0
169 191 0
171 193 0
169 189 0
171 194 0
170 189 0
170 192 0
171 191 0
172 193 0
171 193 0
171 192 0
172 196 0
173 195 0
172 196 0
171 194 0
169 192 0
169 193 0
171 195 0
172 196 0
175 197 57
180 201 95
180 201 102
183 205 105
180 202 88
184 205 108
180 202 108
178 201 72
176 200 62
178 201 67
194 213 163
221 235 248
221 235 253
220 235 252
219 234 252
218 233 250
216 232 249
216 232 252
211 229 242
213 230 249
212 230 249
212 230 252
212 230 255
211 230 253
205 224 224
201 220 204
200 219 196
204 221 209
209 225 218
205 222 203
185 206 130
174 197 62
172 196 44
175 198 51
174 198 88
174 198 102
172 196 67
172 196 67
175 198 80
171 194 57
174 198 51
173 197 67
174 198 88
175 198 84
173 197 57
170 193 36
171 194 67
175 198 72
173 195 44
173 197 62
177 201 80
174 198 80
174 198 76
174 197 51
170 194 62
174 197 72
174 198 84
172 196 72
171 195 67
176 199 76
173 197 84
174 197 72
173 197 62
171 195 57
175 199 80
171 196 76
174 198 76
175 198 67
174 198 92
175 199 95
174 198 76
172 195 84
171 195 84
171 195 84
175 199 92
170 193 51
172 196 44
172 195 76
174 197 92
170 194 80
174 198 67
169 193 62
173 195 62
173 197 76
171 195 92
173 197 72
171 196 99
174 197 76
173 197 72
163 188 82
103 130 143
96 124 146
98 127 153
98 126 159
109 136 153
95 123 142
97 125 159
86 115 149
94 123 156
97 125 154
109 135 159
111 137 167
107 133 155
107 134 164
107 133 157
108 136 158
92 121 161
85 115 164
105 131 163
94 123 169
79 111 178
81 112 181
71 105 175
81 112 182
82 113 182
67 102 170
79 111 176
79 111 176
82 113 175
77 109 171
92 120 174
64 99 164
61 97 165
63 99 163
62 98 165
60 96 154
61 97 160
61 96 154
61 97 162
61 97 157
68 102 155
67 101 152
65 99 150
67 100 148
73 104 138
59 94 136
61 97 161
61 96 150
59 94 149
59 94 145
60 95 148
60 95 146
60 96 149
59 94 146
60 95 150
61 96 153
60 95 142
61 97 154
61 96 152
60 95 148
61 97 154
61 97 156
61 96 154
60 95 150
61 96 151
59 94 144
60 96 148
60 95 145
62 97 153
62 98 163
61 97 157
61 97 155
60 96 150
60 96 152
61 97 155
61 97 152
61 96 143
61 97 154
61 97 151
60 95 141
61 97 153
61 97 147
61 97 151
60 96 144
59 94 141
59 95 141
61 97 151
61 97 155
62 98 156
62 98 159
62 97 155
61 96 149
62 97 153
61 97 153
61 96 141
62 97 153
61 97 153
62 97 148
61 96 153
60 96 145
62 97 152
61 96 148
61 96 153
60 95 145
60 95 149
62 98 154
61 96 144
60 95 147
61 97 149
61 96 145
62 98 158
61 96 144
60 96 148
62 98 155
62 98 154
61 96 147
62 97 151
60 95 140
60 96 143
60 95 143
61 97 150
61 96 143
61 96 143
61 96 140
62 97 147
62 97 141
60 95 136
60 95 141
62 96 148
59 94 139
60 96 137
60 95 135
61 95 140
62 97 147
60 94 135
60 95 140
59 93 134
60 94 140
60 94 131
61 96 144
59 93 130
61 96 140
60 94 133
60 93 125
58 91 131
59 94 134
59 92 133
66 95 117
114 125 36
117 123 0
120 128 0
114 119 0
112 118 0
120 125 0
123 130 0
125 131 0
121 125 0
125 131 0
109 114 0
122 128 0
121 126 0
119 125 0
110 115 0
119 123 0
123 128 0
119 123 0
127 129 0
118 123 0
133 140 0
120 124 0
131 131 0
112 112 0
123 124 0
127 129 0
121 121 0
124 125 0
116 115 0
117 118 0
126 124 0
119 118 0
124 123 0
121 122 0
114 111 0
122 120 0
115 112 0
122 119 0
122 120 0
141 141 0
125 123 0
129 125 0
132 132 0
123 119 0
130 127 0
133 130 0
124 121 0
132 127 0
133 130 0
139 138 0
133 136 0
131 126 0
141 141 0
142 143 0
139 139 0
144 144 0
142 139 0
147 150 0
145 145 0
140 140 0
144 146 0
144 146 0
139 138 0
147 148 0
146 149 0
156 161 0
146 147 0
152 157 0
154 160 0
156 163 0
156 162 0
159 164 0
153 159 0
159 166 0
160 167 0
156 161 0
162 172 0
159 166 0
153 159 0
157 166 0
159 169 0
161 172 0
160 171 0
163 173 0
157 165 0
163 175 0
158 169 0
163 175 0
162 174 0
162 175 0
168 181 0
169 185 0
166 179 0
161 173 0
162 175 0
165 178 0
164 178 0
166 181 0
164 179 0
168 184 0
167 183 0
164 177 0
165 183 0
166 181 0
166 183 0
168 185 0
164 180 0
168 186 0
165 179 0
169 186 0
166 184 0
163 178 0
168 184 0
168 187 0
170 190 0
169 186 0
167 184 0
169 189 0
167 184 0
169 188 0
169 187 0
169 188 0
171 189 0
171 191 0
170 190 0
171 190 0
170 191 0
165 184 0
169 189 0
169 187 0
166 186 0
172 193 0
172 194 0
170 190 0
170 190 0
170 188 0
172 192 0
169 188 0
170 189 0
171 193 0
168 189 0
169 189 0
170 191 0
171 192 0
172 193 0
168 189 0
173 193 0
171 192 0
170 191 0
169 191 0
168 190 0
172 194 0
172 193 0
169 191 0
171 194 0
172 195 0
171 195 0
172 196 0
170 192 0
170 194 0
171 193 0
172 196 25
186 206 117
184 204 108
183 205 105
178 201 84
181 203 99
180 202 84
179 202 95
180 202 76
177 200 67
202 220 188
223 237 254
220 234 248
218 233 246
219 234 253
218 234 252
217 233 252
216 232 252
213 230 248
214 231 253
213 231 253
214 231 254
212 231 255
210 229 249
201 220 211
194 213 182
205 222 207
202 219 206
205 223 207
187 207 144
174 197 62
176 199 80
177 200 62
177 200 72
173 196 67
172 196 72
174 197 67
176 199 84
174 197 76
173 196 67
175 199 57
176 199 76
174 198 76
176 199 76
175 199 67
175 198 72
174 197 67
172 195 72
172 196 67
174 197 72
173 196 80
169 192 72
176 200 80
173 195 51
172 197 76
174 198 67
174 198 88
174 197 80
173 197 57
174 198 80
174 197 84
169 193 51
173 197 92
170 194 62
170 194 62
172 196 57
171 193 44
170 194 80
173 197 84
170 194 62
170 193 57
168 191 57
170 194 84
170 193 44
172 196 62
170 194 88
170 193 67
170 194 62
171 196 80
170 194 62
171 194 62
167 190 76
164 188 72
171 194 76
170 194 62
174 197 72
172 196 84
171 194 76
176 199 84
172 196 62
166 189 62
123 148 124
87 117 144
99 126 156
94 123 159
91 120 155
99 127 160
106 133 154
97 125 157
84 114 151
88 117 147
105 132 154
100 127 152
100 127 157
99 126 151
105 132 155
102 129 163
101 128 153
94 122 158
98 126 168
96 125 168
82 113 160
81 112 176
76 109 182
76 109 178
77 110 180
85 115 181
79 111 179
74 107 174
94 122 181
66 101 173
92 120 175
88 117 176
68 102 163
61 98 165
61 98 163
62 98 161
61 97 164
61 97 160
61 97 159
60 95 154
60 95 147
61 97 165
71 104 148
66 99 136
60 94 145
60 95 146
60 95 148
60 96 156
60 96 153
60 94 141
59 95 149
59 94 144
60 95 146
61 97 152
61 97 157
61 96 158
60 95 148
61 97 155
60 95 145
61 96 147
60 96 154
60 95 144
62 97 156
61 97 154
60 95 137
61 96 155
60 96 155
61 96 158
61 97 155
60 96 148
61 97 153
61 96 154
60 96 149
61 96 154
62 98 154
61 96 147
63 98 161
62 98 153
62 98 158
61 96 151
61 97 152
62 97 154
60 95 140
60 95 149
62 97 150
62 98 154
61 97 152
61 96 148
62 98 156
60 95 145
61 96 148
62 97 154
62 97 154
60 95 149
60 96 148
62 97 154
61 97 151
62 97 156
61 97 155
61 96 142
61 97 149
61 97 147
62 97 156
61 96 147
62 98 154
59 94 136
60 95 135
62 98 150
61 97 145
62 98 157
61 96 143
62 97 154
62 97 149
61 96 150
60 96 142
60 96 149
61 97 147
61 96 147
61 96 144
61 96 143
61 96 144
60 95 147
61 96 143
61 96 149
61 96 150
61 96 143
61 96 144
60 96 139
62 97 148
60 95 141
61 97 148
59 94 134
60 95 134
59 94 139
60 94 139
61 96 141
60 95 137
59 93 130
59 94 129
60 94 135
61 96 141
60 94 134
60 94 123
59 93 124
59 93 129
58 91 127
59 93 128
90 108 78
131 141 0
120 127 0
107 113 0
126 134 0
124 130 0
122 128 0
113 117 0
124 130 0
135 142 0
116 123 0
129 137 0
123 129 0
116 120 0
121 125 0
114 121 0
107 110 0
118 124 0
124 129 0
128 133 0
112 112 0
124 128 0
123 123 0
118 120 0
121 121 0
120 124 0
112 113 0
122 119 0
119 116 0
125 126 0
117 114 0
117 116 0
129 126 0
120 121 0
123 123 0
125 126 0
125 125 0
128 127 0
123 123 0
127 128 0
130 128 0
121 121 0
126 125 0
129 127 0
134 133 0
135 132 0
138 140 0
134 131 0
136 133 0
128 125 0
131 130 0
138 136 0
135 132 0
134 134 0
145 142 0
150 154 0
142 141 0
140 141 0
147 151 0
146 148 0
145 148 0
151 154 0
148 150 0
149 154 0
145 150 0
155 161 0
157 163 0
150 157 0
156 162 0
152 160 0
152 157 0
151 157 0
161 169 0
151 157 0
157 164 0
153 160 0
162 174 0
158 165 0
162 173 0
159 169 0
162 175 0
160 167 0
157 168 0
160 169 0
162 173 0
158 168 0
156 165 0
160 171 0
165 180 0
163 176 0
162 172 0
165 179 0
160 173 0
165 179 0
168 182 0
166 181 0
163 177 0
163 177 0
161 174 0
165 180 0
162 177 0
164 178 0
166 181 0
168 184 0
166 185 0
167 184 0
169 185 0
169 186 0
166 183 0
166 181 0
167 183 0
166 182 0
169 187 0
168 188 0
166 185 0
170 189 0
169 188 0
168 185 0
171 190 0
171 189 0
169 187 0
170 188 0
169 188 0
168 185 0
171 190 0
170 188 0
171 190 0
168 189 0
170 188 0
170 188 0
171 192 0
172 191 0
168 188 0
171 189 0
169 189 0
169 189 0
171 192 0
171 192 0
170 190 0
171 192 0
170 191 0
170 191 0
167 187 0
171 193 0
172 193 0
169 189 0
172 194 0
171 192 0
171 191 0
171 191 0
173 195 0
171 193 0
170 191 0
171 193 0
171 192 0
171 194 0
172 196 0
170 193 0
168 191 0
170 193 0
172 196 0
173 196 25
183 204 108
183 204 105
184 205 117
181 203 92
178 201 88
180 202 84
178 201 76
180 202 88
178 201 80
196 215 163
222 235 250
220 235 252
218 233 245
219 234 252
218 233 250
216 233 252
215 231 248
213 230 246
212 229 245
212 230 252
213 231 255
212 230 255
210 228 245
198 217 188
196 214 191
203 220 204
201 218 199
192 211 169
173 196 67
175 199 72
173 197 67
172 196 62
175 199 57
174 198 84
176 199 72
172 195 51
172 196 80
171 195 62
172 195 67
174 197 92
172 197 67
174 198 62
170 194 80
174 197 76
178 200 62
173 197 88
175 199 95
174 198 88
174 198 92
174 198 92
169 193 72
171 194 57
173 197 76
176 199 76
172 195 57
176 200 84
171 196 57
173 198 88
173 198 62
173 197 80
174 198 62
171 195 62
171 195 57
170 194 62
171 195 92
171 195 76
171 194 84
169 193 84
171 194 62
171 196 80
169 193 62
173 197 92
166 189 76
170 193 36
173 197 80
169 192 62
172 194 72
172 196 72
171 195 67
169 193 76
173 196 67
171 194 62
173 198 76
171 195 76
168 191 51
168 192 57
172 196 80
173 197 76
170 193 62
172 195 76
171 194 72
154 177 97
84 114 140
85 115 141
98 126 147
93 121 148
89 119 159
93 121 153
108 135 166
93 122 150
96 124 161
86 116 155
100 128 151
95 123 159
100 127 154
105 132 149
98 126 148
110 136 159
119 144 152
104 131 163
102 130 156
89 118 157
87 117 155
93 122 167
76 109 182
70 105 177
82 113 179
82 112 177
87 117 181
72 106 178
77 109 175
77 109 171
88 117 181
83 113 173
63 99 166
62 98 164
61 97 161
61 97 163
61 96 161
63 97 150
60 96 150
61 97 159
61 97 161
62 97 153
66 100 150
63 97 145
59 95 143
66 99 143
59 95 144
60 95 150
60 95 144
59 94 150
61 96 156
59 94 145
60 95 144
60 96 153
60 96 156
59 95 148
59 93 149
60 96 148
61 97 157
61 97 152
60 96 147
61 96 155
60 96 150
59 95 149
61 96 153
60 96 143
60 95 150
61 97 156
60 95 143
61 96 151
61 96 147
60 96 145
61 97 153
60 96 154
60 96 148
61 96 144
61 96 148
60 96 148
60 96 144
60 95 140
61 97 152
60 95 143
62 97 149
60 95 148
61 96 150
62 98 157
61 96 149
62 98 162
61 97 154
61 96 153
60 96 149
62 97 153
61 96 147
60 96 149
61 97 149
61 96 151
61 97 147
60 95 143
61 96 143
61 96 147
61 96 147
62 97 154
62 97 151
62 97 149
62 97 153
61 95 134
61 97 148
60 96 140
60 95 134
61 97 150
61 96 150
60 95 147
60 95 136
61 96 144
59 95 136
61 97 145
60 95 143
59 93 130
60 95 149
61 97 150
61 96 140
61 96 141
61 96 147
60 95 140
61 96 140
61 96 149
59 94 130
61 96 143
62 97 154
60 95 140
60 95 136
60 95 141
59 94 129
61 96 136
61 96 140
60 95 140
59 93 130
60 95 133
61 95 136
61 96 139
57 91 120
59 92 121
60 94 130
58 91 120
56 88 105
56 88 101
118 128 28
129 139 0
120 131 0
117 125 0
124 132 0
119 124 0
126 136 0
122 130 0
130 137 0
123 133 0
99 106 0
116 123 0
115 122 0
122 124 0
121 127 0
118 123 0
115 119 0
124 128 0
114 118 0
119 120 0
117 123 0
126 127 0
120 123 0
122 127 0
117 119 0
121 121 0
129 133 0
128 130 0
122 123 0
127 131 0
125 126 0
121 121 0
122 122 0
129 127 0
121 124 0
129 130 0
133 134 0
135 135 0
132 130 0
141 143 0
127 128 0
128 125 0
131 130 0
128 130 0
137 138 0
138 139 0
140 139 0
138 140 0
128 128 0
137 139 0
136 136 0
135 136 0
142 143 0
137 136 0
146 148 0
147 151 0
139 138 0
142 140 0
151 157 0
151 154 0
151 155 0
144 146 0
146 150 0
148 151 0
150 157 0
154 159 0
153 156 0
149 153 0
149 153 0
155 160 0
155 164 0
157 162 0
156 162 0
157 163 0
157 163 0
156 163 0
161 167 0
156 165 0
159 167 0
160 170 0
162 173 0
159 167 0
159 168 0
162 172 0
159 168 0
161 172 0
162 173 0
158 168 0
160 173 0
162 175 0
165 175 0
163 172 0
166 180 0
165 182 0
164 179 0
165 180 0
164 178 0
166 182 0
166 182 0
167 181 0
165 179 0
167 184 0
167 184 0
166 181 0
160 175 0
166 180 0
170 187 0
165 179 0
168 184 0
168 186 0
171 188 0
166 183 0
168 186 0
166 184 0
170 188 0
169 187 0
166 185 0
166 185 0
169 186 0
171 191 0
170 189 0
170 188 0
170 189 0
171 188 0
168 186 0
169 186 0
171 191 0
167 187 0
170 192 0
169 188 0
171 190 0
170 191 0
169 190 0
168 190 0
171 193 0
166 185 0
171 192 0
170 190 0
169 188 0
172 192 0
169 190 0
171 193 0
167 185 0
168 187 0
171 193 0
170 191 0
169 191 0
171 193 0
172 194 0
172 194 0
172 193 0
171 193 0
173 194 0
172 193 0
174 195 0
171 195 0
173 196 0
169 194 0
173 196 0
168 192 0
171 195 0
181 202 108
182 203 108
182 203 111
181 203 99
179 202 80
181 203 99
180 202 99
178 200 62
179 201 80
193 212 155
222 236 250
221 234 250
221 235 253
219 234 252
218 233 252
216 233 252
215 232 250
216 232 254
213 230 249
212 230 249
213 231 255
211 230 253
209 226 234
199 217 199
204 221 207
201 218 204
206 223 207
179 202 111
175 198 80
176 199 95
175 198 76
174 197 72
173 197 80
174 197 72
173 197 67
174 198 88
170 194 57
174 197 88
173 197 88
170 194 44
173 197 67
173 198 72
176 200 76
175 199 72
177 200 80
176 199 72
172 196 84
175 199 92
172 196 76
171 194 67
174 196 67
174 198 95
177 200 84
174 197 67
172 194 67
172 197 84
171 195 76
171 195 88
174 198 67
173 196 76
172 195 36
170 194 67
173 196 67
174 198 67
173 196 76
172 196 62
171 195 72
171 193 72
173 197 80
172 196 92
172 196 76
169 194 88
170 193 57
173 196 62
173 196 72
173 197 76
172 196 80
171 195 57
171 195 72
168 191 51
170 194 62
169 191 62
168 192 92
172 196 67
172 196 67
169 193 92
168 191 62
169 193 57
171 194 57
172 196 57
175 198 80
169 193 72
169 192 67
97 125 143
88 118 137
88 117 142
100 128 146
94 122 148
90 119 154
90 119 150
91 120 157
96 124 150
95 123 147
97 125 150
98 125 160
95 123 163
106 133 151
102 129 158
109 135 155
109 136 156
98 126 155
99 126 147
98 126 167
88 117 151
79 110 159
87 117 167
75 108 181
85 116 187
71 105 178
77 109 177
68 103 171
76 108 171
72 105 173
75 107 172
77 108 164
80 111 172
61 98 163
61 97 161
62 98 167
62 98 163
62 98 168
61 95 145
60 96 157
61 96 155
59 95 141
60 95 149
67 101 149
60 96 145
62 95 144
62 96 143
63 97 145
59 94 143
60 95 150
59 94 148
60 96 145
61 97 149
60 95 145
59 94 141
61 96 148
60 95 143
61 96 153
61 96 153
60 94 138
61 97 154
61 96 147
62 97 159
60 96 151
61 97 154
62 97 157
61 96 145
61 97 155
60 96 147
60 96 149
60 95 140
60 96 144
60 96 151
61 96 148
61 97 155
61 97 150
62 98 158
60 95 135
62 98 157
61 97 148
61 97 155
62 97 155
61 96 149
60 96 149
59 94 145
63 98 160
61 97 150
60 96 148
60 95 145
61 97 150
62 98 160
62 98 155
61 97 144
60 95 142
60 95 147
60 95 137
60 95 142
61 96 145
61 96 141
61 96 145
61 96 140
60 95 140
62 97 149
61 97 149
61 96 141
60 95 139
61 96 149
61 96 143
61 97 149
60 96 144
61 97 148
60 94 141
60 95 137
59 94 128
61 96 153
61 96 145
60 95 142
60 95 134
60 95 133
62 97 150
60 95 143
60 95 139
62 97 145
60 95 139
60 95 143
61 96 134
59 94 134
59 93 128
61 96 150
61 96 134
61 96 147
60 94 140
60 94 140
59 94 135
60 95 137
60 94 139
60 94 130
59 93 124
61 96 141
59 93 134
58 92 127
59 92 125
58 91 117
58 91 121
59 93 129
84 105 96
126 134 0
125 133 0
118 127 0
126 136 0
122 130 0
119 125 0
124 133 0
127 135 0
127 134 0
124 133 0
124 132 0
122 129 0
129 135 0
119 125 0
128 135 0
121 126 0
124 131 0
119 123 0
135 139 0
133 136 0
129 132 0
134 139 0
122 126 0
122 127 0
125 127 0
121 123 0
121 126 0
123 125 0
124 126 0
117 119 0
124 126 0
133 137 0
124 126 0
130 134 0
128 130 0
123 124 0
129 130 0
129 128 0
128 126 0
135 140 0
134 135 0
132 132 0
141 142 0
132 133 0
136 137 0
136 137 0
138 142 0
140 142 0
143 146 0
140 142 0
141 146 0
148 152 0
138 138 0
138 137 0
139 143 0
136 137 0
146 152 0
147 148 0
144 148 0
147 149 0
143 145 0
147 150 0
146 149 0
156 161 0
153 159 0
152 158 0
152 156 0
150 156 0
161 167 0
153 157 0
155 163 0
149 154 0
158 167 0
159 166 0
157 163 0
154 162 0
158 170 0
158 166 0
157 167 0
157 167 0
161 169 0
164 175 0
161 172 0
159 168 0
162 176 0
162 176 0
164 174 0
162 173 0
163 176 0
163 177 0
164 176 0
165 176 0
161 174 0
166 182 0
166 181 0
162 178 0
166 181 0
166 183 0
164 177 0
166 184 0
164 179 0
166 181 0
166 182 0
167 182 0
165 184 0
168 184 0
165 181 0
165 181 0
165 180 0
166 182 0
166 182 0
169 186 0
167 185 0
169 186 0
167 184 0
172 192 0
166 183 0
167 187 0
168 185 0
170 189 0
171 190 0
168 186 0
171 190 0
166 183 0
167 186 0
167 185 0
174 193 0
167 187 0
164 182 0
169 188 0
169 188 0
168 188 0
169 188 0
171 192 0
169 189 0
168 188 0
173 193 0
169 189 0
170 189 0
172 194 0
171 192 0
170 190 0
170 188 0
169 191 0
170 189 0
173 195 0
172 193 0
170 191 0
168 188 0
172 193 0
172 193 0
171 192 0
173 195 0
173 194 0
170 189 0
171 195 0
174 198 0
172 196 0
172 196 0
172 196 0
177 199 84
181 203 95
181 203 102
182 204 99
182 204 99
180 202 99
183 205 102
178 200 62
177 200 51
192 212 149
220 234 246
222 236 250
220 235 252
220 235 253
217 232 248
218 233 253
217 233 254
213 230 248
212 230 246
213 231 252
213 231 254
211 229 249
204 223 217
195 214 186
205 222 207
203 220 199
193 212 167
176 200 105
175 198 67
170 194 51
173 197 44
173 197 51
172 196 67
174 197 62
176 199 72
177 201 80
171 194 44
173 196 67
172 196 62
170 194 67
174 198 57
173 197 67
174 198 84
175 199 76
174 198 62
171 195 72
172 195 84
174 198 72
170 194 88
172 196 80
174 198 72
171 195 51
172 197 88
172 196 67
173 197 67
173 197 80
171 195 88
172 196 57
172 197 95
170 193 51
173 195 57
173 197 95
172 196 57
170 195 76
171 196 62
173 197 84
173 196 57
169 193 44
169 193 76
171 194 57
173 197 72
173 197 84
174 198 88
168 192 84
172 196 84
172 196 88
174 197 84
166 190 51
168 192 76
171 194 67
170 192 67
168 190 44
170 193 72
171 195 80
169 192 76
168 192 67
164 188 76
166 188 57
169 192 67
167 190 57
170 194 72
167 190 84
173 195 57
171 194 72
144 168 107
95 122 139
97 125 149
93 121 151
92 120 153
98 125 140
86 115 148
98 126 156
106 134 163
91 120 144
92 121 144
103 130 152
95 123 156
86 116 147
94 122 160
109 136 166
97 124 149
93 122 150
109 135 158
107 133 155
98 126 160
83 113 158
91 120 159
92 121 158
93 122 182
69 103 175
74 107 178
77 109 175
86 115 173
76 108 167
71 105 173
90 118 173
82 112 173
74 105 163
62 98 160
62 98 159
61 98 163
61 97 156
61 97 158
63 98 153
60 95 150
62 96 149
59 94 136
62 97 155
63 97 144
65 98 148
63 97 148
58 93 139
61 96 150
60 95 149
59 94 144
60 96 153
60 95 155
60 95 148
61 96 152
61 97 148
60 95 148
60 96 152
60 95 142
60 96 150
61 97 150
59 94 145
61 97 151
60 95 145
60 95 140
61 96 150
61 96 150
61 97 155
60 96 151
62 97 154
60 96 150
60 96 149
61 97 152
61 96 147
60 96 150
60 96 154
60 95 142
60 96 150
60 95 149
60 95 145
61 97 155
62 97 151
60 96 146
61 96 147
60 95 140
61 96 145
59 94 142
60 95 145
61 96 144
61 96 142
61 97 151
60 95 133
61 96 144
60 96 142
60 95 142
61 96 148
61 97 143
61 96 148
61 97 152
61 97 148
60 95 145
61 96 142
61 96 145
62 97 154
61 97 149
60 95 143
60 95 143
62 97 153
62 97 151
61 96 152
61 96 141
61 97 148
62 97 150
61 96 144
61 96 147
61 96 147
62 97 149
61 96 143
61 96 142
60 95 136
60 95 140
61 96 144
62 98 156
60 95 135
60 94 136
62 96 140
60 94 135
62 97 147
60 94 137
61 95 135
60 94 136
61 95 141
60 94 135
59 94 131
60 94 136
60 95 136
60 95 136
59 92 129
60 94 128
59 93 120
60 93 127
60 93 128
59 92 122
57 89 113
56 88 107
116 129 67
121 131 0
115 125 0
125 136 0
126 135 0
131 144 0
121 130 0
120 129 0
115 122 0
119 129 0
118 126 0
114 121 0
124 132 0
118 123 0
125 132 0
125 132 0
127 132 0
126 132 0
125 129 0
125 131 0
128 136 0
127 131 0
120 123 0
130 135 0
127 132 0
116 119 0
125 128 0
133 135 0
121 126 0
129 133 0
125 130 0
130 130 0
128 132 0
127 129 0
138 141 0
133 136 0
127 129 0
124 125 0
133 139 0
129 130 0
136 139 0
133 136 0
131 132 0
125 126 0
130 133 0
138 139 0
142 145 0
139 142 0
145 145 0
138 140 0
144 148 0
139 142 0
145 148 0
142 144 0
140 143 0
142 144 0
143 143 0
146 148 0
139 140 0
158 165 0
153 157 0
148 150 0
142 144 0
151 156 0
149 156 0
147 150 0
150 155 0
156 164 0
150 157 0
156 165 0
151 155 0
159 166 0
159 169 0
155 160 0
156 166 0
157 165 0
157 165 0
163 173 0
162 170 0
162 171 0
156 165 0
166 178 0
164 174 0
165 177 0
160 170 0
162 174 0
165 178 0
162 171 0
166 179 0
158 169 0
164 177 0
159 174 0
164 178 0
161 173 0
163 176 0
164 179 0
165 180 0
163 180 0
163 176 0
170 184 0
161 177 0
167 184 0
169 184 0
164 179 0
167 180 0
169 186 0
166 182 0
166 182 0
167 183 0
166 182 0
168 185 0
167 184 0
166 184 0
167 182 0
168 186 0
171 188 0
164 181 0
173 192 0
169 188 0
168 185 0
168 187 0
170 188 0
168 187 0
170 189 0
168 189 0
171 189 0
168 184 0
170 191 0
170 190 0
168 187 0
172 192 0
168 188 0
171 190 0
172 192 0
171 191 0
171 192 0
170 191 0
169 190 0
168 187 0
169 191 0
170 190 0
169 190 0
171 191 0
171 192 0
170 191 0
172 193 0
169 188 0
169 189 0
171 193 0
169 191 0
171 192 0
173 194 0
172 194 0
169 192 0
170 189 0
169 191 0
170 194 0
169 193 0
170 194 0
171 194 0
177 199 44
187 207 122
182 203 95
183 205 105
184 206 114
184 205 117
177 200 67
178 201 67
182 204 99
185 206 114
217 231 233
222 236 252
222 236 254
218 233 249
218 233 249
217 233 250
216 232 250
213 230 248
214 231 250
214 232 255
213 231 254
211 229 249
202 221 206
203 220 206
205 222 206
200 218 193
180 202 111
178 201 84
178 201 88
174 196 72
176 200 88
173 196 62
175 198 67
172 195 80
171 195 51
174 197 57
176 200 92
172 196 57
172 195 51
174 198 67
174 198 80
172 196 62
173 197 51
174 197 80
176 199 76
173 197 72
173 197 92
170 194 57
173 197 76
172 196 62
171 196 72
173 197 76
174 198 72
172 196 76
174 198 88
175 199 72
171 195 62
174 198 72
173 197 62
172 196 88
172 195 57
172 196 62
172 196 62
170 193 67
174 197 80
170 194 51
173 196 88
172 195 67
173 196 72
172 196 62
169 193 72
171 194 72
172 196 72
171 195 76
172 195 62
172 196 84
168 191 72
169 192 62
169 193 88
168 192 76
169 193 67
173 197 84
168 192 76
168 192 51
169 192 88
169 192 51
171 195 76
171 196 95
171 195 67
169 192 95
170 193 95
171 193 80
168 192 88
166 188 57
168 192 44
169 193 86
90 118 133
91 120 145
89 118 150
96 124 148
75 106 142
91 120 150
102 129 155
84 114 154
105 133 163
89 117 146
87 116 147
91 119 140
79 110 150
93 121 153
101 128 158
111 137 157
100 128 139
105 131 155
105 131 154
96 122 145
101 128 159
86 115 158
91 120 150
81 112 163
82 112 174
85 116 186
77 109 175
79 111 175
82 113 173
84 114 170
80 111 174
82 113 174
90 118 173
74 106 171
61 98 165
61 97 162
60 96 157
63 99 160
61 97 156
61 96 153
60 95 148
59 94 145
64 98 139
64 98 144
67 101 158
59 95 151
61 95 141
70 102 139
60 95 151
60 94 145
58 93 137
60 95 149
61 97 153
60 95 148
59 94 142
61 96 148
60 96 150
59 94 137
59 94 142
61 96 151
60 96 147
60 95 140
61 96 143
60 95 141
59 94 138
60 96 147
61 96 150
62 97 153
60 95 143
61 97 154
59 94 141
61 96 147
60 96 148
60 95 141
61 97 148
60 96 143
60 95 148
61 97 148
61 96 147
61 96 146
61 96 142
61 96 147
62 97 150
61 96 150
61 97 144
60 95 140
61 97 149
61 97 152
60 95 135
60 95 144
61 96 144
61 97 150
60 96 147
61 96 148
60 95 141
62 97 148
61 96 141
61 96 145
61 97 147
62 97 150
62 97 149
60 95 137
61 96 145
61 96 137
60 95 147
61 97 153
62 97 147
60 96 142
61 96 142
62 97 149
61 96 144
62 97 152
62 97 150
61 96 148
60 95 141
58 93 125
60 96 139
61 95 137
61 96 142
61 96 141
60 95 134
61 96 149
60 94 139
62 98 150
60 95 139
61 96 150
60 95 140
60 95 131
59 94 133
60 95 137
61 96 142
62 96 139
59 93 118
60 94 136
59 93 131
59 92 125
60 95 134
60 95 138
58 92 122
58 92 117
60 95 135
58 91 125
59 93 124
63 89 94
120 130 0
117 128 0
111 118 0
135 145 0
110 117 0
122 130 0
117 124 0
120 131 0
122 131 0
133 140 0
118 125 0
121 130 0
125 131 0
128 134 0
124 129 0
124 132 0
126 135 0
130 139 0
132 138 0
130 134 0
121 123 0
118 120 0
127 131 0
127 132 0
124 129 0
118 121 0
128 129 0
129 134 0
123 125 0
130 134 0
121 123 0
116 119 0
125 127 0
135 137 0
139 141 0
132 133 0
125 128 0
130 132 0
138 141 0
137 142 0
138 142 0
136 137 0
142 145 0
132 136 0
139 142 0
137 138 0
139 140 0
140 143 0
139 141 0
139 143 0
141 142 0
139 140 0
141 143 0
147 149 0
139 141 0
147 150 0
142 146 0
144 149 0
149 154 0
151 157 0
147 151 0
147 150 0
144 147 0
153 157 0
149 155 0
154 161 0
153 159 0
152 160 0
147 151 0
154 160 0
161 170 0
158 164 0
151 156 0
160 168 0
157 166 0
152 158 0
158 166 0
162 173 0
154 162 0
156 164 0
160 170 0
160 169 0
164 174 0
159 171 0
166 180 0
160 171 0
162 173 0
160 171 0
163 175 0
163 175 0
163 178 0
160 173 0
164 177 0
165 177 0
166 181 0
163 177 0
166 181 0
164 180 0
169 186 0
163 179 0
165 180 0
166 182 0
167 183 0
163 179 0
168 187 0
162 179 0
167 182 0
166 184 0
168 186 0
167 184 0
166 186 0
169 186 0
168 184 0
169 184 0
169 186 0
165 183 0
167 183 0
169 188 0
168 185 0
167 184 0
168 185 0
170 188 0
171 191 0
169 188 0
167 185 0
167 186 0
170 190 0
170 191 0
167 188 0
168 189 0
170 188 0
166 186 0
169 187 0
169 188 0
173 193 0
168 187 0
168 187 0
167 187 0
170 190 0
171 191 0
166 188 0
170 189 0
171 193 0
172 190 0
170 192 0
170 191 0
169 190 0
172 192 0
170 190 0
171 193 0
173 195 0
173 195 0
169 190 0
172 193 0
171 192 0
173 194 0
172 195 0
171 195 0
172 196 0
173 195 36
182 203 99
183 204 102
183 204 105
182 203 108
178 201 76
179 203 102
180 202 76
178 201 84
181 203 92
214 229 227
222 236 252
221 235 254
219 234 252
218 233 249
218 233 253
216 232 249
215 231 249
214 231 253
213 231 252
213 231 255
210 228 246
198 217 189
200 218 196
207 224 212
204 221 198
179 202 99
174 197 76
175 198 80
174 197 72
175 198 72
177 199 84
172 195 51
176 199 76
174 197 76
175 198 84
175 199 76
174 198 67
173 197 72
174 197 57
173 197 67
174 197 62
172 197 84
176 199 67
172 196 72
171 195 51
170 194 80
174 197 95
173 197 80
172 195 84
171 195 88
168 193 76
173 197 76
170 195 80
175 199 95
174 199 92
173 197 92
171 194 80
170 195 67
174 198 95
173 197 92
170 194 62
172 195 88
174 196 84
171 195 62
169 193 44
174 198 95
169 193 76
172 195 67
171 197 99
172 196 95
172 195 67
173 197 92
171 194 84
173 196 76
167 190 67
169 193 57
173 198 102
170 193 67
166 189 44
171 194 72
172 195 67
167 191 95
166 189 72
168 191 57
169 193 67
171 194 67
171 195 76
165 189 44
163 187 72
169 192 62
172 195 72
163 186 62
168 191 57
169 192 80
168 191 92
165 188 95
134 159 113
104 130 147
84 114 144
91 120 152
95 123 153
96 123 144
98 126 143
97 124 149
95 122 143
93 121 138
103 129 150
91 120 154
108 135 154
104 131 158
102 129 155
94 122 166
110 135 160
95 121 149
110 135 143
109 135 158
88 117 145
110 135 160
96 124 153
79 110 148
86 116 161
80 111 175
86 116 179
82 112 171
82 113 175
88 118 183
75 107 172
71 104 169
71 105 168
83 113 170
68 101 164
61 97 158
60 96 157
65 99 149
61 97 160
61 96 153
60 96 150
60 95 151
60 95 150
61 97 151
63 97 142
65 99 149
66 99 142
60 95 145
59 94 145
59 94 149
58 94 142
60 95 148
60 95 147
60 95 145
60 95 150
59 94 135
60 95 149
61 96 154
59 94 141
59 94 143
60 95 151
60 95 137
60 96 152
60 95 141
61 97 150
59 94 145
61 97 155
60 95 145
61 96 150
61 96 145
61 97 153
61 97 153
60 94 140
61 96 146
60 95 148
61 97 154
60 95 148
62 98 161
60 95 142
61 97 154
60 95 147
62 98 154
59 94 141
59 94 137
61 97 147
61 97 153
61 97 151
61 95 148
61 96 144
60 94 142
60 95 141
61 96 147
60 96 145
61 96 150
61 96 149
61 96 144
60 95 144
62 98 157
59 94 139
62 97 145
60 95 143
60 96 143
61 97 148
61 96 148
61 96 148
62 97 147
60 95 137
61 96 145
61 96 143
60 95 144
61 96 142
61 96 145
61 96 145
61 96 152
61 96 142
61 96 142
61 96 147
62 97 152
59 94 128
61 95 136
61 96 144
61 96 144
60 95 143
61 96 143
61 96 147
58 92 124
61 96 136
60 94 133
60 94 139
61 95 141
60 94 128
59 94 126
59 93 130
59 92 131
59 93 130
59 93 126
60 94 131
59 92 123
59 92 122
59 93 126
58 91 122
58 91 120
57 90 105
109 123 41
126 136 0
125 135 0
134 146 0
120 131 0
123 134 0
119 130 0
120 127 0
122 130 0
128 139 0
129 135 0
116 123 0
120 129 0
125 134 0
132 139 0
128 138 0
128 137 0
127 133 0
123 130 0
119 125 0
125 132 0
136 141 0
121 128 0
133 137 0
125 131 0
126 132 0
138 146 0
117 118 0
132 137 0
133 138 0
130 136 0
135 140 0
132 137 0
124 129 0
133 137 0
127 130 0
137 144 0
136 141 0
126 126 0
131 134 0
130 138 0
130 136 0
133 138 0
138 142 0
141 143 0
141 145 0
133 137 0
136 142 0
136 136 0
133 135 0
138 143 0
145 148 0
146 150 0
148 154 0
146 152 0
140 142 0
145 146 0
150 155 0
152 158 0
154 158 0
151 157 0
152 156 0
150 158 0
151 155 0
148 153 0
149 155 0
155 162 0
150 156 0
154 161 0
156 162 0
155 162 0
156 167 0
153 160 0
151 159 0
151 159 0
156 165 0
159 171 0
159 171 0
160 170 0
158 166 0
155 163 0
158 168 0
157 166 0
162 174 0
159 171 0
159 173 0
165 175 0
163 176 0
162 176 0
160 172 0
165 179 0
155 169 0
161 175 0
164 175 0
160 174 0
164 178 0
164 178 0
164 177 0
166 181 0
168 182 0
162 178 0
167 185 0
168 187 0
166 180 0
165 181 0
169 187 0
166 180 0
167 183 0
168 185 0
169 186 0
167 182 0
169 186 0
165 183 0
165 181 0
166 183 0
166 185 0
168 185 0
165 180 0
171 191 0
166 183 0
165 183 0
171 192 0
167 186 0
170 188 0
170 189 0
167 182 0
170 189 0
170 191 0
167 187 0
169 187 0
171 190 0
167 186 0
170 191 0
171 191 0
172 190 0
169 189 0
170 188 0
171 192 0
170 191 0
170 191 0
170 194 0
167 188 0
169 191 0
170 191 0
169 189 0
170 190 0
168 190 0
171 192 0
171 192 0
169 190 0
171 193 0
170 192 0
171 193 0
173 194 0
172 193 0
172 192 0
173 194 0
171 195 0
170 194 0
171 195 0
178 200 84
182 204 108
186 207 128
180 202 84
182 204 108
178 201 76
179 202 84
177 200 72
178 201 76
203 220 189
223 236 252
220 235 250
219 234 249
219 234 253
218 234 252
216 232 250
213 230 245
213 230 248
212 229 245
213 231 255
210 228 245
195 214 177
199 217 186
210 226 224
192 211 149
174 197 62
175 198 80
173 196 36
173 197 62
173 196 67
175 199 72
172 195 44
174 198 57
175 198 67
173 197 84
174 198 72
175 199 67
174 198 44
170 194 72
172 196 57
174 198 51
171 195 51
175 199 84
172 195 72
171 194 84
175 198 62
169 192 72
172 196 72
170 194 80
172 195 57
170 194 80
175 198 92
171 194 62
173 196 62
172 196 76
172 196 84
171 196 88
171 194 84
168 192 67
169 193 57
168 193 51
170 194 72
171 194 67
171 196 92
171 195 76
169 194 72
171 195 72
168 191 57
171 195 67
172 196 67
168 192 84
170 194 62
171 195 72
168 193 62
169 193 51
169 193 84
171 195 76
173 197 62
169 193 72
171 195 76
165 189 76
168 192 84
171 195 67
166 189 76
170 194 84
170 193 76
170 194 67
167 191 80
170 194 72
166 189 51
166 190 84
172 196 95
172 196 76
168 190 67
168 192 88
168 191 80
169 191 67
167 190 74
101 128 147
86 115 135
86 115 140
95 123 146
98 126 153
91 119 143
93 122 156
91 119 144
89 117 151
95 122 149
96 124 159
95 123 150
90 118 142
89 118 148
98 126 157
90 119 137
93 121 140
97 125 150
105 132 157
100 127 160
105 131 150
101 128 170
96 124 165
86 115 155
97 125 160
67 102 169
71 104 174
86 116 172
79 110 173
80 111 174
89 118 174
92 119 171
79 110 167
81 107 156
64 98 157
61 97 159
61 96 157
61 96 157
61 97 160
60 96 151
60 95 150
61 97 157
59 94 152
61 96 151
65 99 148
61 95 140
60 93 131
66 98 132
59 94 140
60 95 152
60 95 145
59 94 145
59 94 143
59 94 137
60 95 146
59 94 140
60 95 140
60 96 148
60 95 147
61 96 149
61 96 147
60 96 142
61 96 144
59 95 142
60 95 140
61 96 141
62 97 153
60 96 147
61 96 148
61 96 144
61 97 144
61 96 143
60 95 142
60 96 147
62 97 149
60 95 143
61 96 148
60 95 143
61 96 153
61 96 141
60 95 142
60 95 142
61 97 152
61 97 142
60 95 143
61 96 149
62 98 151
62 97 151
61 97 145
61 97 150
60 95 139
61 95 142
61 95 139
61 96 147
60 95 142
61 96 145
60 95 131
61 97 148
59 94 139
60 96 144
60 95 144
60 96 147
61 96 137
61 96 142
60 95 137
61 96 147
60 95 139
61 96 145
61 96 143
61 96 144
61 96 145
60 94 131
61 96 141
59 94 133
60 95 136
60 95 133
61 96 144
60 95 136
62 97 147
62 97 145
60 95 135
61 96 136
61 95 137
60 95 140
60 95 130
60 95 140
61 96 141
60 95 139
60 94 134
60 94 134
59 93 124
59 93 140
59 93 125
59 93 128
58 91 126
59 93 128
60 93 129
57 89 108
59 93 117
58 91 120
57 90 117
74 99 107
122 131 0
123 136 0
114 124 0
132 144 0
123 132 0
125 134 0
115 124 0
119 126 0
127 136 0
126 136 0
134 145 0
125 132 0
127 136 0
130 140 0
127 135 0
131 141 0
130 139 0
132 139 0
128 136 0
133 140 0
128 135 0
124 131 0
130 138 0
122 129 0
126 131 0
126 134 0
133 141 0
129 137 0
129 137 0
124 127 0
131 136 0
121 125 0
130 137 0
141 145 0
132 137 0
132 135 0
133 138 0
126 129 0
131 133 0
140 142 0
133 136 0
139 144 0
140 144 0
143 150 0
138 140 0
145 153 0
136 140 0
140 145 0
144 147 0
138 140 0
142 146 0
142 148 0
141 147 0
142 146 0
143 151 0
145 148 0
149 158 0
145 152 0
150 155 0
146 152 0
154 160 0
147 152 0
146 152 0
151 154 0
154 162 0
154 160 0
150 158 0
157 166 0
151 157 0
155 162 0
153 161 0
158 166 0
153 161 0
148 155 0
161 172 0
153 163 0
156 166 0
161 170 0
157 162 0
159 169 0
160 170 0
157 167 0
164 176 0
162 173 0
160 173 0
162 174 0
163 177 0
164 178 0
157 171 0
162 175 0
161 173 0
164 179 0
162 175 0
166 179 0
168 182 0
167 183 0
160 174 0
169 185 0
166 181 0
164 177 0
161 176 0
165 179 0
165 182 0
162 180 0
162 177 0
163 179 0
165 182 0
162 175 0
167 183 0
167 184 0
165 182 0
167 184 0
166 183 0
167 183 0
169 185 0
166 180 0
169 188 0
167 184 0
169 188 0
165 183 0
167 187 0
171 189 0
168 186 0
168 186 0
168 186 0
170 188 0
163 181 0
169 189 0
167 186 0
167 187 0
168 186 0
171 187 0
168 186 0
168 189 0
170 191 0
171 194 0
171 191 0
169 189 0
171 189 0
171 193 0
169 188 0
168 188 0
171 190 0
171 191 0
173 192 0
171 193 0
169 189 0
168 188 0
173 195 0
170 192 0
171 192 0
170 191 0
169 189 0
170 190 0
170 192 0
170 190 0
173 194 0
172 195 0
172 196 0
177 200 62
185 206 117
181 203 108
182 203 111
181 202 95
181 203 102
180 201 88
178 201 62
176 200 62
201 218 179
222 235 248
218 233 242
220 234 252
220 234 254
218 234 253
216 232 250
215 231 248
214 231 253
214 231 253
214 231 254
212 230 245
200 218 196
203 221 196
203 220 196
185 206 130
175 197 80
174 197 62
177 201 84
175 198 72
175 198 62
173 196 92
172 195 57
175 199 76
174 198 76
175 199 72
174 198 62
175 199 72
174 198 92
174 197 57
175 198 67
174 196 57
173 197 76
174 199 92
176 199 72
175 197 57
173 197 72
173 197 72
172 195 72
175 199 80
174 197 62
170 194 80
170 194 67
170 193 72
173 196 67
172 195 44
172 196 72
169 192 57
171 194 57
171 194 80
170 195 84
174 197 76
173 195 44
171 195 67
170 192 67
172 196 84
172 195 72
173 198 99
172 196 80
170 195 84
173 197 80
173 197 88
172 196 84
168 192 62
171 195 76
169 193 72
167 191 84
168 192 88
169 193 67
169 192 72
170 195 92
172 194 62
170 194 62
168 192 67
170 194 84
172 195 92
166 189 72
174 197 76
169 191 80
169 193 76
165 189 84
166 191 92
168 191 84
169 192 62
169 192 44
164 189 92
170 193 88
163 185 62
166 189 76
171 194 67
142 166 105
90 119 146
92 120 145
87 116 139
98 126 144
83 113 145
94 121 145
92 119 151
91 120 141
92 120 145
94 123 164
105 132 159
99 127 165
84 114 154
96 123 148
101 128 148
89 118 153
94 122 144
100 127 145
105 132 153
100 126 147
116 141 149
96 123 159
91 119 139
87 117 158
94 122 150
73 106 173
81 112 180
84 115 179
85 115 179
82 112 176
77 109 171
72 105 168
78 108 167
71 103 163
60 96 154
61 97 162
61 97 158
61 96 151
61 97 154
62 98 156
59 94 141
63 98 149
61 95 137
62 97 147
64 99 148
61 95 138
60 94 136
58 92 145
60 95 139
60 95 150
60 95 142
58 93 137
60 95 147
61 96 147
58 93 143
61 96 142
60 96 154
59 94 139
60 95 135
59 94 142
59 94 141
60 94 141
60 95 142
60 96 155
61 96 148
61 97 145
60 94 143
61 96 148
60 95 143
61 96 154
59 94 134
60 95 138
59 94 139
61 96 144
61 96 142
61 96 148
60 96 144
61 96 143
60 96 148
60 95 144
60 96 144
61 96 147
61 97 151
61 96 143
60 95 135
60 96 148
61 96 148
61 96 147
61 97 148
60 95 134
61 96 140
61 96 142
62 97 143
59 94 142
61 96 145
61 95 144
59 94 128
60 95 136
61 97 143
60 95 142
61 96 149
60 96 144
60 95 137
62 97 149
61 96 142
60 95 139
60 95 133
60 95 142
61 97 144
60 95 139
61 95 140
60 94 131
60 94 140
61 96 152
58 92 125
61 96 141
61 96 147
61 96 147
60 94 134
60 94 135
59 94 129
60 95 137
60 95 139
60 95 130
61 96 141
60 94 137
60 95 133
61 96 137
62 97 143
61 96 140
58 92 125
59 94 131
58 91 124
59 93 130
58 92 128
60 94 135
59 93 133
58 92 128
57 90 115
58 90 118
107 120 54
132 144 0
123 133 0
128 140 0
118 128 0
127 138 0
127 137 0
131 141 0
126 134 0
129 141 0
128 136 0
123 133 0
123 130 0
126 137 0
125 132 0
127 139 0
133 141 0
126 135 0
128 135 0
135 145 0
134 143 0
128 133 0
129 136 0
124 130 0
126 134 0
137 144 0
128 137 0
126 132 0
126 130 0
125 131 0
128 136 0
131 136 0
127 129 0
140 148 0
142 149 0
129 135 0
127 129 0
128 133 0
144 146 0
138 141 0
129 133 0
135 139 0
134 138 0
143 148 0
134 140 0
142 146 0
135 137 0
145 153 0
151 157 0
143 149 0
142 147 0
144 151 0
148 157 0
152 157 0
145 149 0
140 143 0
146 151 0
147 155 0
146 153 0
149 155 0
156 162 0
153 159 0
149 153 0
146 154 0
147 151 0
150 158 0
151 159 0
152 158 0
148 155 0
150 156 0
152 159 0
154 160 0
157 164 0
154 162 0
158 168 0
158 169 0
158 164 0
157 164 0
158 167 0
160 168 0
162 175 0
159 170 0
160 169 0
152 161 0
158 168 0
160 171 0
163 175 0
160 173 0
167 182 0
160 171 0
161 173 0
167 179 0
163 175 0
159 173 0
160 173 0
160 173 0
165 178 0
167 182 0
160 171 0
167 182 0
165 178 0
162 177 0
166 182 0
164 178 0
168 183 0
165 181 0
165 182 0
168 184 0
169 185 0
168 187 0
167 185 0
167 183 0
168 186 0
165 181 0
163 179 0
164 181 0
166 186 0
167 186 0
171 189 0
164 182 0
163 177 0
169 187 0
168 186 0
166 183 0
169 187 0
168 186 0
169 190 0
172 190 0
165 181 0
166 185 0
170 190 0
169 187 0
170 192 0
170 189 0
170 189 0
170 192 0
172 191 0
171 191 0
171 191 0
168 190 0
168 186 0
171 192 0
172 192 0
168 189 0
171 191 0
171 191 0
169 190 0
171 191 0
170 193 0
172 192 0
174 193 0
171 192 0
171 192 0
169 190 0
166 187 0
171 193 0
171 194 0
171 192 0
173 197 0
172 196 25
185 206 114
188 207 128
181 203 95
183 205 108
179 201 67
181 203 95
179 202 72
179 202 80
184 205 105
221 235 246
222 235 252
222 236 254
219 234 252
218 234 253
217 233 250
216 232 252
214 231 250
212 229 245
214 231 254
210 228 242
200 218 198
201 219 196
201 218 191
181 203 99
177 200 88
178 201 95
176 199 62
176 198 72
172 196 57
173 198 99
177 200 80
174 197 57
174 197 57
170 193 57
173 197 44
175 198 72
172 195 67
172 195 44
175 199 62
171 194 72
173 197 57
175 198 80
174 198 62
172 195 72
171 195 57
171 196 88
171 194 67
172 196 84
171 195 92
170 194 44
170 194 84
174 198 92
172 195 76
169 193 88
173 197 80
173 198 76
173 196 57
169 194 84
173 196 72
173 196 76
172 196 72
167 191 80
173 197 88
169 192 62
172 196 76
165 189 62
173 197 88
170 193 57
166 191 67
171 196 92
169 193 80
171 195 72
173 197 67
169 193 76
169 193 72
174 198 67
165 189 72
168 191 62
164 187 57
165 188 62
171 194 62
168 192 95
172 196 57
167 191 67
169 192 80
167 190 72
169 192 67
164 187 72
166 189 72
170 194 88
170 193 80
163 186 51
170 194 84
164 188 67
171 194 84
169 192 76
159 181 67
167 190 72
168 192 72
162 186 72
90 118 134
94 122 141
90 118 144
97 125 152
93 120 133
83 112 145
101 128 147
92 121 142
90 119 156
97 124 146
95 124 151
93 120 144
97 124 142
78 108 142
88 116 148
98 125 153
90 118 155
106 132 163
107 132 155
103 129 154
102 129 162
101 127 143
92 121 145
85 116 151
81 111 158
89 118 162
78 110 170
82 113 177
77 109 175
89 118 174
71 104 171
75 107 170
77 109 165
78 107 165
75 104 151
61 97 157
62 97 159
61 97 154
60 96 155
63 98 150
60 95 148
62 97 156
61 96 152
61 96 141
70 102 135
64 98 133
68 100 128
70 103 143
60 95 146
59 94 142
60 95 143
59 95 143
60 95 150
58 93 142
60 96 148
60 94 141
59 95 149
60 95 144
59 93 135
60 95 140
60 95 144
61 96 144
60 95 140
60 95 143
60 96 149
61 96 147
60 95 143
60 95 138
58 93 136
59 94 139
60 95 136
60 95 143
61 96 150
60 96 140
60 95 151
60 95 142
61 96 140
61 96 147
60 96 145
61 96 153
61 97 152
61 96 142
61 96 142
61 97 152
60 95 141
60 95 141
60 95 140
61 96 145
60 95 141
61 96 141
60 95 140
62 97 147
61 97 149
61 97 143
61 96 141
60 94 143
61 96 139
62 97 149
61 97 151
61 96 151
61 96 142
60 95 137
60 95 143
61 96 145
61 96 141
60 95 130
60 95 142
61 96 148
60 95 137
61 96 142
61 97 150
60 94 140
60 95 140
60 94 133
60 95 133
60 95 131
59 93 125
60 95 133
61 96 144
61 96 135
61 96 144
59 93 129
60 94 136
58 91 126
60 95 133
60 94 133
60 95 136
58 92 126
60 95 130
60 95 134
59 93 134
60 95 134
59 93 126
60 93 130
59 93 128
58 91 116
59 92 124
58 92 123
59 92 121
92 111 70
122 134 0
119 130 0
115 126 0
128 140 0
133 145 0
111 122 0
118 129 0
122 132 0
120 130 0
136 147 0
123 134 0
122 129 0
136 147 0
121 132 0
119 130 0
124 134 0
130 138 0
131 137 0
123 130 0
126 135 0
128 135 0
129 136 0
134 144 0
128 136 0
138 146 0
125 131 0
138 147 0
130 139 0
127 132 0
132 140 0
123 131 0
134 141 0
133 142 0
137 143 0
138 144 0
132 140 0
138 144 0
146 153 0
138 143 0
133 140 0
148 156 0
145 153 0
137 141 0
137 143 0
141 144 0
142 149 0
139 146 0
141 146 0
148 156 0
139 144 0
139 146 0
142 146 0
149 155 0
138 143 0
148 155 0
141 147 0
136 137 0
147 154 0
147 152 0
150 159 0
152 159 0
142 148 0
148 157 0
149 156 0
152 161 0
155 164 0
152 160 0
157 165 0
154 162 0
155 165 0
158 168 0
159 168 0
161 169 0
159 167 0
158 167 0
162 171 0
161 174 0
158 167 0
164 177 0
152 161 0
157 166 0
158 169 0
162 175 0
155 166 0
159 169 0
161 173 0
161 174 0
162 176 0
160 172 0
164 177 0
160 173 0
166 179 0
163 178 0
164 178 0
165 180 0
157 169 0
167 182 0
163 178 0
167 182 0
167 181 0
166 182 0
167 184 0
170 187 0
169 184 0
164 180 0
165 183 0
168 184 0
168 186 0
165 183 0
168 186 0
167 183 0
166 182 0
169 187 0
168 186 0
169 187 0
168 187 0
171 189 0
168 187 0
171 188 0
166 184 0
169 187 0
169 188 0
164 182 0
167 186 0
169 189 0
170 190 0
168 184 0
171 191 0
168 185 0
166 185 0
168 186 0
169 189 0
172 192 0
169 190 0
170 188 0
168 189 0
170 192 0
170 192 0
169 188 0
170 190 0
172 193 0
170 189 0
168 190 0
168 188 0
171 192 0
171 190 0
171 192 0
167 188 0
172 191 0
171 191 0
171 194 0
171 192 0
172 193 0
172 195 0
169 191 0
172 194 0
171 193 0
172 194 0
172 196 0
180 202 88
184 205 105
178 200 88
181 202 88
181 203 84
178 201 88
180 202 76
178 201 67
175 199 44
215 230 227
221 235 250
221 235 252
220 235 253
220 235 254
216 232 250
216 232 252
215 231 252
213 230 248
214 231 254
212 230 250
200 218 198
208 225 212
200 217 186
178 200 72
177 200 80
176 199 62
174 197 51
176 199 76
175 199 80
175 198 67
170 194 25
173 197 57
173 197 80
175 198 67
171 194 57
174 197 62
174 197 67
174 198 76
174 198 57
173 197 76
175 198 57
175 199 95
170 195 80
169 194 67
173 197 62
172 196 62
171 194 80
173 196 57
172 196 57
170 194 62
171 195 76
170 194 76
171 194 80
172 196 76
173 198 99
171 195 95
173 197 62
171 195 84
171 195 84
174 198 76
169 193 80
174 198 76
174 198 84
175 198 62
170 194 67
172 196 72
167 192 67
170 194 80
171 196 76
173 196 51
170 195 80
167 191 84
168 192 76
163 187 67
167 191 62
171 196 99
168 192 67
172 196 67
170 194 72
169 193 62
168 192 92
169 193 62
167 191 80
166 190 76
167 190 62
169 193 62
168 191 67
166 190 76
169 193 80
164 188 67
165 189 80
167 190 88
162 187 76
168 192 72
168 191 57
167 191 99
166 189 51
169 193 67
165 188 67
165 189 72
160 183 62
133 156 95
90 119 141
97 125 152
95 122 136
87 117 153
96 122 126
98 125 146
108 133 156
87 116 150
87 115 137
90 118 133
85 114 157
89 117 143
93 120 151
103 130 151
102 129 161
90 118 149
98 125 155
110 135 149
108 134 159
94 121 147
97 125 150
97 123 149
109 135 162
93 121 148
84 113 153
93 121 162
77 109 174
79 111 169
87 116 169
77 109 172
72 105 167
75 107 171
75 106 167
76 105 158
70 102 153
61 96 154
61 96 148
60 96 154
60 95 150
60 95 147
61 96 154
61 97 150
60 95 145
66 100 150
70 102 146
68 100 131
64 98 141
63 97 141
58 94 141
59 95 143
60 95 150
58 92 135
59 94 144
59 93 134
60 94 142
61 96 147
60 95 146
59 94 142
61 96 145
58 92 126
60 95 142
59 94 145
61 96 148
61 96 149
60 95 141
60 96 151
60 94 136
60 95 148
59 94 134
59 94 128
60 95 138
60 95 137
60 95 148
61 97 147
61 97 147
59 93 134
62 97 148
61 96 139
60 95 143
61 96 145
60 95 137
61 96 153
60 95 138
60 95 141
60 96 145
59 93 135
60 95 142
60 96 140
59 94 136
61 96 148
61 97 147
62 97 142
61 96 147
60 94 137
60 95 139
60 94 141
61 95 135
61 96 142
61 96 137
61 96 136
60 96 142
60 95 133
59 94 130
60 95 141
60 95 136
59 93 135
61 96 152
59 93 128
60 95 142
60 95 137
60 95 142
59 94 129
60 95 136
61 96 148
60 95 134
59 93 134
59 94 135
59 94 134
61 96 143
60 95 126
58 93 126
59 93 130
59 94 126
59 93 130
60 94 128
60 94 133
61 95 136
59 93 130
60 94 126
60 94 136
60 94 130
57 89 114
57 89 105
57 90 120
58 91 117
58 91 120
58 90 118
63 94 104
127 138 25
122 130 0
118 129 0
124 135 0
120 130 0
130 142 0
124 135 0
127 139 0
120 130 0
128 140 0
117 128 0
127 138 0
126 139 0
119 130 0
129 140 0
125 134 0
128 137 0
119 130 0
131 140 0
126 136 0
127 136 0
125 135 0
122 131 0
137 146 0
123 134 0
131 142 0
128 138 0
129 138 0
126 132 0
137 146 0
133 137 0
123 130 0
132 139 0
131 138 0
136 146 0
133 140 0
124 132 0
129 133 0
139 144 0
132 135 0
139 146 0
139 148 0
134 141 0
138 148 0
131 135 0
133 136 0
146 155 0
141 146 0
145 153 0
144 153 0
132 139 0
150 154 0
145 152 0
147 154 0
145 154 0
148 155 0
147 154 0
147 154 0
148 155 0
150 159 0
150 156 0
151 157 0
153 160 0
151 159 0
145 151 0
151 159 0
148 155 0
153 161 0
156 163 0
150 158 0
152 161 0
156 164 0
154 165 0
151 161 0
156 166 0
155 166 0
153 162 0
159 170 0
161 171 0
160 173 0
161 172 0
154 166 0
156 167 0
164 177 0
159 170 0
157 169 0
159 170 0
164 178 0
161 172 0
163 177 0
165 179 0
169 184 0
162 174 0
165 179 0
164 181 0
163 179 0
161 175 0
161 176 0
167 183 0
164 179 0
164 179 0
165 180 0
166 182 0
164 180 0
163 176 0
161 179 0
166 182 0
167 183 0
167 184 0
167 185 0
168 186 0
159 176 0
167 183 0
168 186 0
169 187 0
167 183 0
168 187 0
167 186 0
165 180 0
167 183 0
170 187 0
163 181 0
168 186 0
168 186 0
168 188 0
168 188 0
168 185 0
170 187 0
169 189 0
170 191 0
171 193 0
170 190 0
170 190 0
169 189 0
168 187 0
167 186 0
167 188 0
166 185 0
170 190 0
169 188 0
172 192 0
169 189 0
171 193 0
171 191 0
168 190 0
169 188 0
172 194 0
171 193 0
170 192 0
172 193 0
168 189 0
171 194 0
170 191 0
172 192 0
172 193 0
171 192 0
171 193 0
172 194 0
171 193 0
175 198 67
183 204 99
185 206 120
184 205 105
182 204 105
179 201 80
181 203 95
178 201 72
177 200 67
199 217 173
221 235 248
222 236 254
220 234 252
219 234 250
218 233 252
217 233 253
216 233 253
215 232 252
214 231 253
210 228 241
201 219 194
206 222 203
195 214 171
175 199 80
172 195 72
171 194 57
173 197 62
175 198 76
178 202 102
174 197 62
175 198 72
172 196 44
175 198 72
175 198 72
173 197 76
173 197 95
170 194 57
176 199 80
174 197 62
177 201 108
172 196 67
170 193 67
171 195 84
174 198 88
174 197 76
174 198 84
172 196 92
174 198 76
172 196 57
171 194 72
172 196 88
171 196 80
168 191 57
170 195 76
174 198 99
171 196 88
172 196 88
170 194 80
167 191 57
173 197 84
170 195 51
171 194 67
171 194 57
170 194 80
171 194 76
170 195 76
171 195 62
171 194 67
168 193 51
171 195 72
168 192 62
171 194 62
174 198 99
169 193 72
167 191 67
169 192 72
164 187 72
166 190 80
167 191 67
165 188 67
165 187 67
169 193 67
166 190 72
168 192 67
169 193 72
162 185 62
161 185 51
165 189 72
170 193 88
167 190 67
168 192 88
167 190 62
167 190 84
167 191 44
170 194 72
170 193 76
164 188 84
166 190 84
169 191 51
167 188 67
166 189 80
162 184 76
159 183 57
108 134 133
95 122 137
101 129 153
92 120 142
94 122 150
89 117 131
85 113 136
96 124 153
92 121 150
87 115 148
95 123 140
91 118 150
99 125 156
91 119 151
81 111 144
101 128 160
110 136 154
85 114 150
105 131 142
108 134 152
90 119 143
108 135 162
105 131 151
89 118 158
102 129 149
92 120 157
79 109 153
82 113 171
77 109 172
74 107 176
77 109 173
80 111 173
80 111 166
77 105 161
81 108 158
64 98 153
61 97 154
61 97 157
63 98 160
60 95 150
63 98 158
61 97 154
60 96 151
61 96 144
63 97 141
69 102 142
66 100 140
66 98 145
64 99 147
60 95 141
61 96 147
61 96 148
61 96 148
59 94 140
60 95 144
59 94 147
60 94 137
59 94 134
60 95 147
59 94 137
60 95 144
60 96 148
59 93 128
61 97 145
60 95 141
58 93 135
61 96 144
60 95 139
59 94 135
60 96 148
61 96 149
60 95 139
61 96 147
60 95 144
59 94 133
60 95 134
59 94 132
60 94 133
61 96 142
60 95 144
61 96 145
61 96 144
61 96 151
59 94 141
61 96 149
60 96 145
60 94 133
60 95 143
61 96 141
61 96 144
61 95 140
60 95 142
61 97 151
59 94 134
59 94 144
60 95 137
61 96 140
60 94 136
60 95 133
59 94 131
61 95 135
60 95 135
62 97 141
60 94 134
61 96 144
61 96 144
60 95 122
60 94 137
59 94 125
60 95 135
60 95 140
60 94 142
59 93 129
60 95 134
59 94 134
61 96 145
61 96 142
60 95 135
61 96 136
59 93 129
59 94 137
60 95 133
60 95 139
60 95 126
59 94 130
60 95 134
59 94 125
60 94 125
59 92 122
58 91 116
59 94 131
58 92 114
58 92 123
59 92 128
57 91 115
57 90 117
57 90 101
100 117 62
119 125 0
124 136 0
123 133 0
123 135 0
118 132 0
123 133 0
124 138 0
137 148 0
121 132 0
131 143 0
125 136 0
126 137 0
127 137 0
134 147 0
133 144 0
120 129 0
127 137 0
129 140 0
132 143 0
123 129 0
136 146 0
120 129 0
130 140 0
129 138 0
138 148 0
129 138 0
125 133 0
125 133 0
129 135 0
134 143 0
134 142 0
129 138 0
124 132 0
134 144 0
134 141 0
129 137 0
142 153 0
135 141 0
133 136 0
138 145 0
142 152 0
135 144 0
142 150 0
147 155 0
144 153 0
142 152 0
140 149 0
146 155 0
140 145 0
139 147 0
138 143 0
155 164 0
144 150 0
143 148 0
141 150 0
142 151 0
146 154 0
151 159 0
151 159 0
148 154 0
141 148 0
144 154 0
152 161 0
154 163 0
152 159 0
155 165 0
152 159 0
151 160 0
152 160 0
154 164 0
155 168 0
161 168 0
156 167 0
159 169 0
155 166 0
160 171 0
153 164 0
155 167 0
159 171 0
162 172 0
163 177 0
160 171 0
161 171 0
163 176 0
157 169 0
161 175 0
164 177 0
156 166 0
162 173 0
162 175 0
163 177 0
163 177 0
162 174 0
162 176 0
162 177 0
166 180 0
167 183 0
166 182 0
167 181 0
159 173 0
161 177 0
167 184 0
165 181 0
164 180 0
166 182 0
165 182 0
167 184 0
168 188 0
166 183 0
164 182 0
166 184 0
165 183 0
167 183 0
162 179 0
168 184 0
167 185 0
165 183 0
171 191 0
170 187 0
167 184 0
168 187 0
165 184 0
168 187 0
170 189 0
169 187 0
168 188 0
171 189 0
167 185 0
169 188 0
167 187 0
167 186 0
170 189 0
168 187 0
169 192 0
170 190 0
170 190 0
167 187 0
171 190 0
168 188 0
170 191 0
171 191 0
169 189 0
168 189 0
171 191 0
171 191 0
172 194 0
173 194 0
171 189 0
168 189 0
172 193 0
172 192 0
171 191 0
173 194 0
168 189 0
171 192 0
171 193 0
172 193 0
170 191 0
168 191 0
180 201 99
182 204 108
179 201 88
181 203 102
177 200 67
175 198 67
180 202 72
177 200 72
184 205 108
221 235 248
222 236 254
221 235 252
221 235 254
219 234 253
215 231 245
216 232 252
215 232 252
214 231 252
213 231 250
195 214 188
202 219 196
196 214 171
174 197 67
177 201 76
176 199 67
176 199 72
177 200 99
176 199 62
172 195 51
174 197 51
176 199 84
174 197 67
174 198 80
168 192 62
170 194 76
177 201 92
170 193 57
173 197 84
173 197 95
174 197 84
173 196 62
171 195 76
175 199 88
174 198 95
173 197 57
171 195 62
177 199 67
172 196 72
173 196 72
173 197 88
172 196 57
172 195 67
173 198 80
172 196 80
170 194 72
170 194 57
170 194 88
173 197 76
169 193 62
170 192 36
167 191 62
171 195 67
171 195 62
167 191 72
170 195 92
166 190 67
174 198 80
172 197 92
173 196 72
173 197 76
172 195 57
164 187 62
166 189 57
171 194 57
173 196 80
170 195 99
165 188 62
172 196 92
171 194 67
168 193 80
167 191 88
171 195 105
165 189 62
168 192 76
169 193 67
163 186 76
161 185 62
164 187 67
168 191 67
165 189 84
166 189 80
165 188 62
165 189 84
167 190 72
162 185 92
166 189 67
168 192 88
166 189 76
162 185 72
159 183 72
166 189 62
164 186 67
161 184 72
145 169 115
93 121 145
104 131 155
91 119 135
98 124 137
88 116 137
99 126 143
84 114 145
88 116 144
100 127 142
95 121 143
92 118 140
104 131 136
98 124 146
96 124 150
100 127 149
104 130 148
90 118 153
103 129 157
94 122 154
83 112 153
115 140 165
97 124 148
111 136 149
84 113 148
84 114 158
91 118 150
79 111 156
78 109 163
79 111 172
77 109 172
85 115 176
90 119 178
93 118 167
75 104 153
71 102 152
61 97 156
61 96 151
61 96 152
64 99 157
61 96 148
59 94 139
60 96 150
59 94 144
63 97 142
65 99 138
61 95 126
63 97 134
64 97 134
59 94 142
59 93 144
59 94 141
60 95 146
59 94 141
59 93 138
60 95 145
59 93 138
59 94 133
60 94 148
60 94 139
60 95 143
60 95 140
59 93 130
60 95 137
60 95 143
60 95 142
60 95 141
59 94 140
61 96 144
60 95 143
58 92 120
61 96 144
60 95 139
61 96 145
60 95 134
61 95 143
60 95 136
62 97 151
60 95 136
60 95 139
61 96 150
59 94 131
61 96 149
60 95 143
59 94 136
59 93 130
62 98 154
62 98 154
60 95 139
61 95 142
60 96 150
60 95 141
59 94 141
60 95 144
59 93 126
61 96 142
60 95 130
59 93 128
61 96 141
61 96 141
59 94 124
60 95 140
59 93 130
61 96 142
60 95 144
61 95 145
60 95 134
61 96 145
60 94 135
61 96 140
60 94 136
61 96 141
61 96 144
60 94 130
61 96 139
61 95 142
60 95 136
59 94 129
61 96 140
62 97 143
58 92 128
60 95 131
62 97 141
60 94 128
58 93 126
61 95 135
59 93 129
58 92 120
58 92 125
59 93 121
58 92 124
58 92 115
57 90 121
58 91 113
59 92 122
58 91 114
76 102 96
118 130 18
126 136 0
131 144 0
125 139 0
134 145 0
114 126 0
128 141 0
126 137 0
127 137 0
116 128 0
125 138 0
121 130 0
119 129 0
125 135 0
129 137 0
127 138 0
132 146 0
127 136 0
128 137 0
131 141 0
127 134 0
128 139 0
130 140 0
141 151 0
123 134 0
125 135 0
132 142 0
138 147 0
127 135 0
135 146 0
137 149 0
131 142 0
130 137 0
139 147 0
133 139 0
131 138 0
132 143 0
144 153 0
143 153 0
133 139 0
132 139 0
137 145 0
132 141 0
141 149 0
146 153 0
147 156 0
142 150 0
146 156 0
143 149 0
140 147 0
149 154 0
144 152 0
137 144 0
149 160 0
142 151 0
145 152 0
143 153 0
157 166 0
148 156 0
159 170 0
151 158 0
150 158 0
149 158 0
150 159 0
145 154 0
154 165 0
153 159 0
154 164 0
158 166 0
156 170 0
157 165 0
156 164 0
159 169 0
152 160 0
159 169 0
155 167 0
158 168 0
157 169 0
156 169 0
157 170 0
160 173 0
159 173 0
161 172 0
159 170 0
166 178 0
156 168 0
160 170 0
163 176 0
166 182 0
157 168 0
164 179 0
161 171 0
164 179 0
158 168 0
167 183 0
155 168 0
160 175 0
165 181 0
166 183 0
168 184 0
162 174 0
163 179 0
167 183 0
168 185 0
163 176 0
162 178 0
165 180 0
165 181 0
165 182 0
165 179 0
167 184 0
168 185 0
165 183 0
166 183 0
162 178 0
168 186 0
167 182 0
168 185 0
169 187 0
168 188 0
171 189 0
168 186 0
163 181 0
168 186 0
164 184 0
167 186 0
168 186 0
165 185 0
168 190 0
169 188 0
168 188 0
169 187 0
170 188 0
170 189 0
169 189 0
163 182 0
170 188 0
169 189 0
169 189 0
172 191 0
168 189 0
170 191 0
172 193 0
170 191 0
169 189 0
168 191 0
172 192 0
170 190 0
170 191 0
170 192 0
169 188 0
168 189 0
168 190 0
174 196 0
168 188 0
171 191 0
170 189 0
170 191 0
169 190 0
170 191 0
183 204 114
183 204 92
180 202 88
175 198 67
177 200 72
182 204 102
180 202 88
177 201 84
205 222 194
222 236 252
222 236 253
218 233 249
219 234 253
218 233 253
216 232 248
214 231 248
213 230 248
211 229 248
203 221 201
200 218 189
195 213 161
176 199 72
176 199 72
178 201 84
171 195 76
176 199 80
175 198 80
176 200 62
175 198 76
171 195 57
175 198 80
172 196 76
175 198 76
173 197 51
173 196 67
174 197 57
174 197 92
170 193 62
172 195 76
174 199 88
172 195 80
173 197 72
170 194 57
173 197 88
172 196 62
171 196 72
169 193 57
170 194 84
174 198 88
170 193 62
172 196 84
172 197 88
172 195 72
173 196 92
172 196 67
171 196 80
172 195 67
167 191 62
169 193 36
172 195 57
171 195 67
171 195 88
172 196 76
165 188 72
165 189 72
166 190 67
169 193 72
165 189 76
166 191 80
169 193 76
171 195 80
173 198 102
168 191 76
167 191 67
169 193 76
166 190 80
169 192 51
166 188 51
167 191 84
168 191 62
163 186 44
170 194 80
168 193 76
169 192 72
161 186 92
168 192 72
167 190 67
164 190 105
162 187 67
161 184 44
165 189 67
160 183 72
163 186 62
166 189 80
163 186 72
161 184 72
163 186 57
160 183 76
164 188 57
163 187 95
164 188 51
167 190 88
168 192 67
157 179 44
103 128 100
82 110 120
93 121 147
90 118 139
87 115 140
92 121 155
94 122 150
101 128 154
104 131 147
97 124 141
97 124 153
91 119 136
92 120 149
86 115 141
103 129 155
88 116 136
93 121 150
88 117 151
96 122 154
93 121 131
96 123 139
102 128 149
109 134 148
84 112 151
86 115 147
87 116 147
88 116 149
86 116 173
71 105 168
68 102 163
92 120 168
90 119 179
70 102 152
73 103 160
76 105 161
72 102 144
61 96 154
61 96 153
61 97 157
62 98 163
61 97 150
59 94 145
60 95 137
60 95 147
62 96 137
66 98 141
67 100 134
63 95 130
59 93 128
58 93 132
58 92 133
60 94 134
59 94 135
60 95 144
59 94 136
60 95 141
59 94 139
59 94 139
60 95 143
58 92 137
61 96 151
60 95 141
59 93 137
59 95 141
59 94 135
60 95 138
60 96 146
61 96 147
60 95 139
60 95 143
60 95 149
61 96 147
61 96 145
58 93 130
60 96 141
61 96 148
61 96 142
60 94 126
61 96 145
60 95 140
60 95 135
60 95 141
61 96 143
61 97 148
60 95 142
60 96 142
60 95 142
61 96 143
60 95 143
59 94 131
60 94 130
61 96 144
60 95 131
59 94 137
61 96 141
59 94 124
59 93 125
60 95 139
59 94 124
59 93 134
61 96 141
60 95 131
61 96 140
60 94 133
61 96 144
61 96 137
61 96 136
60 95 135
61 96 141
61 95 130
59 95 139
62 97 152
59 94 136
60 94 134
59 93 136
59 93 130
59 94 131
60 95 136
60 94 131
60 94 131
60 94 128
61 96 145
60 95 134
60 95 134
60 95 128
58 91 117
59 93 122
61 95 134
60 95 121
58 92 122
58 91 113
60 93 126
58 91 119
56 88 110
63 95 120
114 129 44
116 128 0
117 131 0
121 132 0
119 132 0
126 139 0
123 137 0
128 140 0
129 141 0
120 132 0
129 142 0
124 137 0
125 137 0
130 140 0
130 141 0
129 141 0
134 144 0
134 149 0
128 138 0
127 136 0
127 136 0
142 152 0
127 138 0
131 143 0
122 133 0
133 145 0
132 144 0
133 142 0
138 148 0
134 147 0
128 136 0
143 157 0
121 130 0
138 149 0
140 149 0
136 147 0
135 145 0
140 148 0
139 147 0
139 148 0
146 155 0
140 148 0
133 142 0
138 147 0
140 147 0
143 151 0
145 149 0
145 152 0
149 161 0
152 162 0
150 159 0
137 147 0
144 154 0
147 156 0
145 152 0
144 150 0
146 155 0
142 151 0
150 160 0
145 154 0
152 161 0
153 160 0
153 163 0
144 154 0
154 164 0
146 153 0
151 162 0
147 158 0
156 166 0
157 169 0
156 165 0
153 164 0
157 167 0
156 165 0
156 167 0
156 168 0
158 169 0
159 168 0
160 171 0
161 172 0
162 178 0
156 169 0
158 171 0
155 165 0
160 171 0
162 175 0
161 174 0
157 170 0
160 173 0
158 171 0
160 174 0
159 172 0
163 178 0
164 178 0
165 181 0
164 179 0
165 181 0
164 178 0
160 173 0
164 179 0
168 186 0
166 181 0
162 178 0
163 178 0
165 180 0
163 180 0
164 179 0
166 183 0
162 178 0
164 180 0
164 180 0
169 186 0
166 186 0
167 185 0
168 186 0
167 186 0
165 184 0
166 184 0
165 182 0
167 184 0
168 187 0
169 187 0
166 183 0
169 188 0
166 186 0
168 188 0
168 187 0
169 187 0
169 187 0
167 186 0
169 190 0
169 187 0
170 189 0
169 188 0
166 185 0
173 191 0
167 185 0
171 190 0
172 192 0
169 189 0
171 190 0
165 186 0
169 191 0
171 191 0
167 187 0
169 190 0
170 190 0
168 189 0
170 190 0
170 190 0
169 189 0
167 187 0
169 190 0
170 192 0
172 195 0
173 194 0
171 192 0
171 193 0
171 193 0
172 193 0
171 194 0
183 204 117
182 204 102
179 202 80
181 203 88
179 202 92
180 202 84
180 202 84
192 211 144
222 235 249
222 236 252
220 234 249
219 234 252
219 234 254
217 233 253
216 232 250
214 231 249
214 231 252
194 214 181
201 219 191
194 213 165
177 199 84
177 199 88
175 198 57
173 197 92
169 193 76
176 198 62
172 196 51
176 199 84
173 196 72
177 200 84
174 197 88
173 196 62
175 198 57
174 197 95
174 198 88
173 196 67
174 198 80
175 198 76
175 199 72
171 195 62
173 197 76
173 197 51
170 193 57
175 200 88
172 195 62
171 196 84
171 194 51
171 194 72
171 196 88
170 193 36
175 198 62
170 194 67
174 198 92
170 194 62
172 196 67
169 192 76
165 189 72
166 190 62
173 197 84
169 194 67
172 196 72
171 194 76
171 195 92
172 196 95
168 192 67
171 195 72
171 196 67
165 189 88
168 192 84
168 193 95
168 190 72
171 194 88
167 191 67
166 190 88
168 192 57
167 190 57
168 192 67
167 191 76
163 187 76
174 198 80
166 191 80
166 189 51
161 184 57
164 189 72
164 188 51
167 190 67
168 192 84
163 186 80
163 187 80
166 189 76
166 190 67
159 182 57
165 189 51
163 188 88
165 189 57
161 185 84
161 184 57
162 185 57
164 187 84
166 189 80
162 185 72
162 185 95
154 176 67
162 185 80
157 180 74
101 127 141
80 110 133
88 117 140
96 123 149
98 125 143
78 108 136
93 121 148
107 133 152
95 121 137
90 118 147
88 116 142
90 118 149
93 120 137
95 122 145
89 118 141
112 138 162
96 123 155
87 115 152
96 123 161
94 121 150
119 143 143
111 136 159
108 133 142
97 123 137
85 114 148
86 115 144
79 109 149
86 115 168
74 107 173
71 104 161
74 106 163
80 111 168
87 115 168
76 105 150
70 101 148
72 102 151
62 98 158
61 96 149
61 96 144
60 95 151
61 97 149
60 95 147
60 96 147
65 98 146
62 95 138
59 94 142
67 100 136
63 97 130
60 95 143
57 91 137
59 94 134
59 94 135
60 95 140
58 92 126
60 94 137
59 94 138
59 93 134
60 96 142
59 94 139
60 94 143
60 95 145
60 94 150
60 95 140
59 94 132
60 95 142
58 93 125
60 95 143
60 94 137
60 96 145
61 96 145
60 95 138
61 96 139
60 96 143
60 94 139
59 93 136
61 96 142
59 94 140
60 95 135
60 95 136
61 96 143
60 96 136
58 93 129
61 96 144
60 95 141
61 97 148
61 96 148
61 96 143
60 95 136
59 93 130
60 96 144
61 95 133
61 95 148
59 93 125
61 96 142
61 95 137
61 96 141
61 96 143
59 93 132
61 96 143
61 96 141
60 94 133
61 96 147
60 94 131
61 95 134
61 95 137
59 93 131
61 96 145
61 97 144
60 95 139
60 94 129
61 96 143
60 94 135
60 95 128
59 92 125
59 94 137
59 92 125
59 93 129
58 92 125
60 95 129
58 93 122
59 93 135
59 93 124
61 95 144
59 92 126
61 96 141
59 93 125
58 91 122
59 93 125
60 94 134
58 91 125
58 91 118
57 90 108
56 87 102
94 113 72
128 140 0
125 139 0
115 130 0
126 139 0
118 132 0
125 138 0
122 135 0
133 146 0
128 141 0
127 139 0
123 134 0
122 135 0
135 145 0
122 132 0
129 139 0
137 150 0
129 140 0
131 142 0
128 137 0
128 139 0
131 144 0
120 130 0
130 142 0
127 137 0
137 148 0
137 146 0
139 148 0
135 146 0
125 136 0
135 147 0
140 151 0
129 139 0
142 152 0
140 153 0
137 148 0
142 152 0
135 145 0
139 151 0
135 144 0
134 145 0
137 147 0
140 152 0
138 149 0
140 152 0
141 149 0
142 150 0
143 154 0
146 156 0
145 155 0
145 155 0
147 159 0
143 154 0
134 140 0
149 161 0
147 155 0
147 157 0
141 150 0
152 160 0
150 158 0
142 152 0
146 155 0
140 150 0
153 166 0
146 157 0
154 164 0
156 167 0
153 164 0
159 169 0
153 162 0
156 166 0
158 169 0
162 173 0
160 173 0
156 166 0
157 171 0
153 161 0
160 172 0
155 169 0
160 173 0
164 176 0
158 170 0
157 167 0
162 177 0
158 171 0
158 172 0
158 172 0
159 170 0
161 176 0
161 174 0
157 172 0
161 175 0
164 180 0
165 179 0
164 177 0
160 174 0
164 180 0
162 176 0
162 176 0
164 182 0
165 181 0
164 179 0
163 179 0
164 178 0
165 181 0
166 180 0
163 181 0
165 182 0
164 181 0
166 183 0
165 182 0
166 183 0
168 184 0
164 182 0
166 183 0
166 184 0
165 183 0
168 185 0
166 183 0
169 187 0
168 187 0
166 184 0
169 187 0
167 185 0
168 186 0
169 188 0
165 183 0
169 186 0
171 189 0
167 184 0
170 189 0
168 188 0
170 188 0
172 191 0
169 186 0
166 186 0
170 188 0
168 186 0
171 190 0
170 190 0
171 190 0
168 189 0
169 190 0
170 189 0
167 187 0
168 188 0
171 193 0
169 191 0
170 192 0
168 189 0
169 189 0
171 193 0
171 193 0
170 192 0
171 192 0
170 190 0
170 192 0
172 192 0
169 190 0
174 194 0
168 189 0
171 192 0
181 202 102
182 204 99
180 202 95
178 200 80
179 202 84
178 200 67
177 200 72
213 228 218
223 236 253
220 235 250
218 233 246
218 234 252
217 233 250
216 232 252
215 231 249
213 230 248
202 221 214
202 220 194
194 212 163
179 202 92
177 199 72
174 197 67
173 196 72
175 198 57
172 196 51
175 198 72
175 199 72
174 197 57
175 198 72
173 197 72
178 202 108
173 196 62
172 196 51
175 197 51
174 198 84
173 196 57
173 196 92
172 195 62
175 197 76
172 196 80
166 191 67
171 195 72
171 194 57
172 197 88
170 193 67
172 195 67
174 198 57
172 196 80
173 197 80
173 197 84
172 196 67
171 196 57
173 198 95
172 196 62
171 194 84
169 193 72
169 194 84
167 191 76
169 194 84
169 194 84
172 196 51
171 195 62
170 194 51
172 197 84
171 195 67
169 194 84
170 193 62
165 189 67
171 194 72
167 191 80
169 193 88
166 190 67
173 197 57
166 190 80
169 194 80
165 189 76
169 193 72
166 189 76
160 184 67
164 187 51
163 187 62
169 193 80
163 188 92
165 189 67
165 189 57
166 189 72
166 190 67
158 180 57
167 190 80
168 191 67
167 191 57
165 189 95
165 189 67
167 192 80
158 181 67
164 189 67
154 178 80
163 186 44
169 192 67
162 185 95
161 185 57
163 187 76
156 180 76
153 175 67
158 181 76
136 159 111
98 124 130
95 123 140
98 126 148
94 122 130
105 132 152
95 121 134
97 124 147
85 114 149
96 123 154
83 113 144
104 130 149
98 126 149
86 114 145
92 119 154
97 123 140
89 117 143
92 119 150
98 125 144
88 116 136
97 124 158
98 124 155
95 122 145
100 126 153
86 114 145
103 129 160
93 120 133
78 108 148
85 115 175
77 108 163
86 115 173
79 109 160
90 118 170
74 104 157
72 102 151
76 104 145
69 101 153
61 96 149
60 96 147
60 95 147
59 94 141
60 95 146
60 95 144
60 95 144
66 98 139
63 96 131
61 94 124
61 94 128
66 99 136
59 94 137
60 95 137
59 94 131
59 94 141
59 94 138
60 95 138
60 95 133
59 94 136
60 94 134
60 94 132
57 92 131
59 93 134
60 95 140
59 93 137
60 95 141
61 96 143
61 96 143
60 95 142
60 95 142
59 94 130
59 93 136
59 94 140
60 95 141
60 95 136
59 94 136
60 96 136
61 95 135
62 97 149
60 95 141
60 95 139
59 94 139
59 93 131
59 94 137
60 95 144
60 94 135
60 94 139
60 96 137
59 94 131
61 96 144
60 95 136
60 95 139
61 96 140
60 95 141
61 96 140
59 94 131
62 97 145
60 95 141
59 94 133
60 95 133
60 95 140
61 96 135
60 95 135
61 95 136
59 94 128
60 94 134
60 94 137
60 95 133
60 95 135
60 95 140
58 93 131
60 94 135
60 95 143
61 95 135
61 95 133
60 94 133
59 94 136
60 95 141
61 95 136
59 94 134
60 94 122
60 94 131
58 92 121
59 93 122
59 94 137
60 94 131
59 92 126
58 92 115
59 93 132
57 90 107
57 90 103
57 91 118
57 90 121
56 88 105
79 101 94
117 129 0
118 131 0
117 127 0
125 136 0
132 147 0
130 142 0
128 142 0
122 133 0
123 137 0
134 149 0
130 142 0
128 141 0
118 130 0
126 139 0
120 132 0
128 142 0
125 136 0
134 145 0
140 151 0
129 142 0
136 148 0
127 138 0
129 139 0
139 152 0
143 155 0
138 148 0
129 142 0
139 149 0
140 150 0
134 144 0
136 147 0
132 142 0
140 151 0
135 141 0
136 147 0
136 145 0
130 139 0
135 145 0
132 142 0
144 155 0
136 147 0
141 152 0
146 156 0
151 159 0
143 153 0
149 159 0
145 153 0
142 152 0
145 152 0
144 156 0
146 156 0
143 150 0
149 159 0
147 159 0
147 158 0
147 158 0
145 155 0
151 161 0
154 163 0
141 149 0
157 170 0
158 165 0
152 160 0
152 164 0
154 164 0
150 162 0
154 165 0
154 163 0
153 164 0
153 164 0
152 163 0
148 160 0
159 171 0
152 164 0
156 167 0
161 174 0
158 172 0
154 163 0
156 168 0
159 172 0
155 167 0
155 170 0
156 165 0
161 175 0
158 171 0
159 175 0
154 166 0
165 179 0
158 171 0
157 170 0
162 177 0
165 183 0
163 177 0
161 177 0
163 180 0
166 180 0
162 177 0
162 177 0
161 174 0
164 180 0
164 180 0
162 179 0
165 182 0
163 180 0
166 185 0
162 178 0
165 180 0
165 182 0
166 184 0
163 180 0
165 182 0
168 184 0
168 186 0
167 184 0
169 188 0
169 188 0
166 184 0
168 186 0
166 184 0
165 183 0
169 187 0
171 191 0
169 190 0
164 183 0
169 189 0
172 192 0
167 184 0
171 191 0
166 184 0
167 186 0
171 191 0
169 189 0
168 188 0
165 184 0
169 188 0
170 191 0
169 189 0
167 187 0
168 188 0
170 190 0
168 187 0
168 187 0
170 192 0
172 193 0
172 192 0
170 190 0
169 190 0
169 189 0
171 192 0
167 187 0
173 193 0
173 194 0
170 191 0
169 189 0
168 189 0
170 190 0
172 193 0
170 192 0
170 192 0
172 195 0
170 192 0
170 193 0
180 202 84
179 202 88
183 205 102
179 202 84
177 199 44
178 201 72
195 213 153
223 236 252
220 234 252
220 234 250
218 233 246
218 233 250
216 232 250
214 231 248
215 232 253
209 226 231
196 215 184
195 214 165
175 198 84
174 197 57
172 196 80
175 199 92
175 199 80
175 198 80
171 194 62
172 195 67
175 198 44
178 200 67
174 197 62
173 196 67
175 197 57
173 196 72
173 196 44
172 196 76
171 194 72
174 197 67
173 196 62
171 195 76
170 194 62
172 195 72
170 193 57
173 197 72
174 198 84
171 195 76
169 192 72
169 193 102
172 195 72
170 194 57
172 196 67
171 195 72
171 195 72
171 194 57
169 192 62
171 195 67
171 195 72
169 193 72
171 195 80
170 194 80
168 192 67
168 193 80
173 197 76
167 190 36
168 192 67
170 194 67
168 192 84
170 193 72
167 190 57
164 188 88
171 196 88
164 190 88
171 195 72
169 192 51
168 191 57
161 185 51
170 193 80
169 194 84
165 189 67
166 188 57
169 193 62
166 190 76
170 193 76
167 191 62
164 187 62
165 189 62
170 194 84
161 185 67
166 190 57
161 184 88
166 189 76
161 184 72
168 191 67
162 185 51
166 189 72
160 184 88
162 186 76
163 185 51
163 187 84
159 182 57
167 190 84
160 182 62
163 186 72
156 179 51
164 187 80
164 187 84
155 177 72
149 171 62
100 126 122
90 118 139
100 128 144
89 116 137
83 111 121
104 130 153
93 121 131
100 127 144
109 136 159
86 115 140
97 123 137
89 117 147
94 122 149
97 123 143
90 117 153
92 119 143
105 131 140
95 122 141
97 123 145
98 124 144
103 129 129
98 125 137
104 129 137
105 129 140
84 113 137
82 112 149
90 118 145
80 112 155
77 109 171
94 121 172
74 107 170
87 116 166
74 106 162
76 105 156
77 106 152
77 105 151
65 98 155
62 97 149
61 96 149
61 96 153
59 94 137
60 95 142
58 93 133
62 96 136
60 95 141
64 97 128
60 94 129
60 94 128
61 95 134
59 93 135
59 94 136
60 95 137
58 92 133
58 92 131
57 92 126
59 93 131
60 95 148
58 92 129
59 94 130
61 96 147
60 95 132
60 95 137
59 94 139
59 93 134
60 94 137
58 93 129
61 95 140
59 94 136
61 96 146
59 94 136
60 96 137
61 95 141
61 96 136
61 96 150
60 95 133
60 94 131
61 96 149
60 94 131
61 96 136
60 95 143
61 96 140
61 96 136
57 92 125
60 95 139
59 94 131
60 95 137
60 95 139
60 94 130
59 94 133
60 95 135
59 93 128
59 93 126
61 96 140
60 95 140
61 95 134
61 95 137
59 94 129
60 95 140
61 95 140
60 95 140
60 94 136
60 94 128
58 92 121
59 94 136
60 95 131
60 94 137
59 93 124
60 95 129
59 93 134
60 95 137
61 96 142
60 95 135
58 92 117
60 95 133
59 93 124
59 93 126
59 93 135
57 90 120
59 94 134
59 93 129
59 94 133
59 92 122
58 91 117
58 92 115
58 92 118
58 92 122
58 91 121
59 93 125
58 91 120
55 87 94
69 96 114
131 147 31
115 128 0
118 131 0
126 139 0
116 127 0
116 130 0
117 130 0
121 133 0
125 139 0
121 135 0
130 144 0
132 144 0
133 145 0
129 138 0
127 143 0
122 133 0
127 141 0
131 144 0
133 144 0
137 150 0
130 142 0
131 141 0
135 149 0
124 135 0
133 146 0
130 142 0
126 140 0
137 149 0
135 147 0
134 145 0
135 146 0
130 142 0
130 142 0
134 144 0
141 155 0
141 150 0
138 151 0
140 156 0
130 139 0
143 154 0
144 153 0
141 152 0
141 153 0
149 159 0
141 154 0
141 153 0
148 161 0
141 153 0
141 153 0
147 159 0
143 157 0
139 149 0
135 143 0
144 152 0
147 157 0
152 161 0
154 161 0
154 168 0
151 163 0
152 160 0
143 154 0
152 164 0
147 159 0
149 161 0
152 163 0
149 159 0
153 164 0
149 162 0
160 172 0
150 159 0
158 171 0
150 163 0
157 170 0
157 170 0
151 162 0
149 162 0
159 170 0
156 168 0
159 173 0
154 165 0
156 167 0
159 171 0
157 169 0
167 180 0
158 170 0
160 173 0
159 171 0
157 174 0
161 173 0
161 174 0
159 174 0
161 176 0
158 172 0
167 181 0
160 175 0
163 177 0
162 180 0
163 178 0
166 181 0
163 177 0
166 182 0
162 176 0
166 183 0
163 178 0
166 182 0
162 180 0
162 178 0
167 185 0
166 182 0
166 182 0
161 177 0
164 182 0
168 186 0
164 182 0
164 180 0
167 184 0
167 183 0
170 189 0
165 185 0
168 187 0
168 185 0
167 184 0
169 188 0
166 186 0
169 188 0
167 187 0
169 189 0
168 186 0
170 189 0
167 186 0
168 186 0
168 186 0
170 191 0
170 190 0
171 190 0
171 192 0
167 188 0
168 187 0
170 189 0
171 191 0
168 189 0
168 189 0
170 191 0
170 191 0
168 190 0
169 190 0
169 188 0
169 192 0
173 193 0
171 191 0
168 190 0
172 193 0
172 192 0
167 186 0
171 193 0
170 192 0
170 190 0
170 191 0
169 189 0
171 192 0
169 191 0
171 192 0
171 192 0
177 199 84
179 201 80
182 204 99
176 200 67
175 198 44
178 201 67
220 234 242
222 236 252
221 235 252
219 234 250
220 234 254
217 233 250
216 232 250
215 232 250
211 228 240
203 220 199
194 212 169
181 203 105
173 197 51
174 197 62
175 199 67
174 197 80
176 199 84
175 197 57
176 199 62
173 196 62
178 201 95
175 199 67
170 194 80
172 195 25
176 199 84
174 198 72
172 196 67
174 197 76
174 198 62
169 193 72
171 195 72
172 196 84
173 196 95
175 198 84
174 198 88
172 197 76
168 191 80
170 193 88
170 193 67
172 196 51
174 198 62
170 193 57
170 193 88
172 196 80
169 193 72
172 196 67
172 197 72
175 199 92
173 197 72
168 193 57
168 193 80
167 191 51
170 194 62
169 193 72
168 192 72
166 190 51
166 191 76
168 192 62
169 193 62
168 192 57
166 192 102
168 192 84
169 193 80
164 189 62
169 194 84
164 188 67
172 196 76
166 191 51
167 190 67
167 192 67
160 184 84
162 186 84
169 193 76
168 192 51
168 192 88
167 191 76
163 187 76
163 187 72
161 184 67
166 189 62
158 183 62
168 193 95
163 185 51
163 187 62
166 190 82
166 189 72
163 187 51
166 190 76
169 192 76
166 189 76
158 181 62
161 185 84
155 179 80
159 183 84
159 182 57
159 182 72
164 188 51
165 188 88
159 182 62
160 182 67
152 176 92
78 107 118
91 119 141
87 116 143
98 125 149
92 119 139
90 117 135
99 125 146
82 109 121
100 127 146
89 117 141
85 112 131
101 126 150
104 129 157
87 115 146
83 111 140
86 114 133
86 114 144
105 131 151
104 130 156
98 125 151
96 123 150
94 122 136
97 123 139
108 133 124
77 108 143
85 114 145
93 120 155
76 107 154
87 116 172
82 112 169
77 108 168
71 104 157
66 100 157
79 106 152
78 105 144
72 102 145
61 96 152
61 96 154
60 94 147
61 96 145
65 99 147
61 96 135
61 96 135
66 99 137
60 94 137
62 96 138
61 94 129
69 100 124
58 93 128
60 95 140
60 95 141
58 92 132
58 92 133
59 93 133
59 94 137
60 94 139
60 94 144
60 94 137
58 92 128
57 92 132
58 92 129
59 94 139
60 95 141
60 94 134
60 94 138
60 95 131
60 94 132
62 97 151
61 96 142
59 95 133
60 95 139
60 96 141
60 95 140
59 94 134
60 94 129
60 95 143
60 94 129
59 94 136
60 94 134
59 94 131
60 95 141
60 95 131
61 96 143
61 96 141
60 95 140
59 93 127
60 95 128
59 94 130
60 95 141
59 93 135
60 95 134
60 94 130
60 95 140
61 96 142
60 96 140
62 97 143
60 95 141
59 94 136
59 94 131
59 94 135
59 94 131
59 93 129
61 95 143
60 95 140
59 93 128
60 95 131
59 93 128
60 95 136
60 95 135
59 93 131
60 94 130
60 94 129
59 94 125
57 91 115
60 94 128
59 94 124
58 92 122
58 91 108
59 93 131
59 94 133
58 92 120
58 92 121
58 92 125
60 94 126
58 92 128
58 91 113
56 88 113
56 89 99
61 90 108
102 119 57
129 144 0
128 139 0
120 134 0
113 126 0
133 146 0
128 143 0
135 147 0
130 142 0
127 139 0
127 141 0
138 153 0
123 136 0
124 138 0
133 146 0
135 150 0
127 139 0
134 147 0
126 139 0
128 139 0
127 138 0
137 149 0
130 142 0
137 149 0
126 139 0
132 146 0
139 150 0
128 139 0
134 145 0
143 155 0
137 151 0
136 149 0
129 140 0
137 147 0
143 155 0
132 142 0
138 148 0
146 160 0
133 146 0
145 159 0
138 149 0
131 143 0
141 152 0
137 151 0
137 148 0
136 146 0
140 153 0
146 159 0
144 157 0
150 162 0
148 163 0
138 148 0
146 160 0
150 161 0
150 162 0
141 151 0
141 151 0
151 164 0
152 166 0
148 160 0
143 153 0
150 160 0
149 159 0
152 164 0
154 165 0
154 165 0
153 166 0
149 160 0
148 158 0
162 173 0
154 167 0
160 174 0
153 164 0
158 169 0
156 168 0
156 169 0
163 176 0
158 172 0
156 170 0
155 168 0
162 175 0
157 170 0
158 173 0
159 174 0
158 173 0
160 173 0
157 172 0
161 177 0
160 173 0
159 176 0
162 174 0
157 173 0
161 176 0
161 178 0
159 172 0
161 176 0
160 176 0
159 174 0
166 181 0
160 174 0
161 177 0
167 182 0
161 178 0
164 179 0
168 184 0
167 185 0
161 178 0
166 183 0
167 184 0
163 180 0
163 183 0
164 182 0
167 185 0
165 182 0
164 183 0
166 184 0
164 180 0
167 186 0
167 185 0
165 183 0
166 184 0
168 187 0
167 185 0
167 186 0
167 186 0
169 189 0
165 183 0
168 187 0
167 188 0
168 188 0
168 186 0
171 192 0
168 190 0
163 183 0
167 185 0
173 194 0
168 185 0
169 189 0
169 191 0
171 191 0
169 189 0
170 189 0
167 188 0
168 188 0
170 191 0
171 192 0
170 191 0
165 186 0
170 191 0
170 191 0
170 192 0
171 191 0
168 188 0
171 191 0
169 190 0
171 192 0
169 190 0
172 194 0
169 191 0
169 190 0
171 192 0
172 193 0
168 189 0
171 192 0
179 201 84
178 200 67
177 200 57
180 202 84
175 198 62
194 213 157
222 235 250
220 234 246
220 235 252
218 233 248
216 232 249
218 233 254
216 232 252
212 229 244
195 214 179
197 215 179
176 199 84
175 198 76
175 198 76
174 198 80
176 199 80
170 193 44
174 197 51
173 197 67
175 198 92
175 198 84
173 196 84
173 197 84
172 196 76
175 198 51
170 194 57
171 195 72
172 195 57
173 196 51
173 196 67
174 198 51
172 196 80
173 197 88
172 195 57
173 197 99
171 196 80
172 195 80
170 193 57
172 195 80
175 197 72
172 196 62
171 195 76
171 194 51
172 195 72
172 196 72
169 194 84
171 195 84
169 193 76
167 191 67
168 193 76
171 195 72
171 195 62
169 193 67
174 197 72
168 192 76
168 192 72
166 190 72
174 198 62
166 191 80
169 194 80
169 193 72
166 189 62
167 190 57
172 197 72
163 188 99
171 196 76
167 191 72
169 193 62
168 192 99
162 187 80
165 190 76
168 193 57
166 190 62
168 193 72
165 189 76
160 183 76
166 191 76
166 189 62
168 192 76
164 189 76
167 191 88
168 192 72
165 189 51
163 187 67
155 178 57
163 187 62
165 188 80
161 186 84
161 185 72
161 186 67
158 181 62
162 185 92
167 190 72
166 189 84
160 184 67
166 190 51
153 175 84
162 185 67
154 177 65
156 180 76
156 179 76
154 176 76
119 143 90
90 118 130
90 117 128
94 122 143
93 121 135
104 131 141
87 116 137
111 136 162
85 112 129
92 120 135
91 119 133
93 120 132
90 118 136
93 120 143
87 115 142
91 118 139
89 116 140
101 126 153
80 109 136
95 122 151
95 121 150
97 124 159
91 118 148
107 130 132
91 118 141
81 111 145
79 109 141
91 119 147
80 110 165
69 103 168
79 109 158
68 101 157
71 103 157
82 108 148
76 104 149
78 106 158
72 101 149
60 95 145
60 95 142
60 95 139
60 96 141
60 95 143
62 95 137
60 94 140
61 96 139
69 100 121
60 93 118
73 104 126
65 98 134
57 91 115
58 92 129
59 94 134
58 93 131
58 92 120
59 94 130
60 95 139
58 92 126
60 95 143
59 94 136
60 95 141
58 92 134
60 95 136
59 93 137
59 93 126
59 94 137
60 95 142
60 95 139
60 94 133
59 94 141
60 94 133
60 95 137
59 94 134
58 92 126
60 95 134
60 95 130
59 94 133
60 95 137
61 96 141
61 96 134
60 94 130
60 95 137
61 96 142
61 95 134
60 94 135
61 96 136
58 92 128
60 95 135
61 96 145
59 93 134
60 94 136
59 94 130
61 95 140
60 95 130
60 95 137
60 94 134
61 96 143
60 95 139
59 93 131
59 94 134
57 91 122
60 95 135
59 93 122
61 95 136
58 93 118
60 94 125
60 95 141
59 94 124
61 96 137
58 92 128
60 94 128
59 93 118
59 94 126
60 94 126
60 94 129
60 95 139
59 93 126
60 94 130
60 94 126
58 92 126
60 94 120
58 91 122
58 92 125
57 89 108
59 93 120
58 91 117
55 88 99
57 89 108
57 90 111
101 119 60
118 132 0
120 134 0
112 126 0
119 132 0
122 136 0
124 136 0
127 141 0
130 144 0
129 145 0
122 135 0
128 145 0
127 138 0
131 146 0
134 147 0
130 142 0
135 148 0
137 152 0
134 146 0
131 145 0
131 145 0
131 146 0
130 143 0
132 143 0
132 145 0
134 148 0
135 150 0
130 142 0
138 152 0
139 152 0
135 150 0
124 136 0
132 144 0
135 148 0
140 154 0
146 159 0
149 162 0
145 156 0
132 146 0
135 147 0
139 150 0
144 157 0
142 154 0
130 141 0
139 149 0
141 155 0
140 154 0
146 157 0
146 158 0
145 155 0
145 159 0
144 156 0
142 154 0
145 154 0
143 152 0
143 155 0
146 158 0
145 159 0
151 164 0
154 166 0
144 156 0
141 150 0
152 165 0
152 164 0
150 162 0
150 161 0
160 174 0
150 161 0
156 169 0
158 173 0
152 166 0
152 163 0
151 161 0
153 165 0
156 168 0
156 167 0
158 170 0
157 172 0
160 174 0
152 165 0
157 171 0
154 168 0
162 176 0
150 161 0
158 169 0
158 173 0
160 171 0
164 180 0
165 179 0
158 173 0
159 174 0
163 178 0
163 182 0
161 178 0
162 177 0
166 182 0
163 177 0
163 180 0
160 172 0
162 176 0
163 179 0
163 178 0
163 178 0
165 180 0
165 181 0
163 178 0
162 180 0
166 183 0
166 184 0
164 179 0
162 175 0
167 185 0
165 183 0
169 187 0
164 180 0
165 183 0
166 184 0
164 181 0
165 183 0
166 184 0
167 185 0
167 184 0
168 187 0
170 189 0
166 186 0
169 189 0
167 188 0
164 184 0
168 186 0
167 187 0
169 187 0
168 186 0
165 182 0
166 185 0
167 187 0
169 187 0
170 191 0
167 185 0
167 186 0
166 184 0
166 187 0
170 190 0
167 187 0
170 191 0
171 190 0
171 191 0
168 187 0
170 191 0
169 189 0
169 189 0
170 191 0
171 192 0
169 188 0
171 192 0
172 194 0
168 189 0
173 194 0
172 194 0
171 193 0
169 191 0
171 193 0
170 191 0
169 191 0
170 192 0
170 191 0
179 201 80
182 204 105
177 200 76
178 201 72
180 202 80
218 232 236
222 236 250
219 234 248
220 235 254
219 234 252
217 232 249
216 232 250
215 231 250
206 223 217
197 215 182
184 205 114
177 199 67
177 199 84
174 197 95
175 199 84
172 195 76
175 199 80
173 197 72
174 197 62
174 198 67
174 197 72
174 197 72
172 196 80
173 197 88
176 200 72
172 196 76
175 199 76
173 197 92
171 195 57
167 191 76
174 197 84
172 196 111
173 196 84
174 199 67
172 196 80
173 197 72
174 198 76
173 197 76
173 196 72
170 193 84
170 194 62
173 197 80
170 195 72
168 192 80
170 194 76
169 193 62
172 197 84
172 196 57
171 194 67
167 191 76
166 192 95
169 193 67
170 193 67
171 195 76
169 194 72
171 196 84
170 194 67
172 195 88
168 192 76
171 195 67
167 192 51
165 189 62
169 192 67
170 194 62
165 190 72
170 194 76
170 193 67
169 194 76
163 187 67
164 188 72
163 188 62
166 191 92
164 187 67
170 194 88
169 194 84
160 184 57
167 191 76
167 191 88
165 188 84
164 189 95
163 187 62
161 185 72
164 188 62
163 187 76
165 189 72
157 181 80
163 187 88
161 185 80
160 184 76
165 189 84
161 184 57
166 189 57
163 186 62
161 183 76
157 180 51
154 177 57
158 182 88
157 179 95
163 185 72
159 182 84
154 177 88
152 174 67
154 176 51
105 131 121
88 115 137
84 112 129
94 120 137
85 114 134
90 117 127
92 119 126
86 114 140
98 124 147
80 109 143
86 115 143
104 129 123
86 114 149
93 119 143
91 117 142
88 115 139
99 124 141
105 130 141
100 126 131
101 127 143
95 121 145
103 129 133
97 123 141
96 123 135
94 121 141
90 119 144
93 121 142
73 105 141
71 104 160
75 107 160
83 113 164
74 105 156
73 103 153
74 104 152
75 104 155
69 100 148
70 101 153
60 95 143
65 99 141
63 98 144
60 95 138
59 94 140
60 95 141
59 93 140
67 100 130
68 100 134
62 96 130
75 105 129
58 92 140
59 93 133
59 94 130
59 94 137
58 92 130
59 94 141
61 95 139
58 93 132
58 93 123
60 95 135
56 90 121
60 95 139
59 94 136
60 95 140
58 92 120
61 95 136
59 94 132
60 94 130
60 95 133
59 94 140
59 94 129
59 93 133
59 94 136
60 95 140
58 92 126
60 95 137
59 94 136
58 92 124
59 93 126
59 94 128
59 94 133
59 93 130
60 94 125
60 95 124
60 95 134
59 94 136
59 94 130
60 94 133
59 94 139
59 93 126
61 96 145
60 95 133
59 93 124
60 95 135
61 96 143
58 93 126
60 95 143
60 94 136
59 93 122
60 95 135
60 94 128
60 94 130
60 95 137
58 93 129
60 95 126
60 94 141
60 95 135
59 94 130
60 94 134
60 94 126
58 91 121
59 93 133
58 92 129
58 92 118
60 94 129
59 92 115
58 91 121
60 95 130
58 92 115
58 92 117
59 93 128
55 87 114
58 92 117
57 90 115
57 91 117
55 87 110
57 89 114
56 88 101
75 99 94
122 133 18
133 146 0
126 144 0
125 138 0
115 129 0
125 141 0
131 144 0
118 132 0
128 142 0
116 129 0
122 134 0
131 144 0
131 146 0
121 136 0
125 138 0
120 133 0
131 145 0
128 138 0
130 146 0
139 154 0
132 146 0
135 150 0
143 156 0
138 152 0
127 140 0
124 138 0
132 143 0
134 147 0
143 156 0
134 148 0
134 146 0
143 157 0
134 142 0
136 147 0
137 150 0
144 157 0
137 148 0
136 147 0
133 147 0
130 144 0
147 161 0
138 151 0
136 148 0
143 157 0
150 163 0
139 152 0
146 158 0
146 156 0
147 160 0
140 153 0
140 150 0
149 161 0
148 161 0
145 158 0
141 151 0
147 158 0
147 159 0
158 169 0
144 156 0
150 163 0
148 160 0
152 166 0
153 166 0
151 162 0
155 167 0
155 164 0
150 161 0
153 165 0
160 174 0
148 161 0
151 164 0
157 170 0
157 172 0
154 167 0
156 167 0
161 174 0
160 175 0
151 164 0
157 168 0
156 167 0
155 168 0
160 174 0
155 170 0
158 174 0
156 168 0
151 165 0
163 177 0
162 176 0
157 173 0
162 176 0
159 172 0
159 174 0
159 175 0
159 174 0
162 179 0
164 181 0
164 181 0
164 180 0
163 179 0
158 176 0
157 174 0
163 178 0
160 176 0
159 176 0
160 179 0
167 184 0
167 185 0
166 184 0
165 180 0
162 179 0
166 182 0
166 182 0
165 182 0
165 179 0
165 183 0
167 184 0
167 187 0
166 183 0
166 184 0
164 181 0
167 186 0
167 185 0
171 188 0
169 189 0
168 187 0
165 182 0
167 189 0
166 184 0
168 187 0
170 189 0
166 185 0
169 186 0
167 187 0
173 192 0
168 186 0
168 188 0
169 188 0
169 187 0
169 190 0
168 187 0
171 191 0
169 190 0
168 187 0
165 184 0
169 190 0
171 191 0
172 193 0
167 187 0
166 187 0
169 191 0
170 191 0
171 192 0
168 188 0
170 191 0
172 193 0
169 190 0
172 193 0
169 191 0
170 190 0
172 193 0
169 190 0
171 191 0
171 193 0
172 192 0
170 191 0
179 201 76
178 201 67
177 200 62
176 199 67
195 214 155
224 237 255
221 235 249
219 234 250
218 233 248
217 232 250
217 233 254
215 232 250
208 225 231
198 216 182
190 209 151
174 198 76
173 197 67
177 199 95
176 200 88
175 198 72
174 198 76
175 199 76
174 197 44
173 197 67
175 199 88
171 194 67
173 197 84
175 198 72
171 195 84
171 194 67
173 196 80
173 196 80
174 197 67
168 192 67
174 197 80
175 199 80
171 195 72
170 194 76
171 195 88
174 197 62
173 197 72
172 196 67
173 197 67
169 193 80
170 194 84
170 194 67
172 195 72
170 193 62
171 194 51
169 193 67
172 195 57
170 195 88
167 190 57
167 191 80
171 195 80
169 193 72
171 195 51
171 195 67
170 194 67
170 193 84
166 190 44
162 186 72
166 191 57
168 192 57
169 193 76
167 191 67
168 193 76
167 191 80
166 191 80
168 193 67
166 190 67
166 191 67
172 195 76
163 187 36
166 189 62
162 186 51
168 193 67
168 192 72
161 185 84
170 194 36
169 193 84
168 192 72
164 187 72
164 188 76
156 180 72
163 188 76
167 191 62
162 187 88
161 185 72
164 188 80
156 179 67
159 183 76
161 184 72
164 187 72
168 191 84
161 184 72
162 187 92
164 187 57
156 178 80
158 181 57
159 181 76
158 180 72
155 178 67
159 182 62
152 175 72
156 179 88
156 179 62
148 170 51
143 165 84
88 115 115
86 113 114
93 121 125
91 118 125
81 109 128
91 119 136
88 115 129
79 107 127
99 125 137
87 115 146
97 123 144
98 124 141
100 126 139
90 117 138
95 122 149
97 123 148
94 120 143
87 115 138
100 126 153
84 113 148
99 124 135
97 122 138
91 118 127
101 126 132
101 127 151
95 122 150
99 126 142
85 114 153
74 106 162
68 101 153
80 111 163
80 110 159
74 103 155
76 104 149
85 109 142
80 106 144
63 97 147
62 96 140
62 96 136
60 94 144
59 94 133
61 95 142
64 98 140
65 98 135
61 94 120
61 95 136
74 104 120
69 101 131
58 92 124
58 91 122
59 93 120
60 94 133
59 93 134
59 93 136
58 92 128
60 94 139
60 94 133
61 96 141
60 94 128
59 93 136
59 93 128
59 94 139
59 94 130
56 90 111
59 93 121
60 94 133
60 94 131
60 94 135
61 96 137
60 94 135
58 92 124
60 95 130
60 94 135
59 93 131
60 95 139
60 95 133
59 94 129
59 93 136
60 95 139
59 94 128
60 95 137
60 94 129
59 93 120
59 94 128
60 95 139
58 93 130
60 95 136
60 95 130
61 96 139
58 92 126
59 93 125
60 95 129
58 92 115
60 95 136
61 95 139
59 93 121
59 93 131
59 93 128
60 95 134
60 95 133
60 95 133
60 94 136
59 94 131
59 93 124
60 94 134
61 96 144
58 91 118
58 92 126
57 91 124
60 94 125
59 93 124
59 93 117
58 92 120
58 92 121
57 91 113
58 92 124
60 93 122
57 90 118
59 92 121
58 92 117
57 90 115
56 88 102
57 89 108
56 89 115
80 103 92
114 128 0
102 115 0
123 137 0
119 133 0
119 132 0
129 142 0
121 136 0
117 129 0
123 139 0
135 150 0
135 148 0
126 140 0
132 147 0
123 135 0
126 141 0
132 146 0
130 146 0
136 150 0
130 146 0
131 146 0
137 152 0
138 150 0
139 154 0
127 139 0
131 144 0
130 144 0
133 146 0
133 146 0
134 148 0
130 143 0
136 150 0
131 141 0
145 159 0
135 150 0
141 153 0
138 153 0
149 163 0
140 154 0
140 153 0
145 158 0
135 147 0
133 145 0
149 164 0
136 146 0
143 158 0
144 157 0
147 161 0
145 155 0
146 158 0
145 160 0
147 160 0
137 150 0
142 152 0
146 161 0
149 164 0
145 156 0
150 165 0
149 164 0
148 160 0
153 167 0
146 158 0
151 160 0
146 158 0
155 169 0
149 163 0
154 168 0
151 163 0
157 168 0
153 165 0
148 161 0
152 165 0
157 169 0
158 171 0
154 168 0
151 163 0
152 167 0
158 171 0
160 173 0
160 176 0
156 172 0
156 168 0
159 174 0
164 178 0
156 172 0
159 176 0
164 180 0
157 170 0
162 179 0
154 169 0
163 178 0
161 176 0
156 171 0
161 176 0
159 175 0
165 180 0
162 176 0
161 177 0
160 176 0
163 179 0
160 175 0
167 182 0
163 179 0
164 181 0
160 179 0
162 177 0
160 176 0
165 181 0
164 181 0
164 179 0
167 184 0
162 180 0
163 178 0
167 183 0
164 182 0
167 184 0
163 179 0
167 185 0
166 184 0
166 184 0
168 189 0
162 178 0
167 186 0
168 187 0
166 184 0
168 188 0
168 188 0
168 187 0
165 186 0
170 189 0
171 193 0
167 186 0
165 184 0
170 190 0
162 180 0
166 187 0
168 187 0
168 187 0
167 187 0
170 189 0
169 191 0
167 187 0
169 190 0
169 190 0
166 186 0
169 187 0
170 191 0
169 189 0
169 189 0
173 194 0
170 189 0
169 190 0
170 190 0
171 192 0
172 194 0
168 189 0
173 194 0
170 191 0
172 193 0
168 189 0
171 194 0
170 192 0
169 192 0
172 194 0
169 189 0
169 189 0
171 192 0
180 202 95
177 200 67
178 201 67
179 201 67
212 228 220
220 234 244
221 235 249
219 234 249
218 233 249
217 233 249
216 232 250
214 230 245
201 219 191
191 211 149
175 198 80
176 199 51
170 194 67
172 196 67
172 195 76
172 195 57
174 197 57
173 196 72
175 198 72
175 198 62
172 195 62
174 198 67
173 197 62
172 196 76
172 196 72
175 198 84
171 195 80
174 196 67
171 195 67
173 197 76
172 195 57
172 195 57
174 198 72
173 197 72
169 193 57
169 192 76
168 192 72
174 197 51
173 198 80
173 196 80
169 193 67
169 194 67
170 195 105
171 196 84
171 195 84
170 194 51
170 194 57
172 196 62
171 195 76
168 191 72
170 193 76
167 192 51
170 194 80
171 196 84
169 193 84
165 190 84
165 190 88
169 193 51
173 196 67
166 191 76
168 193 76
171 195 67
167 192 84
166 191 76
169 194 88
167 191 76
165 189 36
166 190 72
168 193 72
166 190 67
167 191 76
162 186 57
165 189 72
165 190 57
157 181 67
164 188 62
164 189 92
167 189 62
166 190 76
166 189 62
161 185 80
162 186 72
162 186 76
161 185 72
166 189 88
161 185 62
162 185 76
161 185 84
162 185 67
165 188 72
164 187 62
161 185 62
162 185 72
159 182 70
160 182 67
150 173 76
156 180 72
152 176 72
160 182 57
155 178 90
156 179 80
153 176 80
159 182 72
156 179 76
149 171 67
125 147 109
92 118 125
83 112 128
83 111 131
99 125 135
98 125 129
80 109 126
88 115 123
85 113 133
84 111 122
82 110 136
93 119 135
82 109 125
100 126 137
83 111 136
92 117 130
106 131 152
98 124 148
101 127 145
110 135 150
105 130 155
94 121 144
101 126 141
102 127 139
91 118 147
100 126 145
96 123 153
81 111 153
68 102 166
76 108 158
81 111 172
71 103 154
83 110 156
74 104 151
75 103 146
74 102 145
81 105 131
63 96 141
59 94 130
60 95 140
59 93 140
59 94 137
58 92 131
60 94 130
60 94 137
65 97 129
66 98 126
70 101 125
59 93 134
56 90 117
60 95 139
59 94 132
58 93 133
59 94 136
58 92 131
58 92 124
58 91 125
60 95 141
59 93 128
60 95 133
59 94 137
57 91 116
58 93 126
58 92 125
60 95 136
59 93 125
57 91 111
59 94 135
59 94 131
59 93 128
58 92 125
59 93 129
59 94 131
60 95 136
59 94 133
60 94 135
58 92 133
59 94 132
59 93 124
60 94 129
59 94 134
60 94 136
60 95 131
60 95 137
60 95 140
60 95 140
61 95 136
59 94 130
59 93 129
60 94 124
59 92 128
59 94 134
61 95 131
59 93 130
59 93 122
58 92 118
61 96 134
58 92 124
59 94 131
59 94 129
60 94 125
60 94 133
58 92 124
61 96 134
58 92 124
58 93 126
60 94 130
58 92 122
59 93 122
58 92 117
60 94 126
58 92 128
57 90 113
57 90 102
60 94 129
59 93 121
57 90 124
57 89 116
56 89 108
57 90 117
57 90 111
55 88 108
57 90 118
69 95 92
113 129 18
122 135 0
114 127 0
119 132 0
119 133 0
116 130 0
125 139 0
121 136 0
125 139 0
136 151 0
122 137 0
125 138 0
127 140 0
139 153 0
132 145 0
131 146 0
131 146 0
130 145 0
136 149 0
118 131 0
135 150 0
134 148 0
130 145 0
125 140 0
137 152 0
146 163 0
141 156 0
133 146 0
134 147 0
135 146 0
129 145 0
140 154 0
127 140 0
142 155 0
149 164 0
137 150 0
140 155 0
147 163 0
134 148 0
145 158 0
141 153 0
147 162 0
138 152 0
146 158 0
147 160 0
135 148 0
147 160 0
138 150 0
143 157 0
147 160 0
154 169 0
140 151 0
150 162 0
148 161 0
145 159 0
145 158 0
145 158 0
145 157 0
157 171 0
147 162 0
149 163 0
147 159 0
148 158 0
154 171 0
150 163 0
154 168 0
151 164 0
155 167 0
157 171 0
156 170 0
153 164 0
157 171 0
157 171 0
154 167 0
156 172 0
155 171 0
155 170 0
157 169 0
148 161 0
163 178 0
161 175 0
157 169 0
157 171 0
160 176 0
160 176 0
159 171 0
155 166 0
157 170 0
159 173 0
159 173 0
162 176 0
164 178 0
161 178 0
163 179 0
164 181 0
156 170 0
162 179 0
161 175 0
162 177 0
165 180 0
163 181 0
169 186 0
161 178 0
161 178 0
162 180 0
162 180 0
165 182 0
163 181 0
162 180 0
166 184 0
165 181 0
163 181 0
166 185 0
167 185 0
165 181 0
167 185 0
164 183 0
164 181 0
170 189 0
166 184 0
163 182 0
164 182 0
166 185 0
169 187 0
167 186 0
166 184 0
167 184 0
166 187 0
163 184 0
167 188 0
165 186 0
171 191 0
168 187 0
167 186 0
166 185 0
168 185 0
168 189 0
170 189 0
168 188 0
171 192 0
169 189 0
167 187 0
169 189 0
166 186 0
169 188 0
167 188 0
170 190 0
169 190 0
166 186 0
171 192 0
170 192 0
167 187 0
170 191 0
170 190 0
171 191 0
168 189 0
170 191 0
170 192 0
170 192 0
169 190 0
168 189 0
171 192 0
171 193 0
172 192 0
172 192 0
169 189 0
170 191 0
177 200 62
179 201 80
178 201 72
183 205 105
222 235 250
221 235 249
219 233 248
219 234 253
218 233 252
216 232 248
215 232 248
207 224 218
194 213 167
174 197 76
179 202 105
175 198 92
177 200 72
171 194 51
177 200 67
176 199 80
174 197 80
176 198 76
176 200 76
174 197 84
172 195 51
175 199 88
173 197 72
175 199 84
174 197 67
172 195 44
174 197 80
176 200 88
173 196 72
169 192 51
166 190 44
172 195 80
171 195 72
172 195 57
171 195 67
173 197 67
169 194 80
172 196 72
170 194 67
170 195 95
170 193 44
170 194 44
169 193 84
170 194 84
173 197 67
171 195 72
168 193 72
168 192 76
166 192 99
168 192 67
168 192 51
172 196 72
174 198 88
169 193 72
168 191 62
168 192 62
167 192 76
168 192 72
168 192 84
173 197 80
167 191 51
164 188 67
172 196 76
163 188 84
167 190 44
167 191 80
167 191 72
168 192 44
169 192 62
164 188 76
167 191 62
168 191 67
165 190 80
167 191 67
163 187 67
160 184 62
165 189 72
165 189 102
162 185 76
165 189 80
157 182 84
162 185 76
159 182 62
161 185 62
168 192 72
163 187 76
155 178 62
161 184 62
167 191 88
164 187 72
167 191 80
161 185 62
159 182 72
154 177 72
167 191 72
155 178 80
151 174 67
157 180 67
151 174 76
159 181 88
147 169 36
159 181 76
149 171 51
155 178 92
156 179 88
151 173 86
106 131 102
96 123 128
94 121 121
86 114 128
93 119 138
79 108 129
94 120 140
83 112 140
88 115 126
85 112 132
87 114 136
103 129 142
78 106 137
95 121 137
99 124 143
85 112 140
96 122 152
104 129 131
98 123 133
89 117 150
104 130 136
96 122 134
96 122 133
102 126 132
90 116 130
85 112 134
90 117 137
79 110 160
80 110 163
74 106 157
93 120 166
71 104 161
64 98 154
78 105 147
79 106 154
73 102 145
71 101 146
59 94 136
60 94 131
61 96 150
59 94 141
60 93 124
59 93 125
62 95 127
63 97 129
60 94 128
75 105 133
57 91 129
59 93 129
59 93 125
57 91 120
59 93 122
58 91 126
60 94 131
59 93 122
59 93 131
59 93 129
60 94 128
59 93 130
59 94 134
58 92 127
57 91 124
60 95 137
58 92 122
59 94 141
59 93 136
59 94 133
60 95 133
59 94 131
59 94 130
59 93 126
58 92 117
59 93 129
60 95 130
59 93 122
59 93 125
57 91 125
60 95 126
59 94 130
60 94 133
60 94 134
59 93 124
58 92 122
60 95 135
60 95 130
59 93 124
59 93 125
58 92 122
59 94 139
60 94 134
59 93 122
61 96 137
59 93 122
61 95 129
59 94 125
58 91 115
60 94 128
58 93 121
59 93 118
59 93 124
61 95 137
57 91 122
60 95 134
58 92 125
59 93 126
55 87 103
58 92 115
59 94 124
59 93 120
59 93 121
59 93 117
58 91 117
57 89 107
58 92 120
57 90 113
58 92 117
57 90 117
58 92 118
57 90 113
55 87 104
55 87 102
68 96 97
119 135 25
111 127 0
117 131 0
120 133 0
124 139 0
126 142 0
120 132 0
129 143 0
126 139 0
120 135 0
124 138 0
124 138 0
127 143 0
131 146 0
121 136 0
134 149 0
135 148 0
130 146 0
135 150 0
132 145 0
131 145 0
132 145 0
135 146 0
132 145 0
139 155 0
130 144 0
134 150 0
130 144 0
143 157 0
131 145 0
138 155 0
134 146 0
139 152 0
136 151 0
138 152 0
140 155 0
142 155 0
141 156 0
140 154 0
144 161 0
138 152 0
146 159 0
142 158 0
142 159 0
148 161 0
146 159 0
144 158 0
148 163 0
145 158 0
146 159 0
142 153 0
143 157 0
145 158 0
142 156 0
143 157 0
151 165 0
149 162 0
148 162 0
151 164 0
144 158 0
159 173 0
156 172 0
155 167 0
148 164 0
147 159 0
155 169 0
152 165 0
156 168 0
148 162 0
156 169 0
146 158 0
155 168 0
157 172 0
160 175 0
154 168 0
157 173 0
157 170 0
154 165 0
158 173 0
158 173 0
155 169 0
157 171 0
158 175 0
156 172 0
157 172 0
164 179 0
154 168 0
163 177 0
159 174 0
160 174 0
162 178 0
161 176 0
160 177 0
162 176 0
162 180 0
163 177 0
159 177 0
160 177 0
163 179 0
163 179 0
160 175 0
162 181 0
165 180 0
167 186 0
164 182 0
163 182 0
165 179 0
166 186 0
164 183 0
164 181 0
167 182 0
168 188 0
163 181 0
168 186 0
161 177 0
165 185 0
168 187 0
163 183 0
166 187 0
169 187 0
169 190 0
163 180 0
170 189 0
166 185 0
169 189 0
166 186 0
165 184 0
165 183 0
166 186 0
169 187 0
169 189 0
170 190 0
167 184 0
167 184 0
166 183 0
169 188 0
168 188 0
169 189 0
167 188 0
168 187 0
171 190 0
169 188 0
169 188 0
168 188 0
168 187 0
168 188 0
169 188 0
171 190 0
167 187 0
168 189 0
172 194 0
170 192 0
170 191 0
171 191 0
169 191 0
171 193 0
169 189 0
172 193 0
169 191 0
170 190 0
169 191 0
168 188 0
170 191 0
171 192 0
172 192 0
171 193 0
170 190 0
168 188 0
182 203 88
176 200 67
176 199 51
205 222 194
222 236 252
221 235 250
220 235 252
219 234 250
219 234 254
214 231 245
209 227 228
196 215 169
177 200 92
173 197 80
177 200 62
174 197 62
171 195 51
175 197 72
171 195 51
175 198 72
177 200 88
173 196 62
173 196 62
173 197 76
174 198 67
175 199 88
171 194 62
173 196 57
172 196 67
172 195 51
172 196 62
168 191 44
174 197 88
174 197 88
172 197 62
171 194 51
172 196 76
171 194 62
172 196 76
175 197 57
168 192 72
171 195 76
171 195 67
168 193 80
170 193 76
169 193 57
168 192 72
171 196 84
169 192 44
171 195 76
170 195 88
172 195 51
164 189 76
172 196 92
170 194 76
167 191 57
166 189 62
169 193 51
168 193 92
166 191 76
169 194 92
164 188 88
166 191 95
169 193 57
171 195 84
167 191 72
169 194 51
166 190 72
171 195 51
166 191 84
169 193 80
168 191 67
164 188 72
163 188 88
166 191 76
167 191 72
163 187 62
158 182 67
168 193 88
163 186 57
168 193 84
166 191 80
161 185 72
164 189 80
162 186 62
161 184 62
160 183 51
161 185 67
166 189 57
163 186 76
159 183 76
165 189 76
154 177 44
161 185 62
163 187 76
162 186 72
163 186 80
156 179 102
158 182 72
160 184 76
156 179 67
159 182 72
162 185 62
155 179 76
154 176 67
154 176 72
146 169 76
141 163 76
152 173 67
149 171 76
147 170 86
100 126 125
83 111 128
81 109 126
92 119 139
89 116 140
80 109 128
86 115 135
97 123 129
90 116 123
95 120 126
88 115 129
83 111 134
84 111 133
82 110 124
78 107 136
81 109 137
99 124 128
90 116 134
111 135 145
98 124 139
106 131 152
96 122 132
102 126 124
101 126 127
88 115 139
90 118 143
94 121 147
83 113 159
88 116 168
75 106 163
83 112 162
90 116 164
71 101 148
72 102 150
78 104 139
81 106 142
63 96 145
60 96 139
60 95 148
59 95 142
59 94 129
61 95 128
66 99 133
62 96 134
61 95 124
70 101 111
67 99 116
58 93 115
58 92 117
58 91 121
59 94 133
59 93 134
58 92 134
60 95 134
60 94 141
61 95 141
58 92 126
59 94 131
57 91 122
60 95 135
60 94 130
60 95 133
58 92 118
60 95 131
59 93 125
59 94 121
59 93 128
60 95 134
59 94 129
59 93 130
60 94 131
59 94 131
59 94 120
59 94 133
59 93 131
59 94 126
58 93 125
60 94 132
59 94 135
58 92 121
60 94 130
60 94 130
59 93 128
60 94 130
61 96 139
59 93 129
60 94 129
59 93 125
60 95 135
60 94 131
60 94 139
59 93 124
59 93 115
58 93 118
59 93 125
58 91 115
59 93 126
60 95 129
58 92 115
58 92 114
59 93 125
57 91 124
58 92 113
58 91 115
59 93 126
58 92 120
60 94 135
60 95 140
57 91 111
58 91 124
58 91 118
59 93 122
58 92 114
56 89 102
57 90 114
57 90 117
55 87 103
56 89 108
55 87 100
70 97 99
98 112 25
119 133 0
104 118 0
111 126 0
116 130 0
126 142 0
120 134 0
118 133 0
122 136 0
126 141 0
114 128 0
131 147 0
125 141 0
130 147 0
130 144 0
127 139 0
134 149 0
135 150 0
129 143 0
125 141 0
138 154 0
127 143 0
130 143 0
137 153 0
136 150 0
128 143 0
125 140 0
134 148 0
139 154 0
144 159 0
135 149 0
133 145 0
129 143 0
133 147 0
144 157 0
144 160 0
148 161 0
141 155 0
139 153 0
142 157 0
147 162 0
139 154 0
146 159 0
141 155 0
149 162 0
143 156 0
147 161 0
142 155 0
146 158 0
145 157 0
155 172 0
148 163 0
142 157 0
148 161 0
149 160 0
151 166 0
150 165 0
154 170 0
147 158 0
143 156 0
143 155 0
151 167 0
150 166 0
153 167 0
155 169 0
143 157 0
148 163 0
157 173 0
157 171 0
148 161 0
156 169 0
153 168 0
160 173 0
154 165 0
158 171 0
162 177 0
156 169 0
159 175 0
158 172 0
154 170 0
160 175 0
159 174 0
162 178 0
162 178 0
154 168 0
156 170 0
158 170 0
162 176 0
157 171 0
163 179 0
162 175 0
159 173 0
159 176 0
163 180 0
158 174 0
158 174 0
166 183 0
163 181 0
164 179 0
166 182 0
160 177 0
162 179 0
158 174 0
167 182 0
157 174 0
165 184 0
160 177 0
164 182 0
162 178 0
164 181 0
165 182 0
166 182 0
163 181 0
166 185 0
166 185 0
165 185 0
162 177 0
167 184 0
166 184 0
167 186 0
170 188 0
164 182 0
165 184 0
168 186 0
168 188 0
167 187 0
165 184 0
169 188 0
170 190 0
165 183 0
166 184 0
167 186 0
168 186 0
167 187 0
170 189 0
169 189 0
168 187 0
167 187 0
166 184 0
171 190 0
169 188 0
169 187 0
169 189 0
166 187 0
172 192 0
170 191 0
170 190 0
172 193 0
171 191 0
166 186 0
170 191 0
171 194 0
165 185 0
168 189 0
168 189 0
170 190 0
169 191 0
167 188 0
172 194 0
170 191 0
168 188 0
169 191 0
170 192 0
170 192 0
168 192 0
170 191 0
167 189 0
170 192 0
171 193 0
179 202 80
177 200 44
179 202 88
219 233 240
220 235 249
222 236 253
219 234 249
218 233 250
218 233 253
215 231 248
199 217 189
186 207 130
174 197 67
174 198 51
171 194 57
178 200 76
175 198 67
172 195 51
173 196 67
174 197 62
175 198 72
175 199 84
173 196 67
174 198 67
171 195 67
174 197 62
175 197 76
171 194 57
173 196 72
173 196 62
171 194 72
176 198 84
175 198 67
169 194 67
171 194 80
171 196 72
169 193 62
173 197 67
170 194 62
173 196 62
167 191 72
171 196 72
172 196 44
171 195 72
169 193 76
172 195 51
172 197 84
166 191 72
169 192 44
167 191 57
167 190 72
166 190 44
168 193 72
168 192 67
170 195 84
170 194 76
169 194 84
170 195 88
168 193 80
168 192 72
168 192 99
174 198 72
164 188 62
165 189 72
167 192 80
170 195 84
165 190 72
165 189 76
166 189 72
165 189 72
166 191 84
169 194 92
170 193 72
162 186 80
164 188 76
164 188 57
162 185 51
163 187 72
166 191 80
166 189 44
163 188 99
167 192 114
166 190 88
167 191 76
160 184 88
160 183 57
163 187 51
165 189 84
160 185 76
159 182 57
164 188 84
164 188 84
162 186 76
163 187 80
160 183 72
167 190 88
154 177 67
156 179 102
156 179 76
158 181 76
156 179 51
159 182 62
156 179 76
156 179 67
152 174 62
157 179 84
151 173 72
147 169 51
152 174 76
147 169 57
157 179 72
128 152 74
87 115 122
92 119 119
79 107 118
92 118 117
88 116 137
91 118 136
82 110 118
81 109 127
95 121 136
90 117 129
101 126 133
95 121 132
96 121 132
97 122 144
91 118 131
93 119 142
90 117 136
94 120 141
93 120 131
89 116 141
101 127 131
99 122 115
111 133 121
96 120 131
93 120 146
93 120 153
85 113 151
86 115 165
77 108 157
81 111 160
88 115 155
80 109 147
75 104 149
78 104 138
77 104 144
81 106 142
61 96 140
59 94 130
60 95 141
60 95 136
59 94 124
62 96 134
62 95 128
63 97 131
63 96 127
81 108 100
59 94 137
58 92 126
58 93 124
57 90 130
58 91 126
58 92 130
58 92 124
59 94 135
59 93 128
58 92 126
58 93 126
59 93 129
59 94 130
58 92 115
58 92 124
57 91 118
56 90 120
60 95 135
59 93 129
59 93 124
59 93 121
58 93 118
59 93 125
59 93 128
58 92 120
59 93 122
59 93 131
61 95 134
58 92 134
60 94 134
60 95 134
60 94 134
57 91 118
59 94 128
59 93 136
58 92 117
60 95 135
60 95 135
59 93 118
60 94 130
61 95 133
60 94 128
58 92 117
58 93 124
59 94 130
59 94 122
59 94 129
60 94 135
58 91 121
57 91 120
57 91 117
59 93 121
60 94 131
59 94 126
59 93 120
58 91 120
59 93 125
57 90 117
60 95 136
60 95 126
58 91 117
59 93 133
58 92 118
57 90 110
58 91 114
59 93 114
57 91 107
58 92 118
59 92 120
55 86 96
54 86 92
58 87 83
94 110 51
120 136 0
108 122 0
116 130 0
124 140 0
112 126 0
126 139 0
119 132 0
118 130 0
123 137 0
128 142 0
119 135 0
124 138 0
124 139 0
139 154 0
129 145 0
123 136 0
128 145 0
132 148 0
130 144 0
132 148 0
136 151 0
134 151 0
139 157 0
131 146 0
131 145 0
131 149 0
131 146 0
133 148 0
129 144 0
134 149 0
141 155 0
143 159 0
133 148 0
137 150 0
135 146 0
138 155 0
143 158 0
139 152 0
143 159 0
143 157 0
148 164 0
143 158 0
145 160 0
145 160 0
140 153 0
144 160 0
150 163 0
147 163 0
139 151 0
151 166 0
139 149 0
146 160 0
151 166 0
146 161 0
147 159 0
150 165 0
142 157 0
149 163 0
148 160 0
150 164 0
149 164 0
147 162 0
157 172 0
149 163 0
158 174 0
153 166 0
155 172 0
157 170 0
154 171 0
151 165 0
155 173 0
157 173 0
160 177 0
160 176 0
158 174 0
154 169 0
158 175 0
151 166 0
160 177 0
156 171 0
157 169 0
158 172 0
162 178 0
160 176 0
157 173 0
159 176 0
158 174 0
163 180 0
159 173 0
165 180 0
159 179 0
156 172 0
159 177 0
162 176 0
158 173 0
155 171 0
160 176 0
160 178 0
162 180 0
161 177 0
155 170 0
163 179 0
162 178 0
166 184 0
160 178 0
163 180 0
163 182 0
166 184 0
165 185 0
165 183 0
163 180 0
164 180 0
166 183 0
164 183 0
162 180 0
169 184 0
167 187 0
165 184 0
165 184 0
169 188 0
162 180 0
165 184 0
166 186 0
169 186 0
166 183 0
164 182 0
169 187 0
166 185 0
166 183 0
167 186 0
167 187 0
167 187 0
164 183 0
166 183 0
166 184 0
166 186 0
168 189 0
171 192 0
169 190 0
166 183 0
167 187 0
168 189 0
169 190 0
167 186 0
171 192 0
171 193 0
167 187 0
170 190 0
170 190 0
169 191 0
167 188 0
170 190 0
169 188 0
167 187 0
171 193 0
167 187 0
168 189 0
172 194 0
170 192 0
171 191 0
171 193 0
168 189 0
170 191 0
171 193 0
172 191 0
171 193 0
170 191 0
170 192 0
171 193 0
176 199 51
178 201 72
193 212 149
223 236 252
222 235 252
222 236 255
219 234 250
216 232 245
216 232 250
207 224 221
192 211 163
172 196 44
175 198 67
175 197 57
176 199 67
175 198 72
177 201 92
173 195 62
175 198 80
171 195 57
172 195 76
175 198 80
176 199 62
173 196 76
172 195 72
176 199 92
168 190 67
173 196 51
173 196 67
170 193 88
174 196 57
172 196 57
169 192 44
174 198 57
172 196 84
170 194 67
169 193 67
175 199 88
171 195 67
168 192 67
172 196 76
170 195 84
171 195 80
171 195 72
166 190 67
169 193 67
173 197 62
172 197 72
172 196 67
170 194 80
176 200 88
166 190 44
170 195 84
170 194 76
168 192 76
168 192 76
172 195 72
167 191 67
165 189 67
168 192 80
169 193 67
167 191 76
170 194 72
169 194 84
168 194 92
171 195 80
163 187 51
159 182 62
170 195 76
164 188 76
168 193 72
160 185 57
161 186 67
163 188 88
163 186 88
165 189 67
166 191 76
164 188 84
164 188 76
168 191 72
163 187 36
159 183 62
165 190 84
162 185 80
162 187 67
167 191 88
165 189 88
159 183 72
160 184 67
161 186 76
160 184 80
163 186 51
159 183 57
164 187 80
159 183 72
166 189 57
157 181 92
157 181 88
155 178 67
151 174 67
160 184 62
157 180 57
154 176 62
157 179 62
149 171 72
150 172 62
146 169 80
151 174 88
152 174 62
141 163 51
147 169 51
152 174 80
106 130 100
82 110 128
94 121 129
94 120 113
94 120 136
84 110 116
91 118 128
97 123 139
84 112 137
94 119 133
95 120 126
88 114 120
87 114 133
97 123 145
90 116 128
100 126 147
93 120 145
97 122 130
85 112 120
93 118 120
104 129 144
100 125 119
101 126 131
95 119 126
89 113 126
81 109 128
95 121 133
65 99 154
78 109 163
68 101 152
74 105 151
89 116 163
85 111 155
73 102 146
90 111 139
78 104 142
71 100 134
64 99 145
60 96 139
59 94 122
59 94 132
61 95 131
67 97 118
65 98 130
58 91 120
77 105 94
64 97 132
59 93 121
58 92 120
58 93 128
56 89 111
56 89 116
58 92 130
58 92 120
59 94 129
57 90 119
58 91 121
58 92 122
58 92 130
59 93 131
58 92 122
59 93 133
59 94 124
59 93 129
60 95 139
58 91 120
56 89 111
58 92 114
59 94 130
59 94 126
60 95 134
59 93 124
59 93 124
58 92 131
56 90 113
58 92 118
59 93 125
60 94 134
58 92 126
59 94 125
61 95 136
61 95 136
59 93 128
59 92 125
60 95 133
59 94 124
58 91 113
58 91 115
59 93 130
59 93 126
58 91 120
60 94 129
57 90 115
59 93 124
56 89 111
58 91 120
58 91 125
58 92 115
58 92 113
59 93 120
57 91 114
58 92 118
58 92 118
59 93 118
58 91 117
57 90 108
58 91 115
57 89 108
57 90 94
57 90 105
58 91 120
57 90 115
58 92 111
57 90 110
55 87 97
56 88 105
63 91 92
98 114 51
117 130 0
114 128 0
113 129 0
124 138 0
114 129 0
119 135 0
115 127 0
119 133 0
114 129 0
120 134 0
109 124 0
129 143 0
125 140 0
128 142 0
141 158 0
117 131 0
128 141 0
128 143 0
129 144 0
127 144 0
138 152 0
134 149 0
135 150 0
133 149 0
134 152 0
142 157 0
137 152 0
135 151 0
136 152 0
137 151 0
135 147 0
140 156 0
141 157 0
141 156 0
141 155 0
137 152 0
148 164 0
131 145 0
143 158 0
147 162 0
143 157 0
152 167 0
142 154 0
142 155 0
145 161 0
147 159 0
146 160 0
147 163 0
143 158 0
149 163 0
153 169 0
144 159 0
148 162 0
138 151 0
152 167 0
149 162 0
149 165 0
145 158 0
141 154 0
151 165 0
152 167 0
153 168 0
157 171 0
152 169 0
153 166 0
156 171 0
152 167 0
149 163 0
150 166 0
151 164 0
156 172 0
156 173 0
154 168 0
153 167 0
153 166 0
152 168 0
161 177 0
155 170 0
159 175 0
160 174 0
155 170 0
156 173 0
157 171 0
163 179 0
158 174 0
163 179 0
158 175 0
162 179 0
161 179 0
155 170 0
159 177 0
160 177 0
162 178 0
158 174 0
160 177 0
164 181 0
161 180 0
163 179 0
164 181 0
158 176 0
167 185 0
162 179 0
165 180 0
166 185 0
161 177 0
166 183 0
163 180 0
163 180 0
163 179 0
166 182 0
168 188 0
163 179 0
167 182 0
163 179 0
165 183 0
167 184 0
165 184 0
161 178 0
162 178 0
167 187 0
166 185 0
166 184 0
168 187 0
166 185 0
164 183 0
170 187 0
168 189 0
164 183 0
164 182 0
171 190 0
165 186 0
165 184 0
167 187 0
170 190 0
169 187 0
169 189 0
168 189 0
164 182 0
165 183 0
168 188 0
165 185 0
166 186 0
172 192 0
170 190 0
173 195 0
166 187 0
168 189 0
168 190 0
171 192 0
168 189 0
171 193 0
166 187 0
171 191 0
171 192 0
168 187 0
170 192 0
169 190 0
171 192 0
170 191 0
167 187 0
171 192 0
169 189 0
171 191 0
169 191 0
170 191 0
167 188 0
168 189 0
167 187 0
172 193 0
171 192 0
179 202 80
180 202 88
207 223 201
222 235 249
222 235 253
221 235 250
220 235 254
218 234 253
217 232 250
199 218 182
181 203 114
177 200 92
176 199 76
174 197 62
176 199 72
176 199 88
176 198 84
174 197 51
173 196 51
178 201 111
170 194 57
172 196 67
170 194 57
175 198 92
171 194 67
169 193 76
175 198 72
175 198 80
177 199 80
174 197 76
168 192 72
176 199 80
173 196 76
172 195 51
172 196 67
167 192 84
171 194 76
173 197 92
172 196 67
175 199 84
173 197 62
168 192 76
171 195 76
171 195 57
169 193 51
169 194 36
171 195 57
170 193 44
172 195 57
169 193 76
171 196 92
164 188 67
171 196 84
172 196 57
164 188 76
171 194 72
169 193 62
169 193 62
167 192 84
167 191 51
168 192 76
167 192 76
172 197 99
166 190 72
170 193 67
165 189 67
169 193 76
164 188 88
166 190 67
171 195 67
167 191 62
166 190 84
162 187 72
162 186 51
166 191 102
166 189 67
165 189 84
171 195 67
167 191 76
163 188 57
161 186 84
162 186 84
166 189 62
162 186 72
156 180 76
162 185 76
162 186 84
163 188 67
164 188 99
164 187 57
167 190 57
162 186 57
162 186 62
152 177 72
162 186 80
159 183 84
159 182 76
160 183 57
153 176 62
156 180 88
158 182 88
157 180 72
146 169 62
147 169 57
148 170 72
151 172 72
149 172 76
147 170 80
154 176 80
155 177 72
152 174 62
150 172 84
148 170 67
110 134 94
82 109 109
89 116 124
89 115 125
95 122 130
87 113 110
92 119 134
91 118 126
97 123 149
86 114 126
96 122 137
93 119 128
94 120 138
79 107 117
101 126 139
106 130 138
96 121 141
105 130 156
94 120 143
93 119 131
109 133 156
99 124 123
103 125 112
101 123 127
94 118 129
91 118 136
76 107 137
86 115 166
78 108 155
88 116 158
88 115 157
81 109 144
88 109 136
85 107 134
83 107 146
78 104 127
59 94 128
59 93 133
59 93 138
59 93 135
62 96 129
65 97 130
60 93 118
65 97 118
56 90 102
72 102 111
58 91 119
57 91 119
59 93 122
58 92 116
59 93 126
57 91 121
59 93 125
57 91 120
59 93 124
59 93 134
57 90 108
59 94 134
60 94 130
58 92 125
61 96 148
59 93 128
59 94 122
59 93 131
59 94 120
59 94 122
59 94 124
60 94 131
58 92 130
57 90 120
58 92 124
57 91 118
57 90 114
60 94 129
59 93 129
59 93 120
60 94 130
59 93 124
61 95 139
59 93 117
60 95 134
59 94 117
59 93 131
59 93 122
59 94 126
59 94 136
57 90 111
59 94 118
58 92 111
59 93 122
59 93 120
58 91 114
60 94 122
58 91 121
59 93 124
61 96 136
59 93 125
58 92 118
58 92 121
58 92 124
59 92 115
58 92 110
59 92 117
58 92 121
58 91 108
59 92 121
57 89 113
58 91 117
55 87 95
57 89 118
54 86 99
57 89 110
57 89 105
56 88 108
67 94 97
107 122 40
107 120 0
115 129 0
120 136 0
118 134 0
118 135 0
108 123 0
113 127 0
111 126 0
123 139 0
112 128 0
125 141 0
125 142 0
118 133 0
126 141 0
136 151 0
131 146 0
122 137 0
133 150 0
139 155 0
128 145 0
123 139 0
128 145 0
129 144 0
134 148 0
136 150 0
128 143 0
137 153 0
139 157 0
142 157 0
130 147 0
132 147 0
139 156 0
137 151 0
137 153 0
132 146 0
133 148 0
135 149 0
147 163 0
140 157 0
143 161 0
147 163 0
138 154 0
139 155 0
146 160 0
141 156 0
142 157 0
147 160 0
144 158 0
144 156 0
145 161 0
146 162 0
145 159 0
150 167 0
142 157 0
154 169 0
154 167 0
147 159 0
147 161 0
147 163 0
150 165 0
152 166 0
149 166 0
148 165 0
150 166 0
149 164 0
154 168 0
151 168 0
154 170 0
147 162 0
154 168 0
153 168 0
153 170 0
156 171 0
156 174 0
155 170 0
154 168 0
152 169 0
156 173 0
157 174 0
157 173 0
155 168 0
160 176 0
162 180 0
160 175 0
154 170 0
160 177 0
158 172 0
163 179 0
162 179 0
157 173 0
160 176 0
162 179 0
164 182 0
159 177 0
164 180 0
163 180 0
163 179 0
160 176 0
163 180 0
162 178 0
162 178 0
160 175 0
159 177 0
157 174 0
159 176 0
162 181 0
165 182 0
162 180 0
163 180 0
164 182 0
165 183 0
163 181 0
164 182 0
166 183 0
167 186 0
164 182 0
167 185 0
167 184 0
164 181 0
165 184 0
165 183 0
168 186 0
165 183 0
165 183 0
168 188 0
167 186 0
164 182 0
166 186 0
168 185 0
165 186 0
168 190 0
169 190 0
168 187 0
170 190 0
164 185 0
165 184 0
165 185 0
168 186 0
167 187 0
169 189 0
172 193 0
168 189 0
168 189 0
168 187 0
170 191 0
171 192 0
166 185 0
163 183 0
170 190 0
170 191 0
169 188 0
171 192 0
172 194 0
170 190 0
169 191 0
167 188 0
168 191 0
167 188 0
172 191 0
170 192 0
172 193 0
167 187 0
168 190 0
171 190 0
171 191 0
167 189 0
166 188 0
169 191 0
171 192 0
170 192 0
170 193 0
177 200 67
178 201 72
221 235 245
223 236 254
222 236 254
218 233 248
219 234 253
217 233 249
205 223 212
184 205 122
177 200 67
175 199 80
175 197 67
176 199 99
178 201 72
177 200 80
176 199 80
176 199 62
174 197 57
172 195 72
174 198 67
174 197 80
177 200 84
176 199 92
174 198 88
173 196 72
175 198 62
175 199 88
174 197 72
171 194 80
174 198 67
166 189 67
171 195 44
172 196 72
172 195 76
172 196 62
168 192 95
171 194 67
166 190 62
173 197 102
168 192 72
169 193 76
168 192 80
172 195 80
171 195 62
171 196 80
170 195 62
169 193 72
172 196 51
169 193 44
169 194 72
168 192 57
167 190 51
171 196 72
169 193 72
163 187 51
171 195 67
171 194 72
169 194 84
165 189 80
164 189 51
169 192 84
165 190 57
170 195 67
167 191 57
167 191 76
163 186 67
170 195 72
165 190 92
162 186 62
169 193 84
163 187 72
164 187 36
162 186 76
167 192 84
166 190 57
165 190 99
167 191 62
169 194 92
162 186 72
166 190 105
167 192 84
162 186 62
166 189 72
165 189 80
166 189 72
160 185 76
160 185 88
162 186 76
159 182 67
165 189 84
157 181 67
161 184 67
155 178 62
163 186 51
154 178 72
149 171 51
159 181 57
161 184 72
154 178 84
160 183 84
155 178 80
153 176 57
147 169 84
157 180 84
158 181 88
153 175 57
151 173 80
153 176 67
157 180 95
151 174 84
153 174 84
143 164 92
131 152 65
94 120 105
96 122 124
101 126 128
97 123 134
94 120 125
92 118 124
95 121 123
79 107 124
81 109 124
85 111 121
92 118 134
100 125 129
92 118 140
85 111 128
86 113 128
88 115 141
97 121 139
93 119 137
95 121 134
109 133 140
99 126 148
92 118 130
92 118 123
96 121 139
103 125 131
88 116 137
76 106 152
80 110 161
87 115 155
81 110 160
83 112 157
75 104 152
77 102 130
82 105 137
67 98 139
74 102 138
59 93 133
62 96 143
58 93 130
59 94 128
63 96 128
61 95 134
65 98 128
63 96 114
83 112 110
58 92 126
57 91 115
57 90 120
56 89 108
59 93 122
59 92 121
58 91 124
59 93 128
58 92 124
57 90 115
59 92 124
58 92 118
58 91 125
57 90 118
58 91 117
58 92 115
58 92 117
59 94 128
57 91 114
59 93 120
58 91 121
59 94 122
58 92 118
59 93 124
57 90 113
59 94 131
58 91 118
60 94 122
60 95 135
60 94 130
60 94 122
58 93 122
59 94 132
58 92 118
58 91 117
58 92 120
58 91 117
58 92 114
59 93 120
59 93 121
59 93 121
59 93 126
58 92 121
58 92 118
58 91 108
59 93 128
58 92 122
59 92 118
58 92 124
59 93 131
58 92 120
58 91 115
59 93 117
58 91 111
59 92 120
55 88 90
57 90 111
58 92 114
56 88 107
57 91 111
57 90 122
58 92 115
57 91 108
56 89 110
56 88 97
56 88 114
54 85 82
76 101 94
106 122 31
109 123 0
110 123 0
122 136 0
105 119 0
108 123 0
112 125 0
123 138 0
127 142 0
117 131 0
127 142 0
121 134 0
125 142 0
126 139 0
110 126 0
123 136 0
120 134 0
130 147 0
129 145 0
127 141 0
127 142 0
126 141 0
126 142 0
135 150 0
137 154 0
135 150 0
133 149 0
136 152 0
129 143 0
143 160 0
133 146 0
133 149 0
140 155 0
142 158 0
136 152 0
141 156 0
141 157 0
142 159 0
140 156 0
138 154 0
144 160 0
142 156 0
146 164 0
139 155 0
136 152 0
148 163 0
150 166 0
143 158 0
141 153 0
141 156 0
140 152 0
144 158 0
151 166 0
145 160 0
144 161 0
153 168 0
154 169 0
146 160 0
151 167 0
146 161 0
152 168 0
146 162 0
150 167 0
148 164 0
149 167 0
149 166 0
144 158 0
152 165 0
152 168 0
155 170 0
156 174 0
152 167 0
155 171 0
155 169 0
158 173 0
150 164 0
155 171 0
151 167 0
158 174 0
156 173 0
154 170 0
157 173 0
156 173 0
157 171 0
155 170 0
160 177 0
162 180 0
162 178 0
156 172 0
160 174 0
159 176 0
158 174 0
157 173 0
160 175 0
163 178 0
163 177 0
158 175 0
164 180 0
163 179 0
162 178 0
161 179 0
163 180 0
160 179 0
161 180 0
164 179 0
161 178 0
163 182 0
165 183 0
164 183 0
167 186 0
163 182 0
163 180 0
164 181 0
165 180 0
163 180 0
160 174 0
160 177 0
169 186 0
165 182 0
165 184 0
166 186 0
168 187 0
168 188 0
164 183 0
165 186 0
166 183 0
166 186 0
166 185 0
165 183 0
166 187 0
165 183 0
168 187 0
163 183 0
171 191 0
171 192 0
167 186 0
164 185 0
169 189 0
167 188 0
168 188 0
167 187 0
164 185 0
172 193 0
168 188 0
168 187 0
171 191 0
168 188 0
168 189 0
167 187 0
170 191 0
170 191 0
168 187 0
172 193 0
166 186 0
171 192 0
171 192 0
170 191 0
171 193 0
171 191 0
169 190 0
169 190 0
167 187 0
169 189 0
171 191 0
169 191 0
167 188 0
169 190 0
171 192 0
170 190 0
169 192 0
170 191 0
172 192 0
171 192 0
180 202 80
190 210 140
223 236 252
221 235 248
220 234 248
219 234 249
219 234 254
216 232 249
196 214 173
178 200 99
177 200 72
175 197 57
174 198 72
175 199 84
171 195 44
174 197 57
175 198 36
177 200 84
170 193 62
175 198 72
176 199 62
175 199 95
171 194 57
175 199 95
175 199 80
173 197 72
175 199 80
174 197 76
173 197 88
175 199 102
170 192 67
171 195 62
172 195 57
170 194 44
170 194 57
171 195 62
173 197 102
169 193 67
170 194 62
172 195 62
171 195 67
169 192 76
169 193 72
169 194 80
169 192 67
172 196 72
172 196 80
169 193 62
161 186 57
170 194 72
169 193 57
170 194 84
167 190 51
163 188 72
173 197 84
170 194 92
172 196 72
174 198 92
173 198 84
169 193 62
169 194 76
170 194 44
165 190 72
169 193 92
168 193 80
165 188 51
167 191 72
166 191 72
166 190 76
167 191 67
166 190 72
168 191 36
167 191 88
165 190 72
164 188 76
162 187 80
167 191 44
163 186 57
164 188 99
165 188 72
161 186 80
163 187 80
163 187 72
161 183 84
165 189 99
164 188 99
162 186 95
166 189 92
161 185 80
165 188 95
161 185 84
166 190 95
165 188 67
162 185 80
162 186 95
155 178 84
158 182 80
162 185 76
154 177 36
160 183 80
149 172 76
154 177 72
156 179 76
155 178 67
147 170 57
141 163 44
151 173 76
142 164 72
145 167 72
152 174 67
149 170 88
144 166 67
147 169 95
140 162 62
146 168 90
102 127 117
88 114 115
100 125 124
90 117 127
96 121 134
84 112 126
92 118 136
92 117 118
98 124 128
82 109 120
92 118 140
80 109 129
89 117 129
87 114 126
88 114 122
97 122 133
94 119 124
109 134 148
97 123 146
109 134 138
118 141 146
96 120 127
93 117 117
102 125 120
89 115 121
91 119 139
78 108 160
83 112 157
78 109 165
83 111 148
80 109 149
80 106 145
73 101 130
77 104 124
63 95 125
69 99 137
60 94 133
58 92 117
60 94 118
60 93 121
66 98 113
64 96 126
60 92 108
73 102 103
63 96 122
57 91 128
57 91 125
57 91 127
57 90 119
57 90 113
59 93 130
59 93 136
58 92 125
57 91 115
58 91 124
57 91 122
59 92 128
57 91 124
57 91 110
58 92 114
58 92 111
59 93 113
59 93 125
59 92 124
59 93 130
57 91 113
59 94 130
59 92 120
59 93 127
58 92 122
58 91 105
58 92 117
57 91 113
58 93 114
59 93 117
57 91 113
59 93 126
59 94 129
58 92 118
58 92 120
60 94 133
58 92 113
57 91 117
57 91 118
57 91 117
59 93 122
57 90 122
58 92 115
58 92 115
59 93 121
58 91 108
57 90 117
57 91 118
58 91 105
59 93 124
57 91 105
57 90 111
58 92 115
57 91 111
58 91 115
57 90 115
57 90 113
58 92 110
56 88 107
57 90 124
58 91 122
55 88 100
56 89 114
54 86 99
55 87 103
84 105 78
92 108 18
107 122 0
100 116 0
117 131 0
134 149 0
111 125 0
120 135 0
116 133 0
121 135 0
128 143 0
119 134 0
123 138 0
119 133 0
127 142 0
121 136 0
119 135 0
113 127 0
125 140 0
130 144 0
126 140 0
126 141 0
133 148 0
132 147 0
139 153 0
139 154 0
146 161 0
142 159 0
133 149 0
129 145 0
138 155 0
134 150 0
124 142 0
137 151 0
134 148 0
145 162 0
143 160 0
139 156 0
142 158 0
146 163 0
141 157 0
143 159 0
147 165 0
140 156 0
144 161 0
141 155 0
143 158 0
151 167 0
138 153 0
143 157 0
144 161 0
146 164 0
148 165 0
147 165 0
145 163 0
147 164 0
142 157 0
151 167 0
150 167 0
148 163 0
149 165 0
148 164 0
144 158 0
154 169 0
156 171 0
151 165 0
150 166 0
147 160 0
151 165 0
152 167 0
149 165 0
156 174 0
153 168 0
148 167 0
151 170 0
151 166 0
150 166 0
162 177 0
156 170 0
151 167 0
154 170 0
158 174 0
153 170 0
160 176 0
156 175 0
161 177 0
155 171 0
155 172 0
158 176 0
158 175 0
158 177 0
158 175 0
161 175 0
160 177 0
166 182 0
161 176 0
163 178 0
163 182 0
162 180 0
160 177 0
159 176 0
157 176 0
166 183 0
160 176 0
166 184 0
163 181 0
161 178 0
166 184 0
164 181 0
161 177 0
163 182 0
167 182 0
166 183 0
163 181 0
168 188 0
162 178 0
166 184 0
161 179 0
167 187 0
165 184 0
165 184 0
168 188 0
163 183 0
166 185 0
167 185 0
166 186 0
164 182 0
166 186 0
168 187 0
167 184 0
165 183 0
166 183 0
168 189 0
167 188 0
169 188 0
167 187 0
168 186 0
166 185 0
166 186 0
166 186 0
169 189 0
170 190 0
167 187 0
168 188 0
169 187 0
171 191 0
167 188 0
168 190 0
169 188 0
166 185 0
171 193 0
171 191 0
172 192 0
172 194 0
165 184 0
168 186 0
172 194 0
169 189 0
170 193 0
169 190 0
169 193 0
172 192 0
169 190 0
170 192 0
170 191 0
172 192 0
171 191 0
171 192 0
169 189 0
170 188 0
171 191 0
169 192 0
173 195 0
168 189 0
170 192 0
179 201 72
205 222 196
222 235 250
222 235 252
221 235 252
216 232 242
218 233 250
202 219 198
182 203 105
177 201 76
177 199 84
176 199 84
177 200 80
174 197 57
176 197 72
175 197 84
169 192 62
177 201 92
176 200 76
172 196 62
173 197 62
172 196 80
170 194 67
176 200 84
175 197 84
174 197 72
172 195 80
175 198 95
174 197 67
168 192 84
170 194 88
171 194 80
173 196 72
174 198 76
172 196 51
173 196 88
171 196 80
171 195 62
172 195 44
169 193 57
169 193 67
169 193 72
171 196 84
172 195 67
168 192 62
172 195 76
172 196 88
170 194 88
173 197 95
170 194 62
170 193 57
171 194 57
173 196 62
171 195 72
167 191 84
169 194 72
169 194 76
163 187 57
170 195 80
171 194 72
166 190 67
167 191 76
161 185 57
166 189 67
168 192 62
160 185 84
166 191 84
164 188 57
171 195 72
168 193 67
165 190 57
168 192 80
161 185 76
168 191 76
171 195 76
163 186 88
170 193 67
169 192 84
166 190 72
168 192 88
164 188 76
164 188 80
166 190 80
164 187 84
160 184 72
162 186 76
164 188 67
157 180 72
160 182 72
166 190 72
164 186 88
158 182 88
156 179 67
161 184 76
167 189 102
156 178 76
154 176 99
159 181 67
157 180 72
162 185 62
155 177 67
149 173 80
160 183 67
146 169 67
150 173 76
155 178 80
152 174 84
142 164 62
151 173 76
153 174 80
142 163 57
152 173 80
155 176 92
146 167 80
146 167 88
131 152 84
85 111 103
78 105 108
86 112 108
89 115 113
77 106 112
91 118 126
90 117 124
92 117 119
108 131 150
95 121 116
90 116 136
83 111 128
93 119 124
94 120 124
93 119 113
114 137 138
97 123 129
101 125 131
99 125 124
119 141 145
100 125 140
86 113 125
84 110 122
100 123 141
96 122 135
83 112 148
68 101 150
84 113 160
89 116 158
81 110 155
87 113 156
70 100 139
71 100 128
67 98 133
68 98 131
60 94 134
58 92 120
56 90 118
65 97 123
58 91 120
61 94 117
66 98 129
72 101 105
77 105 107
58 91 115
58 92 124
57 90 113
57 90 110
58 92 105
58 91 125
59 93 122
59 94 121
59 93 125
58 92 122
57 90 108
56 89 108
59 94 131
58 92 118
59 93 118
57 91 118
57 90 111
57 90 115
57 90 118
57 90 117
59 93 121
57 91 115
57 90 110
58 92 118
57 91 108
58 92 120
59 93 125
58 92 118
58 92 114
59 93 120
60 94 124
59 94 130
59 93 125
57 91 113
57 90 120
57 91 114
58 92 115
59 94 126
58 92 113
59 92 122
57 90 113
58 92 122
58 92 114
58 92 118
61 96 134
58 92 111
61 95 130
58 92 114
57 90 102
57 91 111
59 92 120
55 87 105
56 89 95
59 92 115
57 90 103
57 90 114
58 91 118
56 88 102
56 89 107
57 90 111
54 86 94
55 87 102
55 87 95
56 88 108
84 103 60
101 113 0
109 123 0
114 128 0
112 127 0
115 130 0
114 128 0
116 130 0
111 127 0
117 132 0
112 128 0
113 128 0
121 135 0
124 140 0
124 139 0
125 141 0
138 153 0
133 149 0
122 137 0
128 144 0
123 138 0
134 150 0
125 140 0
128 143 0
127 142 0
125 141 0
136 152 0
135 149 0
137 153 0
130 146 0
130 145 0
140 158 0
136 151 0
131 148 0
131 146 0
137 152 0
146 163 0
139 153 0
136 152 0
148 165 0
140 157 0
136 149 0
137 153 0
150 167 0
141 155 0
148 165 0
144 162 0
136 153 0
150 166 0
145 162 0
149 166 0
143 160 0
142 158 0
146 161 0
151 165 0
141 157 0
147 162 0
151 166 0
151 167 0
154 171 0
151 167 0
150 168 0
145 159 0
152 166 0
148 164 0
155 170 0
149 164 0
153 172 0
150 164 0
155 172 0
152 166 0
157 174 0
156 173 0
152 168 0
160 178 0
154 171 0
153 168 0
150 165 0
158 177 0
154 170 0
152 171 0
157 172 0
156 173 0
158 175 0
153 168 0
156 175 0
157 174 0
161 177 0
158 174 0
161 177 0
159 176 0
161 178 0
160 177 0
160 177 0
158 177 0
166 186 0
152 169 0
157 174 0
155 170 0
163 182 0
159 176 0
158 175 0
158 178 0
162 180 0
164 179 0
162 180 0
164 183 0
159 177 0
163 180 0
166 184 0
160 178 0
167 184 0
164 182 0
161 179 0
165 182 0
161 179 0
160 180 0
159 176 0
166 185 0
167 188 0
166 187 0
166 185 0
162 181 0
161 180 0
165 184 0
166 186 0
162 181 0
167 187 0
164 184 0
167 187 0
168 188 0
165 184 0
165 185 0
169 188 0
164 184 0
169 189 0
168 190 0
165 184 0
170 191 0
166 187 0
171 192 0
167 187 0
167 188 0
164 183 0
171 192 0
167 188 0
174 194 0
167 188 0
168 188 0
169 191 0
164 184 0
170 192 0
168 188 0
169 187 0
166 186 0
170 191 0
167 186 0
167 186 0
168 188 0
168 190 0
169 189 0
171 192 0
167 189 0
172 192 0
172 193 0
170 194 0
168 189 0
170 191 0
170 192 0
171 192 0
166 188 0
169 191 0
171 192 0
173 195 0
172 194 0
170 192 0
181 202 80
214 229 226
223 236 254
223 236 254
220 235 253
218 233 249
216 232 246
194 214 165
175 199 67
173 196 76
178 201 80
173 196 51
172 195 67
173 197 72
176 198 84
172 196 76
176 199 62
169 192 67
176 199 80
175 198 76
171 194 67
173 196 84
176 200 84
170 194 67
173 197 76
176 199 72
174 198 76
169 193 62
175 200 92
171 195 72
173 197 57
173 197 92
168 192 72
174 199 88
172 195 76
172 196 72
172 195 62
171 194 72
172 196 72
171 194 72
173 197 99
172 196 92
172 195 62
171 195 62
170 194 88
163 186 57
172 195 62
171 195 44
173 197 76
169 193 57
171 196 88
166 190 57
171 195 62
173 196 57
170 194 76
167 191 72
167 191 57
173 196 84
168 192 84
164 188 84
161 185 67
168 193 88
168 192 57
164 188 67
166 191 80
173 196 62
164 189 72
167 191 51
170 193 84
162 187 95
169 192 76
169 193 84
173 197 92
164 188 114
163 187 67
170 194 92
166 188 99
166 189 92
165 188 57
169 193 102
160 183 76
163 185 84
163 186 76
162 185 99
164 188 105
157 180 80
159 182 62
168 191 95
166 188 84
164 188 88
163 186 88
162 185 76
166 188 92
164 188 99
162 184 84
161 183 80
161 184 76
165 188 80
161 185 88
155 177 76
157 180 80
157 179 67
154 176 88
144 166 62
158 180 62
149 171 84
147 170 67
152 174 67
147 169 72
153 174 92
140 162 57
137 159 67
146 167 72
144 165 72
154 174 84
148 170 105
131 153 95
86 112 107
78 107 110
103 127 138
97 122 120
97 122 113
102 127 134
107 131 137
96 122 125
93 119 131
90 117 121
97 122 128
102 126 134
94 120 138
95 121 128
97 122 122
90 117 134
94 120 139
97 123 134
102 127 139
103 126 121
112 134 129
97 120 129
96 120 130
96 120 131
83 111 145
80 111 164
80 109 151
66 100 152
78 108 152
77 106 140
78 106 129
74 102 140
78 102 130
67 97 135
66 97 125
57 91 120
59 94 129
58 92 119
62 94 113
61 94 122
64 97 124
60 92 110
87 113 102
57 91 113
58 92 118
57 90 105
58 91 113
57 90 111
58 92 120
58 91 114
58 91 121
57 91 111
57 90 115
59 93 126
59 92 122
58 92 124
59 93 120
56 89 108
57 91 107
59 93 126
58 92 120
58 92 125
57 90 117
57 91 120
58 91 115
59 93 126
59 93 121
58 91 117
57 90 110
58 92 128
57 90 110
58 91 121
58 92 115
60 94 125
60 95 133
57 91 113
57 90 115
57 90 113
59 93 122
60 95 130
59 93 125
59 93 121
58 92 115
57 90 107
57 91 114
58 92 124
57 91 111
57 91 113
59 92 115
58 91 122
57 90 111
58 91 113
58 91 114
57 91 121
58 92 105
57 90 120
58 92 121
58 90 118
56 89 99
58 91 111
57 90 114
56 88 110
55 87 105
53 85 95
55 87 103
62 88 70
81 99 51
111 126 0
127 141 0
111 124 0
114 129 0
112 127 0
121 135 0
127 143 0
126 143 0
126 144 0
118 133 0
113 128 0
128 144 0
123 140 0
119 136 0
122 139 0
119 134 0
134 150 0
140 159 0
124 139 0
132 147 0
122 137 0
123 138 0
123 138 0
138 155 0
135 151 0
126 145 0
129 146 0
128 144 0
133 149 0
130 146 0
137 154 0
130 146 0
134 151 0
149 168 0
137 154 0
136 153 0
142 159 0
136 152 0
139 157 0
141 157 0
140 156 0
144 161 0
139 156 0
139 156 0
142 159 0
142 158 0
142 158 0
147 165 0
148 164 0
147 163 0
151 168 0
145 163 0
145 161 0
143 159 0
147 165 0
152 169 0
146 161 0
151 168 0
151 166 0
147 164 0
148 163 0
149 165 0
147 163 0
151 167 0
158 174 0
151 167 0
157 174 0
150 166 0
160 177 0
146 162 0
152 169 0
149 166 0
154 172 0
160 177 0
163 179 0
153 171 0
158 177 0
153 170 0
152 169 0
151 170 0
153 170 0
156 173 0
159 176 0
163 178 0
159 176 0
160 178 0
156 172 0
153 168 0
160 177 0
158 176 0
154 170 0
159 177 0
162 179 0
164 182 0
153 170 0
164 181 0
160 177 0
160 178 0
162 181 0
162 179 0
164 181 0
158 175 0
159 175 0
163 182 0
163 182 0
154 172 0
161 178 0
162 180 0
164 182 0
159 179 0
161 178 0
165 185 0
163 181 0
164 180 0
164 180 0
171 190 0
163 180 0
164 181 0
157 175 0
165 183 0
164 183 0
164 180 0
166 186 0
163 181 0
164 184 0
167 188 0
165 186 0
164 182 0
169 190 0
167 188 0
165 185 0
168 187 0
168 186 0
164 184 0
168 187 0
167 187 0
170 188 0
163 184 0
171 192 0
166 186 0
169 189 0
167 187 0
169 188 0
169 189 0
169 190 0
166 187 0
168 189 0
168 189 0
165 185 0
171 191 0
167 187 0
169 191 0
171 192 0
168 187 0
170 190 0
169 189 0
171 190 0
168 188 0
170 190 0
172 193 0
169 189 0
165 187 0
170 189 0
169 192 0
168 190 0
168 188 0
169 190 0
167 189 0
171 191 0
168 190 0
173 194 0
173 194 0
169 191 0
171 192 0
171 193 0
169 190 0
180 202 84
222 235 246
222 236 250
222 236 253
221 235 253
218 233 249
205 222 212
181 203 102
176 199 84
175 198 76
176 198 88
179 202 99
175 198 57
174 198 76
172 194 67
173 196 57
177 200 67
175 198 67
172 197 80
173 196 72
174 197 72
175 198 84
174 198 72
173 196 84
172 196 62
174 197 80
170 193 84
173 196 57
174 198 84
169 193 57
171 195 67
171 194 84
169 193 25
170 194 57
173 197 72
173 196 57
173 197 44
170 195 95
170 194 80
172 196 84
169 193 62
170 193 72
164 188 36
165 190 80
169 194 72
169 193 57
172 196 80
172 195 51
165 189 51
175 199 92
171 195 57
168 191 51
167 192 57
166 192 92
167 191 62
166 190 62
165 189 76
167 191 80
166 190 80
168 192 57
166 190 76
165 189 62
165 189 88
168 192 76
160 183 72
169 193 84
169 193 95
171 194 102
165 189 88
166 190 57
166 190 92
166 189 88
169 191 84
170 193 80
162 186 62
164 189 84
161 185 76
162 186 72
162 186 84
159 183 99
171 193 80
165 188 72
164 188 99
159 182 92
166 189 95
166 189 88
168 191 92
162 186 99
165 188 99
168 191 99
161 185 76
156 179 108
160 182 102
162 184 88
161 186 88
160 183 76
160 182 67
158 180 72
157 180 88
166 189 108
157 180 76
162 184 92
159 181 102
157 180 102
155 176 105
150 171 67
153 175 76
145 167 67
161 184 95
147 170 72
151 173 92
145 168 99
148 170 80
148 170 99
142 163 67
132 153 51
145 166 99
114 138 100
85 111 114
104 129 129
89 115 120
89 115 125
96 120 119
88 114 120
93 119 128
97 121 131
90 117 136
83 110 129
92 118 120
104 128 139
84 111 134
97 122 124
90 115 134
94 119 126
86 113 134
104 129 133
98 123 130
111 133 119
101 126 132
111 132 144
91 117 130
85 113 141
74 104 137
83 112 159
71 103 148
75 106 154
79 108 136
74 105 139
64 96 129
78 103 123
83 106 122
75 101 125
65 96 126
59 93 124
63 96 125
60 93 123
69 100 118
59 91 121
60 93 110
87 112 93
57 90 112
57 91 115
57 90 109
57 91 117
58 91 115
58 92 115
59 93 117
58 91 118
58 91 113
57 90 107
58 92 114
59 93 113
57 91 102
58 91 115
57 91 121
58 91 115
58 92 120
59 93 120
58 92 121
59 93 131
59 93 120
57 90 118
56 89 117
57 90 108
59 92 124
59 93 130
57 91 115
57 90 117
60 94 124
58 92 115
59 94 130
58 92 108
58 92 120
58 92 111
58 92 125
59 93 127
58 92 124
59 93 129
58 91 107
56 89 100
57 90 111
58 92 111
56 90 107
58 91 118
58 91 120
58 91 122
55 88 102
58 92 120
58 91 115
60 94 124
56 89 111
58 91 120
57 90 103
55 88 97
57 90 111
57 90 107
57 90 108
56 89 102
57 90 117
54 85 97
56 88 105
64 88 82
105 118 25
108 124 0
115 129 0
118 134 0
108 124 0
112 127 0
105 118 0
118 133 0
113 129 0
113 128 0
110 125 0
122 137 0
118 134 0
123 139 0
131 148 0
121 137 0
122 138 0
127 143 0
129 146 0
136 150 0
130 145 0
130 146 0
127 142 0
129 146 0
134 152 0
124 142 0
134 150 0
134 151 0
128 144 0
135 152 0
137 155 0
147 165 0
139 155 0
131 147 0
140 156 0
138 155 0
138 152 0
141 156 0
135 150 0
142 158 0
129 145 0
131 149 0
143 160 0
144 159 0
140 156 0
149 165 0
144 159 0
140 155 0
148 166 0
146 163 0
144 161 0
144 160 0
146 164 0
141 155 0
152 169 0
143 160 0
142 158 0
151 168 0
151 166 0
153 169 0
145 162 0
150 165 0
154 173 0
150 168 0
149 166 0
154 170 0
150 167 0
147 163 0
159 176 0
149 167 0
161 180 0
158 175 0
148 164 0
159 175 0
153 171 0
154 171 0
155 171 0
150 170 0
153 167 0
156 173 0
159 175 0
159 173 0
159 177 0
153 171 0
158 177 0
161 178 0
152 168 0
159 177 0
153 169 0
155 169 0
161 177 0
156 172 0
156 173 0
158 175 0
159 176 0
159 176 0
160 178 0
157 174 0
164 183 0
162 180 0
160 177 0
166 183 0
157 172 0
158 175 0
157 175 0
161 179 0
164 183 0
161 179 0
161 180 0
160 178 0
159 178 0
163 179 0
168 187 0
164 183 0
164 183 0
166 185 0
163 183 0
161 178 0
162 180 0
165 185 0
168 188 0
165 184 0
164 182 0
164 184 0
166 184 0
168 188 0
163 181 0
171 192 0
162 184 0
165 184 0
162 179 0
165 185 0
165 185 0
169 189 0
168 186 0
168 187 0
170 191 0
168 188 0
167 187 0
167 187 0
167 186 0
169 189 0
165 185 0
163 182 0
168 188 0
170 190 0
167 188 0
165 185 0
165 185 0
168 189 0
166 188 0
169 191 0
172 193 0
164 186 0
166 186 0
168 188 0
168 187 0
170 191 0
166 187 0
168 188 0
169 190 0
168 189 0
167 188 0
166 187 0
170 191 0
169 189 0
171 191 0
169 191 0
168 188 0
171 192 0
171 192 0
170 193 0
167 187 0
168 189 0
169 190 0
172 196 0
169 191 0
170 192 0
188 208 133
223 236 252
222 235 249
220 235 250
220 235 253
218 233 248
191 211 157
177 200 76
176 199 67
178 201 88
173 196 62
176 199 76
174 197 76
174 197 80
174 197 62
171 194 51
173 197 76
172 195 67
172 195 67
175 198 84
174 197 62
175 198 62
174 197 80
177 200 88
175 198 76
172 196 92
173 196 62
169 193 80
171 194 76
172 196 67
171 195 84
174 197 76
169 193 80
168 192 84
172 196 67
173 196 67
172 195 57
172 197 76
171 195 72
168 192 62
171 195 76
174 197 62
168 193 92
169 193 76
169 193 76
170 195 67
172 197 92
164 189 72
171 196 95
167 191 72
172 195 72
168 192 88
172 196 76
171 194 62
170 194 67
171 196 84
169 193 67
168 192 72
168 192 80
167 191 80
166 191 62
171 195 67
171 195 99
170 195 105
169 192 84
171 194 88
169 193 95
167 191 67
168 191 72
172 195 105
169 193 76
169 192 92
170 194 92
173 196 105
169 192 111
168 192 105
166 190 88
172 195 111
169 193 99
168 191 108
161 184 92
166 190 92
158 182 92
170 193 108
166 189 80
166 189 95
169 191 102
159 182 95
161 183 105
156 179 88
170 192 108
166 190 92
167 191 108
163 187 105
166 187 108
156 178 84
160 182 102
159 181 105
155 179 80
149 172 72
155 179 72
161 184 88
150 173 76
156 179 88
153 175 108
155 178 92
147 168 95
151 174 80
146 167 62
151 173 36
148 168 62
143 164 76
149 171 76
148 170 102
139 160 88
142 163 76
137 157 76
129 149 25
109 130 78
82 109 107
87 113 115
79 107 118
81 107 115
91 116 110
92 117 119
91 116 123
95 119 108
96 120 115
75 103 111
94 118 123
93 119 122
95 120 131
109 133 139
108 133 136
107 130 145
96 122 132
102 127 121
97 122 126
102 125 118
96 119 133
100 125 140
102 124 124
96 117 125
83 111 152
80 109 149
74 105 148
73 104 136
72 104 137
72 104 130
74 100 124
77 103 122
75 101 114
68 95 118
59 93 128
55 88 111
64 97 129
61 95 125
71 101 108
64 96 122
85 111 103
75 104 94
59 93 118
55 88 94
57 90 114
56 89 121
56 89 97
57 91 118
56 89 106
58 92 120
58 91 113
58 92 110
58 92 128
57 91 123
58 92 120
58 92 113
57 91 111
57 90 111
58 92 130
59 93 126
56 89 105
56 89 110
57 90 114
58 92 117
56 89 117
57 90 107
57 90 102
56 90 115
58 91 105
58 92 113
58 92 121
60 94 126
58 92 113
57 91 110
58 92 114
57 90 116
58 92 120
57 90 107
59 93 117
56 89 99
58 92 120
58 92 115
55 87 105
58 91 118
57 91 110
57 90 110
57 90 113
57 90 110
57 91 115
57 90 108
56 89 108
57 90 102
57 91 108
57 91 103
56 89 102
54 86 97
56 89 105
53 85 86
55 87 97
55 87 92
55 87 99
83 102 72
101 115 0
109 124 0
93 108 0
112 129 0
96 112 0
109 123 0
112 128 0
114 126 0
110 125 0
117 133 0
118 132 0
122 138 0
121 137 0
115 131 0
124 139 0
132 147 0
123 140 0
122 138 0
124 142 0
123 139 0
128 144 0
134 150 0
129 145 0
140 157 0
129 145 0
135 151 0
137 154 0
130 146 0
128 142 0
137 152 0
140 156 0
139 156 0
124 140 0
146 163 0
135 152 0
135 152 0
132 150 0
152 168 0
134 153 0
144 159 0
142 159 0
148 165 0
130 146 0
141 156 0
144 159 0
144 161 0
142 160 0
144 159 0
150 167 0
141 156 0
138 154 0
142 161 0
147 164 0
142 157 0
141 158 0
140 157 0
151 167 0
146 164 0
154 173 0
151 168 0
142 158 0
143 158 0
145 160 0
150 167 0
157 172 0
153 169 0
148 166 0
146 162 0
159 177 0
148 166 0
152 169 0
151 167 0
151 168 0
155 173 0
154 172 0
149 165 0
159 177 0
152 168 0
154 172 0
151 166 0
156 172 0
161 179 0
158 177 0
148 165 0
164 181 0
156 173 0
163 180 0
157 172 0
160 176 0
163 180 0
155 171 0
160 177 0
152 168 0
158 176 0
161 177 0
160 178 0
159 178 0
161 178 0
159 177 0
158 176 0
158 176 0
156 173 0
154 169 0
155 174 0
161 180 0
161 179 0
165 184 0
165 184 0
156 172 0
162 180 0
159 179 0
167 185 0
163 180 0
167 183 0
164 181 0
166 187 0
162 180 0
161 180 0
164 180 0
166 184 0
165 183 0
164 183 0
170 190 0
166 185 0
166 185 0
162 180 0
164 186 0
166 187 0
168 187 0
167 186 0
165 183 0
164 184 0
168 188 0
169 190 0
164 185 0
167 187 0
163 182 0
164 185 0
166 186 0
168 187 0
167 188 0
170 190 0
169 188 0
166 187 0
169 190 0
168 188 0
168 189 0
170 191 0
171 192 0
169 190 0
166 187 0
167 188 0
167 188 0
167 187 0
172 193 0
168 189 0
168 187 0
165 185 0
166 187 0
171 193 0
171 194 0
171 190 0
168 191 0
171 192 0
170 192 0
174 193 0
169 190 0
163 184 0
170 192 0
167 188 0
170 191 0
170 191 0
167 189 0
168 189 0
169 190 0
167 188 0
168 189 0
169 191 0
170 192 0
202 219 182
222 236 249
219 233 248
221 235 252
219 233 249
209 226 226
178 201 84
175 199 84
175 198 62
176 198 62
172 196 62
172 195 62
174 197 62
172 196 57
177 200 80
176 199 88
176 199 51
176 200 84
173 197 62
174 197 57
175 198 80
172 196 88
174 198 80
172 196 72
169 193 80
173 197 80
173 196 80
172 195 44
170 194 84
176 200 95
174 198 99
173 197 62
171 195 72
170 195 80
167 192 67
172 195 72
171 195 57
173 196 80
172 196 57
173 196 72
168 193 76
170 195 88
171 195 67
169 193 62
170 193 72
172 195 51
172 196 80
169 193 72
173 196 62
165 189 67
168 192 80
170 193 84
168 193 67
165 190 57
168 193 84
164 189 67
166 190 57
164 187 76
170 194 67
164 188 76
166 190 67
167 190 92
171 194 84
170 194 102
169 193 88
171 196 80
167 191 80
169 191 108
163 187 67
170 194 102
167 189 88
176 198 102
168 191 92
167 190 88
164 188 76
176 197 117
168 191 92
166 188 92
170 192 111
165 188 105
171 193 95
160 184 67
173 196 125
163 187 76
160 183 95
163 186 88
164 187 102
160 182 80
162 185 108
162 184 95
163 186 95
163 186 88
165 189 105
160 183 92
161 185 95
152 174 102
157 179 80
156 178 99
158 180 99
158 180 84
162 184 102
148 171 88
158 180 76
153 174 99
151 173 80
154 174 99
143 165 80
156 177 92
150 171 92
143 164 84
150 170 102
158 180 84
151 172 72
141 163 80
140 161 92
122 142 51
130 150 36
141 161 57
136 157 80
121 143 86
89 114 110
96 120 115
84 110 100
99 122 128
97 122 118
94 119 115
85 112 123
100 123 126
95 121 118
105 129 119
83 109 112
96 120 139
89 115 110
101 125 124
95 120 132
94 120 130
107 131 143
102 127 130
87 114 121
105 128 114
93 117 120
82 110 133
116 127 92
103 118 121
89 115 152
82 109 141
84 112 143
76 107 128
75 106 142
75 105 125
68 98 126
71 96 103
71 98 129
70 97 115
56 90 115
65 96 125
61 93 103
58 91 118
63 94 103
74 101 103
86 112 92
58 92 118
57 91 120
57 90 113
59 93 115
58 92 124
56 89 99
56 90 110
57 91 117
55 87 114
57 91 115
57 90 120
56 89 119
58 91 118
56 89 111
58 91 105
57 91 108
57 90 126
56 89 111
59 93 125
57 90 107
58 92 115
58 92 117
58 91 118
58 91 117
57 91 114
58 92 115
55 87 105
56 89 115
59 93 121
56 90 105
58 91 110
58 92 114
56 89 114
57 90 103
55 87 95
57 91 111
55 88 99
58 92 111
56 90 94
58 92 105
57 91 121
58 92 115
58 91 110
55 87 105
58 91 118
58 91 113
57 90 105
57 90 103
57 90 105
59 92 125
58 91 117
56 89 105
55 87 99
54 86 99
57 90 115
53 84 102
53 84 90
57 85 86
98 114 44
104 117 0
99 115 0
110 123 0
119 133 0
110 125 0
100 114 0
109 124 0
121 136 0
116 132 0
120 136 0
121 135 0
124 140 0
116 132 0
121 137 0
120 138 0
115 130 0
132 147 0
122 139 0
112 127 0
131 146 0
128 145 0
130 146 0
121 138 0
126 142 0
134 150 0
125 143 0
141 158 0
133 150 0
129 144 0
133 150 0
134 152 0
140 159 0
141 158 0
140 157 0
148 166 0
136 152 0
141 157 0
140 155 0
140 157 0
140 159 0
139 156 0
143 159 0
146 163 0
140 156 0
145 161 0
142 157 0
142 158 0
143 161 0
148 166 0
150 166 0
145 160 0
155 173 0
149 165 0
144 160 0
148 165 0
143 161 0
145 162 0
147 164 0
143 162 0
149 165 0
153 168 0
151 167 0
153 171 0
149 166 0
154 170 0
146 164 0
148 161 0
157 172 0
150 167 0
153 170 0
154 172 0
153 169 0
152 169 0
154 173 0
155 171 0
149 166 0
158 175 0
151 168 0
157 170 0
156 171 0
152 169 0
155 172 0
154 173 0
162 179 0
156 173 0
163 181 0
157 174 0
156 176 0
154 173 0
160 178 0
159 175 0
152 171 0
151 169 0
161 179 0
159 175 0
158 175 0
153 169 0
158 175 0
161 180 0
161 177 0
158 174 0
162 179 0
161 180 0
158 174 0
162 180 0
165 184 0
161 178 0
162 182 0
158 174 0
162 178 0
164 184 0
169 189 0
163 182 0
164 183 0
164 181 0
166 184 0
161 176 0
167 186 0
163 182 0
161 179 0
161 180 0
165 185 0
163 182 0
166 187 0
165 183 0
166 187 0
163 184 0
160 180 0
167 189 0
165 184 0
166 187 0
167 188 0
170 188 0
168 189 0
165 184 0
165 185 0
166 186 0
169 189 0
159 179 0
165 184 0
166 185 0
166 186 0
166 187 0
171 191 0
168 187 0
168 188 0
171 192 0
170 191 0
169 191 0
163 184 0
167 186 0
166 186 0
171 192 0
164 184 0
170 190 0
167 188 0
172 193 0
168 188 0
163 184 0
170 190 0
169 191 0
168 189 0
167 189 0
169 191 0
170 192 0
169 190 0
166 189 0
169 191 0
168 190 0
169 192 0
168 191 0
169 190 0
167 189 0
171 192 0
168 190 0
171 193 0
173 194 0
173 195 0
171 193 0
169 190 0
206 222 198
222 236 250
222 236 253
220 235 250
220 234 252
201 219 194
174 197 67
179 201 92
175 198 72
175 198 80
173 197 84
175 197 67
180 202 88
174 197 80
171 196 57
175 198 72
173 197 80
176 199 76
176 199 84
170 193 72
175 199 92
173 196 72
174 197 76
170 192 67
168 192 76
173 197 84
173 197 72
168 191 62
172 196 76
172 196 92
172 196 67
166 191 62
172 197 92
174 198 76
171 195 84
170 193 57
171 195 102
169 192 67
170 194 62
168 192 67
170 195 76
171 195 95
172 195 62
171 194 84
168 193 84
165 189 62
166 190 57
172 196 76
168 193 72
169 193 88
169 194 72
165 189 76
166 190 72
168 191 51
166 190 44
169 193 88
167 191 80
169 192 72
166 189 84
165 189 95
169 193 62
170 194 125
166 190 84
167 191 95
170 193 108
172 196 99
171 194 95
170 193 105
167 191 102
168 191 99
168 191 95
168 191 108
172 195 117
163 186 72
167 190 111
173 196 105
170 193 88
169 192 111
171 195 120
168 191 84
165 188 88
164 187 114
166 189 88
164 187 102
164 188 102
166 188 111
171 194 111
166 189 99
167 189 80
169 192 117
155 177 76
160 183 84
170 192 108
167 189 92
154 176 88
160 182 95
153 176 105
155 176 95
162 184 108
166 188 88
156 180 84
161 182 88
156 179 95
155 176 105
146 168 72
152 173 84
149 170 80
148 170 84
141 163 88
150 171 88
151 172 80
153 174 84
148 169 80
145 166 88
145 165 92
124 145 62
141 161 57
136 156 60
136 155 84
133 153 67
115 136 97
94 117 111
83 110 103
90 116 102
84 111 107
96 121 118
99 123 131
84 110 124
99 124 131
83 110 125
96 122 131
86 113 123
106 129 133
106 131 140
103 128 146
106 129 128
94 119 118
89 116 122
109 132 124
93 120 118
96 121 115
83 109 126
96 118 122
144 144 76
94 116 136
77 107 140
73 104 141
79 109 128
74 106 131
73 104 126
79 107 114
69 99 115
74 97 122
68 96 125
66 95 122
61 94 121
60 93 120
64 97 122
58 90 112
72 102 103
96 120 88
57 88 94
56 89 100
58 92 108
59 92 115
54 87 103
56 89 103
56 88 105
54 86 99
58 91 115
53 85 86
55 88 100
56 89 106
56 90 100
55 88 102
57 90 100
56 88 94
56 89 113
55 88 110
58 92 114
58 91 110
59 93 117
57 90 113
60 93 125
58 91 121
56 89 114
59 93 114
58 91 126
57 90 117
58 91 108
56 90 103
57 91 107
58 91 107
58 91 117
55 87 105
56 89 105
57 90 114
56 89 110
57 89 111
57 90 117
57 91 115
56 88 111
58 91 120
58 91 113
54 86 94
58 92 107
56 89 111
58 91 120
56 89 105
55 87 97
53 84 100
56 88 102
55 87 90
55 87 95
56 88 97
54 85 97
60 89 94
80 98 47
103 118 18
93 108 0
104 118 0
103 118 0
113 128 0
108 125 0
114 128 0
112 128 0
107 123 0
110 125 0
112 128 0
114 129 0
125 141 0
119 135 0
120 136 0
118 134 0
119 135 0
131 149 0
129 144 0
136 153 0
132 148 0
124 140 0
129 147 0
128 144 0
131 148 0
130 147 0
132 148 0
140 156 0
127 145 0
128 144 0
124 141 0
139 156 0
133 151 0
136 152 0
131 148 0
143 161 0
141 158 0
143 159 0
141 161 0
143 160 0
142 160 0
141 158 0
147 165 0
144 162 0
144 162 0
142 158 0
142 159 0
146 164 0
144 161 0
139 157 0
150 166 0
148 167 0
147 165 0
148 167 0
148 167 0
152 170 0
151 168 0
145 164 0
147 164 0
145 165 0
151 171 0
151 169 0
153 169 0
149 167 0
151 168 0
147 167 0
154 173 0
153 171 0
155 174 0
150 169 0
153 173 0
152 169 0
153 171 0
152 169 0
151 171 0
159 177 0
149 166 0
157 176 0
155 173 0
155 172 0
157 172 0
157 174 0
153 171 0
157 176 0
154 172 0
157 176 0
158 177 0
158 175 0
159 178 0
154 170 0
155 171 0
159 177 0
160 178 0
156 175 0
164 183 0
154 174 0
158 177 0
160 179 0
163 182 0
158 176 0
152 169 0
161 179 0
168 185 0
160 179 0
163 181 0
159 175 0
163 182 0
164 183 0
161 181 0
157 174 0
160 178 0
161 179 0
160 177 0
162 181 0
164 186 0
166 187 0
162 180 0
161 181 0
162 179 0
165 183 0
164 181 0
164 182 0
163 182 0
169 189 0
161 178 0
165 184 0
169 189 0
168 187 0
166 184 0
161 180 0
162 182 0
166 185 0
162 181 0
163 182 0
168 189 0
166 186 0
166 185 0
170 190 0
166 186 0
166 185 0
166 187 0
166 186 0
165 186 0
166 186 0
170 191 0
169 189 0
168 189 0
166 187 0
166 186 0
167 186 0
167 187 0
167 187 0
170 191 0
170 190 0
169 190 0
169 189 0
167 187 0
164 186 0
172 192 0
165 185 0
169 190 0
168 189 0
170 191 0
169 189 0
167 187 0
168 190 0
166 186 0
166 186 0
169 191 0
172 194 0
167 188 0
170 191 0
166 188 0
166 188 0
170 191 0
169 191 0
169 190 0
169 190 0
171 191 0
170 193 0
170 193 0
172 193 0
218 232 234
222 235 249
223 236 255
220 235 252
216 231 241
186 207 128
176 198 51
178 200 72
178 201 95
173 196 57
176 199 84
171 195 62
176 199 72
175 199 67
171 195 67
174 197 76
172 195 72
173 197 80
175 198 72
175 198 92
174 198 76
173 197 57
170 193 51
174 197 72
174 197 76
172 196 84
172 196 72
173 197 76
169 192 76
174 197 67
172 195 57
173 197 76
172 195 72
172 196 67
169 193 80
175 199 72
166 191 67
171 195 76
173 198 80
169 193 76
173 198 88
170 194 62
172 196 72
169 193 88
173 197 80
172 196 84
168 191 76
168 193 72
168 193 92
172 196 72
172 196 72
169 192 57
166 190 72
167 191 62
170 194 80
169 192 72
172 196 95
172 196 62
173 197 80
170 193 102
164 189 80
169 192 88
173 197 102
175 198 99
172 196 105
170 193 88
168 191 95
179 202 122
170 193 88
173 196 105
171 195 102
164 187 84
166 188 88
168 191 95
164 187 88
176 198 105
166 190 95
166 190 102
161 184 92
164 186 95
159 182 88
167 190 108
173 196 88
160 184 102
160 183 99
164 185 67
167 190 99
158 181 108
166 188 99
157 180 72
161 182 88
166 189 105
169 191 114
156 179 95
167 190 117
157 179 99
157 178 76
164 187 102
160 181 99
157 178 92
157 180 84
156 178 102
158 180 95
159 181 95
154 175 108
157 179 108
158 180 92
155 176 80
153 176 95
145 168 72
141 162 84
155 177 76
147 168 72
151 172 99
154 175 92
146 167 51
135 157 72
143 164 62
131 152 51
134 152 84
150 168 92
97 120 92
95 120 117
87 112 105
82 109 110
103 125 124
94 119 136
90 116 115
84 109 117
91 118 126
100 123 127
101 123 128
97 121 113
97 121 126
96 122 124
113 136 141
87 114 129
108 131 134
106 130 117
100 125 113
105 128 111
85 111 118
102 124 137
137 140 84
120 129 105
72 103 142
71 102 134
69 101 128
76 106 126
70 102 139
76 106 120
72 102 121
77 102 111
65 95 120
77 102 115
60 93 121
62 95 122
63 95 113
58 92 122
59 90 95
110 132 84
67 98 103
55 88 100
57 91 108
57 90 113
56 89 106
55 88 98
55 87 72
55 88 94
57 90 108
57 89 101
56 88 97
56 89 110
57 91 110
59 93 117
56 90 115
59 92 111
55 87 102
56 88 99
57 90 102
56 88 102
57 90 108
55 88 94
58 91 118
56 89 100
56 89 117
55 88 107
56 89 102
57 90 110
58 91 114
56 88 92
58 91 115
59 93 125
59 92 121
58 91 119
58 91 108
57 90 103
58 92 114
54 86 102
58 92 114
56 88 107
57 90 105
57 89 99
55 88 102
57 90 107
56 89 103
55 88 99
56 88 115
56 89 108
56 88 92
54 86 92
54 86 95
54 85 99
55 87 102
51 81 80
63 88 72
89 106 31
98 112 0
101 116 0
98 112 0
99 113 0
102 117 0
110 126 0
106 122 0
118 133 0
103 119 0
111 127 0
121 135 0
121 137 0
108 124 0
106 123 0
129 145 0
118 135 0
124 141 0
117 132 0
129 146 0
131 150 0
118 134 0
126 143 0
132 148 0
133 148 0
122 138 0
138 156 0
125 143 0
119 134 0
125 141 0
132 150 0
136 152 0
134 151 0
130 146 0
129 144 0
131 149 0
130 145 0
142 160 0
140 158 0
147 165 0
138 155 0
138 155 0
137 156 0
138 155 0
141 156 0
139 156 0
132 148 0
140 158 0
141 157 0
141 160 0
133 147 0
143 157 0
143 161 0
141 158 0
156 175 0
149 166 0
144 161 0
148 167 0
149 164 0
144 162 0
151 166 0
156 174 0
156 173 0
147 165 0
145 161 0
153 172 0
153 172 0
154 171 0
155 173 0
153 170 0
144 160 0
159 178 0
156 175 0
154 174 0
154 172 0
155 174 0
149 166 0
152 169 0
160 177 0
152 169 0
152 170 0
151 168 0
158 176 0
154 172 0
152 169 0
156 173 0
153 172 0
156 175 0
159 177 0
159 177 0
160 179 0
159 175 0
155 173 0
159 179 0
159 177 0
165 184 0
158 176 0
156 174 0
159 174 0
158 177 0
158 177 0
160 177 0
165 183 0
162 179 0
163 181 0
163 180 0
166 184 0
164 183 0
160 177 0
158 178 0
167 184 0
160 177 0
168 189 0
158 175 0
160 179 0
165 186 0
160 179 0
164 182 0
163 181 0
166 184 0
161 179 0
165 185 0
162 183 0
163 181 0
158 177 0
167 188 0
166 186 0
166 185 0
166 186 0
161 181 0
165 185 0
167 187 0
164 182 0
165 185 0
167 186 0
167 186 0
167 188 0
167 187 0
166 184 0
165 185 0
164 185 0
164 184 0
168 189 0
170 190 0
165 185 0
165 185 0
169 188 0
168 191 0
171 191 0
169 189 0
166 187 0
165 186 0
165 185 0
166 186 0
168 187 0
164 185 0
169 190 0
168 189 0
168 188 0
170 190 0
170 191 0
169 191 0
168 190 0
170 191 0
167 187 0
167 187 0
170 191 0
169 189 0
168 188 0
171 193 0
170 191 0
169 191 0
170 192 0
171 193 0
172 194 0
172 195 0
171 192 0
169 191 0
170 191 0
170 192 0
167 189 0
173 196 0
168 191 0
169 193 0
218 232 238
222 235 250
220 234 248
219 234 249
202 219 193
174 197 76
176 198 62
173 196 72
175 198 67
176 198 84
175 199 88
176 199 80
174 197 80
177 200 88
176 200 88
174 197 67
175 198 80
173 196 57
175 198 72
176 199 92
175 198 72
169 192 67
170 194 62
171 195 80
172 196 80
172 196 51
170 192 67
172 196 80
171 194 76
171 194 51
171 194 76
172 196 67
172 196 88
170 193 67
173 197 72
175 199 72
172 196 76
163 187 76
169 193 80
170 194 88
173 196 72
165 189 67
164 188 67
169 193 76
171 194 72
168 192 72
171 194 36
174 197 92
170 193 72
171 196 76
168 191 57
171 195 76
172 195 72
172 197 95
173 197 99
166 190 105
164 188 51
171 194 88
171 194 95
171 194 95
171 195 92
171 194 99
168 191 84
175 197 95
164 189 92
164 187 92
177 200 111
168 192 108
168 190 99
164 187 76
167 191 99
168 191 92
170 193 99
172 195 114
169 192 102
161 185 72
170 193 95
168 190 92
165 189 99
163 186 108
170 193 111
162 185 95
165 188 84
168 192 105
171 193 95
163 185 108
164 187 86
166 189 95
162 185 88
161 183 108
158 180 95
157 180 92
162 186 84
167 189 105
161 183 105
161 184 88
164 186 117
158 180 108
155 177 80
163 187 92
153 175 84
161 183 92
160 182 105
152 173 88
156 178 102
154 176 99
157 179 108
158 179 120
147 167 92
148 169 95
142 164 72
151 171 88
151 171 99
139 160 78
149 168 88
145 166 100
138 160 62
135 154 57
129 148 76
132 151 80
127 145 72
116 135 51
115 136 97
94 118 102
87 113 107
78 105 100
92 117 115
105 128 124
89 113 107
89 115 107
108 130 124
102 126 137
97 122 122
107 130 132
109 132 129
104 129 128
106 129 129
91 118 108
109 132 125
107 132 117
106 130 113
84 112 126
90 115 127
131 140 109
152 147 60
113 120 97
61 96 141
74 105 131
74 106 130
73 104 108
78 107 117
71 102 118
81 110 113
82 108 117
73 99 114
72 99 102
57 91 107
62 93 102
59 91 105
65 96 107
92 115 78
79 105 86
54 87 99
56 89 107
55 88 100
56 89 103
56 89 111
56 89 114
54 86 104
57 90 110
53 84 88
56 88 103
56 89 108
57 91 104
58 91 124
57 90 103
57 90 115
58 91 120
56 89 105
56 90 105
57 90 105
57 91 110
57 91 111
55 87 107
54 87 92
56 88 99
56 89 99
57 90 113
59 93 118
58 92 116
54 86 103
57 90 103
57 90 110
55 87 99
58 92 124
58 91 120
55 88 100
55 87 103
56 89 103
57 90 114
54 86 90
56 89 100
57 90 107
57 90 107
54 86 99
57 90 102
56 89 103
56 88 97
53 85 92
54 86 84
54 86 103
53 84 86
54 85 90
58 84 80
84 102 47
108 123 0
109 121 0
100 115 0
84 99 0
102 117 0
101 118 0
115 129 0
108 124 0
115 130 0
113 128 0
114 130 0
103 118 0
112 127 0
121 139 0
118 134 0
119 137 0
118 135 0
120 137 0
113 130 0
123 140 0
122 137 0
133 148 0
119 136 0
135 153 0
123 140 0
130 145 0
130 147 0
126 143 0
130 149 0
131 148 0
130 148 0
135 152 0
144 161 0
125 141 0
135 153 0
130 147 0
134 152 0
136 151 0
135 154 0
147 164 0
139 158 0
149 168 0
137 156 0
141 159 0
142 162 0
140 161 0
147 165 0
142 160 0
146 164 0
143 159 0
142 159 0
145 163 0
148 164 0
144 162 0
143 159 0
147 167 0
148 165 0
144 163 0
145 162 0
148 165 0
151 169 0
151 169 0
152 169 0
151 168 0
148 164 0
148 166 0
155 173 0
152 167 0
155 173 0
148 164 0
154 171 0
151 169 0
157 177 0
157 176 0
150 168 0
150 167 0
154 170 0
151 169 0
157 174 0
155 173 0
152 170 0
156 175 0
155 173 0
148 168 0
147 164 0
155 173 0
155 172 0
157 175 0
158 178 0
156 175 0
154 172 0
155 174 0
158 176 0
158 176 0
159 178 0
159 179 0
156 174 0
160 178 0
160 179 0
162 182 0
159 179 0
159 175 0
165 185 0
159 179 0
164 180 0
164 182 0
164 184 0
169 187 0
156 174 0
160 179 0
162 182 0
166 184 0
162 181 0
159 178 0
159 177 0
162 181 0
163 181 0
157 175 0
160 178 0
164 182 0
155 175 0
163 182 0
162 181 0
161 178 0
160 180 0
166 186 0
162 181 0
163 183 0
164 185 0
167 187 0
167 186 0
162 181 0
166 188 0
165 182 0
164 184 0
167 188 0
168 186 0
166 184 0
170 190 0
168 189 0
168 189 0
166 185 0
167 188 0
168 187 0
167 188 0
165 184 0
164 186 0
168 189 0
166 185 0
172 193 0
170 191 0
170 191 0
166 186 0
167 187 0
165 184 0
164 184 0
170 189 0
164 184 0
168 188 0
168 188 0
168 189 0
169 190 0
169 192 0
169 191 0
169 190 0
168 190 0
166 187 0
167 187 0
170 190 0
171 193 0
167 190 0
166 189 0
172 193 0
171 192 0
170 192 0
171 190 0
168 190 0
167 188 0
168 188 0
173 193 0
167 189 0
171 192 0
170 192 0
170 192 0
167 190 0
223 236 252
221 235 249
220 234 249
221 235 253
183 204 117
175 198 67
178 200 84
175 198 76
171 193 62
173 196 67
176 199 67
174 197 67
176 199 84
177 200 84
173 196 84
173 196 51
177 200 92
172 195 72
175 199 72
174 196 67
170 193 57
174 197 76
169 191 44
174 198 88
171 195 57
176 199 72
173 196 62
169 192 76
171 194 72
170 194 62
172 196 72
170 193 72
168 192 67
174 198 62
171 195 62
168 192 44
170 194 72
171 195 67
171 196 72
172 196 72
172 195 62
174 198 57
168 192 36
165 189 72
171 195 88
165 189 72
167 191 76
167 192 80
169 193 51
175 199 76
172 196 72
172 195 95
168 191 80
169 194 72
173 196 84
170 194 88
172 196 108
174 196 111
171 195 102
172 196 99
173 197 105
166 189 76
165 189 80
173 195 111
168 192 114
166 191 105
170 194 92
164 187 105
171 194 102
167 191 102
168 191 80
167 190 95
171 195 125
167 191 92
166 189 95
172 195 95
176 199 105
159 181 99
164 186 105
168 191 102
169 192 111
168 192 102
163 188 99
167 190 105
168 191 95
160 182 84
167 190 113
165 188 95
161 183 72
160 183 94
166 189 88
163 185 102
157 180 88
156 179 67
156 179 84
156 178 84
162 185 117
159 183 80
152 174 76
156 179 92
152 174 99
159 181 88
152 173 105
162 184 99
154 176 102
148 169 95
157 179 105
153 174 95
155 175 111
155 177 84
152 173 111
153 175 95
146 168 105
145 164 105
142 162 76
155 174 105
143 163 88
143 162 88
143 164 102
128 146 76
137 157 62
129 147 62
131 150 86
98 119 70
85 110 110
92 117 110
90 115 110
104 126 134
101 125 118
72 100 108
96 121 111
89 115 115
88 114 122
107 130 118
93 119 131
94 118 118
95 121 118
112 135 142
104 127 121
97 121 115
97 122 99
102 126 104
96 122 118
102 122 111
151 146 54
150 141 76
98 110 115
80 110 111
70 101 129
75 106 118
72 102 121
71 102 125
82 112 117
85 112 102
76 101 115
72 99 108
60 91 105
58 90 103
63 94 103
56 89 99
97 120 74
85 112 100
54 86 107
55 88 92
57 90 107
56 89 107
55 87 105
55 87 103
57 91 115
53 85 78
56 88 100
56 88 102
56 89 111
55 87 92
57 90 110
58 91 111
55 88 100
57 90 113
55 87 95
57 90 107
56 88 102
56 89 110
56 89 99
57 90 107
55 88 100
55 87 103
55 87 103
54 87 99
57 90 117
56 89 110
56 88 100
56 89 107
55 87 108
55 87 95
56 88 108
58 91 110
57 90 105
54 86 94
56 88 107
57 90 108
57 89 115
55 87 102
57 91 110
53 84 80
56 88 102
53 85 80
54 86 100
55 87 97
53 84 88
53 84 86
52 83 86
56 83 82
91 107 25
91 104 0
85 99 0
104 119 0
98 112 0
97 111 0
104 120 0
115 130 0
110 123 0
104 120 0
106 123 0
122 136 0
121 137 0
113 130 0
111 125 0
111 127 0
115 132 0
119 136 0
114 130 0
114 130 0
122 139 0
132 149 0
119 137 0
130 146 0
133 149 0
129 145 0
131 149 0
138 157 0
134 152 0
122 140 0
140 158 0
120 136 0
136 153 0
134 150 0
147 167 0
132 149 0
135 152 0
147 166 0
144 161 0
138 157 0
133 152 0
140 158 0
135 152 0
144 163 0
138 155 0
137 155 0
148 168 0
139 160 0
132 150 0
132 152 0
143 159 0
134 152 0
141 160 0
142 159 0
150 167 0
148 167 0
147 165 0
150 169 0
142 160 0
148 166 0
150 170 0
149 167 0
145 162 0
143 161 0
145 163 0
150 170 0
143 160 0
153 170 0
153 173 0
149 167 0
152 171 0
158 175 0
150 168 0
154 172 0
152 170 0
148 167 0
151 167 0
155 173 0
160 180 0
155 174 0
146 165 0
148 163 0
159 178 0
158 178 0
159 177 0
155 174 0
147 165 0
154 174 0
157 175 0
160 180 0
159 177 0
152 170 0
155 172 0
157 174 0
155 173 0
150 169 0
164 184 0
159 177 0
158 175 0
158 176 0
162 181 0
157 175 0
163 180 0
158 177 0
158 177 0
165 184 0
159 179 0
160 177 0
160 178 0
161 180 0
163 183 0
161 179 0
162 182 0
168 187 0
163 184 0
164 182 0
164 183 0
162 181 0
165 185 0
160 178 0
159 177 0
165 184 0
165 184 0
167 187 0
166 185 0
168 189 0
163 182 0
165 185 0
167 185 0
165 185 0
165 186 0
163 182 0
169 189 0
166 184 0
166 183 0
166 187 0
165 187 0
165 184 0
168 189 0
165 185 0
160 180 0
164 184 0
164 183 0
166 186 0
166 186 0
169 190 0
169 190 0
170 189 0
164 182 0
168 188 0
166 187 0
166 187 0
167 189 0
168 189 0
168 188 0
167 188 0
166 188 0
168 188 0
169 190 0
167 187 0
168 188 0
165 185 0
169 190 0
169 189 0
170 192 0
171 193 0
168 188 0
171 192 0
167 188 0
170 192 0
171 191 0
167 187 0
172 193 0
170 190 0
169 190 0
172 193 0
170 193 0
170 192 0
171 194 0
168 190 0
170 191 0
170 191 0
172 193 0
172 194 0
170 193 0
168 191 0
171 194 0
171 193 0
223 236 250
222 235 250
219 233 246
214 229 236
178 201 88
178 200 76
175 198 57
178 200 57
175 198 67
173 196 72
174 196 72
172 196 76
173 196 57
175 198 95
178 201 88
174 197 72
173 197 51
176 199 84
173 196 95
173 196 72
174 197 72
173 196 72
171 195 62
174 196 88
172 195 67
171 195 76
172 196 67
172 194 67
164 189 72
172 195 57
172 196 76
173 197 67
169 193 67
174 198 67
173 196 80
172 196 88
170 194 72
172 196 105
170 194 99
171 194 80
172 196 84
168 192 72
170 194 67
171 195 62
171 196 95
170 194 67
168 193 99
169 193 67
172 196 102
174 198 111
175 198 92
170 194 76
168 191 84
172 196 67
170 193 84
168 192 76
172 195 99
168 191 67
172 195 92
169 193 88
173 196 114
172 195 92
174 197 120
169 193 105
170 193 95
167 192 105
167 191 88
168 192 76
167 190 88
172 195 122
170 194 84
165 188 108
164 186 105
168 191 105
171 194 108
172 195 92
168 191 102
158 181 88
162 185 80
167 190 80
168 191 102
166 189 111
170 193 99
170 193 117
162 185 92
159 181 92
167 189 94
161 184 95
166 190 88
159 181 108
165 187 88
159 182 78
163 185 92
166 188 105
156 178 92
166 188 95
169 192 111
161 183 102
161 183 108
163 186 108
158 180 102
159 181 122
147 168 92
164 184 102
154 175 99
158 180 95
155 176 72
155 177 105
160 181 95
152 172 99
153 173 99
151 171 105
149 170 84
148 168 99
147 167 84
142 162 80
153 173 92
136 155 92
142 161 95
140 160 102
135 154 72
129 148 72
128 147 72
131 149 72
111 132 103
85 109 88
96 121 110
91 115 107
99 122 118
90 116 104
77 103 101
93 118 129
88 113 107
93 117 121
87 112 107
102 126 114
93 118 120
96 122 125
101 127 111
105 130 128
112 137 114
104 128 110
86 114 118
88 115 107
163 178 65
162 170 47
154 161 47
81 106 108
64 96 118
75 106 117
76 105 115
83 111 111
77 106 111
74 104 114
76 103 110
78 103 105
62 92 108
60 91 108
59 91 107
57 88 99
83 108 84
92 117 95
53 85 95
54 87 88
55 88 88
56 88 100
55 88 92
55 88 95
54 87 78
55 87 90
55 88 107
54 87 92
55 87 88
57 90 110
55 87 103
56 89 94
56 88 100
56 88 107
57 91 103
58 91 110
55 87 102
54 87 90
56 89 97
56 88 103
56 90 105
56 88 97
57 90 105
54 86 102
57 90 100
55 88 94
57 89 113
56 88 95
54 86 97
56 89 108
54 86 94
54 86 90
55 87 97
54 86 99
54 86 100
55 88 99
55 86 105
54 86 90
53 84 76
55 87 95
55 87 94
54 87 88
56 88 97
54 85 95
54 85 82
68 93 74
91 110 51
96 110 0
101 115 0
99 113 0
105 120 0
102 117 0
107 123 0
112 128 0
100 115 0
121 135 0
117 133 0
109 127 0
107 121 0
99 115 0
104 119 0
105 121 0
116 131 0
116 133 0
110 125 0
123 140 0
121 137 0
130 148 0
126 142 0
123 139 0
124 141 0
127 146 0
115 131 0
128 146 0
126 144 0
135 152 0
129 144 0
120 138 0
130 148 0
132 149 0
133 149 0
141 160 0
132 148 0
130 148 0
138 155 0
132 151 0
133 151 0
140 159 0
135 153 0
139 158 0
143 161 0
142 163 0
139 154 0
151 169 0
136 154 0
141 159 0
138 157 0
127 144 0
144 162 0
143 161 0
155 173 0
144 161 0
143 160 0
145 163 0
148 166 0
141 157 0
147 163 0
148 166 0
150 166 0
154 174 0
147 164 0
150 169 0
152 170 0
153 172 0
144 162 0
148 168 0
154 174 0
145 163 0
152 170 0
154 172 0
152 172 0
150 168 0
153 171 0
151 169 0
157 175 0
156 175 0
155 173 0
158 178 0
153 170 0
156 176 0
153 172 0
152 170 0
153 170 0
160 179 0
164 184 0
156 175 0
151 168 0
155 172 0
159 177 0
159 177 0
147 165 0
159 178 0
162 183 0
154 173 0
156 175 0
164 182 0
154 170 0
157 177 0
161 179 0
161 180 0
158 177 0
156 176 0
165 183 0
158 176 0
166 186 0
164 183 0
163 181 0
160 181 0
160 179 0
157 175 0
162 182 0
163 182 0
156 175 0
164 183 0
157 175 0
164 184 0
162 180 0
165 184 0
164 183 0
159 176 0
168 186 0
162 181 0
167 187 0
166 185 0
165 185 0
171 191 0
165 185 0
165 183 0
161 178 0
165 185 0
162 182 0
167 186 0
161 182 0
165 185 0
165 186 0
167 186 0
166 185 0
169 189 0
165 186 0
166 185 0
164 185 0
168 190 0
169 189 0
167 188 0
164 183 0
168 190 0
169 189 0
165 185 0
166 186 0
170 192 0
170 190 0
166 187 0
168 187 0
171 191 0
171 192 0
165 183 0
163 184 0
169 190 0
166 188 0
166 187 0
165 186 0
169 192 0
168 190 0
170 192 0
170 192 0
166 187 0
168 188 0
168 189 0
168 189 0
164 185 0
167 188 0
170 192 0
168 190 0
168 188 0
170 190 0
171 192 0
170 191 0
169 191 0
171 193 0
171 193 0
170 191 0
167 189 0
171 194 0
170 192 0
168 192 0
171 192 0
223 236 250
223 236 252
221 235 250
198 216 182
178 201 84
175 197 67
176 200 62
175 198 76
171 194 67
172 195 57
173 196 67
171 195 62
176 199 80
171 194 67
171 194 67
177 200 80
175 198 72
176 199 88
173 196 67
173 197 67
174 196 67
173 196 67
176 199 67
174 198 62
172 195 72
168 191 72
176 199 72
164 188 62
168 191 62
172 196 80
172 196 72
169 192 57
169 193 67
169 192 67
170 195 76
168 192 84
174 197 51
169 193 72
170 194 67
171 196 76
174 198 88
174 198 76
166 190 72
173 197 76
170 193 88
168 191 76
170 193 80
168 193 67
171 195 84
169 192 80
169 193 105
166 190 80
172 195 84
172 195 120
173 197 99
172 194 108
175 198 102
166 192 102
171 194 92
174 197 105
169 192 62
174 196 88
176 199 122
168 191 88
167 190 80
168 191 88
170 193 84
170 193 80
172 195 88
167 189 95
168 190 72
172 196 92
170 194 102
174 197 76
171 194 114
172 196 95
171 194 99
168 190 111
167 190 92
174 197 102
165 189 84
172 194 130
164 187 76
158 181 108
163 186 105
153 176 74
160 183 102
162 185 103
164 187 99
159 183 117
158 182 103
164 187 92
155 177 84
161 184 99
164 187 95
157 179 102
158 180 105
149 172 88
158 180 95
155 177 92
160 183 114
154 177 108
157 178 128
155 177 95
157 180 84
155 177 76
154 176 92
147 168 102
152 172 92
145 166 88
147 168 84
145 165 99
157 177 111
151 171 102
143 163 84
149 170 80
148 168 99
141 161 72
136 154 80
139 157 84
143 162 76
137 156 62
133 151 80
129 148 72
128 146 62
108 129 100
88 113 113
87 113 110
82 106 111
95 119 124
75 102 99
96 119 98
95 119 118
105 129 126
106 129 139
98 121 120
109 131 129
89 113 120
95 121 129
94 119 114
101 125 115
99 124 99
103 126 111
94 119 129
148 167 76
171 184 72
157 162 18
119 129 70
70 100 124
78 107 114
78 108 118
79 107 105
74 102 113
73 102 122
72 98 103
73 100 103
76 100 100
70 96 88
59 91 108
63 94 107
82 105 78
87 111 92
59 90 99
55 87 88
52 83 92
56 90 100
54 86 95
56 89 95
55 88 86
52 83 82
55 88 102
53 84 82
54 86 97
56 89 89
54 86 88
57 90 108
56 89 108
56 89 108
56 88 95
57 90 90
56 89 100
55 87 98
52 83 84
54 86 94
53 85 99
56 88 114
56 89 108
54 86 100
55 87 99
54 86 100
56 88 97
56 88 103
57 90 105
55 88 99
54 85 92
55 87 110
55 87 97
56 88 103
53 85 90
54 85 86
55 86 97
52 83 80
54 85 97
54 86 92
55 88 100
50 81 80
51 82 80
67 90 60
94 110 25
78 91 0
94 110 0
95 110 0
107 125 0
92 106 0
112 129 0
110 126 0
104 119 0
107 124 0
95 110 0
109 124 0
115 130 0
118 134 0
112 129 0
127 141 0
127 144 0
105 121 0
119 134 0
119 138 0
116 135 0
114 128 0
108 123 0
122 137 0
129 145 0
110 125 0
127 144 0
126 144 0
129 147 0
137 154 0
132 147 0
136 156 0
131 148 0
132 151 0
132 148 0
127 144 0
115 131 0
129 146 0
135 152 0
129 148 0
137 154 0
132 148 0
135 153 0
138 155 0
138 156 0
142 161 0
137 154 0
134 154 0
136 156 0
143 161 0
148 168 0
139 158 0
140 159 0
140 159 0
132 150 0
147 167 0
146 166 0
144 161 0
148 166 0
145 165 0
144 161 0
148 167 0
153 171 0
139 158 0
146 165 0
146 164 0
156 176 0
150 168 0
150 169 0
151 168 0
151 171 0
155 174 0
152 171 0
145 162 0
153 172 0
152 172 0
151 169 0
155 174 0
151 169 0
156 175 0
154 172 0
147 164 0
152 171 0
151 169 0
153 174 0
155 173 0
150 169 0
162 183 0
162 179 0
161 179 0
158 175 0
155 173 0
158 176 0
155 174 0
157 177 0
155 172 0
154 173 0
154 170 0
158 178 0
160 179 0
155 172 0
158 177 0
162 182 0
154 173 0
156 175 0
160 178 0
159 178 0
159 180 0
165 184 0
159 177 0
158 177 0
160 178 0
164 183 0
159 178 0
162 179 0
159 176 0
157 176 0
166 188 0
162 178 0
164 183 0
166 186 0
164 183 0
164 183 0
167 184 0
164 183 0
160 179 0
165 184 0
164 182 0
162 181 0
165 186 0
165 187 0
165 186 0
165 182 0
165 183 0
166 185 0
163 184 0
167 188 0
162 178 0
165 185 0
170 190 0
162 182 0
167 188 0
165 183 0
165 183 0
169 189 0
166 186 0
166 184 0
168 188 0
171 192 0
167 188 0
167 187 0
163 184 0
166 188 0
167 187 0
164 184 0
166 186 0
168 187 0
165 186 0
164 184 0
166 185 0
166 187 0
169 189 0
162 184 0
168 189 0
169 191 0
168 191 0
164 184 0
166 187 0
170 191 0
167 188 0
164 184 0
168 190 0
168 188 0
168 190 0
169 191 0
167 187 0
171 192 0
169 191 0
167 188 0
171 192 0
171 192 0
170 189 0
171 193 0
170 192 0
166 188 0
168 189 0
172 194 0
169 190 0
171 193 0
171 193 0
170 191 0
170 192 0
223 236 249
222 235 252
219 233 246
190 210 137
177 200 72
175 198 84
177 199 72
175 198 72
172 195 62
174 197 62
177 200 76
177 200 99
173 196 72
173 196 67
171 194 44
171 194 67
171 194 80
173 197 76
176 199 84
171 194 80
172 195 76
172 195 67
172 196 62
172 196 76
170 194 80
172 195 76
168 191 44
171 194 80
169 192 57
171 194 51
174 198 80
170 194 57
174 197 72
173 196 72
168 192 67
169 193 62
168 192 62
169 193 72
170 195 80
169 193 88
168 193 72
171 195 88
169 192 76
170 194 57
171 195 76
168 191 88
170 194 92
173 196 80
170 193 76
174 197 84
174 197 102
167 191 99
174 197 117
173 196 108
171 194 108
174 197 105
174 197 99
169 193 108
173 196 108
172 196 95
173 197 108
172 196 99
169 192 76
161 183 62
167 189 105
176 199 111
171 194 88
169 193 92
170 193 102
170 193 88
170 194 111
168 190 92
169 193 95
164 187 105
170 193 105
167 191 92
171 194 92
170 192 108
167 190 88
164 188 99
168 191 84
164 187 92
168 192 108
167 192 84
161 184 111
161 184 103
160 184 76
166 189 114
166 189 88
156 180 102
163 185 103
160 182 84
155 179 95
162 184 92
163 185 114
163 185 88
154 177 80
161 183 92
164 186 92
164 185 111
153 175 92
156 178 99
151 172 76
149 171 88
150 170 102
149 170 84
152 173 105
160 181 84
147 168 95
160 181 108
148 168 80
154 175 95
148 169 92
150 170 88
139 160 108
148 169 92
130 149 80
144 164 80
132 151 76
146 165 95
133 150 92
146 164 84
136 155 72
122 140 57
134 152 84
129 148 72
101 117 76
94 118 118
79 103 80
81 107 111
97 121 107
80 106 99
91 116 108
97 120 102
85 110 113
99 122 125
98 122 118
97 121 115
99 123 113
104 128 114
102 127 115
106 129 118
86 113 94
93 118 115
135 156 95
166 179 65
156 167 25
145 149 18
116 128 76
65 97 103
82 112 114
73 103 108
82 107 107
62 94 110
78 106 110
83 107 110
75 100 99
67 96 100
56 88 102
53 85 90
77 101 70
92 115 67
61 89 85
51 82 88
53 84 81
51 82 76
56 89 104
55 88 95
52 83 85
53 85 88
54 86 90
54 86 82
55 87 88
52 84 84
55 87 100
57 89 111
53 85 86
55 87 97
55 87 97
54 86 82
56 89 118
53 85 95
55 87 99
54 86 78
54 86 97
56 89 95
55 87 100
56 89 100
55 87 105
54 87 86
55 87 108
55 88 102
56 89 100
54 85 99
55 88 94
55 87 94
55 87 99
53 84 92
52 83 82
54 86 82
53 84 99
52 83 88
53 84 92
55 87 94
61 87 74
77 97 62
94 107 18
100 112 0
93 107 0
101 116 0
86 101 0
89 104 0
101 117 0
109 123 0
104 120 0
112 128 0
92 106 0
110 126 0
113 130 0
120 136 0
116 134 0
108 122 0
116 132 0
117 134 0
120 137 0
115 133 0
133 150 0
120 139 0
131 150 0
122 139 0
128 146 0
127 144 0
116 134 0
132 150 0
128 145 0
131 147 0
128 145 0
122 140 0
134 150 0
131 148 0
138 158 0
132 150 0
124 141 0
138 155 0
128 147 0
133 152 0
141 158 0
136 153 0
144 163 0
126 145 0
148 167 0
145 165 0
143 160 0
151 169 0
146 166 0
140 159 0
140 159 0
142 159 0
136 153 0
130 147 0
132 149 0
135 153 0
152 170 0
151 168 0
136 155 0
141 159 0
149 168 0
145 163 0
143 162 0
148 167 0
148 167 0
140 157 0
149 166 0
158 178 0
148 168 0
141 158 0
156 175 0
145 163 0
151 170 0
145 161 0
157 176 0
150 167 0
154 171 0
151 168 0
162 182 0
159 177 0
154 174 0
148 167 0
155 174 0
150 168 0
157 177 0
153 170 0
154 174 0
152 170 0
152 170 0
149 167 0
159 180 0
154 172 0
156 172 0
154 173 0
163 182 0
156 175 0
161 182 0
162 182 0
160 181 0
157 177 0
159 179 0
158 177 0
159 178 0
160 178 0
164 184 0
164 182 0
160 180 0
163 183 0
157 178 0
159 177 0
156 175 0
163 183 0
163 182 0
162 181 0
159 178 0
161 180 0
160 179 0
151 169 0
165 186 0
163 182 0
164 183 0
157 176 0
165 184 0
165 182 0
167 186 0
164 184 0
165 187 0
166 185 0
161 182 0
163 182 0
164 185 0
162 181 0
162 182 0
165 184 0
165 184 0
163 180 0
166 187 0
168 188 0
165 187 0
168 189 0
167 188 0
167 188 0
163 183 0
166 188 0
166 187 0
167 189 0
166 185 0
163 184 0
168 191 0
162 184 0
167 188 0
169 189 0
166 188 0
168 189 0
168 190 0
168 189 0
170 193 0
163 182 0
169 191 0
168 189 0
169 188 0
165 187 0
169 190 0
168 189 0
167 189 0
166 188 0
165 186 0
168 190 0
167 187 0
168 189 0
168 190 0
172 192 0
167 187 0
171 191 0
167 189 0
171 193 0
171 192 0
171 192 0
173 194 0
170 192 0
171 193 0
166 187 0
171 193 0
169 190 0
170 191 0
169 189 0
171 192 0
171 194 0
169 192 0
168 190 0
168 189 0
169 190 0
171 193 0
169 191 0
220 234 244
222 236 253
216 231 238
178 200 95
174 196 76
174 196 67
175 198 67
174 197 62
174 197 72
176 198 57
176 199 76
173 196 72
175 198 72
174 198 72
172 195 88
172 195 67
175 198 62
172 195 62
170 193 57
171 194 67
174 197 80
171 194 62
172 195 62
172 195 72
171 194 62
171 194 76
171 195 84
173 196 92
174 197 76
165 189 51
177 201 108
171 195 51
172 196 84
170 194 72
172 196 92
170 194 67
170 195 67
170 193 57
169 193 51
169 194 80
168 193 80
170 194 72
167 190 62
170 194 95
172 196 80
168 192 92
172 196 120
172 196 57
169 194 88
172 196 80
174 196 117
172 196 84
173 196 95
174 197 114
170 193 111
174 198 105
167 190 92
174 197 92
167 192 84
166 190 92
173 197 125
172 194 105
170 194 111
165 188 84
170 193 95
166 190 108
164 187 76
170 193 105
165 188 88
168 192 92
165 188 92
161 184 95
167 191 114
168 191 111
171 195 102
168 192 102
162 185 88
167 190 67
167 190 99
169 192 105
164 187 88
161 185 76
158 182 88
161 185 95
165 188 95
158 181 95
160 183 102
165 188 108
159 182 103
161 183 84
160 183 94
157 180 67
161 185 78
163 185 121
158 181 95
164 187 107
163 186 105
165 187 111
148 170 80
160 182 88
163 185 102
159 182 105
162 184 102
158 180 114
162 184 92
156 176 99
154 176 88
162 184 114
160 180 108
158 180 80
162 184 111
145 165 95
147 167 84
145 165 99
155 175 108
141 161 80
155 174 111
140 161 84
144 164 102
129 148 67
127 146 84
129 148 67
135 154 72
116 135 57
140 158 67
125 142 84
105 121 51
129 148 88
90 114 102
91 114 102
88 112 108
102 125 107
87 111 110
90 115 102
86 112 120
91 115 110
88 114 105
113 135 120
97 122 113
100 125 100
97 121 97
105 127 98
103 125 114
95 119 117
127 146 90
167 181 72
152 161 18
150 160 18
150 160 0
103 119 80
64 96 111
71 100 105
81 108 114
69 101 105
75 100 100
76 102 88
78 104 92
82 107 88
64 93 102
59 89 88
97 117 57
101 123 78
83 108 67
50 80 81
53 85 97
54 85 80
54 86 82
53 85 86
55 87 92
57 89 107
50 81 72
54 86 90
54 86 92
51 82 80
54 85 95
54 86 94
55 87 90
54 86 79
55 87 88
57 90 105
54 86 88
53 85 100
52 82 80
54 86 94
53 85 88
53 85 94
54 86 94
55 87 92
54 86 90
54 86 98
55 88 88
54 86 86
53 85 92
53 84 88
50 81 82
52 83 88
53 85 86
53 85 88
54 85 94
51 81 82
48 76 76
48 76 84
72 92 67
84 100 31
95 110 0
101 115 0
97 111 0
82 96 0
101 116 0
99 114 0
97 111 0
96 109 0
110 126 0
110 126 0
115 131 0
94 109 0
105 121 0
114 130 0
107 122 0
103 121 0
119 135 0
121 138 0
108 124 0
117 133 0
123 140 0
122 141 0
106 123 0
129 147 0
116 132 0
131 150 0
129 146 0
127 146 0
127 142 0
132 151 0
126 144 0
131 149 0
130 148 0
122 140 0
137 154 0
131 150 0
140 158 0
141 159 0
130 147 0
125 145 0
140 158 0
140 159 0
130 149 0
144 162 0
133 153 0
143 160 0
143 161 0
140 158 0
140 158 0
136 152 0
138 155 0
137 154 0
138 158 0
149 167 0
145 163 0
148 168 0
146 165 0
142 161 0
151 169 0
152 170 0
148 167 0
147 166 0
146 164 0
150 168 0
153 173 0
148 166 0
147 166 0
148 167 0
151 168 0
153 172 0
148 166 0
153 172 0
150 170 0
149 166 0
150 168 0
153 172 0
148 167 0
150 170 0
156 174 0
151 171 0
156 174 0
151 168 0
154 174 0
149 168 0
157 177 0
152 168 0
151 170 0
159 179 0
158 177 0
155 170 0
158 178 0
158 177 0
153 171 0
155 174 0
158 177 0
160 181 0
161 181 0
157 174 0
160 176 0
154 172 0
155 174 0
160 180 0
155 174 0
165 185 0
159 176 0
163 184 0
161 179 0
155 173 0
161 181 0
161 182 0
166 183 0
159 177 0
161 180 0
162 182 0
155 173 0
164 181 0
166 184 0
160 181 0
165 186 0
165 186 0
159 178 0
163 184 0
165 183 0
159 180 0
169 190 0
162 180 0
165 185 0
163 182 0
162 180 0
165 186 0
166 185 0
169 188 0
165 184 0
165 187 0
161 180 0
165 187 0
166 188 0
168 189 0
169 191 0
164 184 0
167 187 0
168 190 0
164 184 0
161 179 0
164 185 0
165 185 0
165 186 0
164 183 0
167 188 0
163 183 0
164 181 0
167 188 0
172 191 0
169 189 0
164 186 0
163 183 0
169 190 0
168 187 0
170 189 0
166 186 0
168 189 0
166 184 0
166 186 0
168 189 0
170 192 0
168 188 0
165 187 0
171 192 0
170 191 0
168 189 0
171 193 0
168 190 0
166 187 0
166 188 0
170 193 0
169 189 0
169 190 0
167 187 0
170 192 0
168 191 0
168 190 0
166 187 0
170 192 0
171 192 0
169 190 0
169 190 0
169 189 0
169 191 0
172 195 0
170 192 0
171 192 0
168 190 0
169 192 0
170 191 0
173 195 0
169 191 0
224 237 253
221 235 246
208 225 215
176 199 88
178 200 92
175 198 72
175 197 76
176 199 88
173 196 76
177 200 92
171 194 80
174 196 62
175 197 88
174 197 72
175 198 95
176 199 72
172 195 76
171 194 80
171 194 80
175 199 84
176 198 72
176 199 76
173 197 80
170 193 57
177 200 95
172 195 67
175 199 88
174 198 51
170 194 92
174 197 88
175 198 88
172 197 99
170 194 80
172 196 80
172 196 80
168 192 72
171 195 84
171 195 57
166 190 80
173 197 67
168 192 80
171 194 88
169 193 105
174 197 76
175 198 84
170 193 67
173 197 84
174 198 88
172 195 105
176 200 102
175 198 92
170 194 76
169 192 99
175 197 111
169 192 95
169 192 105
171 194 102
172 195 122
166 189 102
167 191 88
172 195 95
171 194 108
170 192 92
169 192 99
168 192 84
170 194 111
168 191 62
167 190 95
165 189 99
169 193 105
166 189 84
170 194 122
175 198 108
168 191 95
163 187 76
163 187 95
168 191 95
162 185 111
165 188 108
166 189 88
166 190 114
165 189 102
164 187 95
167 190 90
159 182 90
166 190 111
156 179 76
165 188 97
160 182 99
155 178 84
162 185 95
164 187 102
161 184 95
156 179 84
155 177 103
156 178 92
158 181 84
161 184 88
158 180 92
155 177 105
163 184 117
153 176 95
157 179 99
148 169 105
160 181 88
151 172 95
164 185 92
154 175 92
156 176 102
163 184 102
150 171 102
149 171 92
144 163 92
147 167 102
148 168 99
161 182 142
143 163 111
151 170 92
144 164 108
130 148 84
129 148 62
135 154 62
135 154 102
131 151 76
128 146 62
121 139 67
124 141 72
133 149 84
118 134 90
95 117 100
95 118 105
107 128 124
83 108 110
88 113 86
88 113 103
87 111 108
107 128 125
89 113 102
104 127 114
104 128 100
96 121 100
90 115 95
101 126 110
91 116 102
104 126 110
159 172 47
157 165 18
158 166 18
147 156 0
137 149 25
101 122 95
68 99 107
76 104 105
72 100 105
73 101 105
75 100 88
76 103 95
82 107 82
72 98 80
63 93 92
90 110 65
74 99 76
93 116 71
51 82 65
51 82 76
53 84 70
53 85 86
53 85 82
51 81 72
53 85 78
53 85 88
52 84 86
56 89 99
53 84 78
55 88 86
55 87 92
56 89 107
53 84 88
53 84 78
56 88 92
54 86 88
53 84 88
55 87 97
52 83 88
52 83 84
50 79 80
53 84 100
50 81 72
54 85 84
53 84 92
53 84 94
50 80 78
52 83 78
53 84 88
50 80 80
53 84 92
51 81 80
51 82 80
58 85 70
77 95 40
83 100 44
88 100 0
112 127 0
93 107 0
92 107 0
81 97 0
93 110 0
95 109 0
102 117 0
87 102 0
100 115 0
109 126 0
100 115 0
106 123 0
117 134 0
104 119 0
114 130 0
121 137 0
99 116 0
112 130 0
104 121 0
102 119 0
112 128 0
121 138 0
120 136 0
126 143 0
124 142 0
129 147 0
113 130 0
121 139 0
127 145 0
115 132 0
124 142 0
123 142 0
128 145 0
134 151 0
132 151 0
126 143 0
125 144 0
135 153 0
133 151 0
125 144 0
127 144 0
141 160 0
124 143 0
142 162 0
137 155 0
148 166 0
139 158 0
135 152 0
141 160 0
133 151 0
144 161 0
141 159 0
142 160 0
137 155 0
147 165 0
142 162 0
147 166 0
139 156 0
141 158 0
147 167 0
145 165 0
146 163 0
149 167 0
153 173 0
143 162 0
139 157 0
146 164 0
149 168 0
152 172 0
148 168 0
148 165 0
141 161 0
148 165 0
144 164 0
151 170 0
153 174 0
153 172 0
155 173 0
155 172 0
154 173 0
162 182 0
142 163 0
150 169 0
154 173 0
153 171 0
154 174 0
160 180 0
151 169 0
151 170 0
154 173 0
159 177 0
159 176 0
155 176 0
154 173 0
152 169 0
156 176 0
157 174 0
155 174 0
157 177 0
157 177 0
156 176 0
154 173 0
157 173 0
157 177 0
158 177 0
159 178 0
161 180 0
158 177 0
152 169 0
164 184 0
160 178 0
163 182 0
160 178 0
166 185 0
156 175 0
163 182 0
163 182 0
165 184 0
161 182 0
162 180 0
163 181 0
162 180 0
159 177 0
164 184 0
165 185 0
162 183 0
162 181 0
166 188 0
158 176 0
162 183 0
168 188 0
164 184 0
164 183 0
166 186 0
167 186 0
168 188 0
164 184 0
165 185 0
162 182 0
165 185 0
166 186 0
163 185 0
165 184 0
166 186 0
168 188 0
165 186 0
169 191 0
164 184 0
164 185 0
164 186 0
167 186 0
166 189 0
168 187 0
168 189 0
171 192 0
168 188 0
169 187 0
169 190 0
165 187 0
165 187 0
166 186 0
170 191 0
168 188 0
172 194 0
165 186 0
170 190 0
163 184 0
168 187 0
166 188 0
170 191 0
166 189 0
168 187 0
165 187 0
169 191 0
170 191 0
168 190 0
166 188 0
165 188 0
170 192 0
171 192 0
170 190 0
173 192 0
171 192 0
169 190 0
171 192 0
172 191 0
167 190 0
169 190 0
167 189 0
168 189 0
170 192 0
168 190 0
166 188 0
168 190 0
170 191 0
171 193 0
174 195 0
168 189 0
223 236 252
222 235 250
193 211 165
177 200 76
174 197 76
175 198 95
175 198 51
176 199 76
172 196 25
171 194 62
175 197 67
177 200 80
173 196 51
175 197 84
172 195 88
175 198 57
172 195 88
175 198 95
171 195 72
173 196 80
174 197 88
173 196 72
176 199 92
173 196 57
169 193 80
170 193 72
168 191 62
170 194 72
171 195 62
171 195 57
171 195 51
171 195 92
168 192 88
173 197 92
170 194 62
169 193 76
170 193 76
169 193 76
174 197 76
171 195 72
171 194 92
176 199 84
171 194 102
174 198 102
173 196 84
173 197 92
173 196 95
172 195 102
176 199 105
172 196 92
173 196 92
173 196 99
175 198 95
172 195 102
164 188 84
172 195 99
171 194 88
170 194 102
173 197 80
171 194 108
167 191 92
171 194 84
171 194 95
173 195 111
172 195 128
170 193 99
168 192 108
166 190 102
172 195 102
172 196 111
163 187 95
163 187 84
163 187 84
173 197 105
167 191 108
166 189 67
169 192 122
163 186 95
170 194 99
164 188 76
166 188 92
163 186 80
166 189 92
167 190 95
169 191 125
166 189 97
164 187 99
163 186 97
158 181 90
163 186 117
159 182 97
159 182 94
166 188 108
156 179 86
151 174 70
161 183 95
163 185 102
161 183 84
161 183 102
158 180 102
149 170 80
160 182 105
156 179 80
156 178 88
155 176 117
152 174 88
156 178 95
156 178 95
152 173 76
145 165 95
155 176 102
155 175 111
146 166 80
151 170 92
141 161 102
154 174 105
157 176 108
152 172 114
148 167 102
136 154 102
143 163 95
144 163 80
138 157 92
135 154 67
128 147 80
126 144 67
120 139 51
114 131 57
126 143 72
132 150 76
111 129 102
101 124 111
102 124 115
101 124 114
100 123 111
104 126 118
103 126 134
105 127 120
94 119 113
93 120 107
102 124 97
104 128 107
100 125 99
106 128 110
107 129 100
155 173 44
160 175 25
153 164 18
148 158 25
144 158 31
136 152 25
82 109 100
74 104 103
77 105 100
85 110 94
86 110 84
81 105 97
76 101 82
75 101 86
70 97 88
87 108 67
93 114 65
86 110 65
80 101 60
67 90 60
62 88 82
50 81 70
53 84 88
50 79 76
51 82 80
52 82 78
51 81 84
51 81 85
52 84 80
53 85 96
54 86 100
52 82 82
55 87 92
52 83 82
52 82 84
53 84 82
53 85 90
53 84 74
56 88 88
51 81 76
54 86 88
51 82 67
53 84 92
51 82 88
52 82 86
52 83 86
51 81 76
51 82 76
53 84 84
68 91 78
56 78 62
70 88 40
92 106 0
85 98 0
87 102 0
83 99 0
98 112 0
89 102 0
104 118 0
102 118 0
93 106 0
94 109 0
107 120 0
103 118 0
103 119 0
91 106 0
100 115 0
110 127 0
100 117 0
112 129 0
113 129 0
122 139 0
113 129 0
117 135 0
116 133 0
120 138 0
132 150 0
124 142 0
129 145 0
123 140 0
129 145 0
127 144 0
132 149 0
128 145 0
126 143 0
119 137 0
122 139 0
120 138 0
120 136 0
133 150 0
131 149 0
121 136 0
136 156 0
131 149 0
129 148 0
144 160 0
137 156 0
133 150 0
134 150 0
133 151 0
135 154 0
142 159 0
144 161 0
127 145 0
138 155 0
149 169 0
142 160 0
137 154 0
148 166 0
142 161 0
138 157 0
135 153 0
146 165 0
139 158 0
140 158 0
142 160 0
140 158 0
139 159 0
148 167 0
153 173 0
145 163 0
148 168 0
147 165 0
151 170 0
146 164 0
153 169 0
152 171 0
152 171 0
145 165 0
150 167 0
154 173 0
142 160 0
152 172 0
152 171 0
153 173 0
153 173 0
155 176 0
159 179 0
154 172 0
155 175 0
156 174 0
155 176 0
154 171 0
155 174 0
147 166 0
152 171 0
151 171 0
157 176 0
154 174 0
158 176 0
158 177 0
157 176 0
154 172 0
160 181 0
156 176 0
154 171 0
157 175 0
159 179 0
160 179 0
162 180 0
160 179 0
158 177 0
159 177 0
156 174 0
158 178 0
164 186 0
164 182 0
154 174 0
162 182 0
162 180 0
164 183 0
161 181 0
164 186 0
161 181 0
167 186 0
168 189 0
160 178 0
168 188 0
162 182 0
163 182 0
160 180 0
163 182 0
165 185 0
162 182 0
161 181 0
163 183 0
162 181 0
161 180 0
165 186 0
159 179 0
166 184 0
162 182 0
163 184 0
166 186 0
166 185 0
162 180 0
167 189 0
166 186 0
163 184 0
166 187 0
165 186 0
165 184 0
169 191 0
167 187 0
166 187 0
166 187 0
166 185 0
168 187 0
163 183 0
168 188 0
164 186 0
165 186 0
165 185 0
167 189 0
168 189 0
169 190 0
164 185 0
168 189 0
166 187 0
171 192 0
168 188 0
169 194 0
166 187 0
167 188 0
168 188 0
164 186 0
169 190 0
168 188 0
165 186 0
166 186 0
167 189 0
168 190 0
168 191 0
169 190 0
170 193 0
169 190 0
173 195 0
167 188 0
169 189 0
166 187 0
171 192 0
169 191 0
171 191 0
169 191 0
173 194 0
170 192 0
170 192 0
171 192 0
171 192 0
167 189 0
174 194 0
169 192 0
169 190 0
169 191 0
169 190 0
223 236 250
222 236 250
183 205 111
176 199 72
176 199 72
176 199 92
175 198 76
176 198 76
177 199 88
175 198 76
174 197 72
173 197 76
176 199 67
177 199 67
175 198 80
173 196 76
171 194 80
174 197 88
174 197 80
174 196 92
172 196 72
174 197 80
171 195 72
173 196 80
172 195 67
168 191 57
168 191 67
174 197 72
172 196 88
171 194 92
171 195 67
174 198 80
172 196 84
170 193 36
170 193 44
167 191 72
172 196 80
172 196 62
168 192 72
168 192 67
173 196 95
174 197 88
171 195 84
171 194 92
169 192 92
176 199 128
168 191 95
174 196 95
174 197 95
177 200 122
173 195 108
169 192 88
172 195 111
174 196 114
171 196 95
172 194 105
174 198 114
168 192 99
168 191 92
170 193 114
172 195 108
174 198 114
165 189 84
164 188 99
171 193 99
168 191 72
167 189 95
173 196 105
165 188 80
171 195 95
167 190 80
171 194 84
164 187 114
166 189 84
167 191 95
164 187 117
171 195 105
166 190 108
166 190 105
162 185 99
161 184 102
166 189 88
162 186 102
164 188 114
160 183 80
166 189 88
169 192 108
157 180 97
165 188 95
158 182 103
167 190 90
166 189 92
158 182 100
165 187 102
164 186 105
154 177 102
152 174 80
157 178 92
158 180 88
152 174 84
158 180 117
160 181 95
161 183 111
157 179 95
151 172 95
156 178 99
160 181 111
149 170 99
159 179 102
147 167 80
152 173 88
150 171 102
150 169 102
154 174 105
152 171 99
138 159 72
144 163 99
148 167 99
148 167 108
143 162 99
148 167 102
142 161 108
137 156 88
146 164 102
129 147 88
118 135 76
126 142 67
129 147 67
136 153 72
109 125 62
118 134 80
107 125 97
88 112 102
79 104 94
99 119 115
97 120 111
104 125 110
87 111 97
98 123 111
103 126 105
86 113 102
96 120 103
94 119 82
102 125 90
106 128 100
138 154 62
155 170 18
148 163 25
146 156 0
146 164 36
137 153 0
125 142 40
78 106 113
68 98 111
71 97 105
75 103 95
79 100 97
88 111 80
67 95 78
80 101 72
98 115 40
106 127 67
96 120 78
98 114 0
89 104 0
86 100 0
95 110 31
78 96 25
63 84 47
56 79 65
59 82 60
49 75 54
55 83 62
51 82 76
49 78 67
52 82 85
52 82 65
50 81 70
53 84 87
52 82 86
51 82 84
51 82 80
51 81 67
48 78 65
52 83 72
52 83 80
55 85 76
47 75 72
55 81 60
49 76 76
78 97 65
77 96 31
94 111 44
86 99 0
75 87 0
90 104 0
91 105 0
104 119 0
89 103 0
91 105 0
94 107 0
92 107 0
101 117 0
93 109 0
98 114 0
94 108 0
104 118 0
113 130 0
114 130 0
100 117 0
102 118 0
106 121 0
107 123 0
113 129 0
109 125 0
118 134 0
115 132 0
115 130 0
113 129 0
108 126 0
117 134 0
116 135 0
123 141 0
115 133 0
116 132 0
122 138 0
124 143 0
119 137 0
127 144 0
125 140 0
126 144 0
119 136 0
120 139 0
128 147 0
125 142 0
129 146 0
130 148 0
130 148 0
127 147 0
140 160 0
138 155 0
138 156 0
140 159 0
144 160 0
141 159 0
132 149 0
133 153 0
133 152 0
137 159 0
137 156 0
145 165 0
140 159 0
148 168 0
145 164 0
151 171 0
137 158 0
138 156 0
145 164 0
147 167 0
147 165 0
143 163 0
137 155 0
154 173 0
142 159 0
147 168 0
147 166 0
148 167 0
151 170 0
142 161 0
150 168 0
149 171 0
145 164 0
150 168 0
145 162 0
148 167 0
155 176 0
152 170 0
153 172 0
153 173 0
158 179 0
146 165 0
156 177 0
150 169 0
156 176 0
145 161 0
148 165 0
161 181 0
156 175 0
158 177 0
156 173 0
158 178 0
150 170 0
150 169 0
155 174 0
155 175 0
159 180 0
161 182 0
154 172 0
161 180 0
161 182 0
160 180 0
159 178 0
156 177 0
160 180 0
161 180 0
155 174 0
154 173 0
157 175 0
161 181 0
158 178 0
160 180 0
158 177 0
165 184 0
163 182 0
154 174 0
160 177 0
157 176 0
162 180 0
160 178 0
164 183 0
162 182 0
164 183 0
163 183 0
161 181 0
160 180 0
166 183 0
164 185 0
163 183 0
166 187 0
164 184 0
170 190 0
164 182 0
167 187 0
167 188 0
167 187 0
163 183 0
157 177 0
161 178 0
164 186 0
167 187 0
166 186 0
162 183 0
165 185 0
163 184 0
164 185 0
170 189 0
165 185 0
169 188 0
166 187 0
164 184 0
164 184 0
167 188 0
164 184 0
169 190 0
164 184 0
168 189 0
169 191 0
165 186 0
167 188 0
165 185 0
165 188 0
168 189 0
168 190 0
166 187 0
168 186 0
167 188 0
166 188 0
163 185 0
169 192 0
168 191 0
166 188 0
169 190 0
167 189 0
171 191 0
169 191 0
171 193 0
171 192 0
166 187 0
165 186 0
169 192 0
170 192 0
170 190 0
169 189 0
169 190 0
169 191 0
172 193 0
168 191 0
170 191 0
172 194 0
170 191 0
170 193 0
168 189 0
171 192 0
171 192 0
166 189 0
167 191 0
169 192 0
171 192 0
171 193 0
172 193 0
223 236 252
218 233 240
176 199 72
178 201 80
179 201 92
173 196 62
177 199 84
175 198 76
174 197 62
174 196 76
172 194 44
176 198 76
173 196 72
176 199 84
176 199 67
173 196 72
175 198 62
175 199 88
172 195 62
175 198 51
170 194 95
171 195 67
171 195 80
169 193 67
173 196 88
172 195 51
168 192 57
170 193 84
170 195 84
170 194 67
170 194 25
173 197 84
170 194 88
171 194 72
169 193 88
168 191 57
170 193 62
171 194 67
169 192 88
169 193 80
175 199 99
173 195 99
165 190 88
174 198 105
176 199 108
175 198 111
170 193 92
171 194 92
173 196 99
173 196 108
170 193 95
168 191 111
174 196 95
174 198 108
167 192 84
171 193 95
176 199 102
172 195 99
170 193 105
171 194 80
167 190 80
170 194 108
175 198 108
170 193 92
161 185 88
172 195 99
172 195 102
164 187 62
173 196 108
169 193 99
158 182 88
166 189 76
171 193 114
161 184 88
166 190 111
170 194 102
175 198 102
168 191 102
165 188 99
162 186 84
164 187 117
159 181 84
163 187 108
166 189 95
169 192 108
166 189 102
164 188 92
167 190 88
163 186 97
162 185 99
157 180 92
150 173 88
152 175 88
159 181 102
164 187 92
162 184 92
160 183 94
155 177 99
153 176 99
156 178 99
150 172 84
159 181 102
148 170 76
161 183 108
163 184 88
154 176 102
161 182 102
150 171 84
146 167 88
156 177 95
152 172 108
148 168 114
158 178 105
153 173 108
154 174 105
153 173 105
145 165 99
152 172 95
146 166 102
140 158 95
133 151 72
142 161 88
137 155 95
134 151 99
137 156 67
130 148 84
128 145 72
128 146 72
116 133 72
125 141 84
115 132 67
109 124 72
114 129 86
88 109 78
88 111 100
84 108 99
99 122 108
95 119 84
85 110 97
84 110 100
95 120 94
100 123 89
87 112 90
104 126 100
105 127 76
137 155 36
156 170 18
150 165 18
145 159 18
143 158 18
141 157 0
132 148 0
118 137 51
68 98 115
67 96 99
74 98 86
78 103 90
83 107 78
76 101 82
93 114 60
85 101 25
100 121 51
96 118 62
91 108 0
76 91 0
96 112 0
79 94 0
83 97 0
97 111 0
103 118 0
85 99 0
90 103 0
72 86 0
85 100 18
82 97 18
84 99 18
82 98 36
84 101 51
69 86 25
81 97 31
61 78 51
87 103 18
71 87 36
81 96 36
86 101 18
75 88 0
90 103 0
86 99 0
80 95 0
86 99 0
74 87 0
71 85 0
85 99 0
87 101 0
93 107 0
79 94 0
88 102 0
96 112 0
88 102 0
87 103 0
94 108 0
111 127 0
106 120 0
95 110 0
95 112 0
101 115 0
110 128 0
99 115 0
114 132 0
109 127 0
111 127 0
113 130 0
112 129 0
120 137 0
121 136 0
118 133 0
115 132 0
118 136 0
116 133 0
111 128 0
120 139 0
121 139 0
118 136 0
124 141 0
131 149 0
113 129 0
130 148 0
123 143 0
123 139 0
139 159 0
117 135 0
120 139 0
125 143 0
125 143 0
136 154 0
132 150 0
127 145 0
127 146 0
136 156 0
130 148 0
122 139 0
113 131 0
140 160 0
140 159 0
131 150 0
137 156 0
137 156 0
145 164 0
136 155 0
137 158 0
139 157 0
133 153 0
136 157 0
148 166 0
141 161 0
147 166 0
148 166 0
133 152 0
147 167 0
139 158 0
141 161 0
143 165 0
144 164 0
151 171 0
151 170 0
133 151 0
153 172 0
148 166 0
148 167 0
146 163 0
146 164 0
149 169 0
144 164 0
153 172 0
150 168 0
149 168 0
152 172 0
150 167 0
147 166 0
161 181 0
154 174 0
149 169 0
158 178 0
157 176 0
150 169 0
150 168 0
157 178 0
159 179 0
154 174 0
155 173 0
162 181 0
153 174 0
156 175 0
161 181 0
164 184 0
156 176 0
156 174 0
160 180 0
161 181 0
158 178 0
161 181 0
157 177 0
160 179 0
158 178 0
164 184 0
159 179 0
157 177 0
158 178 0
156 174 0
164 184 0
161 182 0
162 182 0
158 178 0
163 183 0
164 184 0
165 186 0
162 182 0
162 180 0
159 178 0
159 178 0
162 183 0
166 186 0
167 188 0
163 181 0
158 178 0
162 183 0
167 188 0
161 182 0
160 179 0
163 180 0
164 186 0
161 183 0
165 185 0
163 182 0
159 179 0
167 187 0
165 185 0
164 183 0
161 180 0
166 186 0
166 186 0
155 173 0
167 187 0
168 188 0
166 187 0
166 186 0
165 185 0
166 187 0
167 189 0
167 186 0
169 192 0
170 191 0
165 185 0
165 185 0
168 189 0
171 193 0
167 188 0
170 191 0
167 187 0
168 188 0
169 191 0
165 184 0
168 189 0
169 191 0
169 190 0
167 189 0
169 191 0
164 184 0
166 188 0
165 187 0
167 189 0
164 185 0
170 192 0
168 189 0
168 189 0
167 187 0
170 191 0
169 189 0
166 186 0
169 191 0
171 193 0
170 192 0
165 184 0
170 191 0
168 189 0
168 189 0
167 188 0
168 189 0
168 191 0
169 190 0
169 192 0
168 188 0
169 192 0
168 190 0
170 192 0
169 190 0
170 191 0
170 191 0
171 194 0
169 191 0
223 236 252
208 224 212
173 197 44
174 197 44
177 199 80
177 200 80
175 198 80
174 197 84
174 196 76
172 196 76
173 196 84
178 200 76
173 196 51
173 196 84
176 199 76
172 195 67
171 194 76
174 196 92
174 197 67
176 199 76
173 196 88
174 197 88
170 194 84
174 197 84
167 191 62
173 197 72
173 196 62
171 195 76
176 199 72
175 198 80
173 197 76
168 191 62
171 194 62
173 196 62
173 196 62
171 195 67
169 191 44
169 193 88
174 198 84
171 194 80
167 190 84
173 196 88
168 191 84
180 203 130
175 198 108
176 199 114
170 193 108
169 192 62
179 202 114
171 194 92
170 193 102
169 193 108
167 191 80
169 193 92
169 192 88
171 194 105
172 196 76
173 195 99
172 196 111
169 193 117
168 192 111
173 196 102
172 195 120
173 197 105
172 196 92
166 189 88
172 195 105
166 190 88
168 192 88
164 187 88
172 195 92
162 185 80
167 190 84
167 190 84
166 190 99
162 185 72
165 189 92
168 192 108
159 182 102
169 192 122
160 183 92
166 189 95
165 189 88
171 195 122
165 190 103
160 183 74
161 183 102
167 190 105
161 183 95
160 184 102
170 193 95
167 191 105
164 187 90
150 174 97
158 181 95
165 188 111
162 184 95
157 179 76
156 178 102
162 184 88
166 188 99
152 174 80
161 183 105
153 174 102
160 182 105
155 176 99
156 177 99
158 179 111
157 178 99
146 167 99
150 172 102
157 178 102
139 159 95
154 174 84
156 176 92
158 177 108
149 169 92
144 163 88
146 166 88
151 171 117
157 176 120
138 156 80
139 159 84
147 166 105
143 161 84
144 161 108
129 147 67
126 143 88
126 143 76
129 146 80
126 144 67
107 122 44
108 125 67
114 129 76
99 118 86
99 121 100
93 117 94
95 118 94
88 113 103
93 116 80
98 122 99
97 121 100
116 138 120
88 112 82
105 126 86
128 149 44
157 172 0
156 171 0
152 168 0
144 161 31
147 161 0
138 154 18
132 149 0
115 132 51
83 104 67
84 106 76
86 113 94
76 101 84
81 105 62
86 102 31
102 117 0
101 119 40
100 121 65
85 103 36
113 130 0
97 112 0
101 115 0
85 101 0
96 110 0
96 111 0
97 112 0
90 104 0
87 101 0
92 106 0
84 98 0
104 119 0
87 102 0
80 93 0
86 101 0
80 93 0
81 94 0
92 106 0
106 120 0
84 98 0
77 92 0
82 96 0
77 91 0
79 91 0
86 101 0
85 98 0
90 104 0
83 97 0
89 104 0
92 106 0
90 105 0
92 104 0
84 100 0
100 115 0
101 116 0
92 108 0
99 115 0
98 114 0
101 118 0
87 101 0
101 115 0
104 120 0
101 117 0
117 132 0
114 130 0
106 123 0
104 119 0
110 127 0
104 122 0
114 130 0
120 138 0
115 131 0
123 140 0
127 146 0
110 128 0
121 138 0
116 133 0
120 139 0
127 144 0
132 151 0
122 141 0
122 139 0
121 138 0
128 147 0
126 144 0
126 144 0
128 146 0
124 143 0
135 154 0
124 144 0
130 148 0
130 148 0
133 151 0
128 148 0
148 168 0
135 154 0
131 149 0
127 146 0
137 157 0
138 157 0
143 163 0
128 146 0
144 162 0
146 166 0
139 158 0
142 161 0
141 160 0
138 158 0
140 161 0
145 164 0
135 154 0
141 159 0
144 163 0
148 168 0
147 168 0
144 164 0
148 166 0
146 164 0
145 165 0
141 159 0
151 169 0
147 165 0
149 169 0
151 169 0
146 165 0
140 157 0
144 164 0
146 167 0
146 165 0
153 173 0
148 168 0
154 174 0
154 173 0
157 177 0
156 177 0
160 181 0
150 171 0
153 174 0
150 168 0
154 174 0
156 176 0
157 177 0
157 177 0
157 176 0
155 174 0
159 179 0
159 178 0
159 178 0
159 178 0
155 176 0
155 174 0
157 176 0
157 176 0
159 179 0
156 175 0
159 179 0
159 180 0
162 180 0
158 177 0
158 177 0
154 173 0
156 177 0
159 180 0
158 177 0
161 180 0
159 179 0
162 180 0
166 187 0
158 180 0
164 183 0
160 182 0
161 180 0
157 177 0
156 177 0
165 186 0
162 183 0
159 180 0
160 179 0
163 183 0
158 180 0
166 185 0
159 177 0
160 180 0
166 186 0
165 185 0
163 184 0
164 186 0
167 187 0
164 184 0
167 189 0
167 187 0
169 190 0
160 181 0
165 186 0
159 180 0
166 187 0
160 179 0
168 189 0
165 183 0
166 187 0
167 189 0
169 190 0
166 187 0
168 189 0
168 187 0
167 187 0
163 183 0
162 182 0
166 185 0
165 184 0
168 188 0
166 186 0
167 188 0
168 189 0
167 187 0
166 186 0
170 191 0
169 189 0
165 187 0
171 188 0
168 190 0
167 187 0
166 186 0
166 188 0
167 188 0
170 190 0
170 191 0
168 190 0
167 189 0
169 189 0
171 192 0
170 192 0
170 192 0
166 186 0
169 191 0
165 185 0
169 190 0
169 188 0
169 191 0
171 192 0
169 190 0
171 193 0
168 190 0
168 190 0
172 192 0
170 192 0
169 191 0
164 185 0
168 190 0
169 191 0
169 191 0
169 191 0
169 190 0
171 194 0
169 191 0
166 187 0
223 236 252
196 214 165
178 200 92
178 200 84
178 201 72
176 198 76
172 195 76
174 197 62
172 195 76
177 200 80
171 194 67
176 199 95
174 197 80
173 196 76
173 196 57
175 198 72
172 196 80
173 196 92
172 195 76
171 195 62
173 197 99
171 194 67
168 191 62
174 197 62
171 194 76
172 195 57
173 197 88
171 195 67
170 194 62
170 194 57
171 195 88
172 195 57
168 192 67
169 192 67
173 197 67
172 195 92
173 196 92
173 196 72
174 197 51
174 197 88
174 197 92
176 199 99
172 195 99
168 191 84
173 196 114
171 195 99
174 198 99
173 196 84
168 191 88
174 197 114
170 193 84
173 197 102
171 194 111
173 196 99
173 196 102
169 193 105
169 193 105
167 190 80
170 194 92
172 196 102
170 193 95
170 193 102
165 189 95
169 193 88
169 192 88
170 193 111
175 198 105
166 191 84
171 194 111
167 191 99
168 191 105
166 189 92
166 189 99
164 187 95
161 184 105
160 183 80
167 190 105
162 187 92
166 190 88
168 192 92
160 183 88
159 183 80
169 192 114
162 185 84
163 187 113
167 190 95
156 179 99
161 184 76
161 184 82
160 182 92
165 188 80
159 183 108
156 179 84
165 187 105
158 180 92
164 187 111
160 182 88
165 188 97
163 186 86
167 190 117
157 180 95
155 176 108
159 181 111
152 174 105
155 178 72
155 176 108
159 179 117
152 174 88
156 178 88
158 178 105
156 177 114
158 179 122
156 177 102
144 165 76
153 173 111
146 166 111
137 157 95
135 154 92
144 164 99
143 162 95
145 164 92
155 172 108
131 150 72
118 136 62
140 159 67
142 161 72
126 145 62
134 153 72
121 139 67
127 144 80
118 134 76
127 144 88
127 143 84
117 131 76
122 136 99
100 116 92
85 109 78
89 112 78
82 106 86
113 134 113
93 118 74
96 119 108
102 123 86
106 127 84
107 129 62
123 142 51
161 177 25
153 169 0
150 168 18
148 165 0
137 154 18
141 159 31
127 144 0
133 148 0
117 132 25
84 106 70
68 93 72
69 94 57
85 104 57
105 119 0
98 115 0
100 117 0
103 123 44
96 112 0
83 100 0
92 109 0
97 113 0
102 118 0
94 108 0
96 111 0
93 109 0
84 99 0
88 104 0
91 105 0
78 94 0
93 109 0
92 106 0
97 112 0
81 95 0
96 111 0
82 97 0
87 100 0
90 104 0
94 110 0
105 119 0
83 97 0
96 110 0
79 94 0
84 99 0
96 111 0
97 111 0
78 93 0
79 95 0
98 112 0
101 115 0
84 99 0
86 101 0
116 131 0
93 109 0
103 119 0
97 113 0
104 123 0
109 125 0
76 91 0
109 126 0
113 130 0
105 121 0
110 127 0
103 120 0
112 129 0
113 131 0
112 129 0
114 132 0
109 125 0
116 132 0
118 138 0
116 133 0
123 141 0
113 129 0
118 136 0
121 138 0
130 150 0
125 142 0
131 149 0
130 148 0
130 148 0
118 136 0
131 149 0
130 149 0
130 148 0
125 141 0
131 150 0
127 146 0
128 146 0
132 150 0
140 159 0
142 161 0
131 150 0
135 153 0
130 149 0
139 158 0
137 157 0
139 159 0
137 157 0
130 147 0
144 162 0
136 155 0
137 156 0
145 166 0
142 161 0
136 154 0
147 164 0
143 161 0
148 168 0
135 153 0
137 156 0
144 164 0
141 161 0
147 166 0
144 163 0
149 168 0
146 166 0
143 161 0
146 166 0
142 162 0
152 171 0
153 173 0
145 165 0
148 167 0
150 171 0
154 175 0
138 155 0
161 179 0
147 167 0
153 172 0
147 167 0
149 169 0
150 169 0
158 178 0
153 173 0
156 174 0
153 173 0
153 168 0
157 178 0
156 175 0
157 179 0
154 175 0
151 171 0
158 177 0
158 177 0
156 176 0
154 174 0
159 178 0
154 172 0
155 176 0
154 175 0
156 177 0
163 183 0
158 179 0
157 176 0
155 177 0
160 180 0
166 188 0
161 183 0
156 176 0
165 185 0
161 182 0
160 181 0
161 182 0
166 187 0
152 171 0
164 184 0
156 177 0
158 178 0
163 182 0
156 176 0
159 179 0
157 176 0
162 183 0
165 186 0
161 181 0
159 180 0
163 183 0
164 184 0
155 176 0
161 182 0
164 183 0
163 182 0
160 180 0
164 183 0
167 187 0
158 178 0
160 180 0
166 187 0
166 186 0
155 176 0
167 188 0
168 187 0
166 188 0
166 187 0
167 188 0
166 186 0
166 184 0
166 185 0
168 190 0
165 185 0
164 185 0
167 188 0
167 189 0
167 188 0
165 185 0
165 186 0
170 192 0
171 190 0
172 194 0
164 184 0
169 190 0
167 189 0
168 189 0
171 195 0
166 187 0
168 188 0
168 188 0
170 192 0
164 185 0
171 192 0
166 188 0
167 188 0
169 190 0
168 190 0
168 189 0
167 188 0
166 186 0
171 193 0
167 188 0
167 188 0
166 188 0
170 192 0
168 188 0
168 190 0
166 188 0
168 189 0
172 193 0
170 191 0
172 194 0
169 189 0
168 189 0
168 189 0
172 193 0
171 194 0
167 188 0
170 192 0
170 193 0
169 191 0
171 192 0
170 192 0
169 191 0
171 193 0
167 189 0
169 192 0
223 236 250
190 210 135
179 201 92
179 201 88
174 198 62
178 200 88
178 200 84
172 194 76
173 197 80
176 198 62
175 198 62
170 193 57
174 197 72
173 195 99
173 196 67
168 192 76
171 194 72
175 198 88
174 197 62
167 191 51
169 191 67
169 193 44
166 190 44
174 197 80
170 194 72
168 191 80
169 193 72
170 194 72
172 195 84
166 191 67
173 196 80
174 197 99
169 193 72
172 196 76
174 199 88
173 196 72
173 196 72
170 193 76
175 198 102
173 197 99
173 197 99
172 195 95
177 199 102
175 198 108
172 195 114
178 201 108
172 196 102
171 194 84
171 194 88
171 195 92
172 195 95
174 197 99
173 196 88
171 193 88
171 194 111
170 192 76
167 191 76
173 196 95
175 198 108
166 190 76
166 190 111
166 189 105
168 192 105
170 193 92
169 193 84
170 193 72
167 191 88
165 188 99
166 189 92
166 189 80
166 189 88
171 194 108
166 189 88
170 193 92
173 196 111
167 190 111
167 190 102
162 185 95
169 193 114
167 190 84
166 190 99
164 187 105
164 187 105
165 188 111
165 188 57
164 186 102
161 184 99
160 183 84
169 192 117
154 178 86
162 185 90
160 182 97
160 184 128
165 188 76
167 189 95
164 185 103
164 186 121
161 183 95
156 180 100
155 176 92
158 180 108
159 181 84
158 180 99
152 175 105
164 186 95
157 180 80
157 179 95
159 182 92
149 171 84
154 175 108
149 170 76
148 169 84
148 168 95
158 179 95
158 178 120
149 169 99
147 168 80
147 167 92
144 165 84
150 170 80
153 172 105
139 157 99
145 163 92
149 168 108
137 156 88
130 149 51
125 143 84
129 147 67
138 156 88
122 140 62
121 138 67
116 133 72
121 137 72
133 149 88
105 119 67
107 121 72
106 121 62
108 126 90
94 117 57
91 113 92
98 119 94
95 118 78
94 116 94
93 116 82
121 140 25
121 140 31
156 172 0
154 172 0
152 168 0
147 163 18
146 165 31
140 159 0
139 156 0
130 145 0
117 134 0
105 121 0
106 122 0
95 112 18
106 119 0
109 126 0
113 131 0
119 137 0
118 136 0
118 134 0
96 113 0
92 108 0
92 109 0
91 106 0
94 109 0
96 111 0
88 104 0
102 118 0
90 105 0
88 104 0
92 108 0
92 107 0
79 93 0
91 106 0
102 117 0
81 95 0
104 119 0
90 105 0
94 109 0
92 108 0
103 118 0
97 112 0
91 106 0
95 111 0
107 123 0
90 106 0
93 108 0
95 110 0
91 107 0
112 129 0
111 126 0
104 120 0
96 112 0
95 110 0
104 121 0
102 118 0
100 115 0
105 123 0
102 119 0
95 112 0
99 117 0
101 117 0
111 129 0
107 123 0
109 126 0
116 133 0
109 126 0
119 136 0
116 133 0
112 129 0
120 137 0
118 137 0
119 135 0
124 142 0
126 143 0
113 130 0
133 152 0
127 143 0
119 137 0
116 136 0
127 146 0
114 130 0
123 141 0
118 138 0
123 141 0
119 135 0
137 157 0
124 140 0
123 143 0
122 140 0
131 149 0
138 157 0
123 141 0
132 151 0
144 162 0
143 162 0
145 164 0
136 154 0
138 157 0
133 152 0
139 160 0
137 157 0
135 153 0
138 157 0
143 164 0
142 162 0
149 170 0
139 156 0
144 165 0
151 170 0
151 171 0
148 166 0
145 165 0
154 173 0
147 166 0
138 158 0
154 174 0
148 169 0
148 168 0
149 167 0
145 166 0
154 172 0
156 177 0
154 171 0
149 168 0
155 174 0
144 164 0
152 173 0
148 168 0
152 173 0
149 169 0
147 165 0
152 170 0
154 174 0
155 175 0
151 170 0
155 174 0
157 177 0
154 173 0
153 172 0
158 177 0
149 169 0
158 178 0
152 174 0
155 172 0
156 176 0
156 176 0
158 179 0
157 176 0
162 182 0
149 170 0
157 177 0
158 178 0
153 173 0
160 180 0
157 176 0
159 178 0
160 181 0
163 183 0
161 181 0
159 179 0
160 179 0
160 182 0
157 178 0
162 183 0
162 182 0
154 173 0
161 181 0
159 178 0
160 180 0
162 181 0
162 182 0
153 169 0
165 187 0
163 183 0
159 177 0
163 183 0
163 183 0
160 181 0
165 185 0
162 182 0
166 187 0
165 187 0
164 185 0
162 183 0
165 187 0
162 182 0
166 187 0
167 188 0
166 186 0
162 183 0
163 181 0
162 182 0
168 190 0
164 184 0
165 185 0
159 178 0
164 183 0
164 185 0
170 192 0
162 182 0
160 181 0
160 180 0
168 189 0
164 185 0
168 189 0
168 189 0
168 188 0
168 189 0
167 188 0
161 181 0
168 187 0
169 191 0
169 191 0
169 190 0
166 186 0
168 189 0
167 187 0
172 194 0
166 187 0
168 190 0
165 185 0
170 192 0
170 191 0
167 189 0
171 192 0
168 189 0
170 193 0
165 187 0
168 189 0
171 192 0
167 188 0
166 187 0
170 190 0
174 195 0
166 187 0
172 193 0
169 191 0
171 194 0
168 189 0
169 191 0
168 190 0
163 185 0
168 191 0
169 191 0
172 194 0
171 194 0
170 193 0
172 193 0
171 193 0
171 193 0
169 191 0
168 190 0
171 192 0
171 194 0
169 190 0
222 235 246
183 204 114
175 198 67
177 200 62
177 199 67
177 200 72
173 196 51
178 201 92
174 198 51
179 202 92
168 191 36
176 200 84
177 200 80
173 196 57
172 196 76
169 192 57
172 196 72
174 197 80
176 198 76
174 198 72
170 194 67
170 193 88
174 198 76
172 196 36
171 194 67
172 196 76
168 192 67
171 194 72
172 195 62
174 198 95
171 194 80
167 191 62
169 193 57
170 193 72
174 198 67
173 196 92
172 196 95
175 197 92
171 195 72
179 201 99
171 195 84
172 195 102
175 198 108
169 192 76
173 197 102
176 199 80
171 194 95
174 196 99
172 196 108
175 198 99
174 196 72
171 194 88
164 188 88
167 191 76
167 191 111
166 189 80
168 192 76
172 196 99
171 195 111
172 196 99
173 197 120
167 191 76
170 193 102
173 196 111
170 194 102
168 192 92
167 191 99
168 191 67
170 193 105
168 192 105
167 190 99
173 196 122
165 188 114
162 185 88
167 190 80
163 186 76
163 187 88
167 191 122
170 192 105
172 195 76
169 192 105
167 190 103
160 183 72
165 189 114
165 188 105
163 185 80
154 176 88
161 185 99
153 176 76
159 183 95
168 191 111
162 185 108
164 186 108
160 183 84
166 189 92
157 179 94
159 181 102
157 179 102
164 186 108
155 177 88
158 180 95
156 178 84
156 177 99
143 165 80
156 178 88
159 180 105
157 179 102
153 175 111
147 168 95
147 169 99
154 175 105
150 171 105
141 161 80
151 172 102
145 166 84
147 166 84
146 166 88
147 166 122
144 164 99
139 159 80
158 177 120
148 168 80
150 168 111
143 161 84
133 151 80
141 159 102
143 162 105
134 151 92
138 155 95
134 151 80
129 147 72
118 135 62
126 144 67
117 133 67
114 130 72
121 136 57
112 127 72
105 120 44
112 127 80
107 125 74
111 129 88
112 132 97
98 119 86
118 136 44
126 142 25
128 145 31
157 174 0
160 178 0
152 168 0
152 173 0
148 167 0
141 158 0
134 149 0
134 151 0
128 146 0
121 139 0
119 135 0
105 121 0
111 126 0
109 124 0
114 130 0
110 127 0
118 134 0
107 123 0
94 111 0
102 120 0
104 119 0
116 132 0
107 122 0
105 122 0
96 113 0
93 109 0
97 112 0
102 117 0
94 109 0
107 124 0
94 109 0
92 108 0
104 120 0
94 110 0
100 115 0
108 125 0
96 111 0
87 101 0
102 117 0
102 119 0
97 113 0
101 116 0
94 110 0
113 128 0
97 112 0
96 113 0
105 121 0
112 128 0
95 112 0
97 112 0
99 115 0
109 125 0
101 119 0
92 108 0
106 121 0
99 116 0
109 126 0
95 110 0
104 121 0
120 137 0
102 118 0
116 134 0
116 133 0
108 125 0
111 129 0
115 132 0
112 129 0
111 128 0
111 129 0
126 144 0
119 136 0
109 126 0
119 137 0
118 135 0
122 138 0
119 137 0
131 149 0
114 133 0
134 153 0
128 147 0
122 142 0
125 144 0
117 136 0
131 149 0
131 147 0
126 145 0
128 147 0
132 150 0
135 154 0
132 150 0
134 153 0
134 153 0
134 154 0
129 149 0
133 152 0
136 156 0
139 160 0
144 162 0
135 154 0
145 165 0
137 156 0
141 162 0
138 156 0
150 168 0
139 159 0
141 160 0
145 166 0
142 161 0
141 161 0
149 170 0
143 162 0
142 163 0
143 163 0
144 164 0
144 164 0
156 176 0
146 165 0
144 163 0
148 169 0
154 175 0
154 176 0
153 172 0
151 171 0
148 166 0
146 166 0
150 169 0
151 172 0
149 168 0
156 176 0
155 176 0
153 171 0
152 171 0
155 174 0
155 175 0
153 175 0
157 178 0
148 168 0
157 178 0
157 178 0
157 178 0
152 173 0
156 176 0
155 177 0
156 175 0
156 175 0
154 172 0
158 177 0
156 177 0
157 175 0
148 166 0
158 177 0
151 171 0
159 180 0
158 177 0
164 182 0
160 182 0
155 175 0
160 181 0
163 183 0
159 181 0
163 185 0
160 179 0
161 182 0
160 181 0
163 184 0
162 182 0
164 184 0
160 178 0
153 172 0
162 183 0
156 176 0
162 180 0
159 179 0
158 180 0
163 184 0
157 176 0
164 184 0
159 180 0
167 187 0
164 185 0
163 184 0
159 179 0
158 177 0
163 185 0
167 187 0
162 182 0
165 186 0
165 186 0
163 183 0
159 180 0
165 184 0
165 187 0
167 186 0
164 184 0
168 190 0
161 181 0
162 184 0
166 188 0
165 186 0
169 190 0
163 184 0
163 184 0
163 184 0
171 192 0
167 189 0
169 191 0
166 190 0
164 186 0
169 191 0
165 187 0
168 189 0
165 185 0
166 187 0
171 192 0
169 190 0
171 194 0
171 192 0
167 189 0
169 191 0
169 188 0
165 185 0
168 188 0
167 189 0
166 186 0
167 189 0
165 185 0
168 189 0
166 186 0
172 194 0
170 191 0
169 192 0
168 189 0
169 190 0
170 193 0
165 184 0
166 189 0
167 189 0
169 192 0
170 192 0
172 193 0
170 192 0
169 190 0
168 188 0
167 189 0
167 190 0
169 191 0
171 193 0
169 192 0
169 190 0
171 193 0
170 192 0
171 193 0
168 191 0
167 189 0
217 232 234
175 198 57
175 197 51
176 199 80
176 199 67
178 200 88
175 198 80
178 200 84
175 198 76
176 199 67
171 194 57
178 200 92
177 200 72
175 199 80
173 196 72
177 199 72
170 193 44
173 197 76
168 191 57
177 200 95
169 191 72
173 197 76
171 194 72
168 192 62
174 197 80
169 192 67
173 196 76
171 194 67
171 194 76
174 198 92
169 192 36
175 198 80
169 193 80
172 196 88
178 201 99
176 200 76
170 193 80
174 197 88
176 199 84
175 198 99
171 194 92
177 201 114
174 198 111
177 200 120
175 198 108
175 198 99
175 198 108
175 198 114
171 195 99
171 194 108
169 192 92
166 190 95
170 194 99
172 195 95
169 193 84
172 196 99
167 190 92
169 192 108
167 191 84
169 193 88
169 191 108
165 189 99
172 195 108
171 195 99
167 190 84
168 192 92
167 191 102
169 193 88
165 189 84
166 189 95
167 191 95
165 189 88
164 187 84
172 195 111
164 188 108
167 191 102
165 189 102
171 195 99
164 187 88
170 193 92
161 183 99
161 184 102
170 193 62
164 187 102
155 177 72
163 186 103
161 185 108
163 185 92
155 178 84
154 177 80
167 190 108
170 193 108
160 183 94
162 185 97
162 184 88
163 185 95
161 184 80
159 182 90
158 180 92
156 178 95
156 178 84
154 176 105
152 175 102
160 182 108
154 175 117
157 178 117
164 185 102
161 182 102
161 182 105
151 171 111
151 172 114
149 170 95
158 178 111
140 160 84
154 173 102
157 177 95
154 173 108
137 156 95
147 167 100
137 157 84
146 164 95
155 174 108
146 164 108
141 160 92
146 164 114
143 162 88
133 152 84
138 156 88
122 140 67
136 153 88
126 145 67
133 150 84
131 148 95
128 146 76
116 132 72
131 149 72
115 131 51
106 122 51
108 122 76
119 135 36
107 122 51
109 126 57
108 124 36
122 139 25
125 142 25
132 147 36
152 171 0
161 182 0
154 172 0
150 169 0
147 164 0
137 156 0
128 146 0
137 155 0
122 139 0
125 141 0
120 136 0
114 129 0
107 124 0
110 127 0
99 115 0
114 132 0
118 136 0
108 126 0
110 126 0
104 122 0
103 119 0
103 120 0
102 118 0
98 114 0
105 122 0
117 134 0
98 116 0
92 108 0
107 122 0
90 106 0
114 130 0
96 113 0
94 111 0
95 111 0
94 110 0
99 115 0
101 116 0
96 112 0
93 109 0
97 113 0
103 119 0
110 126 0
101 118 0
98 112 0
100 115 0
107 123 0
98 115 0
112 128 0
111 128 0
95 112 0
103 119 0
106 123 0
118 134 0
107 125 0
112 129 0
116 134 0
106 123 0
107 123 0
97 113 0
104 121 0
118 135 0
114 132 0
108 126 0
119 136 0
125 142 0
105 123 0
115 134 0
115 132 0
121 140 0
124 141 0
126 143 0
129 148 0
123 142 0
128 146 0
123 142 0
125 143 0
129 148 0
122 141 0
123 142 0
127 146 0
118 135 0
126 144 0
137 157 0
139 158 0
136 156 0
127 147 0
136 157 0
136 154 0
136 155 0
134 151 0
134 154 0
137 156 0
131 148 0
132 152 0
145 165 0
144 165 0
139 159 0
145 164 0
132 150 0
136 156 0
139 159 0
148 168 0
148 168 0
135 154 0
147 165 0
129 149 0
149 170 0
137 158 0
144 164 0
138 158 0
138 158 0
145 164 0
149 169 0
152 172 0
145 163 0
147 165 0
144 164 0
147 167 0
153 173 0
147 167 0
151 171 0
156 174 0
142 161 0
152 171 0
154 174 0
152 172 0
153 172 0
151 170 0
148 168 0
153 174 0
152 172 0
154 173 0
152 174 0
152 171 0
155 175 0
147 166 0
147 168 0
154 173 0
153 173 0
158 178 0
150 170 0
161 180 0
155 175 0
153 173 0
161 182 0
155 175 0
156 175 0
158 176 0
157 176 0
161 181 0
152 172 0
152 173 0
159 180 0
160 181 0
163 183 0
163 183 0
160 182 0
160 181 0
152 170 0
163 182 0
160 180 0
160 182 0
158 178 0
162 180 0
161 179 0
160 178 0
159 180 0
163 183 0
158 176 0
161 183 0
162 184 0
166 187 0
161 180 0
163 183 0
157 174 0
161 180 0
162 181 0
163 182 0
161 182 0
161 184 0
162 183 0
161 181 0
164 186 0
164 186 0
166 185 0
169 190 0
161 182 0
168 188 0
164 186 0
164 185 0
162 183 0
168 188 0
167 189 0
163 185 0
163 183 0
163 186 0
168 189 0
169 188 0
165 185 0
163 185 0
170 191 0
164 185 0
166 187 0
165 186 0
165 186 0
167 190 0
168 189 0
167 188 0
165 185 0
164 186 0
164 184 0
170 192 0
162 182 0
166 189 0
167 186 0
168 190 0
164 186 0
167 188 0
167 189 0
167 189 0
167 187 0
172 195 0
172 193 0
166 189 0
169 190 0
170 193 0
171 192 0
171 193 0
170 192 0
169 191 0
167 188 0
172 195 0
168 190 0
171 192 0
170 191 0
171 194 0
168 191 0
169 191 0
167 188 0
167 188 0
169 193 0
168 189 0
169 191 0
170 193 0
173 196 0
170 193 0
169 191 0
171 193 0
170 192 0
172 194 0
170 193 0
169 192 0
169 192 0
171 193 0
202 219 181
177 200 80
176 199 76
173 196 57
177 199 57
177 199 80
176 199 62
171 194 84
178 200 95
174 197 62
172 195 67
174 197 76
174 198 72
173 196 80
172 196 72
173 195 99
175 198 72
172 193 62
172 195 95
169 192 76
175 198 72
171 195 62
170 193 72
175 199 95
173 195 72
171 194 51
168 193 51
168 192 62
175 197 76
174 198 80
170 194 84
170 194 62
175 198 92
175 198 92
173 196 76
170 193 72
177 200 102
169 193 99
178 200 102
173 196 102
175 198 120
173 196 102
175 199 114
173 197 95
170 193 84
175 198 108
173 196 108
169 192 95
169 192 76
173 197 99
167 190 92
167 190 99
164 188 95
173 196 99
172 196 99
167 191 92
169 192 95
170 194 105
172 195 62
170 193 117
170 194 108
174 196 80
166 190 88
169 192 105
168 191 80
167 190 88
162 186 102
168 191 114
166 190 108
167 191 95
165 189 95
171 194 117
164 188 102
172 195 95
170 193 105
159 182 84
169 192 105
166 190 95
161 184 67
169 193 99
157 180 108
165 189 84
159 182 92
162 184 95
165 189 92
160 184 95
166 189 111
164 187 99
159 183 84
159 182 80
168 191 108
162 184 88
162 185 102
159 182 76
152 174 86
160 183 102
163 185 84
161 184 113
164 187 102
153 175 92
155 178 105
156 178 114
158 181 111
154 176 95
162 184 92
150 172 95
161 183 102
158 179 108
155 176 99
154 175 84
155 176 92
156 178 92
154 175 88
156 176 102
156 176 114
149 170 105
143 163 80
151 170 102
144 163 105
138 157 95
154 173 99
150 168 102
138 157 84
149 168 108
142 161 99
152 171 92
128 147 67
141 159 105
130 149 57
141 159 99
117 135 51
129 147 62
120 139 51
141 159 80
106 122 44
114 130 57
113 130 51
102 118 36
108 123 62
120 137 44
121 137 67
122 138 51
121 137 44
132 151 0
125 144 0
131 149 36
153 172 0
160 178 0
158 177 0
142 160 0
146 167 0
131 151 0
136 156 0
134 152 0
127 145 0
116 133 0
102 118 0
100 114 0
112 128 0
109 126 0
126 143 0
100 117 0
116 133 0
115 133 0
111 129 0
108 125 0
106 124 0
103 120 0
103 120 0
100 117 0
105 121 0
108 124 0
95 111 0
100 117 0
100 117 0
91 106 0
113 130 0
94 110 0
93 109 0
88 104 0
101 117 0
101 118 0
98 114 0
90 107 0
110 126 0
105 121 0
110 127 0
102 119 0
110 126 0
113 129 0
101 117 0
98 115 0
107 124 0
115 132 0
104 120 0
109 125 0
93 111 0
105 122 0
108 125 0
102 119 0
111 128 0
108 125 0
99 115 0
108 125 0
113 130 0
111 131 0
114 132 0
98 115 0
115 133 0
115 133 0
110 128 0
129 148 0
125 142 0
103 120 0
124 142 0
117 135 0
124 142 0
129 148 0
121 139 0
123 142 0
134 153 0
120 139 0
128 147 0
117 135 0
124 145 0
129 148 0
131 150 0
125 144 0
133 151 0
141 161 0
119 138 0
123 141 0
125 142 0
124 144 0
135 154 0
138 157 0
135 154 0
143 162 0
138 157 0
143 163 0
131 151 0
146 166 0
139 159 0
145 165 0
133 154 0
140 159 0
140 161 0
149 169 0
143 165 0
143 162 0
143 162 0
147 167 0
139 157 0
141 161 0
136 155 0
140 160 0
142 162 0
149 169 0
142 162 0
146 165 0
146 164 0
151 172 0
157 177 0
147 167 0
143 163 0
146 165 0
146 165 0
152 173 0
146 167 0
154 175 0
143 161 0
157 177 0
147 165 0
157 177 0
154 175 0
154 176 0
146 166 0
153 171 0
157 177 0
154 172 0
159 180 0
159 179 0
158 176 0
157 176 0
160 181 0
155 175 0
152 173 0
156 176 0
155 176 0
157 177 0
152 173 0
162 181 0
153 174 0
162 183 0
153 175 0
156 176 0
159 181 0
159 179 0
160 181 0
155 176 0
159 180 0
163 185 0
161 182 0
162 183 0
158 179 0
165 187 0
157 175 0
156 176 0
163 184 0
156 177 0
161 182 0
165 186 0
158 177 0
162 184 0
156 176 0
165 186 0
166 184 0
157 176 0
163 182 0
167 188 0
160 180 0
158 180 0
160 180 0
165 187 0
161 181 0
163 185 0
164 185 0
166 187 0
164 184 0
169 191 0
165 186 0
167 188 0
167 187 0
165 185 0
162 182 0
166 186 0
162 184 0
163 184 0
163 184 0
167 188 0
171 193 0
167 188 0
165 186 0
163 183 0
166 186 0
162 183 0
167 188 0
164 186 0
168 190 0
164 185 0
169 190 0
165 186 0
167 188 0
169 192 0
166 188 0
168 190 0
164 185 0
170 191 0
165 187 0
167 188 0
163 184 0
166 187 0
169 191 0
169 187 0
167 189 0
169 191 0
170 191 0
166 186 0
164 185 0
172 192 0
166 189 0
168 189 0
168 190 0
172 194 0
165 187 0
167 190 0
168 189 0
172 192 0
169 192 0
169 191 0
169 191 0
169 190 0
170 192 0
170 192 0
166 187 0
167 188 0
169 191 0
171 192 0
168 190 0
171 193 0
170 193 0
166 189 0
171 192 0
169 191 0
169 191 0
171 194 0
171 192 0
172 194 0
167 189 0
168 190 0
184 205 105
176 199 57
174 197 72
175 198 72
174 197 62
174 197 62
174 197 67
171 194 67
174 197 67
172 195 67
173 196 80
173 196 80
172 195 80
171 194 72
172 195 76
172 196 76
176 198 92
173 196 76
169 193 51
174 197 84
175 198 67
169 192 67
175 198 76
172 195 72
170 193 80
170 193 44
172 195 72
169 193 67
172 195 57
172 196 88
166 190 67
174 198 67
175 198 88
172 196 84
169 193 80
173 196 88
172 195 80
173 196 95
175 198 105
171 194 84
170 193 80
170 193 99
172 194 76
173 196 108
166 190 80
173 196 102
171 194 108
171 194 72
169 193 99
174 198 102
174 196 111
172 196 84
176 199 105
171 194 102
171 194 105
170 194 95
171 194 84
167 190 108
167 190 88
167 190 72
168 191 92
173 197 95
170 194 99
173 196 108
165 188 76
167 190 76
166 189 95
167 190 99
162 186 80
171 194 117
169 193 111
165 188 88
160 183 88
162 185 108
166 189 102
162 185 102
167 190 99
171 194 102
169 193 114
164 186 92
162 186 88
162 186 102
166 189 88
164 186 99
166 189 113
170 193 95
164 187 114
163 186 88
162 185 105
155 179 92
162 185 113
157 180 84
157 180 80
158 181 84
156 180 76
162 184 88
156 178 88
155 177 76
158 181 95
158 179 80
160 182 102
163 185 108
154 176 99
151 173 92
151 173 76
153 174 102
163 185 99
161 182 102
162 184 99
160 181 102
147 169 80
155 175 84
148 169 105
152 172 95
148 168 95
143 164 80
151 170 95
146 166 84
144 163 88
153 173 114
147 166 92
147 166 102
151 169 117
144 163 84
147 165 102
145 164 92
136 155 76
134 152 76
152 171 67
139 157 72
130 147 88
110 128 44
130 148 57
124 141 72
128 147 57
126 143 51
135 152 62
110 126 44
123 140 72
112 129 51
130 144 88
113 130 44
121 140 36
117 136 0
119 138 0
137 157 0
151 170 25
160 180 0
151 170 0
144 163 0
146 167 0
138 157 0
138 157 0
125 142 0
121 139 0
125 142 0
117 133 0
113 131 0
112 129 0
99 115 0
113 129 0
123 142 0
112 130 0
113 131 0
118 136 0
102 120 0
117 134 0
121 139 0
100 118 0
93 110 0
102 119 0
104 121 0
104 120 0
114 131 0
113 129 0
107 124 0
111 129 0
103 120 0
112 129 0
109 126 0
99 117 0
108 124 0
104 121 0
110 128 0
108 124 0
105 122 0
109 126 0
97 114 0
98 115 0
121 139 0
112 129 0
113 130 0
93 109 0
99 116 0
111 128 0
112 130 0
111 128 0
111 128 0
116 132 0
109 126 0
117 135 0
114 130 0
112 131 0
106 125 0
99 116 0
118 135 0
107 124 0
114 130 0
117 133 0
118 136 0
122 140 0
117 137 0
114 134 0
124 141 0
125 143 0
124 143 0
134 153 0
121 141 0
120 139 0
116 134 0
124 142 0
134 152 0
126 144 0
126 146 0
126 143 0
120 138 0
132 152 0
136 154 0
137 157 0
130 146 0
121 138 0
132 150 0
135 155 0
140 161 0
124 142 0
138 157 0
140 161 0
129 149 0
139 158 0
137 157 0
134 155 0
137 157 0
147 166 0
141 160 0
131 149 0
147 167 0
137 158 0
142 162 0
143 161 0
138 159 0
138 158 0
147 165 0
147 167 0
146 167 0
147 167 0
147 166 0
145 166 0
152 172 0
150 171 0
147 169 0
144 164 0
146 165 0
155 175 0
149 169 0
146 168 0
158 177 0
152 170 0
152 173 0
147 168 0
157 177 0
151 170 0
148 167 0
153 174 0
152 172 0
156 176 0
153 173 0
152 172 0
155 177 0
152 172 0
153 173 0
143 164 0
158 177 0
155 175 0
158 179 0
156 175 0
151 173 0
157 178 0
161 181 0
154 175 0
154 172 0
155 175 0
155 176 0
158 179 0
156 176 0
159 181 0
161 182 0
155 176 0
158 180 0
157 177 0
157 177 0
157 177 0
163 184 0
157 177 0
160 179 0
162 183 0
160 181 0
159 179 0
160 180 0
163 182 0
160 182 0
160 179 0
161 182 0
166 187 0
160 181 0
161 182 0
161 182 0
162 183 0
162 183 0
163 185 0
157 177 0
160 180 0
166 188 0
163 184 0
165 187 0
160 180 0
158 180 0
160 180 0
167 188 0
160 181 0
162 183 0
168 187 0
163 183 0
164 185 0
167 187 0
169 189 0
163 181 0
164 186 0
161 182 0
163 184 0
167 187 0
163 183 0
169 189 0
159 180 0
166 186 0
166 188 0
166 186 0
163 184 0
163 185 0
165 187 0
161 179 0
171 194 0
167 188 0
165 186 0
169 189 0
167 187 0
163 182 0
168 189 0
166 187 0
167 188 0
167 190 0
168 190 0
166 188 0
169 190 0
164 185 0
167 189 0
168 189 0
170 193 0
167 187 0
167 189 0
167 189 0
166 187 0
168 189 0
172 194 0
168 188 0
165 186 0
168 190 0
170 191 0
171 193 0
174 196 0
168 189 0
171 194 0
168 190 0
169 191 0
172 192 0
166 188 0
170 192 0
171 192 0
172 195 0
172 194 0
172 194 0
172 194 0
171 193 0
170 192 0
171 194 0
171 193 0
167 188 0
171 194 0
170 192 0
170 191 0
167 190 0
175 198 51
176 199 67
173 196 72
176 199 67
172 196 51
177 199 80
174 197 62
175 198 84
171 194 62
174 196 72
174 197 80
171 194 67
176 199 99
173 197 62
170 192 57
169 192 72
169 192 88
171 194 76
172 196 67
171 195 76
171 193 57
171 195 95
172 194 67
176 199 72
166 190 62
170 193 76
169 193 57
173 196 80
172 195 57
171 195 84
174 198 92
170 193 95
170 193 67
170 193 67
174 197 99
174 197 102
173 196 95
177 199 111
172 195 80
173 197 99
176 198 114
174 196 105
171 193 92
173 196 102
174 197 84
170 194 80
178 200 95
173 196 92
172 195 102
171 194 105
168 191 99
165 188 84
172 195 111
172 195 88
169 191 99
171 195 102
169 193 88
168 191 99
166 190 80
163 187 108
171 195 102
165 189 88
167 191 72
170 192 84
174 197 105
165 187 72
163 187 99
166 189 95
166 189 95
166 190 105
159 182 76
168 191 99
166 189 88
167 189 84
165 189 95
164 186 111
170 194 80
167 190 76
166 189 99
159 182 84
164 187 102
163 186 111
164 188 105
164 186 84
171 193 111
168 192 99
168 192 117
166 189 114
154 177 78
163 186 88
159 182 105
162 184 88
159 181 102
160 183 94
158 180 94
159 182 114
158 181 80
159 181 92
158 180 108
160 182 84
159 183 105
156 177 88
160 182 114
152 173 102
154 176 92
164 185 114
150 172 67
160 181 99
155 177 84
158 179 88
154 177 80
148 169 88
161 181 102
144 166 84
153 174 80
150 171 108
150 170 99
154 175 99
151 171 99
159 178 122
156 176 108
141 161 76
150 171 102
154 173 114
155 173 105
146 165 102
141 159 88
136 155 72
146 164 111
142 161 84
143 161 111
145 162 102
141 159 80
125 144 57
121 139 62
128 145 80
131 148 62
119 137 51
123 140 76
125 142 67
127 145 51
128 145 57
128 145 0
122 140 36
116 134 0
124 141 0
152 174 0
159 180 0
152 172 0
151 171 0
141 162 0
149 169 0
131 150 0
135 153 0
125 144 0
129 147 0
117 134 0
117 132 0
121 138 0
109 124 0
119 137 0
128 146 0
132 151 0
115 133 0
115 131 0
103 120 0
112 130 0
103 119 0
113 131 0
103 120 0
115 132 0
107 124 0
110 128 0
118 136 0
105 122 0
109 126 0
102 118 0
104 120 0
101 117 0
107 124 0
111 128 0
111 128 0
105 122 0
111 128 0
118 136 0
121 139 0
111 129 0
105 122 0
117 134 0
116 133 0
106 123 0
96 112 0
98 114 0
113 131 0
117 135 0
106 124 0
109 127 0
121 138 0
111 129 0
111 128 0
107 125 0
108 125 0
112 130 0
121 138 0
113 132 0
114 134 0
123 141 0
122 141 0
117 134 0
113 131 0
120 140 0
121 139 0
128 147 0
109 126 0
124 144 0
114 132 0
125 143 0
136 155 0
128 146 0
130 149 0
132 152 0
128 147 0
130 148 0
120 139 0
130 148 0
126 144 0
132 152 0
129 147 0
132 152 0
140 158 0
130 148 0
129 148 0
142 161 0
137 157 0
143 162 0
143 164 0
135 156 0
141 160 0
144 163 0
136 154 0
134 153 0
128 147 0
143 163 0
144 164 0
141 160 0
143 161 0
141 162 0
139 158 0
142 162 0
140 158 0
146 165 0
140 160 0
150 170 0
139 158 0
152 172 0
142 164 0
150 170 0
147 169 0
156 177 0
145 166 0
150 168 0
150 171 0
149 168 0
153 173 0
146 168 0
149 169 0
155 174 0
149 169 0
154 174 0
159 179 0
153 173 0
155 175 0
148 167 0
153 174 0
146 168 0
160 178 0
152 172 0
156 176 0
155 175 0
155 176 0
153 172 0
154 173 0
157 176 0
149 170 0
148 168 0
155 175 0
155 175 0
150 172 0
159 180 0
161 181 0
159 180 0
158 178 0
160 181 0
156 175 0
152 172 0
153 173 0
160 180 0
150 172 0
159 180 0
156 176 0
154 174 0
163 182 0
156 176 0
161 182 0
158 178 0
162 184 0
157 176 0
161 180 0
159 179 0
163 186 0
161 181 0
163 183 0
158 176 0
158 179 0
162 180 0
162 184 0
167 186 0
166 188 0
164 185 0
163 184 0
166 186 0
165 185 0
161 183 0
166 187 0
162 181 0
168 189 0
164 184 0
164 184 0
166 186 0
165 186 0
163 184 0
168 189 0
166 188 0
164 186 0
164 185 0
166 188 0
165 185 0
163 185 0
166 187 0
165 187 0
165 186 0
166 186 0
166 187 0
160 181 0
162 186 0
167 187 0
165 188 0
166 187 0
162 184 0
169 191 0
167 188 0
164 185 0
168 190 0
166 188 0
164 184 0
167 190 0
166 185 0
167 189 0
168 189 0
166 188 0
170 192 0
168 187 0
168 190 0
164 185 0
168 190 0
167 188 0
168 190 0
170 189 0
168 189 0
171 194 0
167 188 0
168 191 0
169 192 0
170 192 0
166 187 0
162 183 0
168 189 0
168 189 0
169 190 0
165 187 0
167 188 0
169 190 0
171 193 0
171 193 0
172 193 0
168 190 0
169 190 0
171 193 0
169 191 0
171 193 0
168 188 0
170 191 0
171 192 0
169 192 0
169 191 0
171 194 0
170 192 0
170 194 0
169 191 0
169 192 0
179 201 80
180 201 95
177 200 84
178 201 88
174 196 88
174 197 67
178 200 72
172 195 51
176 199 67
174 196 80
175 197 76
171 193 72
173 195 76
175 198 80
168 190 51
173 196 76
175 198 72
171 194 67
171 194 80
173 195 102
163 185 67
170 192 67
168 190 80
174 198 99
174 197 72
171 194 72
177 200 72
167 190 67
172 195 67
175 198 88
170 193 84
175 198 102
172 196 67
175 199 72
175 198 111
172 195 102
173 196 84
176 199 102
172 195 92
170 193 76
171 194 88
173 196 80
171 193 92
177 199 95
172 196 88
173 196 88
171 193 99
168 192 62
173 197 92
170 193 80
174 196 105
170 193 102
169 193 95
174 198 105
170 194 88
169 192 105
172 196 108
169 193 111
173 196 99
172 195 105
160 183 88
166 189 80
170 194 105
169 193 102
166 190 80
169 192 99
168 192 95
174 197 99
167 191 80
160 184 84
162 186 92
169 193 102
161 185 105
166 189 80
163 187 108
161 186 105
162 186 95
165 188 114
162 185 76
160 183 76
163 186 76
164 188 99
163 186 76
167 189 92
166 190 102
162 185 76
161 184 92
166 189 99
161 184 92
161 185 95
161 183 84
165 187 99
160 183 95
161 185 111
157 179 88
160 182 92
160 183 92
173 196 108
162 184 80
164 186 105
163 184 95
161 183 122
155 177 102
156 178 84
158 179 99
162 184 105
156 177 95
149 171 84
150 170 84
158 179 114
160 182 95
163 184 114
158 179 111
152 173 95
153 174 92
151 171 108
151 172 92
155 175 108
150 169 108
159 178 99
145 164 88
137 157 95
155 173 117
152 171 92
131 149 76
144 162 105
138 156 88
147 165 102
145 164 92
137 156 95
132 150 72
149 167 88
129 146 72
129 148 36
122 141 51
120 138 51
132 150 51
135 153 57
119 136 57
123 141 51
127 144 57
120 138 25
112 131 0
129 148 0
114 132 0
130 149 0
149 167 0
158 178 0
152 172 0
146 166 0
147 168 0
138 157 0
137 157 0
136 154 0
118 137 0
114 132 0
123 141 0
127 145 0
122 139 0
128 147 0
122 140 0
118 136 0
115 135 0
118 137 0
116 134 0
97 114 0
113 132 0
120 139 0
115 133 0
119 135 0
118 135 0
101 118 0
107 125 0
111 128 0
119 136 0
102 121 0
111 130 0
101 119 0
126 143 0
107 124 0
101 119 0
114 132 0
114 133 0
110 127 0
113 131 0
106 123 0
117 136 0
127 145 0
122 140 0
121 139 0
116 134 0
98 117 0
113 130 0
109 127 0
119 137 0
114 132 0
104 122 0
116 134 0
115 133 0
105 123 0
121 140 0
102 120 0
122 139 0
119 137 0
117 135 0
125 144 0
129 148 0
132 150 0
126 144 0
124 143 0
116 133 0
119 137 0
126 145 0
120 139 0
130 148 0
124 142 0
128 146 0
127 147 0
131 152 0
121 140 0
130 149 0
120 138 0
127 146 0
128 148 0
139 159 0
136 155 0
128 147 0
137 156 0
133 153 0
139 158 0
132 152 0
134 154 0
127 146 0
137 157 0
137 156 0
138 156 0
144 164 0
138 156 0
139 157 0
138 156 0
135 154 0
134 155 0
143 165 0
149 170 0
140 160 0
135 153 0
141 163 0
136 157 0
140 157 0
157 178 0
147 166 0
141 161 0
141 162 0
145 168 0
147 166 0
148 169 0
151 173 0
138 156 0
156 176 0
156 176 0
148 168 0
145 167 0
149 169 0
155 175 0
148 168 0
150 172 0
152 172 0
151 171 0
150 171 0
157 177 0
146 166 0
147 167 0
151 171 0
154 174 0
147 167 0
159 178 0
155 175 0
148 168 0
150 172 0
156 178 0
152 171 0
143 163 0
157 176 0
155 176 0
157 176 0
150 169 0
157 179 0
156 176 0
155 175 0
157 180 0
160 181 0
156 176 0
163 184 0
158 179 0
161 182 0
152 172 0
156 178 0
154 175 0
158 178 0
166 184 0
156 174 0
159 180 0
155 175 0
157 178 0
153 174 0
159 179 0
165 185 0
159 178 0
161 182 0
160 181 0
163 180 0
161 182 0
160 182 0
159 181 0
161 181 0
165 186 0
161 180 0
165 184 0
156 175 0
166 186 0
167 187 0
162 181 0
166 187 0
161 181 0
164 184 0
163 184 0
168 188 0
164 184 0
166 187 0
167 188 0
167 187 0
164 184 0
167 188 0
166 187 0
166 187 0
169 190 0
166 188 0
167 188 0
164 183 0
164 185 0
169 189 0
167 189 0
162 184 0
168 190 0
163 183 0
166 187 0
162 183 0
165 187 0
168 190 0
166 187 0
166 186 0
163 186 0
167 188 0
168 190 0
170 192 0
166 188 0
172 195 0
166 189 0
167 189 0
166 188 0
168 188 0
166 188 0
170 191 0
167 188 0
171 192 0
167 189 0
163 184 0
167 187 0
170 191 0
170 191 0
166 187 0
169 191 0
165 186 0
166 187 0
172 196 0
166 187 0
168 189 0
167 189 0
168 190 0
171 194 0
169 191 0
170 192 0
170 192 0
168 190 0
171 194 0
166 188 0
167 188 0
170 192 0
169 190 0
170 192 0
171 192 0
170 190 0
170 193 0
172 193 0
169 191 0
168 190 0
169 190 0
166 188 0
170 194 0
171 193 0
174 197 62
177 199 80
178 200 84
175 198 62
176 199 76
175 198 62
176 199 84
171 194 62
178 200 76
171 195 44
172 196 62
175 198 72
172 196 67
169 192 76
169 192 84
175 197 72
170 193 76
169 193 76
172 195 84
171 194 80
173 196 76
166 189 44
172 194 84
170 194 80
170 194 67
169 192 57
170 194 62
168 191 57
173 195 92
171 194 67
171 194 84
168 192 72
178 200 108
173 195 88
177 198 95
174 197 88
176 199 111
173 197 88
175 198 105
175 198 99
174 198 111
174 196 105
175 198 102
170 193 95
174 198 92
171 194 92
174 197 95
168 191 84
171 194 88
169 192 76
172 195 108
175 198 102
177 199 80
169 193 84
174 197 99
170 194 99
166 189 105
173 197 102
168 192 102
168 192 92
166 190 92
163 187 88
174 197 102
167 190 99
174 198 120
162 186 99
167 191 76
167 190 88
165 187 88
166 189 99
170 194 88
163 187 84
166 190 99
165 189 84
161 184 84
164 187 102
163 186 88
158 181 76
166 190 95
163 185 80
169 192 108
164 188 84
161 185 95
162 184 105
158 181 99
169 192 117
162 184 84
162 184 95
155 179 92
161 183 92
161 184 110
155 179 95
159 182 67
165 189 102
162 185 99
160 183 102
157 180 84
160 183 102
156 178 80
159 181 88
164 186 111
167 189 99
155 177 95
163 185 114
158 180 67
160 181 111
159 181 95
155 176 95
159 181 105
151 172 80
154 174 84
153 174 95
151 172 76
154 174 99
143 163 88
154 175 95
162 182 111
143 163 102
158 178 105
154 174 105
159 179 108
152 172 92
153 173 84
146 165 99
145 164 80
147 167 105
137 155 76
141 159 99
147 166 84
156 175 99
139 158 95
134 152 84
136 155 72
121 138 51
128 147 44
126 144 57
131 149 57
124 141 44
137 155 67
120 136 51
129 146 80
131 150 25
134 153 0
132 151 36
140 160 44
127 146 0
147 167 0
159 180 0
153 174 0
150 168 0
146 168 0
147 168 0
147 166 0
123 141 0
122 141 0
135 155 0
120 137 0
129 147 0
119 136 0
125 144 0
111 130 0
124 142 0
113 132 0
114 130 0
121 140 0
117 136 0
103 120 0
121 139 0
117 135 0
114 132 0
117 135 0
108 126 0
113 132 0
116 134 0
120 137 0
116 133 0
110 128 0
109 128 0
115 133 0
112 131 0
102 120 0
104 120 0
103 122 0
116 135 0
114 132 0
116 132 0
94 110 0
111 129 0
126 144 0
124 141 0
126 143 0
121 141 0
110 127 0
123 141 0
130 149 0
123 140 0
114 133 0
115 134 0
113 131 0
121 139 0
120 138 0
123 144 0
127 145 0
104 121 0
112 131 0
108 127 0
129 147 0
125 143 0
132 151 0
119 135 0
121 139 0
127 145 0
135 155 0
111 129 0
119 138 0
131 150 0
124 142 0
131 150 0
138 158 0
130 150 0
132 150 0
129 149 0
133 152 0
130 150 0
133 152 0
133 153 0
132 153 0
130 149 0
126 145 0
139 159 0
129 148 0
133 152 0
135 154 0
143 164 0
129 149 0
135 154 0
136 154 0
142 163 0
136 155 0
149 168 0
145 163 0
149 170 0
144 165 0
144 164 0
148 168 0
144 166 0
146 166 0
137 157 0
143 163 0
138 157 0
148 168 0
139 158 0
138 158 0
146 165 0
151 171 0
150 169 0
141 160 0
154 175 0
150 172 0
148 169 0
149 169 0
156 177 0
156 176 0
151 172 0
142 163 0
149 169 0
151 171 0
147 167 0
154 176 0
153 173 0
150 170 0
149 168 0
151 170 0
154 175 0
151 173 0
152 174 0
156 178 0
158 179 0
153 172 0
149 171 0
160 182 0
160 181 0
160 180 0
155 175 0
159 180 0
150 171 0
155 177 0
160 181 0
155 175 0
159 178 0
157 179 0
156 176 0
160 179 0
152 174 0
158 179 0
162 182 0
162 184 0
156 175 0
160 181 0
158 179 0
158 179 0
166 188 0
160 181 0
161 183 0
158 179 0
158 177 0
163 184 0
170 190 0
157 179 0
159 179 0
161 182 0
165 185 0
167 185 0
159 179 0
163 183 0
160 179 0
160 181 0
165 186 0
166 188 0
162 182 0
161 181 0
161 182 0
161 182 0
160 181 0
163 185 0
161 181 0
163 184 0
166 187 0
159 180 0
162 181 0
162 183 0
161 181 0
169 190 0
162 182 0
162 184 0
166 188 0
163 184 0
158 179 0
170 192 0
165 187 0
164 185 0
164 184 0
165 187 0
165 187 0
166 188 0
166 187 0
170 191 0
163 185 0
169 190 0
167 189 0
170 192 0
167 188 0
164 185 0
167 186 0
166 187 0
168 189 0
168 190 0
166 186 0
161 182 0
165 187 0
167 190 0
168 190 0
169 189 0
163 184 0
168 189 0
166 186 0
169 192 0
169 188 0
167 188 0
170 192 0
166 188 0
170 191 0
169 191 0
171 193 0
170 192 0
168 190 0
168 190 0
168 192 0
169 191 0
169 189 0
169 190 0
166 188 0
171 193 0
168 189 0
168 190 0
172 193 0
167 188 0
169 192 0
169 191 0
171 193 0
169 190 0
170 192 0
170 192 0
172 194 0
170 192 0
169 191 0
172 194 0
167 190 0
172 193 0
167 189 0
176 198 57
175 198 67
178 200 76
177 199 76
177 200 76
174 197 62
174 197 67
173 196 62
177 199 88
176 198 88
172 195 67
178 200 99
170 192 67
171 194 62
172 195 84
174 197 76
165 189 51
172 195 72
174 197 80
170 193 84
166 189 57
170 194 67
170 194 76
174 196 76
175 196 80
170 193 67
173 196 92
173 196 76
175 197 80
172 195 62
174 197 76
178 201 102
171 194 92
173 196 92
173 197 95
175 198 84
175 198 105
173 196 95
169 192 95
176 199 92
176 198 122
170 193 84
173 196 99
177 201 117
173 197 88
177 200 99
173 196 111
170 194 80
172 195 99
172 196 111
171 194 84
172 195 111
172 194 80
176 198 95
171 194 102
168 191 114
170 193 95
163 187 88
168 191 95
168 191 72
168 192 88
172 195 84
172 196 102
168 192 76
166 190 108
171 194 92
170 194 108
169 193 95
166 190 84
169 193 99
167 191 95
165 188 67
170 193 102
170 194 105
166 190 111
161 185 80
167 189 102
157 180 80
164 188 80
165 189 114
165 188 76
168 191 102
160 183 102
164 187 95
158 181 99
165 189 105
164 186 102
153 175 102
163 186 95
162 185 92
161 184 99
164 187 105
159 182 92
161 184 105
168 191 111
161 184 80
155 177 88
159 182 80
159 181 102
165 187 102
163 185 99
154 176 76
155 178 95
159 181 105
164 186 108
152 175 76
152 173 95
152 174 84
158 180 102
157 178 117
152 172 102
160 181 95
143 163 88
157 176 111
159 179 130
151 173 95
153 173 105
156 177 95
148 168 80
148 168 88
142 162 88
148 167 95
155 175 111
156 174 105
141 160 76
147 167 76
155 174 120
142 160 72
135 154 57
141 160 84
150 169 95
139 158 67
138 157 51
128 147 36
136 154 72
133 151 57
126 145 36
127 147 25
133 151 62
129 146 57
129 147 25
128 147 36
137 156 25
136 156 25
127 146 25
140 160 0
148 169 0
164 184 0
157 177 0
149 171 0
153 173 0
146 167 0
128 148 0
130 149 0
130 149 0
126 145 0
133 153 0
141 159 0
116 133 0
126 144 0
115 133 0
126 145 0
125 143 0
125 145 0
114 131 0
114 133 0
107 125 0
119 138 0
108 125 0
111 128 0
111 129 0
117 135 0
122 141 0
110 127 0
119 138 0
117 137 0
109 127 0
110 127 0
112 131 0
120 138 0
109 125 0
111 129 0
111 129 0
106 123 0
107 125 0
105 122 0
112 130 0
108 126 0
116 133 0
114 132 0
98 116 0
115 133 0
121 141 0
109 127 0
114 131 0
112 130 0
124 142 0
124 142 0
116 134 0
132 150 0
119 137 0
121 140 0
124 143 0
123 142 0
133 152 0
123 142 0
122 141 0
118 138 0
128 145 0
130 148 0
111 131 0
129 148 0
123 143 0
121 138 0
130 148 0
123 143 0
127 146 0
132 151 0
134 155 0
121 140 0
128 148 0
137 157 0
134 152 0
135 155 0
141 160 0
141 161 0
138 157 0
137 157 0
131 151 0
131 150 0
133 151 0
137 157 0
131 150 0
145 164 0
137 157 0
134 153 0
135 155 0
132 152 0
139 158 0
142 163 0
144 164 0
139 158 0
140 159 0
143 163 0
150 169 0
139 159 0
138 157 0
140 160 0
148 167 0
141 160 0
145 165 0
146 166 0
146 166 0
150 171 0
144 164 0
151 171 0
149 170 0
150 170 0
143 163 0
151 171 0
147 169 0
154 175 0
155 176 0
147 169 0
147 168 0
143 163 0
149 170 0
152 172 0
157 178 0
150 171 0
157 179 0
154 175 0
158 179 0
154 173 0
149 170 0
163 182 0
157 177 0
158 179 0
158 180 0
157 179 0
153 174 0
159 180 0
157 177 0
160 181 0
159 179 0
154 173 0
155 175 0
159 180 0
153 175 0
154 175 0
164 184 0
160 181 0
158 181 0
164 186 0
161 182 0
159 180 0
156 177 0
158 178 0
160 180 0
158 179 0
158 181 0
159 178 0
159 178 0
154 176 0
159 180 0
162 183 0
165 186 0
158 178 0
166 189 0
164 185 0
156 177 0
160 181 0
163 185 0
165 185 0
159 179 0
161 183 0
161 181 0
165 187 0
160 179 0
163 185 0
165 185 0
162 183 0
169 189 0
169 190 0
166 187 0
163 184 0
163 184 0
165 187 0
161 181 0
167 189 0
164 185 0
164 183 0
165 186 0
162 182 0
164 184 0
165 185 0
161 181 0
167 188 0
166 187 0
163 186 0
166 188 0
168 188 0
167 189 0
165 187 0
164 182 0
165 186 0
166 186 0
168 189 0
166 188 0
167 188 0
168 190 0
166 187 0
166 188 0
171 191 0
169 192 0
164 186 0
167 189 0
169 191 0
169 190 0
165 185 0
169 190 0
166 186 0
168 190 0
169 190 0
170 192 0
171 192 0
170 192 0
167 188 0
172 193 0
168 190 0
170 192 0
167 189 0
168 191 0
171 193 0
171 191 0
172 192 0
167 187 0
169 191 0
166 188 0
170 191 0
170 191 0
170 193 0
167 190 0
172 195 0
172 193 0
168 190 0
170 192 0
169 192 0
167 188 0
167 190 0
172 194 0
170 191 0
169 192 0
170 192 0
170 191 0
171 192 0
167 189 0
171 194 0
170 194 0
171 193 0
173 195 44
175 197 51
174 197 57
179 202 84
174 196 76
178 199 88
177 200 67
173 196 67
173 196 67
172 195 67
175 197 80
170 193 51
174 197 76
174 197 67
171 194 76
166 189 72
177 200 95
168 191 57
168 190 72
166 189 57
171 194 67
168 191 62
171 194 84
173 197 72
173 196 80
170 194 67
174 197 67
171 194 76
172 195 80
174 197 84
176 198 92
169 192 57
176 198 76
177 200 102
173 197 99
171 195 80
178 200 88
176 198 102
177 199 102
171 194 88
172 196 92
178 201 125
173 196 92
174 198 95
172 195 99
167 191 76
174 198 92
172 195 99
170 193 76
168 190 105
175 198 120
171 194 80
172 196 95
171 194 102
173 196 95
169 192 92
167 191 114
169 192 84
173 196 108
165 189 92
173 196 102
170 194 99
175 199 102
172 195 88
169 192 111
166 190 84
170 193 88
160 184 88
163 187 95
172 195 88
171 194 102
167 190 92
167 190 114
166 189 88
168 191 95
165 188 88
167 190 120
162 186 95
161 183 80
169 193 102
162 185 95
166 188 95
166 189 99
161 184 80
161 184 99
166 189 95
164 188 108
158 181 80
167 190 120
166 189 95
164 188 120
155 178 108
159 182 95
160 182 105
158 181 92
166 189 102
164 186 99
162 183 80
164 186 76
156 178 95
156 178 117
163 185 95
164 185 108
160 182 102
160 182 105
170 193 125
157 178 95
163 185 80
155 177 72
151 172 92
153 174 84
152 173 102
148 170 72
147 168 95
150 171 88
153 175 95
147 168 80
152 172 108
155 175 108
152 172 102
149 168 105
152 172 84
141 160 102
145 164 95
160 179 120
140 159 76
146 166 76
150 167 102
148 167 80
142 162 72
152 170 105
136 154 72
130 149 62
124 143 44
122 142 57
135 154 67
138 157 57
128 146 51
118 138 25
128 147 44
130 149 0
126 145 36
124 143 25
131 151 36
132 150 0
137 157 0
146 164 0
152 174 0
156 177 0
154 175 0
150 170 0
146 165 0
141 162 0
146 167 0
129 150 0
128 146 0
135 154 0
131 149 0
118 137 0
132 151 0
137 157 0
128 147 0
127 147 0
117 137 0
119 138 0
129 147 0
122 141 0
113 130 0
114 133 0
115 134 0
126 146 0
116 134 0
104 121 0
105 123 0
114 133 0
119 137 0
115 132 0
130 149 0
115 134 0
103 120 0
112 130 0
120 139 0
110 129 0
128 147 0
115 133 0
114 130 0
117 135 0
117 135 0
120 138 0
123 142 0
129 148 0
118 136 0
119 139 0
121 140 0
124 143 0
120 139 0
126 144 0
128 147 0
111 130 0
122 140 0
127 146 0
124 143 0
130 150 0
126 144 0
121 140 0
121 139 0
118 137 0
114 132 0
118 136 0
122 140 0
118 138 0
122 141 0
117 136 0
126 146 0
120 139 0
128 146 0
127 147 0
127 146 0
127 147 0
129 148 0
123 142 0
133 154 0
130 147 0
132 152 0
138 158 0
130 149 0
135 154 0
135 156 0
139 159 0
139 161 0
138 159 0
144 165 0
141 161 0
142 162 0
137 156 0
139 160 0
132 151 0
140 161 0
146 168 0
150 171 0
147 169 0
141 161 0
144 164 0
143 165 0
147 166 0
146 167 0
137 158 0
156 174 0
144 163 0
140 160 0
142 164 0
151 171 0
151 170 0
145 166 0
153 174 0
146 166 0
145 164 0
148 169 0
153 175 0
153 173 0
150 170 0
150 170 0
153 174 0
151 171 0
154 175 0
151 172 0
147 167 0
154 174 0
152 171 0
151 172 0
147 169 0
157 178 0
147 167 0
152 173 0
159 182 0
152 173 0
146 167 0
149 169 0
156 176 0
157 177 0
149 169 0
152 173 0
163 183 0
157 177 0
158 179 0
157 178 0
159 180 0
149 168 0
162 182 0
157 178 0
162 183 0
157 178 0
162 181 0
161 182 0
157 177 0
162 183 0
162 184 0
164 187 0
155 174 0
156 175 0
162 181 0
162 184 0
160 181 0
161 180 0
165 186 0
150 171 0
163 184 0
155 174 0
159 180 0
162 185 0
153 173 0
164 185 0
160 180 0
160 181 0
162 183 0
159 181 0
159 180 0
165 187 0
159 179 0
165 187 0
163 184 0
162 184 0
167 188 0
169 190 0
161 182 0
160 180 0
166 187 0
162 185 0
163 183 0
165 186 0
165 185 0
160 181 0
165 186 0
168 190 0
168 189 0
160 180 0
168 189 0
169 191 0
167 188 0
162 184 0
166 186 0
168 190 0
164 186 0
167 187 0
162 184 0
170 191 0
165 186 0
167 188 0
167 187 0
169 191 0
165 186 0
165 187 0
166 188 0
169 191 0
167 188 0
166 188 0
168 190 0
168 188 0
169 191 0
170 193 0
169 191 0
164 186 0
170 191 0
169 190 0
168 190 0
166 188 0
167 189 0
167 190 0
168 191 0
170 192 0
169 192 0
169 192 0
172 194 0
171 192 0
167 189 0
164 187 0
171 194 0
167 190 0
167 189 0
166 186 0
170 192 0
169 191 0
169 189 0
168 191 0
170 191 0
170 193 0
170 191 0
170 193 0
169 192 0
170 193 0
168 191 0
173 195 0
171 193 0
170 194 0
171 193 0
170 191 0
170 192 0
172 195 0
170 192 0
166 188 0
177 199 76
176 199 67
175 198 51
176 198 88
175 197 80
175 197 72
174 196 76
175 197 72
177 199 95
174 197 84
179 201 92
173 195 76
176 199 92
177 200 95
175 197 99
174 197 88
171 194 84
172 195 76
172 195 57
163 186 67
172 195 76
170 193 67
169 193 67
170 193 76
170 193 72
173 196 72
174 198 88
172 195 95
170 193 62
176 199 99
172 195 99
177 201 95
179 201 111
177 200 108
176 198 84
173 196 88
176 198 84
175 198 84
172 194 95
172 195 72
173 196 95
175 198 95
169 192 88
175 198 92
174 198 99
173 195 88
169 192 72
170 193 99
177 200 128
171 194 84
173 195 88
173 197 108
171 193 92
172 196 88
173 196 95
168 191 88
162 186 72
171 194 99
167 190 95
172 195 80
167 191 102
171 194 84
164 188 67
170 193 88
166 189 105
175 198 108
169 192 95
164 188 114
168 193 99
164 187 92
166 189 76
166 189 102
164 187 92
167 190 108
163 185 84
162 183 88
164 187 88
164 187 92
166 189 95
166 188 95
171 193 95
160 183 84
161 186 102
157 180 95
171 193 95
169 192 108
163 186 95
159 182 99
158 181 92
163 186 95
164 187 95
162 185 80
165 188 108
155 178 99
162 186 88
154 177 84
163 187 95
165 187 122
160 182 95
165 187 111
156 178 76
159 182 92
161 183 80
159 182 95
160 182 105
157 178 99
159 180 84
156 177 95
158 179 84
162 183 108
159 179 102
164 186 111
162 184 95
153 173 99
151 172 99
152 173 92
159 180 120
145 165 84
151 171 84
162 182 111
160 180 108
159 179 88
156 176 102
153 172 102
151 169 99
146 164 111
155 173 114
156 175 120
139 158 84
137 156 44
140 160 76
145 165 51
142 162 36
138 158 57
130 150 51
131 150 72
138 156 67
137 157 57
138 156 72
122 141 0
130 150 44
130 150 36
142 162 25
139 159 0
148 168 0
138 158 25
159 180 0
158 179 0
148 168 0
148 169 0
146 166 0
147 166 0
139 160 0
130 149 0
137 156 0
134 154 0
124 143 0
122 141 0
127 147 0
112 130 0
134 154 0
125 143 0
138 158 0
135 155 0
117 135 0
127 146 0
118 137 0
119 137 0
134 153 0
129 148 0
125 144 0
115 135 0
115 134 0
118 137 0
128 147 0
121 140 0
118 136 0
117 136 0
116 135 0
125 144 0
112 129 0
124 143 0
131 150 0
110 127 0
112 130 0
128 148 0
114 133 0
126 145 0
107 126 0
117 136 0
117 134 0
127 146 0
125 145 0
123 143 0
122 140 0
121 139 0
117 136 0
109 126 0
130 150 0
120 139 0
117 134 0
125 144 0
118 138 0
132 150 0
131 151 0
135 155 0
128 147 0
118 138 0
128 148 0
126 144 0
128 146 0
129 148 0
131 152 0
119 138 0
129 150 0
126 144 0
130 148 0
137 157 0
128 147 0
143 162 0
137 155 0
126 145 0
131 151 0
132 152 0
135 154 0
133 153 0
144 164 0
140 161 0
135 155 0
140 160 0
137 157 0
144 165 0
144 164 0
137 157 0
142 160 0
140 161 0
142 160 0
142 162 0
136 157 0
146 165 0
135 155 0
141 160 0
142 163 0
141 163 0
148 168 0
147 169 0
140 159 0
141 160 0
140 161 0
149 171 0
149 168 0
141 161 0
152 171 0
148 170 0
148 167 0
152 173 0
155 175 0
155 176 0
145 165 0
142 164 0
156 178 0
148 169 0
144 164 0
148 168 0
151 172 0
154 175 0
158 177 0
156 177 0
155 175 0
154 174 0
149 170 0
152 174 0
157 178 0
152 172 0
157 178 0
152 174 0
154 175 0
150 170 0
159 180 0
156 177 0
147 169 0
154 175 0
157 178 0
149 169 0
156 178 0
156 176 0
156 175 0
159 180 0
160 181 0
154 174 0
161 182 0
161 184 0
155 177 0
156 179 0
155 176 0
160 182 0
155 176 0
157 178 0
161 182 0
163 184 0
162 183 0
163 185 0
160 181 0
159 180 0
165 187 0
163 185 0
156 176 0
162 184 0
158 178 0
165 186 0
158 179 0
161 181 0
163 185 0
166 187 0
158 179 0
165 186 0
164 185 0
165 186 0
164 185 0
164 186 0
161 182 0
166 189 0
164 185 0
158 176 0
166 188 0
160 181 0
164 185 0
169 191 0
159 180 0
163 183 0
166 187 0
165 185 0
165 187 0
167 185 0
159 181 0
165 187 0
163 185 0
169 190 0
169 191 0
166 187 0
167 189 0
165 188 0
166 186 0
168 188 0
170 192 0
166 185 0
168 191 0
171 193 0
169 191 0
166 187 0
168 190 0
169 190 0
167 189 0
171 193 0
168 191 0
167 189 0
169 191 0
167 188 0
168 189 0
166 187 0
169 191 0
167 189 0
167 188 0
168 189 0
170 192 0
168 190 0
167 190 0
165 188 0
166 187 0
168 188 0
168 190 0
170 192 0
167 189 0
171 193 0
166 187 0
169 191 0
170 192 0
171 193 0
169 191 0
169 191 0
166 189 0
170 192 0
170 192 0
170 190 0
168 191 0
168 190 0
169 193 0
168 191 0
168 191 0
172 193 0
170 190 0
173 194 0
170 190 0
169 192 0
170 191 0
172 193 0
170 193 0
173 196 0
171 194 0
171 193 0
176 199 57
177 199 62
171 194 51
176 199 67
172 196 62
176 198 88
173 196 67
174 197 67
176 199 88
171 193 76
174 196 57
175 198 72
174 197 76
178 200 92
173 196 80
170 193 67
172 196 51
174 196 76
172 195 72
169 191 67
168 192 44
168 192 80
170 192 72
166 189 62
176 198 99
172 195 57
175 197 92
177 199 80
178 201 84
174 197 62
173 196 84
178 200 122
178 200 95
174 196 88
172 195 76
171 195 84
175 198 108
174 198 108
173 196 92
176 198 99
171 194 114
171 194 80
175 197 102
173 195 76
168 192 88
166 189 80
170 193 76
170 193 108
175 198 108
169 193 80
172 195 95
176 199 102
175 198 108
176 199 108
173 196 102
167 191 92
169 192 92
172 196 102
165 189 92
172 195 117
174 198 102
167 190 92
170 193 76
167 190 72
167 190 99
167 191 99
171 195 120
170 194 111
164 187 99
165 188 95
167 191 111
167 191 102
168 191 88
165 189 92
163 187 88
169 192 95
161 184 84
158 182 72
158 181 80
174 197 122
157 180 80
166 189 80
169 193 117
170 192 88
165 187 88
162 184 76
165 188 111
168 191 102
164 188 105
165 187 105
161 184 105
160 183 95
156 179 67
166 189 114
168 191 108
158 181 84
160 182 105
153 176 84
158 179 99
162 184 88
159 181 102
154 176 76
165 188 114
170 191 105
155 177 105
168 190 105
154 175 80
161 183 88
161 183 108
153 174 99
160 182 84
161 181 111
153 174 92
160 181 99
163 184 111
150 171 88
151 172 80
150 171 88
157 178 95
149 168 105
150 170 108
151 171 80
148 167 80
158 177 117
153 173 88
145 166 76
141 161 84
150 168 95
168 187 111
154 173 84
149 168 84
136 155 57
151 170 67
132 151 44
147 167 62
140 160 57
137 155 67
142 161 67
139 159 51
133 153 25
141 161 0
133 153 36
144 165 25
137 156 44
139 159 25
143 164 25
155 175 0
157 179 0
161 183 0
151 171 0
149 170 0
153 173 0
143 165 0
131 151 0
130 150 0
120 141 0
131 150 0
116 136 0
131 150 0
124 142 0
127 148 0
129 149 0
120 140 0
132 152 0
120 140 0
125 144 0
128 146 0
124 144 0
123 143 0
130 149 0
122 141 0
123 141 0
131 151 0
112 130 0
124 142 0
117 136 0
112 130 0
126 145 0
116 135 0
122 141 0
125 144 0
125 145 0
120 138 0
132 151 0
121 140 0
124 143 0
121 140 0
118 138 0
124 143 0
116 134 0
126 145 0
127 145 0
130 149 0
123 141 0
119 138 0
130 149 0
126 145 0
127 145 0
129 148 0
134 153 0
114 133 0
126 145 0
127 145 0
131 151 0
121 141 0
123 143 0
131 150 0
128 148 0
126 145 0
129 148 0
133 152 0
131 151 0
129 147 0
127 145 0
130 151 0
134 153 0
128 148 0
136 157 0
132 152 0
134 153 0
135 155 0
133 152 0
144 164 0
131 152 0
137 156 0
140 158 0
137 157 0
137 157 0
135 155 0
140 162 0
140 161 0
122 139 0
145 165 0
146 167 0
133 153 0
146 167 0
140 160 0
143 163 0
132 154 0
138 157 0
137 158 0
143 162 0
141 161 0
143 163 0
143 164 0
151 172 0
144 164 0
140 161 0
145 167 0
151 172 0
147 169 0
152 174 0
146 166 0
152 173 0
153 173 0
149 171 0
147 166 0
151 173 0
144 164 0
146 166 0
149 170 0
148 169 0
158 178 0
150 171 0
149 169 0
153 176 0
150 169 0
150 172 0
151 172 0
158 178 0
150 171 0
151 171 0
160 180 0
159 180 0
160 182 0
152 173 0
154 174 0
150 171 0
155 177 0
156 178 0
155 173 0
150 170 0
158 179 0
151 172 0
152 172 0
156 177 0
161 181 0
152 173 0
154 174 0
154 175 0
155 177 0
164 184 0
158 179 0
156 176 0
157 178 0
162 184 0
161 182 0
165 187 0
163 185 0
160 181 0
157 175 0
160 181 0
166 185 0
160 181 0
161 183 0
158 178 0
158 177 0
163 184 0
157 177 0
164 185 0
161 181 0
161 182 0
159 179 0
167 188 0
164 185 0
163 184 0
165 185 0
159 179 0
160 181 0
163 184 0
164 185 0
167 188 0
163 183 0
159 179 0
162 184 0
165 186 0
161 182 0
164 185 0
166 187 0
169 191 0
164 184 0
166 188 0
168 189 0
167 189 0
160 180 0
168 190 0
167 186 0
164 187 0
168 190 0
172 192 0
163 186 0
163 184 0
161 182 0
164 186 0
163 184 0
166 187 0
160 181 0
164 185 0
165 187 0
165 186 0
166 186 0
169 191 0
164 185 0
167 188 0
169 191 0
169 191 0
169 192 0
168 189 0
168 190 0
166 189 0
166 188 0
167 190 0
165 188 0
166 187 0
165 185 0
170 192 0
166 189 0
168 191 0
171 193 0
167 190 0
165 187 0
170 192 0
170 191 0
167 189 0
167 189 0
168 191 0
166 187 0
169 189 0
169 192 0
169 190 0
168 188 0
169 191 0
166 187 0
167 188 0
169 190 0
172 194 0
170 192 0
167 189 0
170 192 0
170 192 0
167 188 0
170 193 0
170 193 0
170 192 0
168 189 0
169 191 0
170 193 0
168 189 0
170 192 0
167 188 0
173 196 51
174 197 25
173 196 67
173 195 88
175 197 67
178 201 84
175 198 76
176 199 76
176 198 72
175 197 76
176 199 80
172 194 62
174 197 72
178 200 92
169 193 62
174 196 67
177 199 95
168 191 67
172 194 76
172 194 88
170 193 67
170 194 80
169 192 72
173 195 92
176 198 92
176 199 80
177 199 88
176 199 88
173 196 72
174 197 88
176 199 95
175 197 108
176 199 92
173 195 114
174 197 84
176 199 111
176 198 102
170 193 84
172 195 92
177 199 108
170 194 88
175 198 102
177 199 111
172 196 76
170 193 76
174 198 111
172 195 114
169 192 76
171 195 92
173 196 88
172 195 72
171 194 105
171 194 99
174 198 88
168 192 95
166 189 80
172 195 114
168 192 99
164 188 80
172 195 88
172 196 88
164 187 99
172 196 80
168 191 80
172 196 108
174 198 99
169 192 88
173 197 92
162 186 80
165 189 105
169 192 108
167 191 111
163 186 80
166 188 88
167 190 102
163 186 105
167 191 88
163 187 84
161 184 80
162 185 92
164 186 99
167 190 99
160 184 80
164 187 92
162 184 88
159 181 76
162 186 80
166 189 114
164 187 84
160 183 95
160 183 102
159 182 95
158 180 84
160 183 95
165 188 95
165 188 95
167 189 102
162 184 102
163 185 111
154 177 95
163 186 99
157 178 72
159 181 80
164 186 108
162 184 111
157 178 72
148 170 88
160 182 108
149 171 88
149 170 84
157 178 95
153 175 95
155 176 108
160 181 92
154 176 80
156 177 99
160 180 111
159 180 108
149 169 99
154 173 95
159 179 108
155 175 88
161 182 102
154 174 92
139 159 76
141 162 72
143 163 80
134 155 72
146 165 99
145 165 62
144 165 72
146 165 80
148 167 95
138 159 62
132 151 51
133 152 51
142 161 72
140 158 67
130 151 25
139 159 25
134 153 25
137 158 25
129 149 0
147 168 25
135 155 25
145 167 25
155 177 0
158 178 0
156 177 0
155 175 0
154 177 0
156 177 0
132 153 0
148 169 0
139 159 0
144 164 0
125 145 0
131 151 0
127 147 0
129 149 0
125 144 0
140 160 0
125 145 0
129 148 0
120 139 0
124 145 0
120 140 0
124 144 0
122 142 0
130 149 0
130 149 0
128 147 0
122 141 0
121 139 0
123 143 0
118 137 0
129 147 0
123 142 0
111 131 0
136 155 0
124 144 0
127 146 0
125 146 0
129 149 0
127 146 0
119 138 0
125 145 0
129 148 0
111 130 0
118 137 0
125 145 0
118 136 0
127 146 0
138 158 0
119 140 0
110 129 0
114 133 0
125 144 0
127 145 0
111 130 0
126 145 0
126 146 0
130 150 0
126 145 0
132 153 0
136 157 0
134 155 0
132 151 0
127 148 0
128 147 0
127 145 0
136 157 0
143 162 0
135 155 0
124 144 0
144 163 0
144 165 0
140 161 0
135 154 0
139 158 0
133 153 0
137 157 0
135 155 0
146 165 0
141 161 0
141 160 0
135 154 0
145 165 0
134 155 0
139 158 0
142 162 0
144 164 0
134 153 0
142 162 0
138 158 0
143 163 0
146 167 0
140 161 0
145 165 0
142 163 0
138 160 0
147 165 0
148 169 0
146 167 0
145 165 0
144 164 0
146 165 0
150 170 0
152 172 0
150 171 0
151 173 0
148 167 0
146 165 0
141 161 0
149 171 0
150 171 0
141 161 0
150 170 0
146 166 0
155 176 0
148 170 0
143 164 0
148 169 0
149 170 0
155 176 0
150 171 0
150 170 0
148 168 0
157 178 0
153 173 0
160 181 0
154 174 0
153 174 0
152 174 0
159 181 0
161 181 0
161 182 0
156 175 0
152 175 0
160 181 0
158 178 0
153 175 0
157 177 0
153 175 0
160 182 0
160 183 0
150 169 0
152 173 0
154 174 0
159 182 0
156 176 0
162 185 0
165 186 0
164 187 0
160 181 0
159 180 0
164 185 0
161 181 0
157 179 0
157 178 0
152 175 0
155 176 0
163 182 0
162 185 0
159 180 0
159 179 0
164 186 0
157 176 0
162 184 0
155 177 0
162 182 0
159 179 0
162 184 0
158 180 0
164 185 0
163 184 0
167 188 0
164 184 0
166 188 0
159 180 0
161 182 0
166 188 0
157 178 0
165 187 0
163 185 0
166 186 0
163 183 0
164 185 0
164 186 0
167 190 0
163 185 0
160 180 0
164 186 0
165 186 0
164 186 0
165 187 0
168 190 0
164 186 0
171 193 0
165 187 0
167 189 0
166 187 0
166 186 0
167 189 0
165 186 0
169 191 0
167 189 0
169 190 0
166 189 0
165 185 0
166 188 0
168 190 0
163 183 0
168 190 0
166 188 0
164 187 0
170 192 0
166 186 0
164 185 0
168 188 0
167 189 0
165 187 0
168 188 0
169 191 0
168 190 0
170 193 0
169 190 0
169 191 0
169 190 0
169 191 0
166 188 0
165 186 0
170 192 0
167 187 0
169 191 0
169 191 0
168 191 0
166 188 0
169 191 0
167 189 0
170 192 0
168 192 0
169 193 0
170 191 0
169 191 0
170 191 0
171 193 0
169 192 0
171 192 0
169 192 0
170 192 0
167 189 0
172 194 0
167 190 0
170 192 0
171 193 0
168 191 0
172 195 0
173 194 0
168 190 0
172 195 51
171 195 44
174 197 67
176 198 72
179 201 84
174 197 62
176 198 88
177 199 72
173 196 67
174 197 44
177 199 84
176 199 80
173 197 72
172 195 67
170 193 72
172 193 95
172 195 76
175 197 84
167 189 80
169 191 62
173 194 80
172 194 67
169 192 67
173 196 67
176 198 80
176 198 84
170 193 72
176 199 84
172 194 72
178 201 99
175 197 95
178 200 111
173 196 80
174 196 99
174 196 99
173 195 88
171 194 92
175 197 99
173 197 92
170 193 80
174 197 88
175 198 99
173 196 84
173 196 95
173 196 95
172 195 95
174 197 92
171 194 99
171 194 102
171 194 76
173 195 99
173 197 114
169 193 102
171 193 88
167 191 99
169 192 80
170 194 111
173 197 95
166 189 84
172 195 88
172 196 122
169 193 95
177 200 120
168 191 99
175 199 114
174 197 102
169 192 111
167 191 105
172 195 108
166 189 80
172 195 88
165 188 80
161 184 80
168 191 92
167 190 102
168 192 99
168 191 102
162 185 108
167 190 92
169 192 122
161 184 84
170 193 92
167 190 102
168 191 108
163 186 84
168 190 84
160 183 72
163 187 80
161 183 76
167 190 105
162 184 99
164 187 84
162 184 102
156 178 88
164 187 114
154 176 67
165 187 92
162 184 108
158 180 95
161 184 117
154 176 84
161 183 102
150 172 84
163 184 108
154 177 102
153 174 67
160 182 99
157 179 92
162 183 88
162 183 80
159 180 95
157 177 88
160 181 111
159 181 92
155 177 88
152 172 88
155 176 99
150 171 84
141 161 76
151 172 80
149 169 108
155 175 67
154 174 84
150 170 80
157 177 99
147 167 92
156 174 114
146 164 99
150 167 111
142 161 72
140 161 57
141 161 67
143 162 36
145 164 67
142 163 62
143 162 67
147 166 44
132 150 44
129 149 36
134 155 25
141 163 36
128 148 0
134 154 36
136 158 36
148 168 25
144 164 0
159 181 0
163 185 0
163 184 0
153 174 0
148 169 0
145 165 0
147 168 0
141 161 0
141 161 0
138 158 0
138 157 0
132 152 0
134 152 0
122 142 0
134 154 0
134 154 0
133 153 0
128 147 0
118 137 0
128 147 0
127 146 0
118 137 0
119 139 0
109 128 0
137 157 0
131 151 0
131 150 0
120 139 0
123 142 0
134 153 0
121 140 0
120 140 0
109 129 0
131 150 0
117 136 0
118 137 0
133 152 0
127 146 0
132 151 0
133 153 0
116 135 0
135 156 0
135 153 0
122 142 0
122 141 0
117 137 0
128 148 0
126 145 0
135 154 0
119 138 0
135 154 0
122 142 0
131 152 0
126 146 0
123 142 0
127 146 0
129 149 0
128 146 0
135 154 0
130 149 0
126 146 0
138 159 0
122 140 0
133 154 0
132 152 0
123 142 0
137 158 0
130 150 0
140 161 0
137 157 0
140 159 0
136 156 0
137 158 0
136 156 0
124 145 0
129 149 0
141 162 0
139 159 0
140 161 0
136 156 0
138 158 0
144 164 0
152 174 0
137 157 0
137 157 0
147 169 0
140 159 0
143 163 0
142 163 0
142 163 0
136 157 0
136 158 0
143 163 0
144 166 0
150 170 0
151 172 0
140 159 0
139 159 0
146 166 0
147 169 0
139 160 0
142 162 0
149 170 0
141 162 0
148 168 0
150 173 0
153 175 0
152 172 0
140 160 0
150 171 0
153 174 0
147 168 0
144 167 0
153 175 0
153 173 0
147 166 0
159 181 0
152 171 0
155 176 0
154 177 0
152 172 0
161 184 0
155 176 0
156 179 0
157 178 0
154 175 0
159 180 0
160 183 0
156 176 0
154 176 0
157 179 0
156 177 0
158 177 0
155 175 0
154 174 0
159 180 0
157 177 0
157 178 0
151 170 0
159 180 0
155 177 0
160 181 0
157 178 0
160 182 0
157 177 0
156 175 0
158 179 0
160 181 0
158 181 0
162 184 0
163 183 0
157 179 0
156 177 0
155 177 0
163 184 0
162 184 0
157 178 0
162 182 0
158 179 0
161 181 0
163 184 0
160 182 0
163 184 0
160 181 0
161 183 0
164 185 0
164 186 0
163 184 0
162 183 0
161 182 0
164 186 0
163 183 0
162 184 0
163 184 0
168 189 0
164 187 0
163 185 0
163 185 0
167 188 0
164 184 0
165 187 0
166 187 0
167 188 0
165 186 0
162 184 0
168 190 0
161 183 0
164 185 0
165 186 0
164 186 0
165 185 0
163 184 0
167 189 0
164 184 0
167 188 0
163 185 0
163 185 0
162 183 0
165 186 0
167 187 0
169 191 0
168 188 0
170 191 0
165 188 0
173 195 0
167 189 0
165 186 0
166 187 0
164 185 0
166 187 0
167 188 0
169 190 0
167 188 0
164 186 0
167 189 0
167 189 0
168 189 0
169 190 0
170 192 0
170 191 0
167 188 0
168 190 0
165 188 0
169 191 0
166 189 0
167 187 0
168 190 0
171 192 0
171 193 0
171 193 0
169 189 0
169 191 0
164 185 0
166 189 0
167 190 0
168 191 0
170 193 0
169 192 0
168 191 0
171 194 0
170 190 0
171 192 0
167 189 0
171 192 0
171 193 0
168 190 0
171 194 0
171 194 0
170 191 0
170 193 0
174 195 0
168 190 0
170 194 0
169 191 0
171 195 51
176 198 80
174 197 44
178 200 76
175 198 84
173 196 67
175 198 84
171 194 67
177 199 88
173 196 72
174 197 44
172 195 88
172 194 80
171 194 62
173 196 76
168 191 57
173 195 80
174 197 84
168 191 76
170 193 62
167 189 76
172 195 67
169 191 84
174 196 72
176 199 95
180 203 117
177 200 80
171 193 92
169 192 62
176 200 88
174 197 92
177 200 105
177 199 111
174 197 92
175 198 99
179 202 114
178 201 108
176 199 108
176 199 117
172 196 92
176 199 111
167 190 84
177 200 95
174 197 72
175 197 76
173 196 102
175 198 99
172 196 99
168 191 67
176 198 99
169 192 88
170 193 88
175 199 111
170 193 95
170 192 76
169 192 102
168 191 80
175 198 99
167 191 120
165 188 95
170 193 95
170 194 88
172 195 114
164 187 88
167 191 88
163 186 88
167 191 92
163 186 72
164 188 84
169 192 102
170 193 99
171 194 92
166 189 80
158 181 84
170 194 102
168 191 105
168 191 84
159 183 84
163 185 99
167 190 99
163 187 99
167 190 105
161 184 102
158 181 80
166 189 92
164 187 99
166 189 117
160 182 92
159 183 111
164 185 88
162 184 92
166 189 102
163 186 117
159 181 92
153 175 80
158 180 99
165 186 95
159 182 88
159 182 105
167 190 120
157 179 80
166 189 99
162 184 84
164 186 111
159 182 95
155 176 105
158 180 92
166 189 120
155 176 80
160 182 88
155 176 102
150 171 92
164 185 99
157 178 99
156 177 108
158 179 105
168 189 137
161 181 99
156 176 88
151 172 88
159 180 84
153 172 105
160 179 117
155 175 108
143 163 88
153 173 99
150 168 111
153 172 80
156 176 67
152 173 62
153 172 84
141 161 62
147 166 95
152 171 72
145 165 57
142 162 62
142 162 62
143 164 36
137 158 25
139 158 44
144 165 36
139 159 25
136 157 25
138 159 0
138 159 0
144 166 0
154 175 0
160 182 0
154 176 0
151 173 0
150 172 0
152 173 0
147 168 0
134 154 0
143 164 0
141 161 0
138 158 0
136 157 0
134 154 0
140 160 0
139 159 0
130 148 0
127 147 0
139 160 0
131 151 0
140 161 0
122 141 0
119 138 0
126 145 0
119 139 0
130 150 0
128 146 0
124 143 0
122 142 0
127 146 0
113 132 0
131 151 0
123 144 0
127 147 0
126 146 0
127 146 0
123 141 0
129 148 0
123 143 0
126 145 0
136 155 0
118 137 0
128 147 0
139 157 0
119 137 0
137 156 0
119 139 0
136 154 0
123 143 0
131 150 0
122 142 0
115 135 0
120 141 0
129 148 0
126 145 0
134 155 0
133 152 0
132 152 0
127 147 0
135 156 0
128 147 0
137 155 0
139 158 0
130 150 0
134 153 0
126 145 0
127 146 0
137 158 0
145 165 0
137 157 0
134 155 0
135 155 0
125 143 0
137 158 0
137 158 0
141 161 0
144 164 0
138 158 0
139 160 0
138 158 0
144 165 0
139 159 0
143 165 0
134 156 0
144 161 0
134 154 0
141 162 0
146 166 0
140 159 0
148 169 0
143 163 0
147 166 0
147 166 0
143 162 0
138 159 0
145 165 0
146 166 0
143 164 0
149 170 0
152 172 0
142 163 0
141 161 0
151 171 0
139 161 0
150 170 0
156 177 0
151 173 0
148 168 0
157 179 0
154 174 0
154 176 0
150 172 0
148 170 0
154 176 0
150 171 0
149 170 0
155 176 0
153 175 0
148 168 0
151 172 0
152 173 0
155 175 0
153 174 0
160 181 0
156 178 0
147 169 0
156 177 0
154 176 0
152 173 0
156 176 0
159 180 0
152 172 0
152 172 0
147 169 0
151 172 0
156 177 0
155 175 0
158 179 0
153 173 0
148 168 0
158 179 0
163 184 0
156 176 0
159 181 0
158 178 0
161 181 0
163 183 0
158 177 0
161 182 0
168 190 0
162 183 0
163 185 0
156 177 0
160 182 0
162 182 0
158 180 0
162 182 0
159 181 0
162 184 0
158 178 0
165 187 0
160 180 0
164 186 0
164 184 0
161 181 0
162 182 0
163 185 0
161 181 0
164 185 0
161 182 0
158 179 0
166 186 0
165 186 0
163 185 0
165 185 0
165 187 0
161 183 0
162 185 0
164 186 0
165 188 0
165 187 0
165 185 0
163 185 0
164 186 0
167 188 0
163 186 0
169 191 0
161 182 0
163 185 0
160 180 0
166 188 0
166 187 0
169 190 0
168 189 0
164 185 0
167 189 0
167 190 0
163 184 0
161 182 0
170 191 0
169 190 0
165 186 0
162 182 0
170 191 0
168 191 0
169 189 0
165 188 0
165 187 0
168 189 0
167 188 0
169 192 0
167 187 0
166 189 0
167 188 0
166 187 0
167 188 0
167 188 0
169 192 0
169 191 0
170 191 0
166 188 0
170 192 0
169 192 0
168 190 0
169 192 0
166 187 0
170 192 0
166 188 0
171 193 0
172 194 0
167 189 0
168 191 0
170 192 0
167 188 0
168 191 0
165 187 0
171 193 0
167 189 0
170 191 0
168 190 0
171 193 0
169 190 0
171 193 0
171 192 0
171 192 0
168 189 0
170 192 0
169 191 0
169 191 0
171 194 0
169 192 0
169 190 0
167 190 0
168 190 0
171 194 0
171 193 51
174 196 62
174 196 44
175 198 57
176 199 88
177 199 72
174 196 62
175 199 76
173 197 51
173 196 72
174 197 62
177 198 80
176 198 80
168 191 57
173 195 88
174 196 88
172 194 62
170 192 76
167 190 62
172 195 72
175 197 95
170 193 54
169 193 51
168 191 84
169 192 88
169 192 76
176 199 82
172 195 84
174 196 95
179 201 108
176 198 84
174 196 88
176 199 99
175 198 108
173 195 99
176 198 95
173 196 120
174 197 95
175 198 105
173 196 95
175 197 92
175 198 84
176 198 102
173 196 72
168 191 88
171 193 95
173 196 92
172 195 95
172 195 99
171 194 117
172 195 88
176 199 117
168 192 102
172 196 92
172 196 108
167 191 110
173 195 102
171 195 105
169 192 102
172 195 92
172 195 108
168 191 92
173 196 99
169 193 95
167 190 114
166 189 108
169 194 111
167 191 95
164 187 92
170 194 120
167 189 80
169 192 111
169 193 105
167 191 95
163 186 92
171 195 108
165 187 99
160 183 95
164 188 105
165 187 92
162 185 80
169 191 84
165 188 95
159 183 92
171 196 117
166 188 92
161 184 67
165 189 95
160 183 84
151 173 95
161 183 88
164 186 88
161 184 84
162 184 76
161 184 102
163 186 84
161 183 84
162 184 105
158 181 84
162 185 108
160 182 102
158 181 92
157 178 95
161 184 84
164 186 95
160 182 120
160 182 95
159 180 114
156 177 84
158 179 88
163 184 95
159 180 105
150 171 88
156 178 95
153 173 102
153 174 92
149 170 88
159 179 117
146 166 67
156 177 99
154 174 88
163 184 108
154 174 105
154 175 105
155 174 102
145 165 80
157 176 105
138 157 76
156 175 92
151 170 84
148 167 95
142 162 80
143 164 44
138 155 84
144 163 67
144 165 67
141 161 36
133 155 0
139 160 0
135 156 36
140 161 25
149 170 57
149 170 25
151 173 0
143 164 44
137 158 0
162 183 0
154 176 0
154 175 0
151 173 0
152 174 0
152 174 0
148 170 0
147 168 0
144 165 0
135 155 0
137 157 0
126 145 0
135 155 0
127 147 0
132 153 0
142 163 0
132 152 0
128 148 0
130 149 0
126 145 0
123 142 0
129 148 0
134 154 0
129 147 0
119 139 0
128 147 0
121 140 0
134 154 0
132 151 0
120 139 0
126 145 0
127 146 0
127 146 0
134 153 0
121 140 0
121 140 0
123 143 0
119 140 0
127 146 0
131 150 0
120 139 0
126 146 0
139 159 0
125 144 0
125 146 0
128 147 0
112 131 0
123 141 0
120 140 0
122 141 0
132 151 0
124 143 0
128 147 0
132 152 0
130 149 0
135 155 0
122 143 0
132 152 0
133 154 0
130 149 0
133 154 0
128 147 0
131 151 0
132 152 0
137 158 0
128 147 0
129 148 0
134 153 0
132 151 0
132 151 0
137 158 0
127 147 0
142 163 0
132 152 0
138 157 0
141 162 0
136 154 0
134 155 0
140 161 0
140 161 0
140 159 0
135 153 0
139 160 0
138 159 0
138 159 0
138 157 0
142 162 0
149 170 0
142 163 0
143 164 0
141 163 0
143 163 0
152 173 0
140 160 0
137 156 0
144 165 0
150 171 0
137 158 0
153 173 0
151 170 0
145 166 0
154 174 0
145 166 0
152 174 0
150 172 0
151 172 0
152 174 0
147 169 0
142 164 0
143 163 0
152 174 0
149 170 0
157 178 0
146 168 0
149 170 0
152 172 0
159 178 0
156 178 0
152 171 0
150 172 0
152 172 0
146 167 0
152 173 0
158 179 0
156 177 0
158 179 0
156 177 0
159 180 0
152 172 0
157 179 0
158 180 0
156 176 0
162 182 0
157 178 0
156 176 0
155 177 0
157 180 0
159 180 0
158 181 0
155 178 0
154 175 0
167 188 0
160 180 0
155 175 0
163 184 0
155 177 0
161 184 0
164 184 0
162 184 0
163 185 0
165 187 0
158 180 0
164 186 0
166 186 0
164 184 0
158 177 0
157 178 0
162 182 0
163 184 0
164 185 0
162 183 0
158 179 0
162 184 0
165 188 0
163 185 0
162 183 0
159 181 0
160 182 0
162 183 0
165 186 0
170 192 0
164 186 0
165 186 0
165 187 0
161 182 0
165 186 0
168 189 0
165 187 0
159 180 0
165 187 0
166 187 0
164 185 0
163 184 0
164 184 0
166 187 0
163 185 0
165 186 0
165 189 0
167 189 0
159 182 0
165 187 0
172 193 0
166 186 0
165 187 0
164 184 0
167 188 0
167 188 0
166 187 0
166 188 0
170 192 0
165 186 0
168 189 0
165 187 0
168 190 0
171 192 0
166 188 0
168 191 0
169 191 0
170 192 0
167 190 0
167 188 0
168 191 0
166 188 0
168 189 0
167 190 0
165 188 0
168 190 0
168 190 0
170 192 0
165 187 0
169 190 0
169 192 0
167 188 0
170 193 0
167 190 0
173 194 0
169 191 0
168 190 0
170 192 0
171 193 0
171 192 0
170 193 0
171 193 0
169 191 0
170 192 0
170 192 0
172 193 0
168 189 0
170 192 0
171 194 0
169 192 0
167 189 0
168 189 0
167 188 0
172 194 0
169 192 0
168 189 0
166 187 0
166 188 0
169 193 0
168 190 0
166 188 0
168 190 0
170 192 0
175 198 51
173 196 62
175 197 51
174 197 51
173 196 62
174 197 57
171 194 36
176 198 88
176 198 67
175 198 76
175 198 67
173 196 76
175 197 62
173 195 92
169 192 62
167 190 62
172 194 76
171 195 84
166 188 72
169 192 67
168 191 80
166 189 76
164 187 70
167 190 54
172 195 97
171 194 80
172 194 82
171 194 97
175 197 107
181 203 117
178 199 111
172 195 84
175 197 105
175 198 102
174 196 102
177 199 117
173 196 92
174 196 102
171 193 80
174 197 84
179 202 111
171 193 76
172 195 95
170 193 84
172 195 95
173 195 92
176 199 99
172 195 95
173 196 84
169 193 84
173 196 114
174 197 111
170 193 84
169 192 72
169 193 95
166 189 76
170 194 100
167 190 95
169 192 95
168 191 102
167 190 95
170 193 99
174 197 108
171 194 99
168 192 92
171 195 108
167 190 72
168 192 114
171 194 95
171 195 114
165 188 92
162 185 95
164 188 95
165 189 92
165 188 84
174 196 92
166 189 105
173 197 117
168 192 95
165 188 102
163 185 99
167 191 84
167 190 105
162 185 88
163 186 102
162 185 92
164 186 108
163 185 88
165 189 80
164 187 99
163 186 92
162 185 92
165 188 95
166 189 105
162 184 108
162 184 102
163 184 99
164 186 92
159 181 76
163 186 108
161 183 105
153 175 88
154 176 67
158 181 92
161 184 88
159 181 92
167 189 125
159 182 80
163 184 80
154 177 92
160 182 92
165 185 108
162 183 92
151 171 72
162 182 99
160 181 92
153 173 102
152 173 72
158 178 105
159 179 88
155 175 105
154 175 67
162 182 99
157 177 92
163 184 108
154 173 92
161 181 88
155 174 92
154 174 92
142 161 72
149 169 84
150 171 67
150 170 44
154 174 67
150 171 51
145 165 51
147 169 36
147 168 36
149 170 25
149 169 36
151 173 0
152 173 51
148 171 0
148 169 25
142 164 0
155 176 25
154 176 0
156 177 0
158 181 0
154 175 0
157 179 0
149 171 0
136 157 0
139 160 0
145 166 0
141 162 0
138 159 0
134 153 0
130 151 0
138 157 0
128 149 0
138 159 0
144 164 0
137 158 0
131 152 0
139 160 0
135 155 0
133 154 0
143 162 0
121 141 0
130 149 0
125 144 0
126 146 0
124 143 0
127 147 0
126 146 0
120 141 0
136 156 0
137 157 0
135 155 0
131 151 0
131 151 0
135 155 0
124 144 0
122 142 0
130 150 0
136 156 0
113 132 0
129 148 0
137 156 0
130 151 0
127 145 0
143 163 0
121 140 0
129 150 0
139 160 0
138 157 0
132 152 0
133 153 0
128 148 0
125 144 0
136 156 0
132 153 0
132 153 0
136 155 0
125 146 0
136 156 0
138 158 0
129 148 0
136 156 0
129 150 0
132 152 0
135 156 0
140 159 0
139 159 0
129 147 0
127 149 0
137 158 0
141 161 0
143 162 0
141 162 0
140 159 0
141 161 0
133 154 0
134 154 0
144 163 0
142 162 0
147 168 0
134 154 0
132 153 0
142 162 0
145 166 0
146 166 0
145 165 0
144 165 0
148 168 0
142 162 0
139 161 0
147 166 0
142 162 0
148 168 0
142 162 0
148 168 0
141 162 0
149 169 0
132 154 0
152 173 0
150 171 0
148 169 0
150 171 0
151 174 0
145 166 0
146 167 0
146 168 0
152 174 0
150 172 0
147 168 0
158 180 0
150 171 0
151 171 0
149 170 0
144 165 0
150 171 0
157 179 0
158 181 0
156 180 0
156 177 0
152 173 0
151 172 0
159 182 0
149 170 0
163 185 0
150 172 0
157 178 0
149 168 0
156 177 0
157 178 0
155 177 0
162 185 0
155 176 0
154 176 0
158 178 0
158 179 0
162 184 0
163 185 0
158 180 0
153 173 0
156 179 0
162 184 0
154 174 0
160 181 0
152 172 0
154 176 0
157 179 0
162 184 0
161 182 0
160 182 0
159 181 0
155 176 0
163 184 0
162 183 0
155 177 0
164 186 0
160 181 0
165 186 0
162 183 0
163 185 0
161 182 0
161 181 0
160 181 0
160 182 0
170 190 0
161 183 0
165 187 0
167 189 0
171 193 0
165 188 0
162 183 0
163 186 0
164 184 0
162 184 0
164 184 0
168 190 0
162 183 0
165 188 0
160 182 0
166 188 0
158 179 0
164 185 0
166 188 0
164 186 0
162 184 0
164 186 0
168 190 0
165 188 0
165 187 0
168 191 0
165 185 0
163 186 0
168 189 0
165 186 0
163 187 0
165 188 0
164 186 0
169 192 0
164 185 0
167 188 0
162 183 0
165 186 0
168 190 0
164 186 0
166 188 0
166 188 0
163 184 0
168 190 0
171 193 0
164 185 0
169 190 0
169 190 0
171 193 0
166 188 0
171 193 0
166 187 0
163 186 0
169 191 0
170 191 0
169 191 0
165 186 0
170 192 0
169 191 0
169 192 0
168 190 0
166 188 0
166 186 0
169 190 0
171 193 0
169 189 0
169 191 0
168 190 0
169 191 0
169 191 0
168 191 0
168 189 0
169 191 0
168 191 0
169 190 0
170 192 0
171 193 0
170 193 0
169 192 0
170 193 0
173 195 0
173 195 0
169 193 0
168 191 0
168 191 0
169 190 0
171 193 0
169 191 0
169 191 0
176 199 57
176 198 67
172 195 51
171 194 62
172 195 44
174 196 72
175 198 67
175 197 76
177 199 88
172 194 62
172 194 72
175 197 67
173 194 99
174 196 95
179 201 92
171 193 72
173 196 88
168 190 78
170 191 90
168 191 80
163 187 54
167 190 70
173 195 88
167 189 57
169 191 67
173 196 84
172 195 67
168 191 78
174 196 117
174 196 82
177 199 102
175 197 102
173 196 111
178 200 120
174 197 92
174 196 80
180 203 122
177 201 108
173 196 92
178 200 108
173 197 108
173 195 108
173 196 88
170 194 72
171 193 76
173 196 102
174 197 92
166 189 88
173 196 95
171 194 99
173 197 88
172 195 84
175 198 92
167 190 95
167 191 88
165 189 80
166 189 99
171 193 105
168 191 92
170 193 99
177 200 120
169 192 108
163 187 108
164 187 95
172 196 95
166 190 92
173 197 117
163 187 92
169 192 99
166 188 92
170 192 88
167 190 88
162 186 95
169 192 92
161 183 92
166 189 88
166 189 92
167 190 84
164 186 88
159 182 99
166 188 111
167 191 99
168 192 111
162 185 102
165 188 95
165 188 95
166 189 111
162 185 99
164 187 99
164 186 92
164 185 95
155 177 95
165 187 108
160 182 114
167 190 111
163 185 108
166 188 114
161 182 99
156 178 105
160 182 95
162 184 108
164 186 80
161 182 105
161 182 105
154 176 95
159 180 84
155 177 88
156 178 88
154 175 108
166 187 114
161 181 114
157 178 84
162 182 117
165 185 99
160 181 117
167 188 92
156 176 84
166 187 105
158 178 114
160 180 84
155 176 102
151 171 76
156 177 95
159 180 114
156 176 99
150 169 99
150 169 92
154 174 88
142 162 67
155 175 80
154 174 72
146 167 62
148 169 51
146 166 57
148 168 57
145 166 0
144 164 0
137 158 25
146 166 36
144 165 51
144 166 36
144 164 36
146 168 36
145 166 25
138 161 0
148 170 0
159 181 0
156 178 0
156 179 0
149 170 0
148 169 0
150 172 0
148 171 0
137 159 0
126 146 0
139 159 0
138 160 0
141 161 0
130 150 0
142 163 0
137 157 0
135 154 0
134 154 0
130 149 0
138 159 0
134 155 0
132 152 0
134 155 0
130 150 0
130 149 0
130 151 0
136 156 0
127 148 0
124 144 0
132 153 0
122 141 0
124 144 0
134 154 0
123 143 0
130 150 0
133 154 0
127 147 0
118 138 0
130 150 0
132 153 0
133 154 0
116 137 0
140 161 0
130 149 0
132 152 0
132 151 0
128 149 0
125 144 0
131 150 0
127 148 0
131 151 0
127 149 0
134 155 0
124 144 0
127 147 0
130 150 0
146 167 0
132 153 0
134 156 0
134 154 0
123 143 0
140 159 0
135 155 0
135 155 0
135 154 0
130 151 0
130 151 0
134 155 0
135 155 0
145 166 0
144 165 0
145 166 0
139 160 0
142 163 0
138 159 0
145 165 0
136 157 0
140 161 0
147 168 0
144 165 0
139 160 0
147 168 0
139 161 0
143 163 0
142 164 0
142 163 0
139 158 0
137 159 0
142 162 0
140 161 0
149 169 0
149 171 0
152 173 0
146 169 0
151 172 0
149 170 0
138 158 0
154 175 0
149 171 0
151 171 0
143 163 0
145 167 0
146 168 0
152 174 0
146 168 0
155 178 0
151 173 0
150 172 0
147 169 0
162 184 0
156 176 0
149 169 0
153 176 0
154 174 0
154 176 0
158 180 0
152 173 0
155 177 0
147 169 0
153 174 0
160 183 0
153 173 0
154 176 0
153 175 0
152 173 0
155 177 0
151 172 0
156 177 0
158 180 0
147 168 0
156 177 0
156 175 0
153 175 0
154 175 0
164 184 0
156 177 0
153 174 0
156 178 0
163 184 0
151 172 0
160 182 0
158 178 0
159 181 0
157 179 0
159 180 0
159 181 0
159 182 0
161 183 0
159 181 0
162 184 0
164 185 0
155 176 0
160 182 0
158 180 0
157 178 0
162 183 0
161 183 0
164 184 0
162 182 0
161 182 0
163 184 0
167 189 0
166 187 0
165 186 0
168 191 0
162 182 0
163 182 0
162 183 0
163 184 0
164 186 0
167 190 0
160 183 0
162 183 0
165 186 0
164 186 0
163 186 0
155 176 0
167 188 0
165 186 0
162 184 0
167 189 0
164 184 0
161 182 0
157 179 0
164 186 0
164 185 0
163 184 0
167 189 0
167 187 0
167 189 0
163 184 0
165 188 0
162 183 0
164 185 0
164 186 0
162 182 0
167 189 0
166 187 0
165 186 0
164 185 0
168 188 0
166 187 0
163 185 0
167 189 0
166 186 0
162 185 0
166 189 0
169 190 0
165 187 0
166 189 0
168 192 0
167 189 0
171 194 0
169 191 0
166 189 0
169 191 0
167 189 0
170 191 0
169 191 0
171 192 0
169 191 0
167 189 0
166 187 0
167 190 0
170 192 0
167 188 0
168 192 0
167 188 0
173 194 0
164 188 0
170 192 0
171 194 0
172 194 0
163 185 0
165 188 0
167 189 0
172 195 0
172 194 0
172 193 0
166 187 0
168 190 0
169 190 0
170 192 0
168 190 0
171 193 0
169 191 0
166 189 0
169 192 0
167 189 0
169 190 0
169 191 0
169 191 0
168 190 0
171 192 0
172 194 0
176 199 57
177 200 62
174 196 62
176 198 80
169 192 44
170 193 44
174 196 80
176 199 80
173 196 67
174 197 72
171 194 76
175 197 88
173 196 67
172 195 62
171 194 62
171 194 88
169 192 84
169 192 72
170 193 72
168 191 80
169 192 76
164 187 74
176 198 102
165 187 95
171 194 82
166 190 76
173 196 78
172 195 90
170 192 76
175 198 80
172 195 92
176 199 95
170 192 80
179 201 105
178 200 105
168 190 80
178 200 114
173 195 76
173 196 84
166 190 62
173 196 114
175 198 105
178 201 122
176 198 111
169 193 95
171 194 92
171 194 76
173 196 102
170 193 80
171 194 76
170 193 76
175 198 105
171 195 105
166 189 88
166 189 88
167 191 95
174 198 105
171 194 80
170 193 92
167 190 99
170 193 80
167 190 99
169 192 99
170 193 120
171 194 114
170 193 95
171 193 84
168 192 88
162 185 67
165 189 92
165 188 80
172 194 84
161 184 111
165 189 114
171 194 114
166 189 102
171 193 84
164 187 84
162 184 92
163 185 92
163 187 111
165 188 76
161 183 84
160 183 80
161 183 99
168 190 102
167 189 84
165 187 111
158 180 92
162 184 102
168 191 120
163 185 95
169 192 114
159 181 88
160 182 99
162 185 99
163 185 108
165 188 99
160 181 92
159 181 105
161 184 72
162 183 80
158 180 108
164 186 88
157 179 105
164 185 125
160 182 102
164 185 102
150 171 99
159 180 99
151 172 88
156 177 84
153 174 80
158 179 111
164 185 114
155 176 105
157 178 95
157 177 92
161 182 92
159 178 114
155 176 80
147 167 80
158 178 80
156 175 88
161 182 105
159 178 108
162 183 95
159 178 102
161 180 111
154 173 80
151 170 80
151 170 80
151 171 67
146 168 72
137 158 25
145 165 0
147 168 25
139 159 25
141 161 0
148 169 44
146 166 25
147 168 25
148 169 36
152 174 0
143 164 0
153 173 25
164 186 0
161 183 0
157 179 0
148 171 0
143 164 0
147 169 0
143 165 0
136 159 0
140 161 0
145 166 0
142 162 0
131 150 0
137 158 0
144 164 0
139 159 0
135 156 0
146 168 0
131 151 0
126 146 0
144 164 0
116 136 0
126 145 0
133 153 0
139 159 0
141 161 0
136 156 0
128 148 0
132 152 0
139 160 0
138 159 0
135 155 0
127 147 0
125 145 0
126 146 0
135 154 0
125 147 0
123 144 0
124 144 0
135 155 0
134 154 0
128 149 0
135 154 0
131 150 0
121 140 0
132 152 0
131 151 0
130 150 0
126 146 0
136 156 0
125 144 0
132 152 0
129 150 0
141 162 0
139 158 0
135 155 0
127 148 0
137 156 0
131 151 0
130 151 0
137 157 0
142 163 0
136 156 0
139 159 0
142 163 0
125 146 0
144 163 0
136 157 0
138 158 0
135 155 0
139 159 0
137 157 0
142 163 0
137 157 0
136 157 0
134 154 0
143 164 0
139 159 0
137 158 0
140 161 0
149 168 0
144 165 0
146 167 0
142 163 0
146 166 0
142 163 0
140 160 0
141 161 0
148 168 0
150 170 0
148 166 0
137 157 0
147 168 0
143 163 0
154 175 0
145 166 0
147 169 0
146 166 0
153 173 0
150 171 0
143 163 0
149 170 0
152 173 0
150 172 0
151 171 0
149 169 0
150 171 0
146 166 0
153 174 0
153 175 0
158 178 0
148 169 0
156 177 0
143 165 0
148 168 0
151 172 0
154 177 0
149 170 0
159 181 0
158 179 0
156 178 0
158 179 0
156 176 0
147 169 0
153 175 0
152 174 0
159 182 0
157 178 0
159 180 0
151 172 0
163 185 0
154 176 0
161 182 0
157 181 0
157 179 0
158 180 0
163 184 0
158 179 0
157 177 0
155 175 0
160 182 0
159 180 0
164 185 0
155 176 0
163 185 0
162 184 0
162 184 0
162 185 0
156 177 0
159 180 0
165 187 0
167 188 0
158 177 0
163 183 0
157 177 0
160 181 0
167 189 0
162 185 0
160 182 0
161 181 0
157 179 0
164 186 0
168 191 0
160 181 0
160 182 0
160 182 0
165 186 0
163 185 0
167 189 0
163 183 0
166 188 0
158 179 0
163 185 0
162 183 0
165 186 0
161 184 0
166 188 0
169 191 0
162 184 0
163 185 0
159 180 0
163 185 0
164 187 0
160 181 0
164 185 0
165 187 0
164 186 0
166 189 0
159 179 0
160 183 0
169 192 0
164 186 0
164 185 0
167 189 0
167 189 0
165 187 0
166 187 0
167 189 0
167 188 0
170 191 0
169 191 0
164 187 0
172 195 0
165 186 0
168 189 0
168 189 0
163 186 0
164 186 0
167 189 0
162 184 0
170 192 0
170 194 0
166 187 0
165 187 0
165 188 0
164 186 0
165 186 0
167 189 0
169 190 0
169 190 0
168 191 0
169 192 0
169 191 0
168 191 0
169 191 0
170 193 0
167 190 0
167 189 0
169 190 0
169 192 0
168 190 0
166 187 0
171 193 0
171 194 0
167 190 0
167 190 0
173 195 0
173 195 0
169 190 0
169 191 0
168 191 0
169 190 0
169 191 0
171 194 0
174 195 0
169 192 0
169 192 0
170 192 0
175 197 0
167 190 0
170 192 0
171 194 0
171 193 0
170 192 0
169 193 0
174 197 51
179 201 67
174 196 57
174 197 62
171 195 44
170 192 54
172 194 67
173 197 44
172 195 57
176 198 92
172 194 67
176 199 88
176 198 95
172 195 72
167 190 57
167 189 67
174 196 88
167 190 65
173 195 80
170 192 86
173 195 80
165 188 70
169 192 72
170 193 80
168 191 74
166 190 67
170 193 80
168 191 76
172 195 86
176 199 86
178 200 90
168 191 90
174 198 90
169 192 92
177 200 105
175 198 105
177 200 102
171 193 105
169 192 88
175 197 102
176 198 108
170 193 72
172 196 99
173 196 80
177 200 111
174 196 95
169 193 102
171 194 76
171 194 84
168 190 99
168 191 108
172 195 95
171 193 95
169 193 95
171 194 108
174 196 88
170 193 99
165 188 72
170 194 95
168 191 88
167 190 76
161 184 84
169 192 99
167 190 92
172 195 95
171 195 120
168 192 105
171 194 120
171 194 99
167 190 108
161 185 99
172 195 99
164 187 84
167 190 88
169 192 95
168 191 108
165 188 95
165 188 80
169 192 105
165 189 111
166 188 105
167 190 99
170 194 125
159 181 84
170 192 108
157 179 95
168 190 99
158 180 80
167 189 80
163 185 108
164 186 108
164 186 117
166 188 92
163 185 88
164 186 99
168 190 95
162 184 95
163 185 102
154 176 72
167 190 125
162 183 95
151 172 88
164 186 117
151 172 67
158 180 99
165 187 108
160 181 92
159 180 95
168 189 105
163 184 99
165 187 99
158 178 95
162 182 105
166 186 111
155 175 84
164 185 99
164 185 108
158 178 102
154 175 102
167 187 108
154 174 108
163 184 114
162 182 88
163 183 102
155 176 62
149 171 72
156 176 72
150 170 102
140 160 67
162 183 72
161 182 72
142 163 57
145 166 67
146 166 44
147 168 0
144 165 25
138 159 25
148 169 25
144 165 25
144 165 0
151 171 0
144 165 0
149 170 25
140 161 25
146 168 0
158 179 0
158 180 0
162 184 0
163 186 0
155 178 0
148 170 0
152 174 0
147 167 0
144 165 0
149 172 0
148 170 0
143 164 0
128 150 0
137 158 0
133 154 0
139 160 0
124 145 0
127 148 0
140 161 0
131 151 0
134 156 0
130 150 0
135 155 0
130 150 0
145 166 0
142 163 0
132 152 0
130 150 0
140 160 0
131 151 0
131 152 0
127 148 0
139 158 0
119 139 0
142 162 0
130 149 0
142 163 0
136 157 0
125 145 0
128 149 0
120 140 0
128 149 0
132 152 0
137 158 0
132 154 0
132 152 0
136 156 0
137 158 0
131 152 0
141 160 0
130 151 0
139 160 0
139 159 0
132 151 0
136 157 0
139 160 0
135 156 0
130 150 0
136 156 0
138 159 0
135 157 0
136 156 0
143 165 0
137 158 0
145 165 0
140 162 0
145 165 0
131 151 0
134 154 0
149 170 0
134 154 0
142 162 0
141 163 0
149 171 0
141 161 0
147 167 0
133 153 0
141 162 0
139 160 0
144 166 0
137 158 0
146 166 0
136 157 0
144 165 0
150 170 0
145 165 0
141 162 0
145 167 0
144 165 0
148 169 0
141 162 0
138 158 0
147 167 0
148 169 0
150 172 0
151 172 0
145 165 0
146 167 0
146 168 0
154 175 0
148 168 0
142 163 0
154 176 0
149 171 0
158 180 0
144 165 0
152 174 0
155 177 0
149 169 0
156 177 0
147 170 0
152 174 0
150 171 0
154 176 0
152 172 0
149 172 0
152 174 0
157 179 0
153 173 0
150 171 0
150 169 0
153 174 0
155 176 0
156 176 0
156 176 0
155 175 0
159 181 0
155 175 0
156 179 0
155 176 0
155 176 0
159 181 0
152 174 0
163 185 0
156 177 0
158 178 0
164 186 0
162 184 0
150 172 0
162 182 0
155 176 0
163 184 0
153 174 0
156 180 0
163 185 0
163 182 0
160 180 0
162 184 0
155 177 0
159 181 0
155 176 0
164 187 0
162 184 0
159 182 0
164 188 0
163 187 0
161 182 0
155 175 0
163 185 0
166 188 0
167 189 0
162 183 0
158 180 0
162 184 0
165 186 0
164 185 0
165 188 0
168 189 0
164 187 0
157 180 0
167 188 0
165 187 0
169 190 0
165 186 0
164 186 0
167 188 0
163 184 0
167 188 0
167 188 0
159 182 0
164 186 0
159 180 0
167 189 0
166 187 0
165 188 0
162 183 0
162 185 0
166 188 0
167 189 0
164 185 0
164 185 0
171 194 0
165 186 0
166 189 0
169 192 0
165 188 0
165 187 0
166 187 0
166 188 0
164 186 0
168 190 0
166 189 0
168 190 0
168 189 0
170 190 0
166 186 0
171 193 0
167 189 0
166 188 0
170 192 0
170 193 0
165 186 0
170 193 0
167 190 0
166 188 0
169 191 0
168 189 0
167 189 0
164 185 0
171 193 0
165 187 0
168 190 0
169 192 0
165 186 0
166 187 0
169 192 0
168 189 0
168 191 0
166 189 0
171 193 0
172 194 0
170 191 0
169 191 0
170 192 0
166 186 0
171 193 0
170 193 0
167 189 0
171 192 0
165 187 0
167 190 0
168 189 0
172 194 0
170 192 0
166 189 0
171 193 0
167 190 0
170 192 0
173 194 0
169 192 0
168 191 0
172 195 0
171 194 0
171 194 0
169 192 0
173 196 36
172 196 51
178 200 76
171 194 51
173 196 62
173 196 51
169 193 57
178 199 97
179 201 88
172 194 72
179 201 102
169 193 67
172 196 62
173 196 80
171 193 51
167 190 62
166 189 57
174 196 80
170 192 67
168 190 72
171 194 90
174 197 90
172 195 82
172 194 76
168 191 74
167 191 78
168 191 62
171 194 84
171 194 88
168 192 82
172 194 95
172 195 92
174 197 113
176 198 97
172 195 76
174 197 105
176 198 99
174 197 95
171 194 76
175 198 122
177 200 95
171 195 88
174 197 95
175 199 105
170 193 92
172 196 92
173 197 102
173 196 92
169 193 88
169 192 84
171 194 88
172 195 105
169 192 92
174 197 84
172 195 102
173 196 105
174 196 105
175 198 108
171 194 72
173 197 125
172 195 84
176 198 107
172 195 95
170 194 92
173 196 92
174 198 111
169 192 95
167 190 105
167 190 108
167 190 84
166 189 92
168 191 84
167 190 102
167 190 67
167 190 95
172 195 120
170 193 95
165 188 99
175 197 114
169 192 102
167 189 95
163 186 76
163 186 111
166 189 92
162 185 95
170 193 102
158 180 95
167 189 92
162 184 95
165 187 95
158 182 95
162 185 92
174 196 128
169 191 114
167 189 111
161 183 111
160 182 88
170 193 114
168 189 99
161 183 108
160 182 88
165 186 120
153 176 92
166 187 108
149 171 80
165 185 102
161 182 95
159 180 84
159 180 102
154 176 80
157 178 76
159 180 120
162 183 114
162 184 92
161 182 105
161 181 76
160 180 111
161 181 84
155 176 84
171 192 128
158 178 102
157 177 111
165 185 99
161 183 76
158 178 95
160 181 84
164 185 80
154 173 92
151 170 95
146 165 72
151 171 76
146 166 57
147 167 62
142 164 44
155 176 0
150 171 25
142 163 36
145 167 36
142 163 0
152 174 36
151 172 25
147 169 25
138 160 0
155 177 36
148 170 36
160 182 25
159 181 0
164 186 0
158 182 0
149 169 0
155 177 0
144 165 0
142 164 0
143 164 0
147 168 0
151 172 0
138 160 0
146 167 0
145 166 0
131 153 0
138 159 0
133 154 0
146 166 0
139 159 0
131 151 0
126 147 0
135 156 0
135 156 0
134 154 0
133 153 0
130 150 0
145 165 0
135 155 0
140 161 0
128 147 0
134 155 0
141 162 0
142 164 0
132 153 0
141 160 0
129 148 0
134 155 0
133 155 0
135 156 0
136 157 0
144 164 0
138 159 0
122 143 0
135 154 0
125 144 0
132 153 0
143 163 0
137 156 0
142 162 0
139 159 0
138 159 0
140 160 0
136 158 0
139 160 0
128 147 0
142 163 0
137 157 0
142 162 0
146 165 0
140 160 0
136 158 0
140 161 0
140 161 0
141 162 0
143 164 0
141 161 0
139 160 0
134 155 0
130 150 0
134 153 0
147 169 0
145 166 0
141 163 0
142 164 0
146 168 0
143 163 0
141 161 0
144 163 0
136 158 0
137 157 0
149 170 0
146 168 0
146 165 0
142 163 0
144 164 0
143 164 0
143 163 0
148 169 0
143 164 0
150 172 0
149 170 0
138 159 0
141 162 0
148 168 0
147 168 0
152 174 0
154 174 0
146 166 0
150 171 0
150 173 0
148 169 0
160 182 0
153 176 0
144 165 0
159 180 0
152 173 0
150 171 0
150 172 0
155 176 0
146 167 0
154 176 0
154 174 0
154 174 0
151 172 0
154 177 0
151 173 0
147 169 0
153 175 0
149 169 0
156 177 0
156 178 0
154 177 0
155 175 0
154 175 0
155 177 0
155 176 0
145 167 0
155 177 0
155 177 0
157 180 0
155 177 0
160 181 0
153 174 0
155 175 0
151 172 0
160 181 0
160 182 0
152 171 0
158 179 0
161 182 0
157 179 0
163 184 0
157 177 0
162 184 0
159 181 0
160 180 0
158 180 0
159 181 0
162 185 0
163 186 0
166 187 0
159 180 0
161 182 0
161 183 0
163 185 0
156 176 0
157 178 0
164 185 0
161 184 0
155 176 0
165 188 0
164 186 0
160 182 0
163 185 0
164 185 0
163 184 0
167 189 0
162 183 0
161 182 0
162 184 0
163 185 0
157 179 0
167 188 0
161 182 0
162 184 0
162 185 0
162 184 0
169 190 0
166 188 0
163 183 0
164 186 0
165 187 0
165 188 0
164 185 0
170 193 0
165 188 0
166 186 0
161 184 0
165 189 0
166 188 0
163 186 0
166 188 0
168 191 0
169 191 0
165 188 0
168 189 0
168 191 0
170 191 0
165 188 0
170 193 0
167 189 0
169 191 0
170 192 0
169 191 0
166 187 0
165 188 0
165 186 0
168 190 0
169 191 0
166 187 0
166 187 0
168 190 0
167 189 0
166 189 0
164 187 0
166 189 0
171 193 0
165 188 0
169 192 0
169 191 0
169 190 0
170 193 0
167 189 0
171 192 0
168 188 0
168 190 0
166 187 0
169 191 0
171 192 0
170 192 0
170 192 0
168 190 0
171 193 0
169 192 0
165 188 0
169 191 0
165 187 0
169 190 0
171 194 0
174 196 0
171 192 0
170 192 0
171 192 0
167 190 0
170 192 0
172 194 0
169 191 0
171 191 0
173 195 0
171 193 0
169 191 0
172 194 0
171 194 0
172 196 0
171 193 0
175 199 57
175 198 62
175 196 76
177 200 76
169 192 44
165 187 40
175 198 57
173 196 67
170 193 51
174 197 72
173 196 84
169 192 62
173 195 80
174 196 105
170 192 44
168 191 92
172 194 72
172 195 72
167 190 78
170 193 76
171 194 76
167 190 74
162 186 78
170 193 97
168 191 57
166 188 78
166 189 92
170 193 72
170 192 80
173 195 80
172 195 78
168 191 72
169 192 78
169 193 84
172 195 95
173 196 84
174 196 102
172 195 105
177 199 117
177 199 105
176 199 114
176 199 108
174 196 114
169 192 88
176 199 99
170 194 51
171 194 105
172 196 102
167 191 111
172 195 105
166 189 67
175 199 105
172 195 88
170 193 99
173 196 95
171 194 102
169 192 95
168 191 95
170 193 80
167 191 92
172 196 114
169 192 95
166 189 88
168 191 99
169 192 72
172 196 108
172 195 102
171 195 117
164 188 80
166 189 92
164 187 105
165 187 80
166 188 84
166 189 88
166 190 105
165 187 88
166 189 95
164 187 95
165 188 99
165 188 99
167 189 95
165 188 99
165 188 111
166 189 108
159 182 80
165 188 76
164 186 84
165 187 88
161 184 80
161 184 76
159 181 95
164 185 99
165 187 92
167 189 111
165 186 117
159 180 92
164 186 92
161 183 80
159 182 95
147 169 72
163 186 114
163 184 117
159 181 99
165 186 105
165 187 88
167 187 102
162 183 108
165 186 84
161 182 102
152 173 108
161 183 95
158 178 84
158 180 80
154 174 88
155 175 80
164 185 80
163 183 99
167 187 122
158 179 102
154 175 95
158 178 92
159 180 88
159 180 102
159 179 92
160 180 92
156 175 99
154 174 102
161 181 111
159 179 92
148 168 76
154 175 67
150 171 51
152 173 51
150 172 0
150 172 0
152 173 25
149 172 25
147 168 25
149 171 51
140 161 0
152 175 0
149 172 25
150 172 25
145 166 36
148 171 0
157 179 0
157 180 0
159 181 0
161 183 0
156 177 0
151 172 0
153 175 0
146 168 0
155 176 0
145 166 0
140 161 0
149 169 0
143 163 0
135 156 0
143 164 0
134 155 0
142 163 0
142 162 0
143 165 0
136 156 0
146 166 0
136 157 0
134 154 0
127 148 0
140 160 0
145 166 0
137 158 0
135 155 0
140 161 0
131 151 0
141 162 0
129 150 0
136 156 0
129 149 0
139 160 0
140 160 0
135 155 0
139 161 0
137 158 0
138 159 0
139 159 0
135 156 0
136 156 0
134 155 0
141 162 0
136 157 0
140 161 0
127 148 0
137 156 0
140 161 0
133 154 0
143 163 0
126 147 0
129 150 0
138 159 0
138 160 0
133 153 0
139 159 0
134 154 0
138 159 0
132 153 0
142 162 0
138 159 0
144 166 0
133 155 0
138 159 0
145 166 0
138 159 0
140 162 0
141 161 0
140 161 0
141 163 0
142 163 0
143 165 0
154 176 0
147 167 0
140 161 0
137 157 0
147 168 0
141 163 0
151 172 0
146 167 0
137 156 0
142 162 0
148 168 0
150 172 0
138 159 0
149 169 0
149 171 0
146 167 0
150 173 0
143 165 0
152 173 0
145 165 0
144 166 0
151 170 0
157 178 0
144 165 0
157 178 0
156 177 0
147 167 0
149 171 0
145 168 0
149 171 0
150 171 0
153 174 0
152 172 0
157 179 0
156 177 0
159 180 0
158 180 0
157 177 0
156 177 0
155 176 0
164 185 0
149 170 0
163 185 0
154 177 0
158 180 0
154 175 0
150 169 0
158 181 0
158 180 0
150 170 0
157 179 0
154 176 0
158 179 0
152 173 0
163 186 0
156 178 0
159 183 0
150 172 0
165 186 0
159 181 0
162 185 0
160 181 0
158 179 0
161 183 0
155 176 0
157 178 0
162 184 0
162 185 0
162 183 0
158 180 0
160 182 0
163 185 0
154 175 0
159 180 0
162 183 0
164 186 0
168 189 0
163 184 0
157 178 0
164 186 0
165 186 0
165 186 0
165 187 0
163 186 0
161 182 0
157 178 0
161 183 0
158 180 0
160 183 0
161 183 0
162 186 0
163 185 0
169 189 0
165 186 0
164 185 0
165 187 0
159 181 0
163 186 0
167 189 0
161 182 0
166 187 0
168 189 0
165 186 0
161 182 0
169 191 0
162 184 0
168 190 0
166 185 0
165 186 0
165 187 0
165 187 0
162 186 0
167 187 0
166 188 0
168 190 0
168 189 0
166 188 0
163 184 0
167 188 0
167 188 0
168 189 0
165 187 0
170 192 0
168 190 0
167 189 0
164 185 0
169 190 0
169 189 0
168 191 0
167 189 0
167 188 0
167 188 0
167 188 0
163 185 0
170 191 0
168 190 0
166 189 0
167 189 0
168 189 0
165 186 0
168 190 0
169 191 0
167 190 0
170 191 0
165 188 0
166 188 0
168 190 0
168 190 0
170 191 0
168 189 0
168 190 0
170 190 0
168 190 0
166 186 0
169 191 0
167 189 0
167 189 0
172 195 0
169 191 0
169 190 0
169 190 0
169 191 0
171 193 0
173 194 0
170 193 0
169 191 0
170 193 0
171 193 0
169 190 0
169 192 0
171 194 0
169 191 0
169 191 0
170 192 0
170 193 0
172 195 0
171 193 0
171 193 0
169 192 0
169 192 0
172 193 0
178 201 62
176 198 51
177 199 78
177 198 51
173 196 65
171 195 51
171 193 62
171 194 54
174 197 57
171 193 62
170 193 78
176 198 80
170 192 72
173 196 57
171 193 72
171 194 76
174 197 84
166 187 72
171 193 82
171 194 76
168 192 57
168 190 74
172 194 86
167 190 74
166 190 54
170 192 78
163 186 67
170 193 86
170 193 97
165 188 76
171 193 72
171 193 90
167 190 86
173 196 95
170 193 62
167 190 80
175 197 99
175 197 92
175 198 105
176 198 122
173 196 88
170 192 95
175 199 114
174 197 114
170 192 108
167 191 76
172 196 95
175 197 111
172 196 84
172 195 80
174 197 99
169 192 88
172 194 84
176 198 95
173 196 102
175 198 102
168 191 102
173 195 84
167 191 88
169 192 88
164 187 80
169 193 111
173 196 108
171 194 108
173 196 117
171 195 105
167 189 84
169 192 111
165 187 95
168 190 105
168 191 105
162 185 88
170 193 114
166 188 102
166 188 95
170 193 99
165 188 108
168 190 88
162 186 99
159 182 76
165 187 72
174 197 99
168 190 102
161 184 95
165 187 76
166 189 117
161 184 99
161 184 88
165 187 108
172 195 108
168 190 95
162 184 105
175 197 108
168 190 108
162 185 80
160 182 80
154 176 84
160 182 84
168 190 105
166 187 95
163 184 111
163 186 108
166 189 111
169 191 95
161 182 88
156 177 102
157 179 102
158 179 99
156 176 99
158 178 92
160 181 120
162 183 102
163 184 105
161 181 95
159 180 88
156 177 102
158 179 88
159 179 99
158 179 88
154 173 88
162 182 95
162 182 84
153 174 84
164 184 102
161 181 84
156 176 99
162 182 99
150 171 67
157 178 84
156 177 88
144 165 44
151 172 51
154 175 62
150 172 44
153 175 0
149 171 36
157 179 36
143 165 25
152 174 0
146 168 36
152 174 36
141 162 0
147 168 0
151 173 0
149 171 0
161 184 0
159 181 0
158 180 0
150 172 0
155 176 0
157 179 0
147 169 0
152 174 0
144 165 0
156 178 0
136 157 0
146 168 0
152 172 0
139 159 0
138 159 0
141 163 0
141 162 0
142 164 0
138 158 0
141 161 0
140 162 0
125 146 0
134 155 0
133 152 0
142 163 0
143 164 0
136 157 0
123 143 0
139 159 0
143 164 0
136 157 0
136 156 0
135 155 0
135 154 0
138 160 0
134 154 0
140 162 0
141 162 0
133 155 0
144 164 0
153 174 0
143 164 0
140 161 0
118 139 0
137 157 0
140 160 0
136 157 0
145 167 0
128 148 0
134 153 0
133 154 0
137 157 0
137 159 0
137 158 0
138 159 0
141 160 0
139 159 0
130 150 0
136 157 0
149 170 0
141 162 0
138 158 0
140 160 0
136 157 0
133 153 0
137 157 0
145 165 0
145 165 0
135 157 0
142 165 0
148 168 0
146 167 0
142 164 0
139 162 0
146 166 0
137 158 0
138 157 0
145 168 0
146 167 0
137 157 0
139 159 0
147 168 0
136 157 0
148 169 0
146 166 0
146 166 0
143 165 0
147 169 0
149 170 0
145 167 0
146 167 0
150 172 0
153 176 0
145 167 0
155 176 0
139 160 0
146 166 0
156 177 0
149 171 0
146 168 0
158 178 0
152 172 0
148 170 0
156 177 0
149 169 0
151 174 0
152 173 0
158 179 0
157 178 0
152 175 0
150 171 0
155 177 0
153 175 0
158 179 0
156 178 0
152 175 0
154 176 0
159 180 0
158 181 0
157 180 0
154 174 0
159 182 0
150 171 0
154 175 0
157 178 0
158 181 0
154 176 0
154 177 0
159 180 0
155 177 0
163 185 0
162 183 0
155 176 0
163 184 0
160 181 0
153 176 0
156 177 0
157 180 0
157 179 0
161 182 0
158 179 0
158 178 0
157 178 0
160 184 0
150 171 0
159 181 0
165 187 0
164 187 0
163 186 0
156 176 0
153 173 0
163 185 0
160 182 0
159 180 0
163 185 0
159 180 0
153 175 0
159 180 0
163 186 0
166 187 0
161 183 0
163 185 0
161 183 0
164 183 0
163 185 0
165 188 0
164 187 0
159 181 0
163 186 0
161 182 0
160 182 0
165 186 0
166 189 0
165 187 0
166 188 0
169 190 0
164 187 0
163 185 0
164 186 0
160 180 0
161 182 0
169 191 0
168 190 0
169 189 0
162 184 0
164 186 0
166 188 0
165 187 0
162 184 0
166 187 0
162 183 0
167 188 0
163 184 0
166 188 0
165 186 0
168 191 0
169 191 0
166 189 0
165 187 0
168 190 0
171 194 0
167 189 0
166 190 0
168 189 0
166 188 0
170 192 0
164 187 0
169 191 0
167 190 0
168 191 0
169 192 0
169 191 0
169 191 0
170 193 0
171 192 0
166 191 0
169 191 0
168 189 0
168 191 0
168 190 0
166 190 0
168 188 0
169 192 0
167 189 0
171 193 0
169 193 0
165 188 0
167 189 0
166 188 0
163 186 0
168 191 0
173 195 0
169 191 0
171 192 0
170 192 0
170 193 0
169 192 0
171 194 0
165 188 0
172 195 0
167 190 0
169 191 0
169 191 0
169 192 0
170 192 0
167 189 0
171 193 0
168 190 0
171 194 0
171 194 0
172 195 0
169 191 0
167 189 0
170 192 0
171 194 0
177 199 67
172 194 62
172 195 25
174 196 57
175 197 57
172 195 72
171 193 44
172 196 51
170 193 62
171 193 67
170 192 65
174 196 80
173 196 57
173 196 67
172 195 80
168 192 51
173 194 95
172 194 80
171 194 90
169 191 78
167 189 65
172 194 80
168 190 86
167 190 67
165 187 65
165 188 72
167 190 57
170 193 86
170 192 86
169 193 82
172 194 82
167 191 62
169 192 78
172 195 84
163 186 82
169 191 94
170 192 88
176 198 105
175 197 114
172 194 92
175 197 95
174 197 102
173 196 76
171 194 99
176 199 117
170 194 92
172 194 95
180 202 114
175 198 105
174 196 105
176 199 95
176 199 117
171 194 92
171 194 105
169 192 102
177 200 122
168 191 95
169 192 102
174 197 99
171 194 120
169 192 95
166 189 95
167 190 105
169 193 88
172 195 111
167 191 102
167 190 88
166 189 117
173 195 102
163 185 84
162 185 108
167 189 72
166 189 92
166 188 76
164 187 102
168 191 108
171 193 95
169 192 108
162 185 99
169 192 84
162 185 99
161 183 80
161 183 95
159 181 92
158 180 99
167 190 76
163 186 102
166 188 62
169 191 108
165 187 111
163 185 84
161 183 117
161 183 99
170 192 88
166 187 111
160 181 88
160 182 88
164 186 88
155 178 88
162 183 95
159 181 95
156 177 99
166 188 99
163 184 88
159 181 88
164 185 95
167 189 114
162 184 88
160 181 92
159 180 84
160 180 114
157 178 92
151 172 84
172 193 122
166 187 117
165 186 95
168 189 114
155 175 84
164 184 92
161 182 108
157 177 95
155 175 67
153 173 76
159 180 67
158 178 102
161 182 80
158 178 84
161 181 80
155 176 62
162 182 80
154 176 36
154 176 36
151 172 44
154 175 62
151 173 25
144 165 0
143 164 25
147 169 25
155 177 25
143 165 51
150 171 25
157 180 36
152 175 25
156 177 25
156 178 0
163 186 0
160 183 0
155 178 0
165 188 0
151 172 0
151 173 0
157 179 0
148 170 0
148 169 0
142 163 0
148 169 0
143 165 0
152 174 0
141 163 0
144 165 0
141 163 0
141 163 0
145 166 0
138 158 0
141 162 0
134 155 0
134 155 0
144 164 0
136 156 0
133 155 0
137 158 0
135 156 0
150 171 0
140 160 0
148 170 0
138 158 0
126 147 0
144 164 0
133 153 0
145 167 0
146 167 0
141 162 0
137 158 0
138 160 0
136 157 0
139 160 0
137 158 0
133 153 0
134 155 0
136 157 0
138 160 0
129 149 0
146 166 0
142 164 0
149 169 0
137 157 0
143 163 0
137 158 0
146 168 0
141 162 0
144 165 0
137 159 0
140 162 0
144 165 0
145 167 0
141 161 0
139 160 0
144 166 0
142 164 0
137 156 0
144 165 0
147 168 0
144 164 0
137 159 0
139 160 0
147 169 0
140 161 0
147 169 0
143 165 0
146 167 0
145 167 0
150 172 0
150 170 0
137 158 0
141 163 0
144 165 0
146 168 0
144 166 0
144 166 0
144 165 0
153 174 0
152 175 0
150 171 0
140 161 0
140 160 0
153 174 0
148 170 0
148 170 0
153 175 0
151 173 0
154 175 0
144 165 0
151 174 0
151 172 0
153 175 0
159 180 0
147 168 0
161 181 0
145 167 0
156 178 0
154 176 0
151 175 0
157 178 0
157 180 0
160 182 0
161 183 0
152 174 0
154 176 0
150 171 0
151 174 0
157 178 0
150 171 0
147 170 0
149 171 0
159 180 0
157 178 0
152 173 0
156 178 0
155 177 0
156 178 0
159 181 0
148 168 0
154 176 0
156 179 0
158 180 0
159 180 0
154 176 0
157 177 0
157 178 0
152 173 0
158 179 0
158 180 0
150 171 0
154 176 0
158 180 0
164 185 0
160 181 0
162 185 0
159 180 0
163 187 0
161 182 0
161 182 0
162 184 0
166 187 0
162 183 0
162 184 0
156 178 0
163 186 0
161 183 0
161 183 0
158 179 0
165 188 0
163 185 0
161 184 0
168 190 0
167 189 0
168 190 0
159 183 0
164 185 0
166 187 0
163 185 0
163 186 0
167 189 0
163 184 0
162 183 0
163 185 0
163 185 0
163 186 0
163 185 0
167 188 0
160 182 0
164 184 0
167 188 0
163 184 0
164 186 0
165 188 0
162 184 0
164 186 0
167 187 0
168 190 0
168 189 0
163 185 0
164 186 0
167 189 0
164 187 0
165 187 0
167 189 0
165 186 0
168 191 0
163 185 0
164 186 0
167 189 0
170 192 0
167 189 0
167 189 0
169 191 0
162 183 0
170 192 0
170 191 0
167 190 0
168 191 0
171 192 0
162 182 0
165 188 0
170 192 0
165 188 0
167 188 0
169 191 0
170 193 0
172 194 0
167 187 0
170 192 0
169 191 0
165 188 0
165 188 0
165 186 0
168 189 0
168 189 0
169 191 0
169 189 0
165 188 0
171 193 0
171 192 0
168 191 0
171 194 0
166 188 0
171 193 0
169 191 0
173 194 0
170 193 0
169 191 0
170 193 0
171 193 0
170 192 0
168 191 0
167 189 0
169 192 0
169 191 0
167 188 0
170 193 0
169 191 0
167 190 0
172 195 0
171 194 0
170 193 0
171 193 0
171 194 0
171 193 0
168 191 0
168 190 0
176 199 57
175 197 57
173 195 44
175 197 62
176 198 67
170 193 51
172 195 57
170 193 44
169 192 51
170 193 51
175 197 62
176 198 76
171 193 74
178 200 88
172 195 72
170 192 62
174 197 67
169 192 67
169 191 95
171 194 74
174 196 97
167 190 72
170 192 80
167 191 72
170 192 70
171 194 90
165 188 74
168 191 70
168 190 78
156 179 67
174 197 80
167 190 78
172 195 105
172 194 70
174 197 100
175 197 103
175 198 97
173 196 100
176 199 95
174 197 88
172 194 114
172 194 80
169 191 92
173 196 84
177 199 105
177 200 102
169 192 88
172 194 92
168 191 72
175 198 102
170 193 114
167 191 88
168 191 92
170 193 84
171 194 84
174 197 99
173 196 102
173 196 99
168 191 95
171 194 122
173 196 92
169 192 84
173 197 95
170 192 95
169 192 88
171 194 114
172 196 125
170 193 102
168 190 72
174 198 120
168 191 92
170 192 102
166 189 95
167 190 102
161 185 88
170 193 111
172 194 92
165 188 99
165 187 84
165 187 102
168 191 95
167 190 92
167 190 111
172 194 99
170 192 102
161 183 102
163 186 108
169 191 99
162 185 88
172 194 108
161 182 99
164 186 95
167 189 117
159 181 72
161 182 102
159 181 95
162 184 84
167 189 108
166 188 102
158 180 92
158 181 114
161 182 95
147 169 80
167 190 99
162 184 92
163 184 92
152 174 67
158 178 99
151 171 88
161 182 88
158 179 95
168 189 114
167 188 105
161 181 88
162 182 108
173 194 114
157 177 92
156 176 80
167 188 99
157 179 84
158 179 88
159 180 92
161 182 80
156 177 92
158 179 92
167 188 102
153 174 76
168 188 114
160 182 72
151 171 51
148 169 44
148 170 36
153 174 57
150 173 62
151 172 0
146 167 25
154 175 25
154 176 44
145 165 36
157 179 36
156 178 0
153 175 25
155 177 36
156 178 0
157 178 0
158 180 0
156 179 0
157 179 0
152 174 0
156 178 0
154 177 0
153 174 0
156 179 0
153 175 0
148 170 0
149 172 0
145 165 0
146 167 0
144 164 0
137 158 0
148 169 0
149 169 0
133 154 0
147 168 0
136 156 0
134 155 0
143 164 0
142 163 0
136 156 0
141 163 0
145 165 0
137 158 0
143 165 0
141 163 0
138 160 0
142 164 0
137 158 0
136 157 0
131 151 0
138 158 0
131 152 0
139 161 0
144 165 0
146 167 0
140 161 0
133 154 0
145 166 0
142 164 0
140 161 0
146 167 0
142 162 0
141 162 0
141 163 0
146 167 0
142 163 0
136 157 0
137 159 0
145 167 0
134 155 0
142 162 0
153 174 0
138 158 0
140 161 0
142 165 0
139 160 0
146 166 0
146 168 0
131 152 0
143 164 0
149 170 0
134 155 0
151 173 0
142 163 0
145 165 0
136 156 0
145 166 0
138 161 0
146 167 0
149 170 0
145 165 0
142 164 0
141 162 0
153 175 0
146 166 0
151 174 0
145 164 0
154 177 0
148 170 0
142 163 0
146 168 0
150 172 0
154 175 0
149 172 0
147 170 0
150 170 0
152 173 0
145 166 0
149 169 0
142 163 0
149 171 0
151 173 0
153 173 0
149 171 0
153 176 0
143 165 0
157 180 0
156 178 0
152 174 0
144 166 0
151 173 0
147 169 0
149 170 0
157 179 0
157 180 0
150 171 0
151 173 0
160 181 0
156 178 0
152 174 0
155 177 0
164 186 0
155 177 0
157 178 0
152 174 0
153 174 0
158 179 0
159 181 0
152 174 0
155 177 0
159 181 0
159 181 0
158 178 0
155 177 0
160 182 0
162 184 0
158 181 0
160 182 0
154 176 0
150 171 0
162 183 0
166 186 0
163 185 0
154 174 0
156 178 0
166 189 0
164 186 0
158 179 0
161 182 0
160 182 0
159 182 0
157 179 0
161 183 0
164 186 0
167 189 0
159 180 0
159 181 0
160 182 0
163 185 0
160 183 0
163 186 0
158 180 0
154 175 0
168 189 0
158 180 0
164 186 0
163 183 0
164 186 0
166 189 0
162 183 0
155 177 0
161 183 0
160 183 0
165 185 0
168 190 0
167 188 0
169 189 0
164 186 0
166 188 0
168 190 0
166 189 0
165 189 0
166 188 0
163 186 0
163 184 0
167 189 0
166 188 0
167 188 0
168 189 0
165 187 0
166 189 0
159 181 0
166 187 0
167 189 0
165 187 0
166 188 0
167 189 0
166 188 0
164 186 0
169 191 0
167 189 0
170 193 0
167 189 0
166 188 0
169 190 0
167 190 0
162 183 0
167 190 0
168 191 0
166 187 0
169 191 0
165 187 0
165 187 0
167 189 0
170 192 0
169 191 0
170 192 0
167 190 0
166 189 0
166 190 0
169 189 0
165 186 0
167 189 0
167 189 0
165 187 0
169 191 0
170 193 0
170 193 0
168 190 0
167 190 0
167 191 0
170 193 0
169 190 0
164 187 0
170 193 0
172 195 0
170 193 0
167 189 0
169 191 0
168 191 0
171 194 0
168 192 0
166 188 0
168 190 0
167 190 0
168 190 0
168 192 0
167 189 0
170 192 0
170 193 0
168 189 0
167 190 0
169 191 0
169 191 0
172 195 0
170 194 0
170 194 0
171 195 0
173 196 0
169 192 0
169 192 0
175 198 36
175 198 62
173 196 44
174 197 51
168 191 0
170 193 62
171 194 44
172 195 62
169 192 40
169 192 51
171 195 44
172 194 78
173 195 72
173 195 72
170 193 72
175 197 92
173 195 84
169 190 76
163 186 57
169 192 90
167 190 76
173 196 94
165 189 65
169 192 60
168 191 60
173 195 88
167 189 74
161 184 82
167 190 70
167 189 74
160 184 57
169 192 67
166 189 86
178 201 111
169 192 74
169 192 76
167 189 84
172 194 82
176 199 105
177 200 102
176 199 99
174 196 111
175 198 95
171 193 108
172 194 111
176 198 111
169 191 95
173 196 95
172 194 80
170 193 84
170 193 99
172 195 84
172 194 92
171 194 99
172 194 99
175 197 102
173 196 117
170 192 88
169 191 84
170 193 99
170 193 99
170 192 99
169 193 92
171 194 72
171 194 102
174 197 99
166 189 76
169 192 122
169 192 102
167 190 92
163 186 88
170 193 102
171 194 117
168 191 102
166 188 95
168 191 111
169 192 108
169 191 95
166 188 95
168 190 99
161 183 105
163 186 80
166 187 95
170 193 102
171 193 105
171 193 108
160 182 105
160 180 95
163 185 111
161 183 88
163 186 72
164 187 111
165 187 105
163 185 76
164 186 105
158 180 80
164 185 102
164 185 114
161 183 76
156 177 76
158 179 80
163 184 76
162 182 102
164 184 120
164 185 88
162 183 102
160 181 108
151 173 84
153 175 72
170 191 102
149 169 84
161 181 105
159 179 92
159 180 105
160 180 95
162 183 111
156 176 88
153 174 84
151 173 84
157 178 80
156 177 62
162 183 72
156 176 80
157 178 76
158 179 88
155 175 76
165 185 105
159 180 84
154 174 67
158 179 72
155 176 57
156 177 36
159 181 57
145 167 36
152 173 36
149 170 0
155 177 36
152 173 36
151 172 51
149 171 25
146 168 0
149 171 36
155 177 0
153 176 0
159 181 25
165 187 0
156 178 0
156 179 0
149 172 0
153 175 0
144 166 0
151 173 0
157 178 0
156 178 0
154 176 0
151 172 0
149 171 0
140 159 0
137 159 0
149 169 0
146 167 0
141 162 0
141 162 0
139 159 0
134 155 0
133 154 0
141 161 0
140 162 0
148 169 0
140 161 0
140 161 0
144 165 0
126 147 0
136 157 0
137 158 0
147 169 0
141 162 0
148 168 0
146 168 0
131 152 0
146 166 0
136 157 0
134 155 0
141 161 0
146 167 0
147 168 0
142 163 0
132 152 0
134 155 0
129 151 0
134 155 0
142 164 0
141 162 0
156 177 0
134 155 0
135 156 0
143 164 0
143 163 0
141 162 0
145 166 0
146 167 0
142 164 0
145 166 0
140 160 0
148 169 0
149 172 0
146 167 0
142 164 0
143 164 0
145 167 0
145 166 0
139 160 0
143 165 0
141 162 0
141 163 0
149 170 0
142 162 0
144 166 0
147 169 0
152 173 0
142 163 0
161 182 0
147 169 0
146 168 0
147 168 0
148 169 0
146 167 0
156 178 0
143 165 0
147 168 0
137 158 0
147 167 0
148 169 0
150 172 0
149 171 0
147 167 0
144 165 0
149 172 0
146 167 0
153 173 0
151 173 0
156 178 0
148 168 0
154 177 0
150 171 0
153 174 0
152 175 0
155 177 0
156 178 0
154 176 0
152 173 0
158 179 0
152 173 0
150 172 0
159 181 0
152 175 0
156 178 0
158 180 0
157 179 0
156 178 0
158 180 0
152 173 0
158 180 0
160 182 0
156 177 0
154 176 0
154 176 0
157 179 0
155 175 0
159 180 0
151 173 0
153 174 0
160 181 0
159 182 0
162 184 0
153 175 0
160 183 0
155 176 0
164 185 0
158 180 0
162 184 0
156 178 0
158 179 0
155 176 0
157 180 0
158 178 0
151 173 0
165 186 0
164 185 0
163 184 0
162 185 0
162 183 0
158 181 0
163 185 0
164 185 0
161 182 0
162 184 0
160 181 0
162 183 0
163 186 0
157 179 0
164 185 0
165 186 0
163 186 0
159 181 0
161 183 0
164 186 0
165 187 0
163 185 0
162 182 0
161 182 0
166 187 0
164 185 0
162 185 0
167 190 0
167 190 0
163 185 0
167 189 0
164 185 0
166 187 0
167 189 0
167 190 0
163 184 0
165 188 0
166 187 0
167 190 0
161 183 0
162 184 0
165 186 0
165 188 0
166 190 0
168 189 0
163 186 0
168 190 0
169 192 0
162 184 0
163 185 0
160 182 0
160 181 0
165 187 0
165 187 0
164 186 0
168 190 0
169 192 0
165 188 0
162 185 0
167 188 0
166 189 0
165 187 0
169 192 0
167 190 0
169 190 0
169 191 0
169 190 0
169 191 0
169 190 0
167 189 0
170 193 0
169 190 0
171 194 0
170 192 0
171 194 0
169 191 0
167 189 0
166 187 0
168 191 0
170 191 0
167 189 0
169 192 0
168 189 0
169 191 0
171 194 0
168 190 0
168 192 0
169 191 0
171 193 0
167 188 0
172 195 0
168 190 0
167 188 0
172 194 0
171 192 0
169 191 0
170 193 0
165 188 0
168 190 0
169 191 0
169 192 0
170 192 0
174 196 0
170 193 0
169 192 0
171 193 0
168 190 0
169 191 0
172 194 0
169 193 0
168 190 0
169 191 0
168 192 0
175 199 36
173 197 36
172 195 57
179 201 80
175 198 80
169 193 36
169 193 54
175 198 57
170 193 67
171 193 70
174 197 67
174 196 80
175 198 72
175 198 82
172 193 72
174 196 76
171 193 74
166 188 74
167 190 36
173 195 80
168 192 72
170 193 88
170 192 70
167 189 62
169 192 86
169 192 78
164 188 74
162 185 76
163 186 65
169 192 74
172 194 84
170 194 78
164 187 92
165 189 74
172 195 95
170 194 95
173 195 84
173 195 90
172 194 97
176 199 92
178 200 111
170 192 84
176 198 102
175 197 108
175 197 105
170 193 76
172 195 84
170 194 92
172 195 88
169 192 102
170 193 88
172 195 88
173 195 102
170 193 80
174 197 102
168 192 99
170 193 92
172 194 88
173 196 99
169 192 105
170 193 84
172 195 102
170 193 95
174 198 92
169 193 102
172 195 99
170 192 88
166 189 108
164 186 80
169 192 88
168 190 76
168 190 108
169 193 92
166 188 99
170 192 92
165 187 105
173 195 105
165 187 84
163 184 88
164 186 99
166 189 117
165 187 114
171 193 99
164 186 84
166 188 108
165 187 80
166 187 108
163 185 80
170 192 111
160 181 84
159 182 88
160 182 76
167 190 105
166 190 88
162 184 80
161 183 72
161 182 72
156 178 92
159 181 105
165 186 117
166 187 92
167 189 105
163 184 102
161 181 88
166 187 88
171 192 99
163 184 84
161 182 99
161 181 99
163 184 99
162 184 99
171 191 120
167 188 111
167 188 114
159 180 84
163 184 108
159 181 88
164 185 108
161 181 95
157 178 95
158 179 92
165 185 92
156 178 76
163 183 88
162 182 62
163 182 117
163 183 84
161 182 76
155 177 72
155 175 51
155 177 25
145 166 36
162 183 67
151 173 0
152 175 0
148 170 36
149 171 36
154 177 36
152 174 44
144 165 25
160 182 36
155 177 36
151 172 0
156 178 0
163 186 0
161 184 0
159 182 0
152 175 0
159 182 0
156 178 0
151 173 0
156 179 0
151 172 0
149 172 0
153 175 0
149 171 0
145 167 0
148 170 0
147 168 0
150 173 0
135 155 0
144 165 0
139 160 0
137 158 0
136 158 0
140 160 0
143 163 0
137 158 0
141 162 0
140 161 0
148 170 0
142 162 0
148 169 0
125 146 0
140 161 0
132 153 0
140 162 0
146 167 0
142 164 0
143 164 0
140 161 0
134 155 0
149 170 0
138 159 0
143 165 0
136 158 0
144 166 0
138 159 0
145 166 0
144 165 0
140 162 0
144 165 0
154 175 0
140 160 0
138 158 0
139 160 0
146 167 0
137 159 0
140 160 0
141 163 0
144 166 0
141 162 0
151 172 0
144 166 0
147 168 0
145 167 0
136 158 0
142 163 0
150 172 0
154 176 0
150 173 0
144 165 0
149 171 0
141 162 0
146 166 0
149 171 0
140 161 0
149 171 0
146 168 0
147 168 0
143 164 0
148 169 0
149 170 0
145 167 0
150 171 0
154 177 0
155 177 0
147 168 0
151 173 0
149 171 0
143 165 0
151 173 0
146 168 0
152 173 0
153 174 0
149 170 0
151 173 0
146 168 0
152 172 0
146 169 0
155 177 0
153 174 0
153 175 0
158 179 0
155 177 0
154 175 0
152 173 0
153 175 0
154 175 0
151 174 0
155 176 0
154 176 0
157 180 0
149 169 0
158 179 0
148 170 0
159 182 0
151 173 0
138 160 0
154 175 0
162 185 0
156 179 0
153 174 0
157 178 0
157 179 0
155 176 0
156 178 0
153 174 0
155 177 0
158 180 0
158 180 0
159 180 0
156 178 0
161 182 0
161 182 0
155 177 0
159 180 0
154 175 0
158 181 0
162 184 0
159 181 0
163 184 0
157 180 0
154 177 0
160 181 0
162 184 0
163 186 0
158 181 0
158 178 0
161 183 0
160 182 0
161 183 0
163 185 0
162 185 0
160 182 0
165 188 0
162 184 0
162 184 0
166 188 0
165 187 0
162 184 0
169 191 0
160 181 0
162 185 0
168 191 0
160 182 0
163 185 0
162 183 0
163 186 0
166 188 0
167 191 0
163 185 0
166 189 0
161 182 0
164 186 0
160 182 0
165 188 0
167 190 0
158 179 0
165 187 0
164 186 0
165 186 0
167 188 0
163 185 0
163 186 0
166 188 0
164 187 0
163 185 0
163 184 0
165 188 0
164 185 0
164 186 0
166 189 0
165 187 0
167 189 0
164 186 0
168 190 0
168 190 0
165 187 0
158 180 0
168 192 0
164 186 0
168 189 0
166 188 0
167 189 0
167 189 0
165 187 0
167 190 0
167 189 0
166 188 0
169 191 0
168 190 0
166 188 0
168 190 0
171 193 0
167 189 0
165 187 0
164 186 0
169 191 0
172 195 0
168 190 0
168 190 0
169 191 0
168 190 0
171 194 0
170 193 0
175 196 0
169 190 0
170 192 0
169 191 0
168 189 0
169 190 0
170 192 0
168 191 0
172 193 0
169 191 0
165 188 0
171 193 0
169 191 0
171 192 0
169 190 0
172 193 0
167 189 0
169 191 0
167 189 0
170 193 0
171 192 0
167 190 0
167 190 0
169 192 0
169 191 0
170 191 0
170 192 0
171 194 0
171 193 0
173 196 0
168 190 0
169 191 0
168 191 0
173 195 0
172 196 25
177 199 62
171 195 36
177 199 67
167 190 51
171 194 62
173 195 62
172 195 44
172 194 54
170 193 51
169 193 51
175 197 62
166 189 54
170 192 70
169 191 72
174 196 92
169 191 72
172 195 67
169 191 94
168 191 62
166 187 67
169 192 62
167 190 62
172 194 92
166 189 82
167 190 78
172 195 88
169 191 72
168 191 88
167 190 57
167 189 82
164 187 49
164 187 82
165 187 82
164 187 76
171 193 95
173 196 90
166 188 84
173 196 95
175 197 95
172 194 102
173 196 88
171 194 88
173 195 84
175 198 117
171 193 88
174 197 92
178 200 111
172 195 105
172 195 108
171 194 105
172 195 95
173 195 84
170 192 84
171 195 92
169 192 102
174 197 125
168 191 99
168 191 99
174 196 92
174 197 88
169 192 95
176 199 95
170 193 105
173 196 105
175 198 88
168 192 95
165 188 88
168 191 99
169 192 102
172 194 92
169 191 92
167 189 99
173 196 120
164 187 102
171 194 95
167 190 88
164 187 95
173 195 102
165 188 84
163 185 80
167 189 80
165 188 108
170 192 95
165 187 80
165 187 117
168 190 105
162 185 92
170 192 88
168 192 111
169 191 114
159 182 92
163 186 105
168 190 114
167 188 102
172 194 102
166 188 88
161 182 84
160 181 105
163 184 117
168 190 92
164 185 95
165 186 102
167 188 92
157 179 80
164 185 99
163 184 80
162 184 108
165 186 108
162 184 102
174 194 130
162 183 99
161 181 111
154 175 76
160 182 102
164 184 102
157 178 80
161 181 95
161 182 88
146 167 76
160 181 72
159 180 80
155 176 67
161 182 88
158 179 88
152 173 62
154 175 51
157 178 72
156 178 57
156 176 51
159 180 57
155 177 62
152 173 36
145 167 44
150 171 36
155 176 25
155 178 36
157 179 25
156 178 44
152 173 36
153 175 25
152 174 36
154 178 36
156 178 25
161 184 0
158 181 0
160 183 0
154 176 0
159 182 0
152 174 0
162 183 0
156 179 0
148 170 0
151 174 0
145 167 0
151 174 0
147 169 0
141 163 0
147 169 0
147 169 0
153 174 0
145 166 0
147 168 0
145 166 0
143 163 0
132 152 0
143 163 0
144 165 0
149 171 0
145 166 0
136 157 0
143 164 0
143 164 0
142 161 0
144 165 0
146 167 0
146 168 0
140 161 0
136 157 0
143 164 0
137 158 0
140 160 0
142 164 0
142 163 0
138 159 0
139 160 0
130 151 0
149 169 0
145 165 0
148 169 0
132 154 0
145 167 0
140 161 0
146 168 0
145 165 0
143 166 0
147 170 0
138 160 0
140 162 0
144 166 0
138 158 0
135 157 0
150 170 0
144 167 0
146 167 0
140 161 0
144 165 0
150 171 0
148 168 0
140 161 0
149 171 0
146 167 0
143 165 0
147 167 0
143 164 0
143 165 0
144 165 0
147 168 0
139 160 0
148 169 0
144 166 0
148 170 0
151 173 0
149 171 0
141 164 0
144 164 0
146 167 0
150 171 0
150 172 0
149 171 0
153 175 0
152 174 0
152 174 0
148 170 0
152 173 0
156 178 0
149 171 0
152 174 0
143 164 0
150 171 0
154 175 0
146 168 0
153 175 0
150 173 0
150 172 0
153 175 0
154 176 0
149 171 0
152 173 0
154 175 0
157 179 0
143 164 0
151 172 0
156 177 0
153 175 0
162 185 0
160 181 0
149 170 0
153 174 0
157 179 0
160 182 0
158 180 0
157 179 0
157 180 0
158 181 0
154 175 0
158 179 0
156 177 0
161 183 0
159 181 0
163 185 0
161 183 0
158 180 0
159 182 0
157 179 0
161 184 0
159 181 0
164 187 0
162 184 0
162 183 0
160 182 0
160 183 0
164 185 0
158 179 0
159 181 0
163 184 0
161 184 0
162 185 0
156 177 0
162 183 0
166 187 0
159 183 0
163 186 0
161 183 0
165 187 0
158 181 0
162 184 0
168 190 0
163 187 0
164 185 0
161 184 0
165 187 0
161 183 0
162 185 0
158 180 0
168 190 0
159 180 0
167 189 0
161 184 0
165 187 0
166 188 0
162 184 0
163 185 0
163 185 0
164 185 0
163 184 0
159 180 0
168 189 0
167 189 0
167 190 0
168 190 0
161 184 0
165 188 0
161 182 0
166 188 0
166 189 0
164 185 0
167 189 0
162 183 0
167 188 0
163 185 0
171 193 0
168 190 0
166 188 0
163 187 0
167 189 0
168 190 0
166 187 0
170 191 0
169 191 0
170 191 0
165 186 0
165 188 0
167 188 0
168 190 0
164 186 0
167 189 0
168 191 0
166 187 0
167 188 0
165 186 0
171 194 0
167 186 0
167 189 0
167 189 0
170 192 0
166 187 0
167 188 0
169 192 0
169 191 0
173 195 0
167 190 0
167 190 0
170 193 0
168 189 0
170 193 0
169 193 0
170 192 0
171 193 0
167 190 0
168 191 0
168 191 0
169 191 0
172 195 0
171 192 0
169 191 0
169 191 0
170 192 0
170 192 0
171 193 0
170 192 0
173 195 0
165 188 0
170 192 0
168 189 0
168 191 0
169 192 0
168 189 0
167 189 0
169 190 0
169 191 0
170 192 0
169 192 0
172 195 0
168 190 0
167 188 0
168 191 0
171 192 0
169 193 0
170 192 0
173 197 0
176 199 36
172 195 67
175 197 51
175 197 57
173 195 57
171 194 36
171 193 36
174 197 36
168 191 44
167 190 54
173 196 36
171 194 57
168 190 54
175 198 84
174 196 67
167 190 51
171 194 62
169 191 78
165 187 62
165 187 72
167 190 62
173 196 78
168 191 70
166 188 62
172 194 78
165 188 76
168 190 95
170 193 88
170 192 86
161 184 60
163 185 78
167 190 76
166 188 72
168 190 74
170 192 100
173 196 80
168 191 74
177 199 118
171 193 65
172 195 90
175 197 95
169 192 92
175 197 99
176 198 92
177 199 102
176 199 80
169 191 84
173 197 120
172 194 88
173 196 102
177 200 105
173 196 99
171 194 92
178 200 102
177 199 102
169 192 95
169 191 76
161 184 72
169 192 88
173 197 105
168 190 76
170 193 80
170 193 105
166 189 88
171 193 105
168 191 99
167 189 102
173 197 117
172 195 84
168 191 92
169 191 95
170 192 105
173 195 84
172 194 102
168 190 92
166 189 99
164 186 84
169 191 105
168 191 95
165 187 92
162 184 95
164 186 102
168 190 105
173 196 122
167 188 76
168 191 95
166 187 108
164 187 99
166 187 95
169 191 133
164 186 84
160 182 62
158 180 88
167 189 92
165 188 114
166 187 72
164 185 95
163 184 92
165 186 76
163 184 95
160 182 80
163 185 117
155 176 92
159 180 76
169 190 128
156 178 88
160 181 72
165 186 105
160 181 62
166 187 102
162 183 105
163 184 95
165 185 117
155 177 62
165 185 99
165 186 88
161 183 102
159 180 84
165 185 95
163 185 99
156 177 67
156 177 95
158 179 76
157 178 76
161 182 88
152 173 57
155 176 67
158 179 51
148 170 44
153 174 51
145 167 36
154 176 51
154 175 36
149 170 0
157 178 25
152 174 44
163 184 36
151 174 36
147 169 25
150 172 25
159 181 25
152 174 44
163 186 0
157 180 0
154 176 0
162 186 0
156 180 0
155 178 0
158 179 0
150 173 0
147 168 0
140 163 0
147 169 0
152 173 0
147 169 0
146 167 0
142 163 0
155 176 0
142 163 0
145 166 0
139 159 0
151 172 0
144 164 0
143 165 0
148 170 0
148 169 0
142 165 0
147 168 0
143 165 0
146 167 0
139 161 0
139 160 0
135 155 0
133 153 0
142 163 0
154 176 0
142 164 0
143 164 0
135 157 0
138 159 0
140 160 0
148 171 0
143 164 0
147 169 0
148 169 0
146 167 0
134 155 0
140 163 0
144 165 0
139 161 0
138 158 0
139 159 0
141 162 0
144 165 0
137 159 0
138 159 0
139 160 0
143 165 0
142 162 0
141 162 0
143 166 0
143 163 0
146 167 0
147 168 0
150 172 0
137 158 0
146 167 0
145 167 0
153 176 0
148 170 0
148 170 0
147 168 0
138 160 0
155 177 0
144 166 0
151 175 0
143 165 0
150 171 0
155 176 0
146 168 0
146 167 0
153 175 0
156 179 0
142 163 0
151 173 0
156 177 0
146 166 0
152 173 0
150 171 0
153 174 0
152 174 0
154 176 0
154 177 0
151 173 0
147 169 0
152 174 0
156 179 0
148 169 0
145 166 0
147 168 0
158 180 0
154 177 0
156 175 0
153 175 0
154 178 0
150 173 0
160 182 0
158 181 0
149 169 0
163 184 0
157 179 0
152 173 0
148 168 0
151 173 0
159 181 0
155 177 0
150 171 0
159 180 0
153 176 0
159 181 0
165 186 0
150 172 0
160 182 0
155 178 0
157 178 0
162 185 0
162 184 0
154 176 0
161 183 0
155 176 0
163 186 0
159 181 0
159 181 0
163 184 0
158 181 0
159 182 0
159 178 0
157 179 0
158 180 0
158 180 0
161 183 0
155 178 0
157 180 0
159 180 0
165 187 0
161 182 0
163 186 0
162 184 0
164 188 0
162 186 0
159 182 0
163 185 0
163 184 0
162 183 0
161 183 0
160 181 0
162 184 0
161 182 0
165 188 0
160 181 0
164 186 0
161 182 0
164 184 0
167 189 0
168 190 0
164 185 0
169 191 0
165 189 0
163 187 0
162 183 0
165 187 0
162 184 0
160 182 0
170 192 0
165 187 0
164 186 0
165 187 0
168 189 0
166 189 0
163 184 0
165 189 0
162 185 0
163 185 0
171 192 0
168 190 0
164 187 0
169 191 0
163 187 0
165 188 0
168 190 0
167 188 0
166 187 0
164 186 0
167 190 0
170 191 0
167 190 0
168 189 0
166 186 0
162 184 0
166 188 0
167 189 0
166 187 0
165 187 0
169 191 0
166 188 0
169 191 0
163 185 0
167 188 0
168 190 0
167 189 0
168 192 0
169 192 0
170 192 0
170 193 0
166 188 0
167 189 0
170 192 0
164 186 0
169 191 0
162 185 0
168 191 0
170 192 0
167 190 0
171 192 0
167 189 0
168 191 0
170 193 0
170 193 0
169 190 0
169 192 0
170 192 0
171 192 0
170 193 0
168 191 0
169 191 0
169 191 0
168 192 0
172 194 0
170 192 0
169 191 0
170 191 0
168 191 0
171 195 0
171 194 0
171 194 0
171 192 0
169 192 0
171 194 0
170 191 0
172 194 0
169 191 0
168 190 0
168 190 0
171 194 0
170 193 0
170 193 0
169 192 0
172 195 0
174 196 0
174 198 0
173 196 0
172 195 0
171 194 51
178 200 67
172 195 44
176 199 57
175 198 51
169 193 44
170 193 51
172 194 67
166 189 47
174 197 67
172 195 67
171 193 51
174 196 82
172 194 84
169 192 74
168 191 78
169 191 76
166 188 65
160 183 62
169 192 57
171 193 78
169 191 67
168 192 44
171 193 78
167 190 67
165 188 47
167 189 65
169 192 74
171 194 97
163 187 90
166 190 72
168 190 86
170 192 88
169 192 70
171 193 82
166 188 65
168 190 86
172 195 88
176 198 113
172 196 92
171 194 84
176 199 99
169 192 92
176 199 102
173 196 80
172 194 108
172 195 105
171 194 99
173 195 105
170 193 80
171 193 92
174 198 111
171 194 105
174 197 99
172 195 114
170 193 102
169 191 92
167 190 76
171 194 92
176 198 122
167 189 76
170 192 76
170 192 88
175 198 99
169 190 72
168 191 95
168 190 80
174 197 95
168 190 95
165 188 80
173 195 111
172 194 88
171 194 92
169 190 95
165 187 95
167 190 99
168 190 120
169 191 80
165 185 88
166 189 95
165 187 108
152 174 72
167 189 99
172 194 102
169 191 99
166 188 105
164 187 102
161 184 76
165 187 99
162 183 72
159 181 88
165 186 84
162 183 92
172 193 102
161 181 102
161 181 84
168 190 102
163 184 84
161 183 95
158 180 84
163 185 99
164 184 95
165 186 99
164 185 105
162 183 84
165 185 125
158 179 80
160 180 80
169 190 108
164 185 95
163 184 95
158 179 84
161 182 80
156 178 72
170 191 88
156 176 76
155 176 76
160 181 95
154 174 95
163 184 88
153 174 72
161 182 84
155 176 67
158 179 72
157 177 80
163 184 57
159 181 67
157 180 36
152 174 44
159 181 51
156 177 25
147 168 36
156 178 67
153 175 36
154 175 36
151 174 36
143 165 25
161 183 36
155 176 25
149 172 0
167 190 0
162 185 0
163 185 0
157 179 0
160 183 0
152 173 0
156 177 0
157 179 0
150 172 0
152 173 0
154 176 0
153 175 0
155 178 0
147 169 0
134 155 0
150 172 0
150 171 0
134 157 0
144 166 0
145 168 0
139 160 0
147 167 0
136 157 0
150 172 0
141 163 0
138 159 0
141 164 0
143 165 0
147 168 0
145 167 0
141 163 0
145 166 0
143 164 0
139 159 0
149 171 0
146 168 0
144 164 0
142 164 0
145 166 0
146 168 0
147 168 0
141 163 0
144 165 0
144 165 0
144 165 0
142 162 0
139 160 0
141 163 0
151 173 0
142 163 0
147 168 0
143 164 0
140 160 0
148 169 0
154 175 0
149 170 0
143 165 0
145 166 0
143 164 0
148 170 0
147 169 0
138 160 0
150 171 0
140 162 0
147 168 0
140 161 0
145 165 0
142 164 0
150 171 0
149 169 0
149 171 0
150 172 0
139 161 0
141 162 0
147 169 0
148 170 0
145 167 0
145 167 0
151 173 0
141 163 0
154 175 0
151 174 0
148 170 0
148 168 0
156 178 0
147 169 0
155 178 0
148 171 0
149 170 0
153 175 0
148 171 0
150 173 0
156 178 0
150 172 0
153 174 0
151 174 0
157 179 0
154 175 0
156 177 0
151 173 0
149 171 0
158 179 0
155 177 0
160 182 0
158 180 0
151 173 0
162 184 0
159 182 0
154 176 0
161 183 0
154 176 0
154 175 0
157 177 0
153 174 0
161 182 0
151 173 0
154 175 0
157 179 0
158 180 0
159 180 0
157 177 0
159 182 0
157 179 0
158 180 0
155 178 0
156 178 0
161 182 0
161 183 0
155 178 0
160 183 0
159 182 0
155 177 0
163 185 0
165 188 0
163 185 0
154 176 0
158 180 0
159 182 0
159 182 0
156 178 0
162 184 0
164 187 0
164 185 0
164 185 0
159 181 0
160 182 0
159 181 0
156 178 0
158 180 0
162 185 0
154 176 0
157 180 0
167 190 0
164 187 0
163 185 0
166 188 0
159 182 0
161 182 0
159 181 0
166 189 0
164 187 0
163 184 0
169 190 0
162 184 0
166 187 0
162 186 0
163 184 0
166 188 0
166 189 0
162 183 0
163 186 0
169 192 0
170 192 0
163 185 0
165 186 0
169 190 0
160 182 0
168 191 0
162 183 0
159 183 0
165 187 0
165 187 0
165 188 0
170 194 0
169 191 0
166 187 0
163 185 0
164 187 0
171 193 0
170 190 0
166 188 0
163 185 0
159 182 0
165 187 0
167 189 0
162 185 0
168 190 0
166 188 0
166 189 0
166 188 0
166 187 0
169 190 0
168 190 0
171 192 0
167 191 0
171 194 0
165 187 0
166 187 0
165 187 0
166 188 0
167 190 0
167 190 0
166 188 0
167 188 0
167 190 0
166 189 0
168 192 0
167 189 0
168 190 0
165 188 0
169 192 0
170 192 0
169 191 0
162 183 0
167 190 0
167 189 0
167 188 0
165 187 0
170 191 0
170 192 0
165 189 0
169 192 0
172 195 0
167 190 0
167 191 0
171 192 0
169 192 0
167 190 0
166 187 0
170 193 0
170 192 0
171 193 0
173 195 0
171 193 0
172 195 0
168 191 0
170 193 0
170 192 0
170 191 0
171 193 0
170 193 0
170 192 0
170 193 0
171 194 0
167 190 0
171 193 0
172 195 0
172 197 0
173 197 0
170 194 0
170 193 0
175 197 51
171 194 51
171 194 40
172 195 57
171 194 54
173 196 72
175 197 67
174 197 51
174 197 65
172 195 62
169 191 72
169 193 54
173 195 80
165 188 47
169 192 54
167 189 62
172 194 72
174 196 94
171 194 88
170 193 54
174 196 94
164 186 82
167 189 76
171 193 84
167 189 87
171 193 94
171 194 84
171 193 90
169 192 44
164 186 70
168 191 82
171 193 105
169 191 82
173 196 80
177 200 113
172 194 95
170 193 72
171 192 103
172 195 97
173 195 102
169 191 76
170 193 88
174 196 105
175 198 102
169 192 92
172 195 95
172 195 99
171 194 92
173 195 102
175 198 95
173 195 80
170 192 76
172 194 105
172 194 105
166 188 67
170 192 92
170 193 105
165 187 84
174 197 105
174 197 102
167 190 88
169 191 92
168 190 84
170 192 88
167 190 102
175 198 102
173 194 102
176 198 111
169 191 84
174 196 111
172 194 114
167 189 80
172 195 92
170 193 102
176 199 108
165 188 92
170 192 102
163 184 88
170 191 105
169 191 88
170 191 84
171 193 102
161 182 88
164 186 92
169 191 111
167 188 92
164 185 99
169 190 95
162 185 88
164 186 88
161 183 92
166 187 99
160 182 99
168 191 111
162 184 111
159 180 57
167 187 95
160 181 92
167 189 125
174 195 114
165 187 95
161 182 76
168 188 122
168 190 105
166 186 84
163 184 105
159 180 88
162 183 92
168 189 84
163 184 84
168 189 105
164 185 88
164 184 105
170 191 95
159 179 72
161 182 88
167 187 67
162 183 72
161 182 51
153 175 62
160 182 62
158 179 84
160 181 76
161 182 80
161 183 57
151 172 57
157 178 44
153 174 57
154 176 36
154 176 25
155 178 0
153 175 0
148 170 36
155 177 0
148 170 25
147 169 25
159 181 25
154 175 36
160 183 36
166 190 0
163 185 0
163 186 0
160 183 0
157 179 0
159 182 0
152 175 0
155 178 0
152 174 0
150 171 0
146 167 0
149 171 0
150 172 0
152 174 0
142 163 0
145 166 0
149 171 0
149 171 0
139 161 0
129 150 0
138 159 0
144 166 0
144 166 0
146 167 0
138 160 0
149 171 0
139 160 0
144 165 0
147 168 0
144 165 0
157 177 0
146 167 0
148 169 0
146 166 0
150 172 0
148 170 0
142 163 0
147 168 0
148 169 0
144 165 0
144 165 0
142 163 0
143 165 0
138 160 0
147 168 0
150 172 0
145 166 0
149 170 0
145 166 0
142 164 0
147 169 0
141 162 0
150 171 0
151 172 0
134 156 0
143 165 0
149 171 0
144 166 0
140 163 0
153 175 0
149 171 0
145 165 0
145 166 0
143 164 0
150 172 0
139 159 0
150 172 0
151 175 0
148 170 0
148 171 0
147 170 0
138 160 0
147 168 0
140 162 0
150 172 0
157 179 0
146 168 0
155 177 0
154 175 0
153 175 0
147 168 0
148 171 0
150 172 0
146 168 0
154 177 0
154 176 0
154 176 0
148 169 0
156 179 0
155 177 0
146 169 0
157 179 0
154 175 0
149 171 0
149 171 0
151 171 0
156 178 0
154 177 0
147 168 0
156 178 0
151 172 0
156 176 0
149 171 0
163 184 0
158 181 0
157 179 0
156 177 0
149 171 0
157 178 0
158 180 0
158 180 0
154 176 0
153 175 0
153 174 0
158 179 0
157 179 0
161 183 0
161 182 0
156 177 0
161 183 0
158 180 0
153 176 0
162 183 0
163 185 0
151 174 0
158 180 0
161 183 0
161 183 0
160 183 0
160 181 0
162 184 0
155 177 0
157 179 0
158 181 0
163 183 0
161 184 0
160 181 0
165 186 0
167 189 0
164 184 0
159 180 0
158 180 0
162 183 0
156 178 0
165 187 0
165 188 0
164 187 0
165 187 0
160 182 0
161 184 0
159 181 0
158 181 0
169 192 0
161 182 0
165 188 0
163 186 0
157 179 0
165 187 0
162 184 0
162 183 0
165 189 0
167 188 0
164 184 0
165 186 0
161 183 0
162 184 0
163 185 0
162 184 0
166 189 0
166 188 0
169 192 0
164 187 0
168 190 0
161 184 0
168 191 0
167 190 0
166 188 0
160 183 0
163 183 0
159 181 0
169 190 0
162 184 0
167 189 0
165 187 0
166 188 0
163 185 0
165 187 0
165 185 0
168 189 0
163 186 0
169 191 0
168 191 0
167 190 0
171 194 0
166 188 0
167 189 0
171 193 0
169 191 0
166 187 0
167 190 0
167 189 0
165 187 0
173 195 0
164 187 0
168 191 0
170 192 0
169 191 0
167 189 0
171 192 0
166 187 0
168 191 0
168 191 0
168 190 0
170 193 0
167 190 0
163 185 0
171 191 0
171 194 0
170 193 0
168 191 0
169 192 0
170 193 0
167 188 0
171 193 0
170 192 0
170 193 0
165 188 0
165 188 0
171 195 0
172 195 0
169 192 0
167 188 0
170 193 0
169 192 0
168 191 0
169 192 0
169 191 0
169 191 0
170 192 0
167 190 0
171 193 0
169 192 0
165 186 0
170 192 0
161 183 0
170 194 0
169 191 0
170 192 0
169 191 0
167 189 0
169 193 0
168 191 0
167 191 0
171 194 0
170 193 0
168 192 0
171 192 0
174 197 0
175 198 0
171 194 0
171 195 0
172 196 44
175 197 62
176 198 57
169 193 44
175 197 72
171 194 40
171 194 36
170 193 47
171 194 36
174 196 51
171 194 44
167 191 31
172 195 67
178 199 88
164 186 74
168 191 80
173 195 80
174 197 88
171 194 51
169 192 80
168 191 60
176 199 74
167 189 76
163 185 80
172 194 81
171 194 84
169 191 67
172 193 95
173 194 80
171 193 81
170 192 70
170 192 92
169 191 80
165 189 67
162 186 67
168 191 72
175 197 97
169 191 92
174 196 94
175 197 117
173 196 92
177 199 102
171 193 67
170 193 67
169 192 72
169 192 84
175 198 105
173 196 80
171 194 84
179 201 125
169 191 92
166 188 72
170 192 84
169 191 67
174 197 105
171 194 105
177 198 114
167 189 105
173 196 128
175 197 102
170 192 102
174 197 120
175 198 128
170 192 80
171 195 117
173 195 95
175 197 72
170 192 95
167 189 99
177 199 120
165 188 92
170 191 67
168 191 102
160 183 95
168 189 88
172 195 114
164 186 95
175 197 92
168 189 92
173 195 102
163 185 99
174 196 108
170 192 105
164 186 76
158 179 88
163 185 95
162 184 76
160 181 88
160 182 84
172 194 95
165 188 92
158 180 76
163 184 95
165 185 114
159 180 95
164 186 99
163 184 88
159 181 105
159 179 84
166 186 76
166 186 92
161 182 92
166 187 99
168 190 102
164 184 95
159 179 92
166 187 95
164 185 95
169 190 88
155 176 72
155 175 80
160 182 76
159 180 99
162 182 95
168 188 95
162 182 105
159 180 67
152 173 76
163 185 72
165 186 76
155 176 57
157 178 62
162 183 84
162 183 67
153 174 36
160 181 44
153 175 36
160 181 44
156 176 36
155 176 25
149 171 44
156 178 25
159 180 25
152 174 25
153 174 25
148 170 25
151 173 25
155 177 25
157 181 0
160 183 0
165 187 0
163 186 0
164 187 0
165 186 0
148 170 0
154 177 0
157 177 0
156 178 0
152 173 0
154 177 0
153 176 0
146 168 0
150 172 0
143 165 0
153 174 0
150 172 0
146 168 0
149 171 0
148 170 0
143 165 0
144 166 0
153 174 0
145 165 0
144 165 0
147 169 0
148 169 0
143 164 0
150 171 0
144 165 0
147 168 0
144 166 0
147 168 0
146 168 0
140 163 0
145 167 0
143 165 0
142 165 0
145 166 0
145 167 0
152 174 0
148 170 0
146 167 0
141 164 0
140 162 0
151 172 0
149 170 0
146 168 0
141 162 0
155 177 0
155 177 0
149 171 0
144 165 0
138 158 0
148 168 0
146 168 0
141 162 0
144 166 0
153 176 0
147 170 0
148 170 0
143 164 0
153 176 0
140 162 0
157 180 0
152 173 0
150 172 0
149 171 0
147 169 0
149 170 0
149 170 0
151 172 0
148 170 0
145 166 0
145 167 0
155 177 0
148 170 0
152 173 0
149 169 0
150 172 0
150 172 0
145 167 0
150 172 0
145 166 0
155 177 0
143 165 0
156 179 0
151 173 0
152 175 0
153 175 0
152 174 0
153 173 0
159 181 0
152 174 0
155 177 0
144 164 0
154 176 0
153 175 0
156 178 0
156 178 0
143 164 0
157 178 0
160 182 0
155 177 0
144 166 0
154 176 0
159 183 0
158 180 0
154 175 0
156 178 0
151 174 0
157 179 0
158 179 0
155 178 0
156 179 0
163 185 0
160 181 0
158 181 0
150 172 0
159 182 0
155 177 0
160 183 0
163 185 0
156 179 0
153 175 0
158 180 0
156 178 0
154 176 0
161 183 0
162 185 0
163 184 0
161 183 0
164 185 0
160 181 0
159 182 0
167 189 0
158 180 0
163 186 0
163 185 0
160 183 0
161 183 0
161 184 0
162 186 0
160 181 0
161 182 0
164 185 0
155 177 0
162 185 0
158 180 0
163 185 0
162 184 0
161 183 0
166 187 0
167 189 0
171 192 0
166 189 0
164 188 0
161 184 0
165 187 0
165 187 0
166 188 0
164 185 0
160 182 0
165 188 0
166 188 0
164 188 0
161 183 0
162 185 0
167 188 0
161 182 0
164 186 0
165 187 0
165 188 0
164 187 0
162 184 0
163 186 0
165 187 0
166 189 0
162 184 0
164 186 0
168 190 0
159 182 0
166 187 0
170 194 0
167 191 0
162 183 0
171 192 0
166 189 0
168 191 0
165 187 0
164 186 0
167 189 0
167 189 0
167 189 0
166 189 0
163 185 0
164 186 0
172 195 0
166 188 0
164 186 0
169 191 0
170 192 0
168 190 0
169 191 0
166 188 0
168 189 0
169 191 0
169 191 0
169 190 0
170 191 0
167 189 0
167 190 0
168 192 0
165 189 0
168 191 0
166 188 0
167 189 0
165 188 0
168 190 0
170 193 0
170 193 0
171 193 0
166 188 0
170 191 0
171 193 0
171 194 0
170 193 0
170 192 0
170 192 0
167 189 0
172 194 0
167 192 0
167 190 0
170 191 0
172 194 0
170 192 0
169 191 0
166 186 0
170 193 0
169 190 0
170 194 0
167 190 0
170 192 0
169 192 0
170 193 0
169 192 0
169 192 0
169 191 0
167 191 0
170 193 0
170 193 0
172 195 0
170 192 0
171 194 0
170 193 0
171 193 0
169 192 0
173 196 0
174 197 0
173 197 0
171 195 0
168 191 25
170 193 36
172 195 67
169 192 51
172 195 54
172 195 62
170 193 51
170 192 54
174 196 72
172 194 36
174 196 62
168 190 60
170 193 44
166 189 36
169 191 67
173 195 88
166 189 65
174 196 90
172 194 95
175 197 82
170 192 74
164 186 60
171 194 70
169 192 80
170 192 90
164 186 70
170 192 86
171 193 72
166 189 84
166 188 62
165 187 97
164 186 60
172 194 84
171 193 99
172 194 76
166 189 84
171 193 88
168 191 97
171 193 92
174 196 92
173 196 88
174 195 102
170 192 84
176 198 111
171 194 95
172 195 88
174 195 111
175 198 105
170 193 88
173 197 105
179 201 114
167 190 99
174 197 117
169 192 95
176 197 88
168 191 80
172 194 111
174 196 95
169 191 92
172 195 102
171 193 108
173 195 125
170 192 74
168 191 102
175 198 108
170 193 111
166 187 111
171 193 95
166 188 95
164 187 92
166 188 88
170 192 102
166 188 95
166 188 102
163 186 99
168 189 67
162 185 80
166 187 80
174 195 120
168 190 102
168 190 111
167 188 102
168 189 105
171 191 95
167 189 99
158 180 92
166 188 80
157 179 76
172 193 88
165 186 99
166 187 84
169 190 105
170 192 120
164 184 72
162 184 111
174 195 122
162 182 95
166 187 88
164 185 95
171 192 105
169 189 84
167 187 92
167 189 114
168 188 92
165 186 95
157 178 84
162 182 72
160 181 88
157 178 72
159 180 80
163 184 92
161 181 72
155 175 88
160 181 76
169 190 88
160 181 67
155 176 44
157 178 44
159 180 62
156 177 51
160 182 76
158 179 76
155 178 67
155 176 51
151 172 72
159 180 57
163 185 51
163 184 44
157 179 0
146 169 0
156 179 36
160 181 36
159 181 44
160 183 36
157 180 25
162 185 36
161 183 36
152 176 0
160 183 0
163 185 0
156 178 0
161 183 0
160 182 0
160 183 0
155 178 0
156 179 0
158 180 0
156 179 0
152 174 0
151 174 0
148 171 0
154 177 0
149 171 0
148 169 0
152 174 0
142 164 0
148 170 0
144 165 0
151 172 0
144 166 0
154 177 0
146 167 0
147 168 0
136 158 0
151 173 0
147 170 0
146 168 0
147 169 0
147 169 0
145 166 0
154 176 0
138 160 0
157 179 0
147 169 0
147 169 0
152 173 0
155 176 0
144 166 0
147 168 0
150 172 0
148 169 0
144 165 0
150 171 0
147 169 0
149 170 0
155 176 0
142 164 0
147 168 0
152 173 0
153 174 0
146 167 0
148 170 0
152 175 0
143 164 0
154 175 0
151 172 0
155 177 0
148 171 0
147 169 0
143 164 0
146 168 0
148 170 0
146 168 0
147 169 0
157 179 0
152 174 0
142 163 0
149 171 0
146 167 0
153 175 0
151 173 0
146 167 0
144 165 0
149 170 0
154 177 0
150 172 0
154 177 0
151 172 0
162 185 0
155 177 0
154 177 0
151 173 0
157 180 0
157 179 0
155 176 0
148 169 0
158 179 0
146 169 0
151 172 0
154 177 0
153 175 0
154 177 0
150 173 0
156 178 0
149 172 0
151 174 0
153 174 0
149 171 0
157 179 0
155 177 0
150 173 0
152 173 0
157 178 0
157 179 0
148 170 0
157 179 0
159 180 0
154 176 0
154 176 0
154 176 0
156 179 0
155 178 0
150 172 0
160 183 0
155 178 0
163 185 0
161 184 0
163 185 0
157 179 0
159 181 0
157 178 0
155 176 0
157 180 0
155 177 0
154 175 0
157 179 0
156 177 0
162 185 0
159 181 0
158 179 0
157 180 0
158 181 0
159 182 0
162 185 0
162 184 0
158 180 0
163 185 0
164 186 0
159 182 0
164 185 0
164 185 0
162 185 0
163 184 0
160 183 0
161 183 0
159 181 0
160 182 0
163 185 0
157 180 0
166 188 0
163 185 0
162 184 0
166 189 0
160 182 0
162 184 0
164 185 0
168 189 0
166 189 0
163 184 0
161 184 0
163 185 0
161 183 0
167 189 0
159 182 0
163 184 0
161 184 0
167 190 0
161 184 0
160 183 0
163 186 0
166 188 0
159 179 0
164 188 0
167 189 0
164 186 0
166 188 0
165 189 0
167 190 0
166 188 0
169 191 0
165 187 0
164 186 0
170 193 0
164 186 0
166 189 0
167 189 0
170 192 0
165 188 0
164 186 0
168 191 0
169 191 0
165 188 0
169 191 0
166 189 0
170 191 0
167 190 0
168 190 0
168 189 0
168 190 0
169 190 0
166 188 0
165 187 0
168 189 0
165 187 0
169 190 0
165 187 0
168 192 0
167 190 0
167 189 0
166 188 0
168 190 0
165 187 0
170 192 0
166 189 0
168 190 0
169 193 0
170 192 0
169 192 0
168 192 0
168 190 0
170 193 0
168 190 0
167 190 0
164 187 0
170 193 0
163 185 0
171 194 0
170 193 0
171 193 0
171 194 0
171 193 0
165 188 0
167 189 0
169 192 0
166 191 0
172 194 0
169 191 0
169 192 0
170 192 0
170 193 0
171 192 0
169 191 0
172 194 0
170 191 0
166 187 0
168 191 0
170 192 0
169 191 0
170 193 0
169 191 0
168 190 0
172 194 0
170 193 0
170 192 0
172 194 0
168 191 0
172 195 0
174 197 0
176 198 0
171 194 0
170 194 0
169 192 0
170 193 25
172 196 51
178 200 76
173 196 57
173 196 70
166 190 51
174 196 57
171 194 54
171 193 57
170 193 44
166 189 40
171 194 65
170 193 65
166 188 70
169 191 65
171 194 76
168 191 60
174 196 72
167 189 54
170 192 94
166 189 76
163 185 78
168 190 94
171 194 57
171 193 65
165 187 70
172 195 60
168 190 94
167 189 82
171 194 72
165 188 78
170 193 47
173 196 82
161 184 82
173 196 82
167 190 76
171 193 80
172 195 70
170 193 88
174 196 92
174 196 99
174 196 102
174 197 111
173 194 102
172 194 84
172 194 99
170 192 84
174 195 99
167 190 92
171 193 72
172 194 76
174 196 102
173 196 76
175 198 92
171 192 102
174 196 99
173 195 108
173 195 102
170 193 108
173 195 114
165 188 80
165 187 95
169 190 88
166 188 72
166 188 92
170 192 102
168 190 72
171 192 95
170 191 105
170 192 95
170 192 72
173 194 114
166 187 88
166 188 84
169 191 102
164 186 92
164 186 88
171 193 102
162 185 92
170 192 102
166 189 88
166 188 88
167 188 92
169 189 105
163 185 102
168 188 88
163 185 80
177 198 108
168 189 92
165 187 102
168 190 105
152 173 72
166 186 99
168 189 105
168 189 114
171 191 105
169 190 84
161 182 80
166 187 92
165 187 99
162 184 80
166 187 88
165 185 62
157 178 72
154 175 67
168 190 108
163 185 80
156 178 67
166 186 80
167 189 92
162 182 88
166 187 67
148 170 57
157 178 62
161 183 44
156 178 72
158 178 62
159 180 72
162 184 67
162 184 72
156 178 62
161 183 62
157 178 51
160 181 57
157 178 62
151 173 36
156 178 25
160 182 0
157 179 36
156 178 25
155 177 0
157 180 0
149 171 36
155 178 25
157 179 44
160 183 0
166 189 0
154 178 0
163 186 0
163 185 0
159 181 0
158 180 0
154 177 0
159 181 0
159 181 0
160 183 0
159 181 0
155 177 0
149 171 0
146 167 0
146 167 0
152 174 0
147 169 0
141 164 0
148 170 0
142 163 0
148 170 0
153 175 0
148 169 0
146 168 0
143 165 0
141 162 0
141 162 0
142 163 0
146 167 0
150 172 0
147 168 0
148 170 0
142 162 0
147 168 0
149 171 0
145 166 0
149 172 0
147 168 0
143 164 0
143 165 0
147 169 0
154 177 0
152 174 0
151 174 0
150 172 0
146 168 0
148 169 0
147 169 0
147 168 0
144 166 0
141 162 0
149 170 0
148 170 0
151 173 0
145 166 0
151 173 0
142 163 0
150 172 0
147 169 0
149 170 0
150 171 0
144 166 0
146 167 0
154 176 0
149 172 0
151 173 0
158 180 0
156 177 0
159 181 0
144 167 0
154 175 0
152 175 0
145 166 0
156 177 0
148 171 0
149 172 0
150 172 0
153 175 0
148 171 0
153 177 0
147 169 0
152 173 0
154 177 0
148 170 0
148 170 0
152 173 0
159 180 0
152 173 0
147 169 0
153 174 0
157 178 0
153 174 0
149 170 0
152 174 0
154 175 0
148 171 0
155 177 0
152 174 0
155 177 0
155 177 0
154 176 0
154 175 0
157 179 0
159 181 0
149 172 0
152 173 0
159 182 0
155 177 0
157 179 0
152 174 0
157 180 0
153 176 0
151 172 0
156 178 0
153 175 0
162 185 0
155 177 0
164 186 0
153 175 0
162 184 0
161 182 0
158 182 0
162 184 0
156 178 0
155 176 0
165 187 0
158 181 0
155 176 0
159 180 0
156 178 0
159 181 0
160 182 0
159 182 0
161 183 0
163 185 0
160 183 0
155 178 0
163 186 0
161 182 0
158 181 0
156 178 0
166 188 0
163 185 0
160 182 0
157 180 0
165 188 0
163 185 0
166 188 0
162 185 0
163 185 0
159 181 0
159 180 0
161 183 0
164 186 0
162 186 0
160 182 0
163 183 0
163 185 0
166 189 0
166 189 0
166 188 0
165 187 0
169 191 0
162 183 0
166 188 0
163 185 0
168 191 0
162 184 0
164 186 0
163 184 0
165 188 0
164 186 0
169 192 0
165 186 0
165 188 0
159 179 0
165 187 0
161 184 0
164 186 0
165 186 0
170 192 0
167 189 0
164 187 0
170 192 0
163 184 0
166 189 0
169 191 0
163 185 0
163 185 0
166 190 0
168 190 0
166 189 0
169 190 0
168 191 0
167 189 0
166 189 0
168 189 0
166 187 0
165 188 0
169 192 0
169 191 0
168 190 0
167 190 0
171 194 0
166 187 0
168 191 0
167 189 0
168 190 0
166 189 0
163 186 0
168 190 0
163 186 0
171 193 0
168 191 0
167 187 0
165 188 0
166 189 0
168 191 0
168 191 0
170 192 0
167 189 0
170 192 0
172 195 0
171 194 0
167 189 0
171 192 0
172 193 0
171 193 0
170 193 0
167 189 0
168 191 0
169 192 0
168 191 0
170 193 0
168 191 0
169 192 0
169 191 0
172 193 0
166 189 0
172 193 0
168 191 0
169 192 0
171 193 0
168 190 0
171 193 0
168 190 0
170 194 0
168 190 0
174 196 0
169 192 0
172 194 0
169 192 0
171 193 0
170 192 0
170 194 0
168 190 0
169 193 0
168 191 0
175 198 0
173 197 0
175 198 0
174 197 0
170 194 0
169 192 0
168 192 31
174 197 36
170 193 62
170 192 51
169 193 25
174 196 51
170 194 36
174 196 86
171 194 25
171 193 72
170 194 60
170 194 51
171 193 65
168 191 62
173 195 67
164 186 51
170 192 84
168 191 62
170 192 88
174 196 88
172 194 88
172 195 60
170 193 70
177 198 92
170 192 82
168 190 78
170 192 57
171 193 86
167 189 65
169 191 65
166 188 73
172 193 102
167 190 78
168 190 78
166 188 78
166 189 72
172 194 74
172 195 94
171 193 90
175 197 88
174 196 92
178 201 99
171 192 114
174 197 92
176 199 99
173 195 102
174 197 102
172 194 99
175 198 95
168 191 88
171 193 76
167 188 80
173 196 72
170 192 80
171 193 102
173 196 114
173 195 80
166 188 72
169 192 105
171 193 105
169 190 88
169 191 88
173 194 102
172 194 111
173 195 108
167 189 99
174 196 111
175 198 117
172 193 102
162 185 88
169 191 84
173 194 88
170 191 99
168 189 108
166 189 105
177 197 102
167 188 99
161 182 84
172 194 95
166 188 92
171 192 105
167 188 92
166 187 84
160 181 72
160 181 84
165 186 95
162 183 102
168 189 88
167 188 95
167 187 95
166 187 84
163 183 92
159 181 88
165 186 88
166 187 105
168 189 102
172 192 102
161 183 95
159 181 92
167 188 92
160 180 80
156 177 72
167 188 92
162 182 76
167 188 105
161 182 80
161 182 67
167 187 99
167 187 84
164 185 92
161 182 72
159 181 57
157 178 72
163 185 72
163 185 72
154 175 67
164 185 80
166 187 84
156 177 67
157 178 57
162 182 76
160 181 57
159 180 51
160 181 62
158 179 44
152 175 36
159 182 25
160 183 51
159 181 44
160 182 25
157 181 36
158 179 62
148 170 25
158 180 51
156 178 25
158 181 0
166 190 0
164 188 0
165 188 0
157 180 0
153 176 0
160 182 0
155 177 0
155 178 0
153 176 0
157 179 0
149 171 0
154 176 0
151 173 0
152 174 0
153 174 0
151 173 0
143 164 0
156 178 0
149 171 0
151 172 0
139 160 0
150 170 0
149 171 0
149 171 0
148 170 0
156 177 0
151 173 0
148 171 0
149 170 0
141 163 0
153 175 0
148 170 0
140 162 0
148 170 0
147 169 0
148 171 0
146 168 0
150 172 0
143 165 0
154 176 0
150 172 0
144 166 0
151 172 0
141 163 0
148 171 0
138 160 0
146 167 0
152 174 0
147 169 0
149 171 0
150 172 0
150 172 0
150 171 0
148 170 0
151 173 0
147 169 0
141 163 0
152 174 0
144 166 0
149 171 0
155 177 0
149 172 0
148 170 0
149 171 0
148 170 0
150 172 0
150 171 0
146 167 0
150 171 0
139 161 0
150 171 0
151 173 0
154 176 0
151 174 0
152 176 0
146 168 0
153 175 0
155 177 0
148 169 0
150 172 0
147 168 0
155 177 0
151 174 0
147 169 0
153 176 0
151 173 0
154 177 0
149 172 0
156 177 0
151 173 0
146 167 0
150 174 0
155 177 0
158 181 0
150 173 0
152 174 0
158 180 0
152 173 0
160 182 0
157 180 0
155 179 0
160 183 0
155 177 0
163 185 0
151 173 0
159 181 0
151 171 0
152 174 0
157 179 0
152 174 0
149 172 0
148 172 0
156 179 0
159 182 0
155 177 0
161 182 0
160 182 0
159 181 0
164 187 0
155 177 0
153 175 0
156 178 0
155 177 0
156 178 0
161 184 0
155 178 0
158 182 0
158 182 0
160 182 0
162 184 0
161 183 0
160 182 0
159 181 0
163 186 0
153 175 0
165 187 0
159 180 0
163 186 0
156 178 0
164 186 0
163 186 0
168 190 0
157 179 0
165 187 0
163 185 0
165 186 0
156 178 0
165 187 0
165 188 0
160 183 0
165 188 0
164 187 0
166 189 0
163 185 0
163 184 0
162 186 0
163 187 0
160 183 0
162 185 0
166 188 0
157 179 0
164 187 0
168 190 0
161 183 0
163 187 0
161 183 0
169 192 0
166 189 0
162 184 0
167 190 0
167 188 0
164 187 0
162 185 0
161 182 0
165 187 0
164 187 0
165 188 0
167 189 0
163 186 0
168 191 0
166 188 0
164 186 0
167 189 0
169 191 0
167 188 0
173 195 0
166 189 0
167 188 0
166 189 0
167 190 0
169 191 0
166 187 0
166 188 0
167 189 0
166 189 0
168 191 0
166 189 0
164 186 0
164 186 0
169 191 0
166 188 0
166 187 0
164 187 0
166 188 0
169 192 0
167 189 0
166 189 0
171 194 0
169 191 0
167 189 0
168 190 0
167 189 0
168 192 0
168 191 0
169 192 0
167 188 0
169 191 0
171 193 0
166 187 0
167 190 0
168 192 0
170 193 0
169 192 0
169 191 0
171 194 0
166 187 0
167 190 0
168 191 0
165 186 0
167 190 0
167 190 0
169 192 0
164 188 0
170 193 0
170 192 0
167 189 0
167 189 0
167 189 0
170 192 0
170 192 0
170 193 0
170 193 0
170 192 0
171 193 0
171 193 0
171 194 0
171 194 0
169 192 0
170 191 0
171 193 0
169 191 0
171 193 0
167 190 0
171 194 0
171 194 0
166 189 0
168 191 0
168 191 0
173 197 0
174 197 0
175 198 0
172 195 0
167 191 0
171 195 0
169 192 0
169 192 0
173 196 25
173 196 67
171 194 57
178 200 78
170 192 80
174 198 51
174 197 62
171 194 25
172 194 62
170 193 62
170 193 76
169 191 78
169 192 54
168 191 67
169 191 92
170 192 86
165 188 61
168 190 92
167 188 88
164 187 40
168 190 78
169 190 86
164 187 67
170 193 70
168 190 67
168 191 85
172 193 72
167 190 78
168 190 90
166 187 84
174 196 78
171 193 76
170 193 82
169 192 80
168 190 86
170 193 95
172 194 92
174 197 94
174 196 102
177 199 102
173 195 72
177 199 88
176 198 80
173 196 95
174 195 88
179 201 114
176 198 111
175 198 108
170 192 76
172 195 95
170 192 80
172 194 88
172 194 88
173 194 92
166 188 95
174 195 84
171 193 95
173 194 84
172 195 95
173 196 125
173 195 80
171 193 102
171 192 88
167 187 88
169 190 88
172 194 102
166 187 84
171 194 102
166 187 84
171 193 95
164 186 72
168 190 125
171 193 88
171 193 108
165 187 92
167 189 108
170 191 102
176 197 102
164 185 88
173 193 99
171 193 102
168 188 92
167 188 111
167 188 84
163 184 84
167 189 102
168 189 92
166 186 72
164 184 95
162 184 99
168 189 114
165 186 99
162 182 76
167 189 108
163 183 92
168 190 95
164 184 92
164 185 99
162 183 95
161 183 84
165 187 88
162 183 76
164 185 76
162 183 88
161 182 72
160 181 80
158 179 62
158 179 67
152 173 25
159 181 76
162 183 67
157 179 57
158 179 44
163 184 67
165 187 76
158 179 76
160 180 76
161 183 62
160 181 80
157 178 44
153 175 51
161 184 36
157 180 44
154 176 44
163 185 44
163 185 0
153 175 25
159 182 44
156 177 25
150 171 0
156 177 25
158 179 51
157 178 0
164 187 0
160 184 0
162 184 0
161 185 0
159 183 0
162 185 0
162 184 0
154 178 0
158 180 0
156 178 0
163 185 0
162 183 0
152 175 0
152 173 0
156 178 0
156 178 0
141 162 0
143 165 0
145 167 0
147 168 0
158 179 0
152 174 0
158 180 0
155 177 0
145 167 0
143 164 0
155 177 0
159 180 0
149 170 0
153 175 0
151 173 0
138 159 0
144 166 0
145 166 0
146 168 0
145 165 0
150 172 0
151 174 0
148 170 0
148 170 0
150 173 0
157 178 0
142 164 0
150 173 0
151 173 0
150 172 0
149 172 0
148 170 0
158 179 0
143 166 0
154 174 0
146 167 0
149 172 0
153 176 0
146 167 0
148 171 0
146 167 0
150 171 0
153 175 0
154 177 0
156 179 0
153 175 0
159 181 0
149 171 0
141 163 0
149 172 0
155 177 0
146 168 0
150 173 0
152 174 0
155 178 0
145 166 0
147 170 0
145 167 0
152 173 0
153 175 0
147 169 0
152 174 0
155 177 0
155 178 0
153 175 0
146 169 0
153 176 0
155 179 0
152 175 0
154 177 0
149 172 0
151 173 0
160 182 0
149 171 0
150 171 0
161 183 0
158 179 0
156 178 0
150 172 0
154 176 0
152 174 0
156 178 0
155 177 0
155 177 0
154 175 0
152 174 0
158 180 0
155 177 0
151 174 0
153 174 0
153 176 0
159 182 0
159 181 0
151 173 0
153 176 0
153 175 0
156 177 0
157 179 0
160 182 0
159 181 0
157 179 0
165 187 0
159 182 0
162 185 0
157 180 0
167 190 0
157 179 0
162 184 0
160 183 0
160 182 0
163 185 0
159 180 0
164 186 0
158 181 0
160 182 0
161 184 0
158 180 0
159 181 0
162 184 0
157 180 0
162 184 0
161 184 0
158 181 0
162 182 0
161 185 0
162 185 0
161 184 0
165 189 0
158 180 0
163 185 0
158 181 0
166 190 0
163 185 0
166 187 0
163 185 0
165 187 0
162 184 0
163 186 0
158 179 0
160 181 0
159 182 0
165 186 0
165 188 0
162 183 0
165 188 0
164 186 0
169 191 0
166 189 0
168 191 0
162 185 0
165 187 0
166 188 0
162 185 0
167 189 0
169 192 0
162 184 0
166 188 0
165 187 0
167 190 0
167 189 0
164 185 0
168 190 0
167 190 0
165 187 0
167 188 0
164 187 0
166 189 0
169 191 0
169 191 0
163 184 0
167 190 0
164 186 0
167 187 0
161 184 0
167 190 0
165 188 0
166 189 0
163 187 0
167 189 0
165 188 0
165 186 0
165 186 0
166 188 0
168 191 0
166 187 0
169 192 0
163 184 0
169 190 0
164 186 0
168 190 0
169 192 0
168 190 0
170 192 0
166 188 0
170 194 0
168 189 0
170 192 0
167 190 0
169 192 0
169 192 0
163 186 0
164 188 0
165 188 0
170 193 0
164 186 0
168 190 0
171 193 0
172 194 0
171 194 0
166 187 0
167 190 0
172 194 0
169 191 0
171 192 0
169 191 0
166 188 0
169 191 0
170 193 0
169 192 0
171 193 0
170 193 0
166 190 0
167 189 0
169 191 0
168 192 0
170 192 0
168 190 0
171 192 0
169 192 0
169 191 0
172 193 0
169 191 0
165 188 0
171 194 0
172 194 0
168 192 0
174 197 0
168 190 0
172 194 0
165 188 0
173 196 0
174 196 0
169 192 0
175 198 0
174 198 0
174 198 0
175 198 0
174 197 0
172 195 25
171 195 0
168 191 18
172 195 18
169 192 25
171 193 67
172 194 51
174 197 36
171 195 31
169 193 47
167 189 72
173 196 65
170 193 74
171 194 54
168 191 70
167 190 44
164 188 36
165 187 51
163 186 47
166 189 70
168 191 74
170 191 92
165 188 76
167 190 82
170 193 60
170 193 92
168 190 67
170 191 76
169 192 65
172 193 77
167 189 86
168 191 70
168 190 65
164 185 79
171 193 97
164 187 47
169 191 89
169 191 88
176 198 100
169 191 94
173 195 84
168 190 95
168 190 80
170 192 84
172 195 92
174 196 111
172 194 76
172 194 88
175 196 95
176 198 99
176 198 114
174 195 102
175 198 111
174 196 80
174 196 80
171 193 84
176 197 108
171 193 99
170 192 95
174 197 117
171 193 92
172 194 117
166 188 84
171 192 92
176 197 117
167 188 76
171 193 95
171 193 95
169 191 95
170 191 95
173 195 92
170 192 67
169 192 102
166 188 105
161 183 80
165 186 102
174 195 105
164 186 102
168 189 111
166 186 57
170 192 95
167 189 92
171 193 102
168 189 84
163 185 84
168 190 67
163 184 67
167 188 84
158 179 80
166 188 102
167 188 102
171 192 114
170 190 105
164 186 105
168 190 88
167 189 76
169 189 92
168 189 72
169 190 72
162 184 80
164 186 102
175 195 99
167 187 84
167 187 80
164 185 80
172 192 99
159 180 67
167 189 95
168 190 84
157 180 57
163 184 51
155 177 76
160 181 80
159 180 62
163 185 67
166 187 92
158 180 62
160 180 51
155 175 44
165 187 57
159 180 76
165 185 72
153 174 25
161 182 57
160 181 44
162 184 36
154 175 25
162 184 25
160 181 25
154 176 36
158 180 36
153 174 25
158 180 51
157 178 51
159 180 51
154 178 0
165 189 0
162 184 0
163 185 0
156 179 0
161 184 0
154 177 0
154 176 0
157 179 0
162 185 0
154 176 0
158 181 0
157 180 0
154 177 0
151 172 0
156 179 0
141 164 0
157 179 0
156 178 0
146 168 0
149 170 0
150 171 0
149 171 0
146 168 0
138 160 0
153 175 0
148 169 0
147 169 0
150 173 0
149 171 0
151 171 0
139 163 0
155 177 0
139 162 0
149 171 0
154 177 0
151 173 0
150 171 0
150 173 0
144 166 0
148 169 0
152 172 0
152 174 0
151 173 0
151 172 0
156 178 0
155 176 0
150 173 0
154 176 0
154 177 0
146 169 0
155 177 0
158 180 0
156 178 0
154 175 0
149 170 0
148 171 0
150 172 0
154 176 0
145 168 0
152 173 0
150 172 0
147 169 0
151 174 0
154 175 0
149 172 0
155 177 0
148 170 0
150 172 0
149 171 0
154 176 0
144 166 0
151 173 0
158 180 0
154 175 0
149 170 0
149 171 0
150 172 0
145 167 0
150 170 0
152 174 0
154 176 0
158 180 0
155 177 0
145 168 0
154 176 0
148 171 0
151 173 0
154 177 0
150 173 0
160 181 0
165 186 0
148 170 0
155 176 0
152 174 0
157 178 0
155 178 0
158 181 0
152 174 0
152 174 0
155 177 0
154 175 0
164 186 0
157 179 0
158 180 0
156 179 0
158 180 0
155 177 0
156 179 0
152 175 0
151 174 0
160 181 0
157 180 0
154 176 0
160 182 0
158 180 0
161 183 0
155 178 0
157 179 0
154 176 0
161 183 0
160 183 0
152 173 0
157 179 0
159 182 0
166 188 0
153 175 0
161 183 0
154 175 0
160 182 0
159 182 0
154 175 0
163 186 0
161 182 0
163 186 0
158 180 0
157 179 0
160 182 0
168 190 0
160 183 0
154 175 0
166 189 0
164 186 0
161 184 0
161 184 0
167 189 0
158 182 0
160 183 0
158 181 0
167 191 0
168 190 0
164 187 0
165 187 0
164 186 0
166 188 0
162 185 0
162 185 0
159 181 0
158 180 0
164 184 0
159 181 0
164 185 0
167 189 0
168 192 0
166 188 0
164 185 0
165 188 0
166 188 0
163 184 0
165 187 0
166 188 0
162 183 0
160 183 0
170 192 0
165 186 0
166 187 0
169 192 0
166 188 0
163 186 0
167 188 0
161 184 0
167 189 0
163 185 0
164 186 0
165 188 0
166 188 0
166 189 0
165 188 0
163 186 0
166 188 0
167 190 0
163 185 0
165 187 0
163 185 0
165 186 0
167 190 0
171 193 0
168 190 0
167 188 0
165 188 0
167 190 0
169 191 0
168 191 0
166 187 0
169 191 0
169 192 0
169 191 0
167 189 0
162 184 0
167 189 0
170 193 0
171 193 0
170 193 0
168 191 0
171 192 0
172 195 0
169 192 0
168 190 0
167 189 0
170 191 0
169 192 0
171 193 0
169 192 0
168 191 0
170 192 0
166 188 0
168 190 0
165 187 0
167 191 0
166 188 0
168 189 0
167 189 0
165 187 0
170 192 0
169 191 0
169 191 0
169 191 0
169 191 0
168 191 0
169 191 0
171 194 0
169 191 0
173 195 0
167 189 0
173 195 0
173 196 0
171 192 0
166 189 0
172 196 0
170 191 0
169 192 0
167 189 0
168 190 0
169 191 0
173 196 0
171 194 0
170 192 0
171 194 0
169 193 0
168 191 0
171 194 0
174 197 0
174 197 0
175 198 0
170 193 0
172 196 0
169 192 0
171 195 0
171 194 0
170 193 0
169 193 25
169 192 36
170 193 47
172 194 57
176 199 67
167 190 44
175 198 62
170 192 62
168 190 44
165 187 51
168 191 70
165 187 67
170 192 65
170 193 31
160 182 51
167 189 60
170 193 74
175 197 97
173 194 97
171 193 57
169 191 60
166 188 78
175 197 86
161 183 84
171 193 85
167 190 65
172 194 86
162 185 72
167 189 67
171 192 74
170 192 80
174 195 84
173 196 100
178 200 94
172 195 94
172 193 86
170 192 76
172 194 95
176 199 92
174 196 95
173 195 84
180 201 114
174 195 88
177 199 108
173 195 95
174 196 102
175 196 105
166 187 72
171 193 72
174 196 117
180 201 102
175 197 105
171 193 95
174 196 92
175 196 102
178 200 114
169 191 99
176 197 102
175 196 108
173 195 102
171 193 92
173 194 84
170 192 95
170 192 99
165 186 88
170 192 99
170 191 95
172 193 95
168 190 99
169 191 95
168 189 99
169 190 102
160 181 76
167 188 102
168 189 111
169 189 88
169 191 92
175 196 105
172 194 99
166 188 84
165 185 95
170 191 88
168 190 114
166 188 80
167 188 105
165 186 92
167 188 92
158 179 67
163 185 84
167 189 88
161 182 80
165 186 80
165 186 80
169 190 88
163 185 105
162 183 44
160 182 67
164 185 88
169 190 95
165 186 92
161 183 88
161 182 88
158 179 76
163 184 76
160 183 76
162 184 76
161 182 62
165 186 80
160 181 67
155 176 57
164 184 67
164 185 72
160 182 44
152 173 51
158 178 67
160 182 62
155 176 51
157 179 36
163 186 57
167 188 72
158 181 0
158 181 25
155 178 44
153 175 25
161 184 36
151 173 36
165 187 44
157 179 25
159 181 25
161 183 44
159 183 0
157 179 0
167 190 0
160 183 0
163 185 0
157 179 0
163 185 0
158 180 0
154 177 0
159 181 0
160 184 0
159 181 0
160 183 0
153 175 0
157 179 0
147 169 0
147 169 0
154 176 0
143 166 0
151 172 0
151 174 0
152 173 0
151 173 0
149 171 0
152 175 0
154 175 0
158 180 0
153 175 0
150 172 0
152 175 0
149 171 0
150 171 0
150 173 0
144 166 0
148 170 0
146 168 0
144 166 0
150 171 0
153 176 0
158 180 0
153 175 0
144 166 0
144 167 0
141 163 0
145 167 0
153 176 0
148 170 0
148 171 0
149 171 0
143 166 0
151 174 0
142 163 0
149 170 0
155 177 0
151 173 0
147 169 0
146 167 0
149 171 0
151 174 0
155 177 0
147 170 0
151 173 0
146 168 0
148 170 0
152 175 0
147 169 0
148 170 0
158 180 0
146 168 0
142 164 0
153 175 0
158 182 0
148 170 0
150 172 0
151 175 0
150 172 0
151 172 0
154 176 0
149 171 0
154 175 0
153 175 0
163 185 0
157 179 0
158 181 0
158 180 0
152 173 0
143 165 0
157 179 0
157 179 0
154 175 0
158 180 0
160 182 0
153 176 0
160 182 0
157 179 0
160 182 0
158 181 0
155 178 0
154 175 0
155 176 0
154 176 0
154 177 0
159 180 0
157 180 0
160 181 0
152 174 0
156 178 0
161 184 0
159 181 0
155 176 0
158 181 0
157 177 0
165 188 0
153 176 0
160 182 0
156 178 0
160 183 0
162 183 0
161 184 0
161 183 0
161 184 0
157 179 0
166 189 0
164 186 0
157 178 0
162 186 0
159 181 0
157 180 0
158 180 0
163 186 0
163 184 0
164 186 0
156 177 0
163 186 0
163 185 0
159 182 0
161 182 0
166 188 0
160 184 0
164 186 0
166 189 0
165 187 0
158 180 0
162 185 0
161 183 0
168 191 0
162 183 0
160 182 0
166 189 0
165 187 0
166 188 0
162 184 0
164 186 0
161 184 0
161 183 0
161 183 0
161 183 0
164 187 0
161 183 0
160 183 0
161 183 0
167 189 0
165 188 0
162 184 0
168 192 0
163 184 0
168 190 0
161 184 0
164 187 0
166 188 0
168 191 0
163 186 0
167 189 0
165 188 0
163 185 0
167 189 0
166 187 0
167 190 0
170 194 0
169 192 0
167 189 0
166 187 0
165 188 0
169 192 0
164 186 0
164 187 0
165 189 0
171 193 0
167 192 0
168 191 0
166 188 0
165 188 0
165 187 0
171 192 0
165 188 0
168 190 0
166 189 0
166 188 0
171 194 0
168 190 0
167 188 0
165 188 0
167 189 0
167 189 0
166 188 0
166 188 0
168 190 0
167 189 0
172 191 0
168 191 0
167 191 0
166 188 0
166 188 0
171 193 0
170 192 0
170 192 0
165 188 0
168 190 0
169 192 0
168 190 0
165 187 0
168 191 0
170 192 0
169 190 0
168 191 0
171 193 0
172 194 0
167 188 0
168 191 0
169 193 0
168 190 0
166 188 0
171 193 0
170 192 0
168 190 0
171 193 0
169 190 0
168 191 0
171 195 0
170 194 0
167 186 0
170 192 0
168 190 0
167 189 0
170 193 0
166 189 0
172 194 0
169 192 0
170 193 0
169 191 0
172 195 0
171 194 0
170 192 0
167 191 0
172 196 0
169 192 0
172 194 0
169 192 0
170 192 0
169 191 0
173 197 0
174 197 0
174 198 0
176 198 0
173 197 0
173 197 0
172 196 25
171 194 0
170 193 18
169 193 25
168 191 0
168 191 0
170 193 44
172 195 54
175 197 57
165 188 25
173 196 65
175 197 72
167 190 38
177 199 72
167 191 57
172 194 65
170 193 51
168 190 62
162 185 36
168 191 47
165 188 54
166 189 82
172 194 76
172 194 88
172 194 99
169 192 78
168 190 72
170 193 65
169 191 78
171 194 92
176 198 97
171 193 94
167 189 68
167 190 62
171 193 105
167 189 86
171 194 70
173 195 86
174 195 84
172 194 90
168 191 82
171 193 100
172 195 74
176 198 120
171 193 99
174 196 92
167 189 92
173 195 67
174 195 95
179 200 114
177 199 111
177 198 114
174 196 95
177 200 105
173 196 72
175 196 99
173 195 80
172 195 108
171 192 95
172 194 111
172 193 88
175 196 120
172 193 95
173 195 99
173 195 99
174 195 95
167 188 102
168 190 76
168 189 88
168 191 105
170 191 95
173 195 88
173 194 88
172 193 99
171 193 102
176 197 99
169 191 92
167 189 72
169 189 76
165 186 99
172 193 117
166 188 88
170 191 99
162 182 92
171 193 108
167 188 67
170 191 105
164 186 88
166 187 95
168 189 88
168 190 92
165 185 80
168 189 105
158 179 80
174 195 92
162 184 99
167 190 99
166 187 88
165 186 92
162 183 95
159 181 72
159 179 62
164 185 72
161 182 76
164 185 57
149 170 67
152 174 51
166 187 72
166 188 57
156 177 44
157 179 76
155 176 57
162 183 76
160 181 72
155 177 67
165 185 72
164 186 76
153 173 72
167 188 80
155 176 51
159 180 51
154 177 51
159 181 51
156 178 57
153 174 25
161 184 36
159 181 44
164 186 25
163 185 44
160 181 51
158 181 36
162 184 25
154 176 0
161 184 36
165 187 0
164 187 0
161 183 0
162 186 0
162 185 0
164 187 0
161 183 0
158 180 0
159 181 0
152 174 0
154 176 0
156 177 0
156 178 0
154 175 0
158 181 0
141 163 0
151 171 0
155 177 0
154 176 0
139 161 0
153 174 0
149 171 0
152 174 0
144 166 0
151 173 0
152 173 0
147 170 0
145 166 0
149 170 0
144 166 0
152 174 0
153 176 0
152 175 0
146 168 0
148 170 0
159 181 0
148 170 0
159 182 0
155 178 0
148 170 0
141 163 0
138 160 0
148 170 0
142 162 0
155 177 0
143 165 0
146 168 0
158 181 0
152 174 0
151 173 0
150 171 0
153 174 0
152 174 0
145 167 0
152 173 0
156 178 0
150 173 0
148 171 0
153 176 0
156 179 0
160 182 0
151 173 0
155 177 0
156 178 0
156 178 0
152 174 0
146 168 0
156 178 0
153 176 0
150 172 0
156 178 0
156 179 0
148 170 0
147 168 0
150 172 0
159 181 0
146 168 0
154 176 0
146 168 0
152 174 0
158 180 0
157 179 0
152 174 0
157 180 0
156 180 0
153 176 0
149 171 0
157 180 0
151 174 0
159 181 0
155 176 0
154 176 0
157 178 0
148 170 0
157 180 0
156 177 0
154 176 0
155 178 0
148 171 0
157 180 0
159 181 0
160 183 0
157 180 0
152 174 0
156 177 0
154 176 0
156 179 0
158 180 0
157 179 0
158 180 0
158 180 0
159 181 0
155 178 0
159 181 0
166 188 0
156 178 0
162 184 0
154 177 0
162 185 0
158 180 0
157 179 0
165 189 0
157 179 0
162 184 0
163 185 0
156 179 0
161 184 0
161 183 0
163 184 0
159 182 0
163 186 0
159 181 0
155 177 0
163 185 0
161 183 0
166 189 0
160 182 0
155 177 0
164 186 0
163 186 0
160 182 0
163 185 0
163 186 0
164 187 0
166 188 0
166 189 0
164 186 0
162 183 0
167 190 0
166 188 0
157 180 0
162 185 0
170 192 0
162 185 0
157 180 0
164 187 0
165 187 0
161 183 0
165 187 0
166 189 0
165 188 0
160 183 0
163 186 0
160 182 0
163 185 0
163 184 0
163 186 0
166 188 0
166 188 0
161 183 0
167 189 0
167 188 0
167 189 0
168 190 0
162 185 0
168 190 0
168 191 0
167 189 0
168 191 0
167 191 0
167 189 0
165 188 0
168 191 0
163 185 0
167 190 0
170 191 0
166 188 0
165 186 0
169 192 0
172 194 0
168 191 0
164 187 0
166 189 0
169 190 0
163 185 0
172 195 0
168 190 0
168 190 0
167 189 0
167 191 0
166 188 0
168 192 0
164 187 0
165 188 0
165 188 0
166 189 0
169 191 0
166 188 0
169 191 0
172 195 0
165 186 0
166 189 0
167 190 0
170 193 0
167 189 0
171 194 0
167 189 0
165 189 0
169 192 0
169 192 0
167 189 0
170 191 0
172 194 0
170 193 0
170 193 0
166 188 0
169 192 0
172 194 0
170 192 0
170 192 0
168 191 0
170 193 0
169 192 0
166 188 0
169 191 0
168 190 0
168 191 0
168 190 0
169 192 0
166 188 0
171 193 0
167 191 0
168 191 0
171 193 0
169 191 0
173 196 0
169 192 0
170 192 0
167 189 0
170 193 0
169 192 0
171 195 0
169 192 0
170 191 0
168 190 0
170 192 0
171 194 0
170 194 0
172 194 0
173 195 0
173 197 0
173 196 0
173 197 0
174 198 0
171 196 0
172 196 0
172 195 0
169 192 0
170 193 0
169 192 0
170 193 18
167 192 18
168 192 0
171 194 36
170 193 25
169 192 40
168 191 49
170 193 44
173 195 72
168 189 57
169 191 51
171 193 60
169 192 74
172 194 80
167 190 44
170 192 44
169 191 67
167 190 60
167 190 51
165 187 62
169 192 65
166 188 74
169 191 67
173 194 90
165 188 72
159 183 54
171 192 79
171 193 84
166 189 74
174 195 82
167 188 86
165 187 82
163 185 73
168 190 94
171 192 95
171 193 102
168 190 78
168 191 78
173 195 94
172 195 67
173 195 76
179 200 125
174 196 99
177 198 108
176 197 95
175 198 99
174 196 105
174 197 105
174 195 84
174 195 111
172 195 105
170 193 76
171 193 72
170 192 88
168 190 102
166 187 92
174 196 88
173 196 88
174 195 95
173 194 99
171 192 84
169 190 72
175 197 111
176 197 108
177 197 92
174 195 80
175 196 105
173 194 105
172 193 88
168 188 92
175 196 105
169 189 72
174 195 92
170 191 92
167 189 88
168 190 84
166 187 105
167 189 102
175 196 125
169 191 102
173 195 125
173 193 84
168 190 80
171 192 76
173 194 102
162 183 84
172 192 76
161 183 84
163 184 76
173 194 80
159 180 62
171 192 99
159 180 84
166 187 88
166 187 102
164 186 99
163 185 72
160 181 72
160 181 76
169 190 72
159 182 72
166 187 62
162 184 76
159 181 62
164 184 57
161 183 57
163 184 72
166 187 84
159 180 51
158 180 57
168 190 80
163 184 51
160 181 62
163 184 76
165 185 62
157 178 62
159 181 51
156 178 51
159 180 51
153 175 36
159 182 44
158 180 44
160 181 36
166 188 51
156 179 25
159 182 25
163 185 36
155 176 0
160 182 0
167 190 0
169 191 0
163 186 0
163 185 0
165 188 0
157 180 0
157 180 0
160 182 0
162 185 0
153 174 0
156 179 0
155 178 0
156 178 0
148 170 0
153 176 0
155 177 0
159 181 0
148 169 0
155 177 0
143 164 0
156 176 0
150 173 0
150 171 0
157 179 0
154 176 0
150 171 0
158 179 0
148 170 0
149 171 0
157 178 0
147 169 0
149 172 0
152 174 0
148 169 0
151 173 0
152 174 0
156 177 0
152 174 0
151 174 0
159 182 0
156 178 0
151 173 0
155 177 0
153 175 0
154 176 0
146 167 0
149 172 0
158 178 0
149 171 0
147 170 0
154 176 0
150 172 0
159 180 0
148 170 0
157 180 0
152 173 0
151 172 0
149 171 0
148 169 0
157 179 0
143 165 0
153 175 0
148 171 0
147 170 0
145 167 0
149 172 0
157 180 0
146 167 0
149 170 0
157 179 0
154 176 0
153 175 0
150 171 0
154 177 0
158 179 0
152 173 0
152 174 0
152 174 0
160 182 0
154 176 0
154 176 0
153 175 0
155 178 0
152 175 0
155 177 0
154 176 0
150 173 0
151 173 0
152 176 0
161 182 0
158 180 0
153 176 0
155 178 0
161 183 0
157 181 0
156 179 0
152 174 0
158 180 0
156 180 0
155 178 0
152 175 0
156 179 0
157 179 0
158 180 0
152 173 0
153 177 0
152 174 0
151 173 0
157 179 0
151 173 0
154 175 0
156 179 0
162 184 0
154 176 0
164 186 0
157 179 0
159 182 0
159 181 0
157 180 0
156 178 0
164 187 0
160 182 0
157 179 0
160 182 0
157 181 0
155 177 0
162 184 0
154 175 0
160 183 0
164 186 0
160 183 0
153 175 0
158 180 0
155 177 0
162 183 0
162 183 0
162 185 0
155 178 0
163 185 0
160 182 0
165 188 0
163 185 0
157 180 0
164 187 0
164 186 0
164 187 0
163 186 0
166 188 0
163 185 0
166 189 0
162 185 0
157 179 0
157 179 0
167 189 0
168 191 0
166 187 0
161 183 0
165 187 0
163 185 0
167 190 0
167 190 0
161 183 0
165 188 0
166 188 0
163 184 0
162 184 0
161 182 0
163 185 0
163 186 0
162 186 0
164 186 0
168 190 0
166 188 0
168 191 0
167 190 0
169 191 0
164 186 0
164 186 0
168 190 0
164 187 0
166 189 0
163 186 0
165 188 0
167 190 0
166 188 0
169 191 0
165 188 0
166 189 0
161 183 0
164 186 0
165 186 0
171 193 0
168 192 0
166 188 0
167 189 0
166 191 0
171 194 0
169 191 0
167 190 0
164 187 0
163 185 0
168 191 0
170 193 0
170 193 0
169 192 0
168 190 0
167 190 0
165 188 0
168 191 0
171 195 0
169 190 0
167 190 0
167 189 0
166 187 0
170 192 0
167 192 0
170 192 0
168 191 0
164 186 0
168 191 0
168 190 0
170 193 0
170 193 0
168 190 0
168 192 0
165 188 0
168 190 0
165 188 0
169 191 0
169 192 0
172 194 0
169 190 0
167 190 0
167 190 0
170 193 0
170 192 0
168 191 0
169 192 0
169 193 0
171 193 0
167 189 0
167 190 0
169 192 0
170 190 0
173 196 0
170 193 0
170 193 0
171 194 0
170 192 0
167 190 0
173 195 0
171 193 0
173 194 0
170 192 0
170 193 0
167 191 0
170 191 0
171 195 0
170 192 0
172 194 0
168 192 0
173 196 0
173 197 0
173 197 0
174 197 0
174 197 0
174 197 0
172 196 0
170 193 18
171 195 0
168 192 18
168 192 0
170 193 0
167 192 0
170 193 18
172 195 25
174 196 44
171 193 51
168 191 57
170 192 67
170 193 36
170 192 67
168 191 44
168 191 54
169 191 65
171 193 60
167 190 54
166 188 65
166 189 70
163 186 57
171 193 65
170 193 60
165 188 51
171 193 70
166 187 72
173 195 95
165 187 80
173 194 82
169 191 80
171 192 90
171 192 92
166 188 78
171 193 74
167 190 72
174 196 72
173 195 80
175 196 82
173 195 76
170 193 76
176 198 94
179 201 107
173 195 107
176 197 99
176 198 105
173 195 102
177 199 114
175 197 108
171 192 80
176 198 108
169 191 84
171 192 92
168 190 80
175 196 92
175 197 120
173 195 84
168 190 72
174 195 102
173 195 102
173 194 99
175 196 88
176 197 102
173 195 105
179 200 114
166 186 67
172 194 76
174 196 72
168 190 99
173 195 95
173 195 102
170 192 92
168 189 95
169 191 88
170 191 102
168 189 84
169 191 80
164 185 62
170 192 80
174 195 95
166 189 80
174 195 117
166 187 99
166 186 62
168 189 88
168 189 92
166 187 92
169 189 84
169 191 95
166 187 84
164 185 102
169 192 95
167 189 88
161 183 95
164 185 76
163 185 80
149 171 67
163 184 95
160 182 72
161 183 76
153 174 51
165 186 88
169 190 80
169 190 62
164 186 76
160 182 57
164 185 72
164 186 72
164 185 76
162 184 67
165 185 76
165 186 72
165 186 84
162 183 72
168 189 51
159 179 88
167 188 72
162 183 80
164 187 57
166 188 25
160 182 57
159 180 51
158 180 36
159 182 36
158 180 36
158 180 25
161 183 25
155 178 44
160 182 36
155 176 36
162 184 25
164 187 0
167 190 0
168 190 0
165 188 0
163 185 0
161 185 0
162 184 0
165 187 0
165 188 0
157 180 0
155 176 0
160 183 0
161 184 0
152 175 0
150 172 0
157 180 0
147 169 0
152 174 0
150 171 0
157 179 0
151 173 0
152 174 0
151 172 0
153 174 0
156 178 0
154 176 0
145 167 0
140 162 0
150 171 0
144 166 0
144 167 0
147 169 0
153 174 0
156 178 0
150 172 0
147 169 0
152 174 0
143 165 0
152 174 0
150 173 0
141 162 0
156 177 0
144 166 0
156 178 0
153 175 0
151 173 0
154 176 0
151 172 0
149 173 0
156 178 0
146 169 0
149 172 0
147 169 0
153 175 0
153 175 0
148 170 0
152 174 0
146 168 0
151 173 0
153 175 0
158 179 0
155 177 0
149 171 0
142 165 0
153 175 0
151 174 0
159 180 0
149 172 0
163 185 0
152 174 0
154 177 0
159 181 0
158 180 0
146 168 0
151 174 0
156 179 0
160 183 0
150 172 0
149 171 0
150 172 0
152 173 0
151 172 0
153 175 0
152 173 0
151 171 0
144 166 0
152 175 0
152 173 0
152 175 0
154 177 0
160 182 0
161 183 0
155 179 0
158 181 0
156 178 0
158 180 0
160 182 0
156 178 0
160 183 0
159 181 0
157 179 0
155 178 0
157 179 0
162 183 0
160 184 0
157 178 0
155 178 0
156 178 0
157 178 0
160 181 0
157 179 0
162 185 0
160 183 0
157 178 0
156 178 0
158 181 0
166 188 0
164 186 0
155 179 0
156 179 0
155 177 0
164 185 0
157 180 0
152 175 0
155 178 0
161 183 0
167 189 0
166 188 0
163 185 0
158 181 0
157 180 0
151 174 0
167 191 0
161 183 0
165 187 0
162 185 0
161 183 0
161 183 0
164 186 0
161 183 0
159 181 0
158 181 0
160 182 0
159 183 0
162 184 0
164 186 0
163 186 0
162 184 0
164 186 0
157 179 0
161 183 0
159 180 0
162 185 0
164 186 0
163 186 0
166 188 0
167 189 0
160 182 0
167 191 0
163 186 0
159 182 0
164 187 0
161 183 0
169 191 0
168 191 0
165 188 0
164 186 0
169 190 0
165 186 0
169 192 0
167 190 0
165 188 0
163 184 0
168 190 0
167 191 0
165 187 0
169 190 0
166 188 0
161 183 0
167 188 0
166 188 0
165 188 0
168 190 0
164 187 0
164 186 0
163 185 0
167 188 0
164 187 0
167 190 0
166 187 0
165 186 0
168 191 0
166 189 0
164 187 0
168 191 0
171 193 0
168 189 0
172 193 0
167 191 0
162 182 0
169 192 0
166 188 0
170 192 0
165 187 0
169 190 0
164 186 0
168 192 0
168 192 0
168 190 0
164 187 0
167 191 0
168 191 0
167 188 0
166 190 0
165 188 0
168 191 0
169 192 0
168 190 0
168 190 0
169 191 0
168 190 0
170 193 0
167 189 0
169 192 0
168 190 0
169 190 0
166 189 0
171 193 0
171 193 0
172 195 0
168 191 0
171 193 0
165 186 0
173 196 0
169 193 0
170 192 0
172 194 0
167 190 0
168 191 0
168 189 0
167 191 0
168 190 0
166 189 0
169 192 0
170 193 0
170 193 0
173 196 0
169 192 0
171 192 0
167 190 0
171 193 0
171 194 0
168 190 0
172 196 0
166 189 0
169 189 0
171 194 0
170 193 0
174 198 0
172 195 0
168 190 0
170 194 0
174 198 0
173 196 0
172 195 0
174 197 0
174 197 0
174 197 0
170 194 0
171 194 25
171 195 0
171 193 0
170 193 0
170 193 0
169 192 0
169 192 0
171 195 0
168 192 31
173 196 0
174 197 62
175 197 57
170 193 57
171 193 51
169 192 47
169 192 25
171 194 70
169 192 67
167 190 67
166 188 65
170 193 51
170 192 67
166 188 60
165 187 44
170 192 44
167 188 70
167 189 54
161 185 48
169 190 78
168 190 62
167 190 80
170 192 90
174 195 113
168 191 64
171 193 80
172 193 88
166 188 65
171 193 70
164 186 88
173 195 84
178 200 84
174 196 102
174 196 94
169 191 102
173 195 95
177 199 99
171 193 92
172 194 111
174 196 88
175 198 99
173 196 108
173 194 88
177 198 114
172 194 80
176 197 95
168 190 80
176 198 102
170 191 84
176 198 102
173 195 88
169 191 88
173 195 84
173 194 84
171 193 88
176 197 92
172 193 99
173 195 84
171 193 99
167 188 95
172 193 88
175 195 105
171 191 102
176 197 105
175 196 102
171 192 102
169 190 80
174 194 108
166 187 67
171 192 95
172 193 108
163 184 67
165 188 62
168 190 99
162 183 72
165 187 95
167 189 84
169 190 76
165 186 84
171 191 108
159 181 84
163 184 84
165 185 67
167 188 99
168 190 95
171 193 84
165 187 88
163 185 72
166 189 62
161 183 62
162 183 62
160 181 72
162 183 67
168 189 76
160 181 51
164 185 80
159 181 72
167 188 76
167 189 72
155 176 67
160 180 67
159 179 36
162 184 57
157 178 57
160 181 80
158 180 72
163 184 44
167 187 95
164 185 67
159 180 51
159 181 36
158 180 36
158 180 57
157 179 0
165 187 51
154 176 57
165 187 36
155 178 0
159 182 25
162 184 0
160 182 0
158 180 36
163 185 25
161 184 0
161 184 0
164 188 0
163 186 0
155 177 0
160 183 0
157 178 0
159 182 0
155 178 0
166 187 0
162 185 0
152 174 0
154 176 0
153 175 0
157 179 0
151 173 0
151 172 0
156 177 0
152 174 0
148 169 0
151 173 0
151 173 0
158 179 0
151 172 0
146 167 0
157 179 0
153 176 0
153 175 0
147 170 0
157 179 0
148 169 0
155 178 0
160 182 0
150 171 0
148 170 0
155 177 0
146 168 0
149 171 0
149 170 0
153 175 0
151 174 0
156 178 0
158 180 0
148 170 0
152 175 0
147 169 0
144 166 0
144 166 0
147 170 0
157 178 0
154 176 0
151 173 0
158 181 0
153 175 0
159 182 0
143 166 0
153 176 0
148 170 0
151 174 0
155 177 0
154 177 0
153 174 0
154 177 0
154 177 0
152 175 0
155 176 0
154 177 0
149 170 0
148 169 0
156 179 0
155 177 0
161 184 0
157 179 0
147 169 0
153 175 0
143 165 0
157 180 0
150 171 0
154 175 0
157 179 0
146 168 0
157 179 0
155 176 0
160 182 0
158 181 0
148 169 0
148 170 0
153 175 0
157 179 0
149 171 0
156 178 0
153 176 0
154 176 0
162 184 0
155 178 0
156 179 0
152 174 0
155 178 0
159 181 0
162 184 0
162 183 0
161 183 0
158 180 0
158 181 0
159 179 0
157 181 0
160 182 0
154 175 0
155 176 0
155 177 0
157 179 0
154 176 0
160 183 0
161 183 0
154 176 0
164 187 0
159 181 0
159 182 0
164 186 0
166 188 0
160 183 0
162 185 0
158 180 0
166 188 0
163 186 0
164 186 0
160 182 0
155 177 0
158 181 0
161 183 0
160 181 0
164 187 0
161 184 0
162 183 0
154 175 0
163 185 0
154 176 0
159 181 0
162 185 0
159 181 0
165 188 0
163 186 0
161 183 0
161 183 0
166 188 0
160 184 0
161 184 0
158 180 0
158 180 0
159 182 0
162 186 0
166 188 0
163 183 0
163 186 0
164 185 0
169 193 0
168 191 0
164 187 0
164 186 0
163 185 0
163 185 0
166 190 0
165 188 0
165 188 0
164 186 0
159 182 0
162 185 0
165 188 0
162 184 0
166 189 0
165 186 0
164 187 0
163 187 0
164 187 0
160 182 0
162 184 0
168 191 0
169 192 0
162 185 0
167 189 0
169 192 0
165 187 0
167 189 0
169 190 0
166 188 0
163 186 0
164 186 0
167 190 0
166 189 0
164 187 0
169 191 0
171 193 0
166 188 0
168 190 0
166 188 0
164 186 0
166 189 0
164 187 0
170 193 0
172 194 0
171 193 0
163 186 0
167 190 0
169 191 0
167 189 0
168 191 0
168 190 0
164 188 0
169 192 0
171 194 0
168 191 0
164 187 0
169 191 0
167 191 0
169 193 0
169 191 0
166 188 0
164 186 0
167 191 0
168 192 0
169 190 0
170 192 0
167 189 0
166 188 0
168 190 0
167 188 0
171 194 0
170 191 0
169 192 0
166 188 0
172 194 0
172 194 0
166 188 0
168 191 0
171 194 0
170 192 0
166 189 0
170 192 0
170 194 0
167 189 0
169 191 0
169 192 0
169 190 0
168 191 0
169 193 0
169 192 0
170 193 0
171 194 0
169 192 0
169 192 0
170 192 0
169 193 0
169 192 0
169 191 0
171 193 0
171 194 0
171 193 0
170 192 0
170 193 0
171 194 0
169 192 0
172 196 0
175 198 0
174 198 0
175 198 0
174 197 0
173 197 0
173 197 18
173 196 0
171 194 0
170 193 0
169 192 18
171 195 0
171 194 0
166 190 0
171 195 0
169 193 25
169 192 31
171 193 0
168 191 25
168 190 44
175 197 74
171 194 72
173 195 72
171 193 36
166 188 60
163 186 76
171 192 92
165 188 62
171 193 62
171 192 62
171 194 44
173 195 54
167 190 31
170 192 54
161 184 44
168 191 54
170 193 47
168 190 67
166 189 76
168 191 36
174 195 95
164 186 70
169 191 92
173 194 80
161 184 76
175 197 88
166 188 90
175 196 110
168 189 99
172 194 92
175 197 90
172 194 94
180 200 105
174 195 92
178 199 95
177 198 102
178 200 108
175 196 108
178 199 105
178 199 105
172 194 76
172 193 92
180 202 111
171 192 92
177 198 108
179 200 99
168 189 92
174 195 102
179 200 122
176 197 111
173 194 84
174 195 84
174 195 102
170 191 84
172 193 95
176 196 117
173 194 102
172 193 99
173 194 92
172 192 105
171 192 88
167 188 102
166 186 88
167 189 72
165 186 80
165 186 72
171 192 76
169 190 95
163 185 99
166 187 76
169 189 80
166 186 80
167 188 99
169 190 72
169 190 76
167 189 80
165 186 76
165 187 72
164 186 72
169 189 80
165 187 67
154 175 72
169 190 76
167 188 88
165 187 88
163 184 80
168 189 76
163 185 72
163 185 72
165 187 44
160 182 62
161 182 72
161 183 67
161 182 62
169 190 67
166 188 57
165 187 84
159 180 88
162 184 67
160 181 57
160 182 67
164 186 51
164 184 84
164 185 88
154 177 0
163 185 57
167 188 76
161 183 57
159 181 36
158 180 0
161 183 0
158 180 25
156 178 36
161 183 36
160 181 25
159 180 0
157 179 25
159 182 36
163 186 0
164 188 0
162 186 0
164 187 0
156 179 0
162 185 0
163 186 0
159 181 0
160 182 0
159 181 0
155 177 0
155 178 0
160 182 0
158 180 0
165 187 0
156 178 0
155 175 0
152 174 0
150 173 0
152 174 0
151 173 0
156 178 0
157 179 0
152 174 0
154 177 0
156 177 0
149 169 0
156 178 0
149 172 0
151 173 0
148 170 0
145 167 0
152 175 0
148 170 0
151 173 0
155 177 0
149 171 0
150 173 0
151 173 0
151 174 0
159 180 0
153 175 0
154 175 0
145 166 0
143 164 0
155 177 0
156 179 0
152 174 0
153 175 0
143 165 0
154 175 0
152 174 0
147 170 0
153 175 0
156 178 0
141 163 0
149 171 0
155 177 0
147 169 0
153 176 0
152 175 0
152 174 0
152 173 0
154 176 0
146 167 0
154 177 0
154 175 0
158 181 0
156 179 0
155 176 0
152 175 0
157 180 0
156 177 0
151 173 0
152 175 0
150 172 0
152 174 0
159 182 0
156 178 0
151 174 0
156 179 0
151 173 0
155 178 0
156 179 0
159 182 0
149 171 0
157 179 0
160 180 0
160 181 0
158 181 0
149 171 0
150 172 0
153 174 0
150 173 0
159 181 0
159 181 0
159 182 0
152 175 0
149 172 0
159 181 0
156 179 0
158 182 0
154 178 0
156 178 0
157 181 0
161 184 0
155 178 0
158 180 0
153 175 0
156 178 0
157 179 0
158 180 0
165 188 0
157 180 0
164 186 0
162 185 0
165 188 0
159 182 0
156 180 0
160 183 0
162 184 0
155 177 0
159 183 0
160 183 0
159 183 0
161 183 0
160 183 0
161 184 0
157 179 0
162 185 0
166 189 0
158 180 0
161 184 0
163 186 0
157 179 0
163 186 0
159 181 0
158 180 0
157 179 0
160 183 0
164 186 0
162 185 0
161 184 0
164 185 0
161 184 0
163 186 0
158 180 0
158 180 0
162 184 0
162 184 0
164 185 0
156 178 0
165 189 0
167 190 0
162 185 0
167 189 0
162 184 0
162 184 0
162 185 0
162 184 0
167 190 0
164 187 0
163 185 0
163 185 0
165 187 0
166 189 0
168 191 0
160 181 0
166 188 0
165 188 0
165 186 0
167 190 0
164 187 0
164 187 0
164 187 0
167 190 0
163 186 0
163 185 0
164 188 0
165 187 0
161 184 0
167 191 0
166 189 0
168 190 0
168 191 0
169 192 0
163 185 0
164 188 0
167 190 0
169 191 0
167 189 0
168 190 0
164 186 0
167 190 0
168 192 0
167 188 0
163 186 0
167 190 0
167 190 0
166 189 0
168 191 0
167 189 0
168 191 0
168 191 0
167 189 0
163 185 0
170 192 0
165 187 0
173 194 0
165 188 0
169 193 0
170 192 0
170 193 0
166 189 0
169 192 0
166 189 0
169 192 0
170 194 0
169 192 0
169 193 0
167 189 0
167 189 0
171 193 0
169 192 0
170 192 0
169 191 0
166 188 0
167 189 0
170 192 0
171 194 0
172 193 0
167 190 0
170 193 0
167 191 0
169 192 0
170 194 0
167 191 0
169 192 0
172 196 0
168 192 0
171 195 0
172 193 0
170 194 0
169 191 0
172 195 0
170 192 0
172 195 0
171 193 0
169 193 0
167 189 0
170 192 0
167 189 0
169 192 0
170 194 0
171 194 0
170 192 0
172 196 0
168 190 0
172 194 0
171 194 0
172 195 0
171 194 0
173 196 0
174 198 0
173 196 0
174 197 0
174 197 0
173 196 0
174 197 0
171 194 0
167 190 0
169 192 18
172 196 18
168 191 0
173 196 0
165 189 31
171 195 0
167 190 0
172 194 0
171 194 0
168 191 0
170 194 0
170 194 0
168 191 31
167 189 60
169 192 57
176 198 76
174 196 57
169 192 57
170 192 78
166 188 62
168 191 36
171 194 67
163 185 57
168 191 57
170 193 47
168 190 51
167 190 78
167 190 90
165 187 78
169 191 62
173 195 97
168 191 74
171 193 67
169 192 78
165 188 65
166 188 74
164 185 78
167 190 78
173 194 84
170 191 97
176 198 95
177 198 97
172 193 94
176 198 92
177 199 99
172 193 76
172 195 114
178 199 105
173 194 84
171 192 51
171 192 51
171 192 108
169 191 72
173 195 80
174 196 105
176 197 99
173 195 88
175 196 92
170 191 80
174 196 99
171 192 84
172 192 99
172 193 84
172 193 80
174 195 88
174 196 111
176 198 108
173 193 67
174 195 102
168 189 80
168 189 95
168 188 88
169 191 80
163 185 84
169 191 76
162 182 76
170 192 102
168 189 84
174 194 88
176 196 95
169 191 84
167 187 67
168 190 88
167 188 84
163 184 67
173 194 84
163 185 102
167 188 76
162 182 72
166 187 67
167 188 76
159 180 57
163 184 51
163 185 62
165 186 80
169 190 84
167 189 67
166 189 88
157 178 57
160 182 72
164 186 51
162 183 72
163 184 62
163 185 84
170 192 80
159 180 62
168 189 72
163 185 76
162 184 51
160 182 62
164 186 76
167 187 72
160 181 76
168 189 84
166 187 62
155 176 0
161 183 51
162 183 44
162 183 44
168 190 0
156 178 0
162 184 36
169 191 57
159 181 44
154 176 25
164 186 36
156 177 44
159 182 36
158 181 0
165 189 0
169 192 0
166 188 0
159 183 0
165 188 0
160 184 0
163 187 0
162 186 0
161 183 0
161 184 0
150 172 0
160 183 0
159 181 0
157 180 0
155 177 0
156 177 0
153 175 0
149 171 0
151 173 0
150 171 0
144 165 0
153 176 0
159 181 0
148 170 0
148 170 0
155 177 0
151 173 0
153 175 0
153 175 0
156 178 0
149 172 0
149 171 0
153 175 0
148 170 0
151 173 0
145 167 0
158 179 0
148 170 0
156 179 0
156 178 0
154 176 0
152 175 0
159 182 0
164 186 0
161 183 0
159 182 0
149 171 0
151 173 0
150 172 0
154 177 0
154 175 0
152 174 0
151 172 0
151 174 0
156 179 0
154 176 0
151 173 0
151 173 0
158 179 0
160 181 0
156 178 0
153 175 0
154 177 0
154 176 0
163 186 0
153 174 0
158 180 0
148 171 0
150 172 0
147 170 0
159 181 0
154 175 0
149 171 0
156 177 0
153 175 0
148 170 0
157 180 0
156 179 0
150 172 0
149 172 0
154 177 0
156 179 0
158 180 0
154 177 0
154 177 0
158 180 0
149 172 0
163 186 0
151 173 0
146 169 0
159 182 0
162 185 0
149 171 0
161 183 0
153 176 0
156 179 0
158 179 0
152 176 0
160 182 0
158 180 0
158 182 0
158 180 0
158 181 0
154 176 0
158 181 0
163 184 0
158 179 0
162 184 0
151 174 0
159 181 0
159 181 0
159 181 0
162 186 0
154 176 0
158 181 0
156 179 0
157 179 0
159 182 0
160 183 0
157 179 0
154 177 0
164 187 0
166 189 0
158 179 0
160 182 0
162 186 0
160 182 0
160 183 0
163 185 0
161 184 0
167 190 0
163 187 0
160 183 0
157 179 0
161 185 0
162 185 0
158 181 0
158 182 0
165 188 0
157 180 0
161 184 0
165 186 0
166 187 0
159 182 0
164 187 0
157 179 0
166 188 0
162 183 0
163 185 0
163 184 0
164 187 0
162 186 0
165 188 0
158 181 0
162 184 0
163 185 0
167 189 0
163 186 0
167 189 0
166 188 0
163 186 0
166 188 0
167 189 0
162 184 0
166 189 0
164 187 0
162 185 0
165 188 0
167 191 0
167 189 0
171 194 0
161 183 0
161 184 0
166 188 0
166 189 0
169 190 0
166 189 0
163 185 0
167 189 0
164 187 0
164 187 0
165 187 0
165 187 0
168 190 0
169 192 0
165 188 0
168 192 0
168 191 0
168 191 0
166 189 0
165 188 0
165 188 0
168 190 0
169 191 0
167 190 0
168 190 0
165 188 0
165 187 0
169 191 0
169 191 0
167 189 0
168 191 0
166 189 0
168 191 0
170 193 0
170 193 0
169 190 0
168 190 0
168 190 0
164 187 0
164 186 0
166 189 0
167 190 0
168 192 0
167 190 0
165 188 0
168 190 0
167 190 0
167 189 0
168 190 0
166 188 0
172 195 0
165 188 0
169 192 0
171 193 0
168 191 0
171 193 0
168 190 0
171 194 0
168 191 0
171 193 0
170 194 0
173 195 0
169 192 0
172 194 0
171 195 0
172 193 0
168 189 0
168 190 0
170 192 0
171 194 0
168 192 0
168 191 0
171 195 0
171 193 0
171 194 0
170 192 0
173 196 0
165 187 0
168 192 0
164 188 0
167 190 0
171 194 0
170 194 0
170 194 0
170 193 0
173 194 0
170 192 0
170 193 0
170 192 0
169 190 0
167 191 0
174 198 0
172 196 0
174 198 0
173 196 0
171 196 0
172 196 0
174 197 0
173 196 0
169 193 22
169 192 0
172 195 25
170 194 18
171 194 0
171 194 18
170 194 0
169 193 0
169 192 31
166 189 18
173 195 0
170 193 18
169 191 0
172 195 25
168 191 44
172 195 44
166 189 51
170 193 25
167 189 57
170 192 54
170 193 47
168 189 58
169 192 74
168 191 36
167 190 70
162 184 60
167 190 51
162 184 73
171 194 67
168 191 65
168 190 65
172 193 72
170 191 82
168 190 70
171 193 54
163 186 40
170 192 57
167 189 72
167 189 54
166 188 62
164 186 47
170 191 88
171 192 88
176 198 105
173 195 92
173 195 100
178 199 88
176 197 62
171 193 92
178 199 102
173 196 92
173 195 92
178 200 108
172 193 105
177 198 102
173 194 80
175 196 108
178 199 88
171 192 88
180 200 125
175 196 88
173 195 76
171 193 76
175 196 105
177 197 88
170 192 95
166 188 62
174 196 88
168 190 80
172 194 102
170 192 92
173 194 67
163 185 67
171 193 84
170 191 92
168 189 76
166 188 84
170 192 84
163 187 88
167 189 84
163 186 76
168 189 76
167 188 92
169 190 57
164 187 88
170 191 76
164 185 92
164 185 67
166 188 67
158 179 51
166 188 76
163 184 62
166 187 67
166 188 72
159 181 44
162 182 57
163 186 80
167 190 80
162 184 72
166 188 72
169 190 67
163 184 57
166 187 57
170 191 80
166 187 62
167 188 72
154 176 36
159 180 57
166 186 67
160 182 51
164 185 57
168 189 62
168 189 67
160 182 36
167 188 36
157 179 0
166 188 62
161 184 51
162 185 44
157 179 25
154 177 25
159 182 25
157 179 51
160 183 36
155 176 36
158 179 0
162 184 25
157 180 25
157 179 0
170 193 0
165 189 0
164 187 0
168 191 0
162 185 0
167 189 0
157 180 0
162 185 0
158 182 0
159 182 0
159 182 0
156 178 0
163 185 0
156 179 0
162 183 0
146 168 0
159 182 0
155 178 0
151 174 0
154 177 0
151 172 0
155 177 0
158 180 0
155 177 0
154 176 0
155 177 0
148 170 0
157 179 0
155 178 0
154 175 0
158 180 0
148 170 0
149 171 0
157 180 0
154 175 0
155 176 0
146 169 0
150 173 0
156 179 0
152 174 0
158 180 0
148 170 0
162 184 0
148 170 0
148 171 0
154 176 0
156 178 0
147 169 0
152 174 0
160 182 0
157 180 0
156 177 0
157 180 0
156 179 0
153 176 0
148 170 0
153 175 0
149 170 0
154 176 0
150 173 0
153 175 0
150 171 0
159 182 0
153 176 0
153 175 0
150 172 0
153 176 0
152 174 0
151 173 0
155 178 0
159 181 0
150 172 0
158 181 0
155 177 0
154 177 0
153 175 0
150 173 0
152 174 0
152 174 0
151 174 0
152 174 0
157 179 0
152 174 0
158 181 0
158 181 0
156 179 0
152 175 0
154 177 0
152 174 0
154 178 0
152 174 0
165 187 0
156 180 0
163 186 0
157 179 0
162 184 0
159 182 0
159 183 0
160 183 0
158 181 0
157 178 0
154 178 0
162 183 0
157 178 0
163 186 0
157 179 0
163 186 0
159 183 0
162 184 0
156 179 0
155 179 0
160 182 0
164 187 0
155 177 0
159 182 0
163 186 0
154 177 0
166 188 0
160 182 0
162 186 0
158 180 0
158 180 0
161 184 0
159 182 0
161 185 0
155 177 0
159 181 0
166 188 0
158 180 0
163 186 0
163 184 0
162 184 0
158 180 0
165 188 0
164 187 0
162 184 0
161 182 0
158 179 0
165 188 0
164 187 0
166 187 0
162 184 0
165 188 0
162 185 0
160 183 0
166 187 0
166 189 0
162 183 0
158 180 0
167 189 0
160 182 0
162 186 0
161 184 0
163 186 0
164 187 0
162 185 0
168 191 0
166 188 0
163 186 0
163 186 0
166 188 0
164 187 0
165 189 0
164 186 0
163 185 0
163 187 0
167 189 0
166 188 0
160 183 0
167 189 0
169 191 0
170 194 0
165 187 0
164 186 0
161 182 0
166 189 0
163 186 0
168 190 0
170 192 0
164 187 0
164 188 0
166 188 0
167 189 0
169 191 0
167 189 0
164 187 0
167 190 0
169 191 0
169 192 0
165 187 0
168 192 0
169 191 0
169 192 0
167 189 0
164 187 0
168 191 0
171 193 0
164 188 0
167 189 0
170 192 0
167 189 0
168 189 0
168 192 0
169 191 0
167 190 0
165 188 0
167 190 0
168 191 0
171 194 0
170 193 0
162 184 0
163 187 0
172 192 0
167 190 0
172 195 0
171 193 0
167 190 0
168 190 0
166 189 0
174 196 0
168 191 0
170 192 0
173 196 0
168 190 0
169 192 0
170 194 0
167 190 0
171 194 0
164 186 0
169 192 0
168 191 0
167 191 0
170 193 0
171 193 0
169 191 0
169 192 0
166 189 0
169 191 0
173 195 0
170 194 0
169 192 0
171 194 0
167 191 0
170 193 0
171 194 0
168 191 0
167 190 0
170 193 0
169 191 0
170 194 0
167 190 0
169 191 0
171 194 0
172 195 0
173 196 0
173 196 0
173 195 0
169 192 0
170 192 0
169 191 0
172 194 0
170 192 0
166 189 0
170 194 0
174 198 0
172 196 0
174 197 0
173 197 0
173 197 0
173 197 0
173 197 0
174 197 25
170 194 0
171 193 0
168 192 0
170 195 18
173 195 18
165 189 18
164 188 36
164 186 44
168 192 0
168 191 0
172 196 18
168 192 25
167 190 25
169 192 0
168 191 0
168 190 31
173 196 51
171 193 57
161 184 47
170 192 60
171 193 70
165 187 78
175 196 95
169 192 62
167 189 67
169 191 47
171 192 74
166 189 65
172 195 54
173 195 84
167 189 52
167 190 70
164 186 89
172 194 54
169 191 78
170 192 76
163 185 70
171 193 74
169 190 67
171 193 54
171 193 47
172 194 76
167 189 70
176 198 92
162 184 72
169 191 78
173 195 62
171 192 95
173 196 95
175 197 84
176 197 80
169 191 76
171 193 67
175 197 76
177 198 80
176 197 105
171 194 80
176 198 105
173 195 72
173 195 92
172 193 67
171 192 62
173 194 67
169 190 88
175 196 92
169 191 80
161 183 84
172 193 76
169 191 95
174 194 88
174 195 95
163 185 67
172 193 62
172 194 62
166 187 72
169 190 67
171 193 92
167 187 80
171 192 95
170 192 92
168 190 84
174 195 84
172 194 105
167 188 72
170 190 76
164 185 67
162 184 44
166 187 62
161 183 67
168 189 84
164 186 72
168 190 57
159 180 80
159 181 67
164 186 80
170 191 80
165 186 44
169 190 57
168 190 72
166 187 62
162 183 44
162 183 57
166 187 62
168 189 44
166 187 80
163 184 80
156 178 57
160 181 62
159 182 72
169 189 80
165 186 67
160 181 62
170 191 92
167 188 80
164 185 51
164 186 67
169 191 57
167 189 57
156 178 44
160 183 25
168 191 57
159 182 44
163 186 57
162 184 0
150 171 44
159 182 0
161 184 44
168 191 0
167 191 0
163 186 0
168 191 0
163 185 0
162 184 0
162 186 0
157 180 0
154 175 0
160 182 0
153 175 0
162 184 0
156 179 0
160 182 0
156 179 0
164 185 0
156 178 0
156 179 0
151 173 0
161 182 0
145 166 0
159 180 0
152 174 0
159 181 0
148 170 0
155 177 0
157 179 0
159 181 0
157 177 0
146 168 0
155 177 0
148 171 0
148 170 0
153 175 0
152 173 0
149 172 0
140 160 0
155 177 0
145 168 0
155 177 0
148 171 0
157 179 0
157 179 0
150 172 0
156 178 0
153 176 0
150 173 0
154 176 0
148 170 0
148 170 0
155 178 0
158 180 0
155 176 0
158 181 0
151 173 0
150 172 0
160 183 0
158 182 0
156 178 0
167 189 0
158 180 0
149 172 0
154 175 0
143 164 0
147 169 0
158 180 0
157 179 0
157 179 0
154 176 0
150 172 0
157 179 0
146 168 0
159 182 0
150 173 0
154 176 0
160 183 0
152 174 0
147 170 0
158 182 0
159 180 0
159 180 0
159 182 0
156 179 0
154 175 0
161 184 0
155 177 0
151 173 0
157 180 0
161 183 0
162 184 0
160 181 0
154 178 0
152 174 0
155 177 0
150 172 0
156 178 0
164 188 0
157 179 0
157 180 0
161 182 0
161 183 0
159 182 0
158 181 0
160 183 0
159 182 0
160 183 0
162 184 0
158 181 0
160 183 0
153 176 0
158 180 0
158 180 0
163 185 0
162 184 0
163 185 0
158 181 0
156 178 0
159 181 0
160 182 0
155 178 0
167 189 0
153 174 0
159 181 0
158 181 0
163 186 0
161 183 0
161 184 0
167 189 0
162 185 0
159 182 0
166 188 0
164 186 0
160 183 0
163 184 0
162 184 0
165 187 0
161 184 0
162 185 0
163 185 0
164 186 0
164 186 0
161 183 0
167 190 0
163 185 0
163 185 0
165 187 0
167 190 0
157 180 0
165 189 0
160 184 0
164 187 0
162 185 0
160 183 0
163 186 0
165 188 0
161 185 0
166 188 0
163 185 0
165 188 0
162 185 0
162 185 0
166 189 0
161 182 0
160 183 0
164 187 0
159 182 0
164 186 0
163 186 0
162 184 0
166 189 0
167 189 0
162 185 0
167 190 0
167 191 0
163 185 0
164 187 0
163 185 0
162 185 0
165 187 0
168 190 0
168 191 0
166 189 0
164 186 0
168 191 0
164 188 0
165 188 0
170 193 0
163 185 0
164 186 0
168 190 0
171 194 0
169 193 0
165 187 0
163 186 0
166 188 0
166 189 0
166 188 0
170 193 0
169 191 0
166 189 0
167 190 0
169 192 0
164 186 0
165 188 0
167 190 0
164 188 0
169 191 0
168 191 0
165 188 0
165 187 0
170 192 0
165 188 0
169 192 0
169 192 0
172 195 0
167 191 0
166 189 0
169 191 0
169 190 0
167 190 0
164 186 0
167 190 0
170 193 0
168 191 0
172 194 0
169 192 0
169 193 0
172 195 0
171 194 0
168 190 0
171 192 0
169 193 0
171 193 0
168 192 0
171 193 0
167 189 0
170 193 0
166 187 0
169 191 0
171 194 0
168 191 0
172 194 0
168 191 0
171 194 0
170 192 0
172 195 0
169 192 0
168 191 0
171 192 0
167 189 0
172 195 0
171 192 0
170 193 0
170 191 0
170 193 0
169 193 0
173 195 0
174 197 0
168 192 0
170 193 0
170 192 0
172 194 0
167 189 0
172 194 0
171 195 0
173 196 0
171 196 0
174 197 0
174 197 0
172 196 0
172 196 0
175 198 0
174 197 0
172 196 0
171 194 18
169 192 0
167 191 0
170 193 0
167 190 18
173 195 0
166 189 18
170 193 0
168 192 18
171 194 18
168 192 25
172 195 0
171 195 0
169 192 18
165 189 31
165 188 0
168 191 18
163 186 44
172 194 65
168 190 65
171 193 78
174 196 74
166 189 51
168 190 40
167 189 65
168 191 25
161 183 36
163 185 60
167 189 57
165 187 57
169 192 62
167 189 57
168 190 65
163 185 47
162 184 74
170 191 78
166 189 90
173 194 82
172 193 65
170 192 74
174 196 90
169 190 51
173 195 74
167 190 72
172 193 76
172 194 84
173 194 51
177 198 88
173 196 92
167 189 67
173 195 72
171 192 62
171 192 84
173 195 76
175 197 80
173 195 80
174 195 92
173 195 84
173 194 99
174 195 72
170 190 67
172 194 80
173 195 67
179 200 102
172 194 84
171 192 76
175 196 117
172 194 92
170 191 72
171 192 92
172 194 95
171 193 88
166 187 67
158 180 92
168 190 99
170 192 95
174 194 105
161 183 76
171 192 99
170 191 76
164 186 62
163 185 72
163 184 57
165 187 67
168 190 80
165 187 57
167 189 76
166 187 62
163 184 44
166 187 67
162 184 76
166 187 67
165 185 76
165 186 72
160 181 57
163 184 57
167 189 67
163 184 80
165 186 76
164 186 72
168 189 80
166 188 72
170 193 57
162 183 67
164 186 51
163 184 76
169 191 67
166 188 62
170 191 80
165 185 84
172 193 92
167 187 51
155 176 57
166 187 44
158 179 25
165 185 67
166 188 0
165 187 44
160 181 57
164 186 51
164 186 36
158 180 44
158 181 36
159 181 0
160 183 36
165 189 25
165 189 0
161 185 0
164 187 0
166 189 0
163 186 0
164 186 0
162 186 0
170 192 0
162 185 0
165 188 0
162 185 0
158 181 0
160 181 0
157 180 0
154 177 0
168 190 0
159 181 0
156 178 0
156 179 0
153 174 0
148 169 0
145 166 0
147 170 0
152 175 0
155 178 0
151 174 0
149 171 0
161 184 0
148 170 0
148 170 0
153 175 0
152 173 0
157 180 0
149 172 0
162 184 0
154 175 0
153 174 0
160 183 0
161 184 0
151 173 0
148 171 0
158 179 0
165 187 0
154 177 0
152 174 0
156 178 0
143 166 0
157 179 0
158 179 0
155 178 0
158 180 0
158 179 0
153 176 0
154 176 0
147 169 0
154 177 0
153 176 0
152 175 0
160 181 0
157 179 0
154 177 0
150 172 0
155 178 0
162 183 0
153 175 0
153 176 0
152 174 0
159 182 0
152 173 0
151 173 0
160 182 0
162 185 0
157 179 0
152 174 0
155 178 0
158 180 0
154 177 0
154 178 0
156 180 0
159 182 0
159 180 0
156 179 0
161 184 0
157 180 0
148 170 0
160 183 0
152 174 0
161 184 0
159 181 0
155 178 0
149 172 0
152 175 0
152 174 0
156 178 0
157 180 0
154 176 0
156 177 0
154 177 0
155 177 0
158 180 0
157 178 0
161 183 0
158 181 0
156 179 0
157 179 0
165 189 0
153 175 0
160 181 0
161 183 0
152 173 0
161 184 0
160 182 0
162 184 0
156 179 0
157 179 0
162 186 0
158 181 0
158 181 0
160 181 0
163 185 0
161 184 0
167 189 0
163 186 0
162 184 0
160 182 0
161 182 0
157 180 0
163 186 0
158 180 0
162 184 0
159 181 0
160 181 0
163 184 0
165 188 0
161 184 0
159 182 0
162 184 0
163 185 0
161 183 0
161 183 0
164 187 0
161 182 0
164 186 0
161 184 0
167 189 0
164 186 0
168 191 0
163 186 0
162 185 0
158 180 0
161 183 0
160 181 0
159 181 0
158 181 0
160 182 0
164 186 0
165 188 0
164 186 0
166 188 0
164 188 0
166 189 0
167 190 0
162 184 0
163 186 0
162 185 0
158 180 0
164 186 0
165 188 0
166 189 0
166 188 0
164 186 0
163 183 0
166 189 0
163 187 0
166 188 0
167 189 0
166 188 0
169 192 0
164 186 0
171 194 0
168 190 0
168 190 0
168 191 0
164 187 0
169 191 0
160 182 0
170 192 0
168 191 0
166 189 0
169 192 0
167 189 0
169 190 0
170 192 0
167 189 0
166 187 0
165 187 0
166 188 0
167 189 0
166 189 0
167 189 0
169 192 0
163 187 0
172 194 0
168 190 0
167 191 0
165 189 0
169 192 0
170 192 0
165 188 0
168 191 0
164 187 0
166 190 0
170 194 0
165 187 0
166 190 0
171 193 0
169 192 0
169 191 0
169 192 0
168 191 0
167 190 0
171 194 0
171 194 0
170 192 0
170 192 0
167 190 0
171 194 0
170 193 0
169 190 0
166 188 0
169 191 0
170 193 0
168 191 0
167 190 0
170 192 0
163 186 0
166 189 0
168 190 0
170 191 0
169 192 0
170 192 0
170 192 0
168 190 0
171 194 0
171 195 0
172 195 0
171 194 0
169 192 0
172 195 0
173 195 0
171 194 0
171 194 0
173 197 0
171 193 0
163 186 0
169 192 0
172 195 0
168 190 0
170 193 0
170 193 0
172 195 0
170 193 0
171 194 0
171 194 0
172 195 0
172 195 0
174 198 0
175 198 0
176 198 0
173 197 0
174 197 0
173 197 0
173 197 0
169 193 0
172 195 18
168 191 0
171 194 0
174 197 0
172 196 18
172 195 0
166 190 18
169 193 36
172 195 0
171 194 18
167 191 25
168 191 0
167 190 36
170 192 18
166 189 31
167 190 25
169 193 44
173 196 25
168 191 25
159 182 31
162 185 38
171 193 36
168 191 74
167 189 57
166 189 31
167 189 76
169 191 51
166 189 57
165 186 65
171 193 70
171 193 47
166 188 70
173 195 72
164 185 84
165 186 76
171 194 51
171 193 76
171 192 60
162 185 65
168 190 65
167 188 94
174 195 82
172 194 76
169 192 60
166 187 88
174 196 100
172 194 95
174 195 105
174 195 76
171 193 76
172 195 62
174 194 92
171 192 57
180 200 102
173 195 80
173 195 84
168 190 72
172 193 84
175 197 88
168 189 67
171 193 76
175 196 76
169 191 62
171 193 80
173 195 80
171 192 67
170 193 84
176 198 95
171 192 102
172 194 95
168 189 76
170 191 84
169 190 51
166 189 44
170 191 84
163 183 67
166 187 88
166 187 76
170 192 67
166 188 72
166 187 62
166 189 84
168 190 80
169 191 92
160 183 80
168 190 51
163 185 57
162 183 51
163 185 51
160 181 76
165 187 92
165 187 72
168 190 67
168 188 51
163 184 51
166 188 62
161 183 57
159 180 67
166 188 76
167 189 51
169 190 84
169 190 51
171 192 51
166 187 51
166 187 67
168 190 80
158 180 72
165 186 76
167 187 72
160 181 62
166 186 67
166 188 57
164 185 51
169 190 44
160 182 51
163 184 51
160 182 25
163 185 44
159 181 36
168 189 44
158 181 0
164 186 36
161 184 36
158 181 25
157 180 25
166 189 0
165 188 0
162 186 0
159 183 0
167 190 0
167 190 0
161 185 0
164 186 0
153 177 0
163 186 0
160 183 0
156 179 0
160 182 0
155 178 0
153 175 0
156 179 0
157 179 0
161 183 0
153 174 0
153 176 0
156 178 0
159 181 0
155 177 0
147 168 0
159 180 0
159 182 0
159 181 0
155 177 0
159 180 0
156 178 0
157 180 0
152 175 0
159 181 0
155 178 0
148 171 0
152 174 0
150 172 0
148 169 0
153 175 0
157 180 0
153 175 0
156 177 0
156 179 0
161 183 0
152 175 0
153 175 0
151 174 0
155 177 0
160 183 0
157 179 0
151 174 0
153 177 0
152 174 0
152 174 0
160 183 0
149 171 0
152 175 0
160 182 0
155 178 0
158 181 0
149 173 0
156 179 0
149 171 0
155 176 0
155 178 0
157 180 0
164 187 0
160 182 0
160 182 0
154 176 0
154 177 0
160 182 0
164 186 0
160 184 0
156 178 0
155 178 0
156 179 0
162 185 0
155 177 0
148 171 0
154 176 0
155 178 0
156 177 0
161 184 0
157 179 0
153 176 0
156 179 0
160 183 0
155 178 0
154 177 0
157 179 0
163 185 0
157 178 0
160 183 0
158 181 0
159 182 0
159 181 0
154 176 0
156 179 0
157 180 0
154 177 0
155 178 0
164 186 0
158 180 0
152 176 0
158 181 0
156 179 0
159 182 0
151 175 0
156 178 0
156 178 0
162 183 0
156 178 0
158 181 0
161 184 0
162 185 0
167 189 0
162 185 0
162 184 0
156 179 0
162 184 0
158 180 0
162 184 0
157 181 0
157 180 0
159 182 0
158 180 0
157 179 0
158 180 0
158 182 0
159 180 0
157 179 0
165 187 0
164 187 0
168 191 0
163 186 0
165 189 0
164 187 0
161 185 0
158 179 0
157 180 0
162 183 0
161 183 0
164 188 0
161 184 0
168 190 0
166 188 0
166 188 0
163 186 0
162 184 0
166 188 0
167 190 0
157 179 0
164 187 0
160 184 0
162 186 0
163 186 0
162 185 0
164 187 0
164 187 0
166 187 0
158 180 0
165 188 0
167 189 0
169 191 0
163 186 0
169 191 0
166 187 0
162 186 0
163 186 0
164 187 0
163 185 0
169 191 0
166 188 0
165 187 0
166 188 0
163 186 0
161 184 0
169 191 0
167 188 0
158 182 0
169 190 0
168 190 0
161 184 0
169 193 0
166 188 0
166 189 0
165 186 0
166 188 0
168 190 0
168 189 0
168 191 0
166 188 0
165 188 0
167 189 0
167 189 0
169 193 0
165 187 0
166 189 0
168 191 0
169 191 0
165 188 0
170 193 0
168 190 0
167 190 0
166 189 0
164 187 0
165 188 0
169 192 0
167 190 0
164 187 0
171 195 0
171 193 0
171 194 0
167 191 0
165 188 0
168 190 0
170 192 0
171 193 0
173 195 0
169 191 0
168 190 0
168 191 0
170 193 0
166 189 0
169 192 0
169 191 0
165 188 0
168 190 0
167 190 0
171 193 0
166 189 0
168 192 0
169 192 0
168 191 0
167 189 0
170 193 0
169 191 0
168 190 0
167 190 0
169 191 0
171 194 0
170 194 0
172 195 0
169 192 0
170 193 0
170 192 0
171 194 0
171 194 0
172 195 0
173 196 0
171 194 0
171 194 0
167 190 0
170 193 0
169 192 0
172 195 0
171 195 0
171 193 0
171 193 0
170 194 0
172 195 0
172 195 0
171 192 0
170 193 0
175 198 0
170 194 0
173 196 0
172 196 0
173 197 0
173 197 0
173 197 0
172 195 0
173 197 0
173 197 0
172 196 0
172 195 18
169 193 0
168 192 0
172 194 0
169 193 25
168 191 18
169 193 18
170 194 25
172 195 25
171 194 18
164 187 31
163 186 25
164 188 40
164 186 31
171 194 0
168 191 31
166 189 51
165 188 40
159 183 51
167 190 40
170 192 44
166 189 36
166 188 40
164 186 47
167 190 67
172 193 74
167 189 76
169 191 44
172 194 54
174 196 80
166 188 57
170 193 57
171 193 51
169 191 70
171 193 72
172 194 70
164 186 82
163 184 78
176 197 80
172 194 44
170 192 70
173 194 74
169 192 72
175 197 92
170 192 80
171 193 54
172 194 72
172 195 99
177 198 84
169 190 95
176 197 95
174 196 88
171 192 72
174 195 84
176 197 62
178 199 84
174 195 95
173 194 76
178 199 92
178 199 99
169 190 80
172 194 88
175 197 95
174 196 95
166 187 72
168 190 80
174 195 88
168 190 84
172 192 80
170 191 92
171 193 84
172 194 67
164 186 84
167 189 62
167 188 76
168 189 76
166 187 57
168 190 51
168 188 44
163 185 72
166 188 67
168 189 62
165 187 72
166 187 25
166 188 72
165 186 67
164 185 62
163 184 57
165 187 67
163 185 76
164 185 67
157 180 62
169 191 57
165 186 72
161 182 67
165 188 57
162 185 51
168 189 84
163 185 44
157 178 67
167 188 72
163 184 44
161 183 57
166 187 88
166 187 80
156 176 72
167 188 88
165 186 92
163 185 62
163 185 44
161 182 36
160 181 36
161 182 36
163 184 44
156 178 25
161 183 36
162 185 25
164 185 44
157 179 25
170 192 44
162 183 44
158 179 0
158 181 25
163 186 0
164 187 0
167 190 0
164 187 0
163 187 0
162 185 0
162 183 0
161 183 0
160 184 0
160 182 0
161 184 0
156 178 0
161 183 0
158 181 0
155 176 0
163 185 0
157 178 0
160 183 0
153 175 0
159 181 0
150 172 0
155 177 0
155 178 0
153 174 0
158 179 0
161 184 0
152 175 0
156 177 0
161 182 0
152 174 0
163 186 0
153 175 0
153 175 0
153 175 0
153 175 0
153 175 0
152 173 0
155 178 0
151 173 0
149 172 0
153 176 0
150 173 0
150 173 0
153 175 0
149 172 0
151 174 0
160 182 0
154 177 0
149 171 0
156 178 0
151 174 0
154 176 0
153 175 0
155 177 0
154 178 0
157 179 0
161 182 0
157 179 0
153 176 0
155 177 0
161 183 0
154 175 0
153 175 0
157 179 0
159 181 0
152 174 0
159 181 0
161 183 0
161 183 0
157 181 0
150 172 0
155 177 0
161 185 0
150 172 0
157 179 0
156 179 0
152 174 0
152 175 0
162 185 0
155 177 0
154 178 0
160 183 0
156 178 0
155 178 0
158 179 0
155 178 0
156 179 0
158 181 0
163 184 0
162 185 0
159 181 0
158 180 0
160 182 0
159 181 0
154 177 0
162 185 0
158 180 0
160 182 0
154 175 0
163 185 0
159 183 0
158 181 0
161 185 0
152 173 0
158 181 0
151 174 0
152 175 0
157 179 0
157 180 0
164 187 0
164 186 0
161 184 0
158 180 0
155 179 0
159 181 0
161 183 0
156 179 0
160 182 0
155 177 0
161 184 0
158 181 0
165 187 0
155 177 0
161 184 0
160 182 0
163 185 0
161 184 0
167 190 0
158 181 0
162 184 0
158 180 0
165 188 0
162 185 0
157 181 0
160 183 0
165 187 0
166 188 0
161 184 0
159 182 0
164 187 0
162 185 0
163 187 0
160 184 0
163 186 0
162 185 0
162 185 0
160 183 0
164 186 0
158 181 0
158 180 0
163 185 0
162 185 0
164 186 0
160 183 0
161 184 0
167 190 0
165 187 0
169 190 0
169 190 0
162 186 0
164 186 0
164 185 0
163 186 0
171 194 0
162 186 0
165 189 0
165 188 0
167 190 0
164 188 0
165 188 0
164 187 0
168 190 0
171 194 0
163 186 0
161 183 0
166 189 0
165 188 0
166 188 0
166 188 0
167 191 0
169 191 0
165 188 0
161 184 0
164 186 0
166 188 0
168 191 0
171 194 0
168 191 0
168 191 0
164 187 0
169 192 0
163 185 0
168 191 0
168 191 0
163 185 0
165 187 0
168 190 0
170 193 0
164 187 0
168 190 0
166 188 0
169 192 0
165 188 0
168 190 0
165 187 0
169 192 0
170 193 0
171 194 0
169 192 0
169 190 0
167 190 0
168 190 0
167 191 0
170 192 0
170 192 0
168 190 0
169 190 0
164 186 0
169 191 0
169 192 0
171 194 0
167 190 0
169 193 0
170 193 0
170 193 0
171 194 0
169 190 0
171 194 0
170 194 0
168 190 0
169 191 0
167 190 0
168 190 0
173 195 0
166 190 0
169 192 0
171 193 0
169 192 0
171 193 0
172 196 0
169 191 0
171 193 0
172 195 0
171 194 0
168 191 0
168 190 0
172 195 0
169 191 0
164 188 0
172 194 0
171 195 0
170 193 0
172 194 0
171 195 0
170 193 0
168 190 0
170 193 0
170 194 0
169 193 0
166 189 0
172 194 0
170 193 0
165 189 0
167 190 0
172 194 0
171 194 0
176 198 0
173 196 0
172 195 0
173 196 0
172 196 0
174 198 0
171 195 0
174 197 0
174 197 0
172 196 0
170 194 25
171 194 0
167 191 18
169 193 31
167 191 0
169 192 18
169 192 0
169 192 0
170 193 0
169 192 18
170 193 18
170 193 25
168 191 0
170 193 0
168 191 18
170 193 25
165 189 18
164 187 25
172 195 0
172 194 0
165 188 40
171 193 31
166 189 25
168 192 54
167 189 31
168 191 25
170 193 18
162 184 47
166 188 47
166 188 62
170 192 67
172 195 82
172 194 65
165 186 47
169 191 65
168 189 62
166 188 57
169 192 44
168 190 40
172 194 44
169 191 80
171 192 74
171 194 72
174 195 95
168 189 84
173 195 74
174 195 84
176 197 88
173 194 88
174 196 72
174 196 80
178 200 111
172 193 84
171 193 88
170 191 67
177 199 102
177 198 95
171 192 92
170 191 72
180 201 88
173 195 80
176 197 92
169 190 84
173 195 92
174 195 88
172 192 44
169 191 84
168 188 72
173 195 84
170 191 72
176 197 84
163 186 80
172 193 51
169 191 88
172 193 51
165 187 84
168 190 76
167 188 72
166 188 67
170 192 76
167 188 88
162 184 67
167 188 62
168 190 67
163 185 67
170 190 88
167 189 62
170 190 44
161 183 76
170 192 84
170 191 76
161 182 67
169 190 67
170 192 72
164 185 57
161 182 67
169 190 80
164 185 72
169 192 67
168 190 80
166 187 67
167 188 76
165 187 67
165 187 57
172 193 88
171 192 88
162 183 76
166 187 84
169 191 72
167 188 51
159 181 44
167 189 51
167 188 51
158 180 25
161 184 25
162 183 25
164 185 36
167 189 62
159 180 0
161 183 0
159 181 0
164 187 36
162 184 25
167 190 0
168 191 0
165 188 0
163 186 0
166 188 0
166 189 0
166 189 0
160 183 0
159 182 0
162 184 0
161 184 0
161 183 0
158 181 0
163 184 0
158 181 25
156 178 0
160 182 0
158 180 0
150 172 0
154 177 0
157 179 0
157 178 0
158 181 0
156 178 0
151 172 0
155 178 0
155 177 0
147 169 0
156 178 0
153 174 0
153 175 0
153 174 0
166 188 0
151 174 0
151 174 0
151 172 0
158 181 0
159 182 0
153 175 0
153 175 0
153 175 0
158 181 0
152 175 0
154 176 0
160 181 0
158 180 0
156 178 0
150 172 0
155 178 0
159 183 0
155 177 0
158 180 0
155 178 0
150 172 0
156 178 0
152 174 0
152 174 0
150 171 0
162 184 0
144 165 0
154 177 0
154 176 0
156 177 0
153 176 0
160 182 0
152 175 0
157 180 0
152 174 0
158 180 0
157 179 0
154 176 0
158 180 0
156 179 0
159 181 0
161 183 0
154 176 0
152 174 0
158 181 0
163 185 0
163 186 0
156 179 0
157 180 0
157 180 0
148 170 0
153 176 0
161 183 0
156 178 0
159 181 0
156 178 0
159 182 0
156 179 0
160 181 0
154 178 0
156 178 0
158 180 0
158 182 0
166 189 0
159 183 0
153 175 0
159 181 0
161 183 0
162 185 0
154 176 0
159 182 0
157 179 0
157 180 0
155 178 0
159 182 0
164 186 0
162 185 0
159 181 0
163 186 0
163 186 0
160 182 0
157 180 0
163 186 0
162 183 0
162 185 0
165 187 0
158 181 0
157 180 0
159 182 0
163 186 0
163 186 0
157 180 0
164 186 0
159 182 0
155 178 0
168 191 0
161 184 0
160 182 0
164 187 0
157 180 0
165 189 0
160 182 0
160 183 0
159 180 0
165 187 0
161 186 0
163 186 0
158 180 0
163 185 0
163 186 0
159 183 0
161 184 0
164 187 0
160 183 0
165 187 0
158 179 0
160 184 0
161 183 0
169 191 0
163 185 0
164 185 0
164 186 0
165 189 0
165 187 0
163 185 0
164 186 0
162 185 0
162 186 0
165 189 0
167 189 0
167 190 0
167 190 0
162 186 0
164 187 0
165 187 0
165 188 0
165 188 0
168 191 0
165 189 0
163 186 0
165 187 0
165 187 0
167 188 0
166 188 0
164 187 0
171 193 0
165 190 0
163 186 0
166 189 0
169 191 0
164 188 0
166 190 0
164 185 0
165 188 0
164 186 0
167 190 0
168 190 0
166 189 0
163 186 0
165 189 0
167 191 0
169 192 0
168 191 0
166 188 0
167 190 0
170 192 0
168 189 0
164 186 0
167 190 0
168 192 0
169 191 0
165 188 0
167 190 0
168 192 0
171 194 0
168 190 0
169 191 0
170 193 0
170 194 0
168 191 0
169 192 0
170 194 0
167 191 0
168 191 0
171 193 0
168 190 0
169 192 0
171 195 0
168 191 0
171 194 0
171 194 0
167 190 0
169 192 0
170 192 0
169 192 0
165 187 0
167 190 0
169 192 0
170 193 0
168 191 0
170 192 0
170 192 0
170 193 0
168 190 0
173 195 0
170 192 0
167 190 0
170 192 0
173 196 0
166 189 0
170 192 0
170 193 0
171 194 0
171 195 0
169 191 0
168 189 0
169 191 0
170 193 0
168 191 0
169 192 0
171 194 0
173 195 0
167 191 0
168 191 0
168 192 0
171 195 0
170 192 0
168 190 0
171 194 0
171 194 0
169 191 0
170 193 0
169 193 0
171 193 0
