P3
400 225
255
217 233 255
217 233 255
217 233 255
217 233 255
217 233 255
217 233 255
217 233 255
217 233 255
217 233 255
217 233 255
217 233 255
217 233 255
217 233 255
217 233 255
217 233 255
217 233 255
217 233 255
217 233 255
217 233 255
217 233 255
217 233 255
217 233 255
217 233 255
217 233 255
217 233 255
217 233 255
217 233 255
217 233 255
217 233 255
217 233 255
217 233 255
217 233 255
217 233 255
217 233 255
217 233 255
217 233 255
217 233 255
217 233 255
217 233 255
217 233 255
217 233 255
217 233 255
217 233 255
217 233 255
217 233 255
217 233 255
217 233 255
217 233 255
217 233 255
217 233 255
217 233 255
217 233 255
217 233 255
217 233 255
217 233 255
217 233 255
217 233 255
217 233 255
217 233 255
217 233 255
217 233 255
217 233 255
216 233 255
216 233 255
216 233 255
216 233 255
216 233 255
216 233 255
216 233 255
216 233 255
216 233 255
216 233 255
216 233 255
216 233 255
216 233 255
216 233 255
216 233 255
216 233 255
216 233 255
216 233 255
216 233 255
216 233 255
216 233 255
216 233 255
216 233 255
216 233 255
216 233 255
216 233 255
216 233 255
216 233 255
216 233 255
216 233 255
216 233 255
216 233 255
216 233 255
216 233 255
216 233 255
216 233 255
216 233 255
216 233 255
216 233 255
216 233 255
216 233 255
216 233 255
216 233 255
216 233 255
216 233 255
216 233 255
216 232 255
216 232 255
216 232 255
216 232 255
216 232 255
216 232 255
216 232 255
216 232 255
216 232 255
216 232 255
216 232 255
216 232 255
216 232 255
216 232 255
216 232 255
216 232 255
216 232 255
216 232 255
216 232 255
216 232 255
216 232 255
215 232 255
215 232 255
215 232 255
215 232 255
215 232 255
215 232 255
215 232 255
215 232 255
215 232 255
215 232 255
215 232 255
215 232 255
215 232 255
215 232 255
215 232 255
215 232 255
215 232 255
215 232 255
215 232 255
215 232 255
215 232 255
215 232 255
215 232 255
215 232 255
215 232 255
215 232 255
215 232 255
215 232 255
215 232 255
215 232 255
215 232 255
215 232 255
215 232 255
215 232 255
215 232 255
215 232 255
215 232 255
215 232 255
215 232 255
215 232 255
215 232 255
215 232 255
215 232 255
215 232 255
215 232 255
215 232 255
215 232 255
215 232 255
215 232 255
215 232 255
215 232 255
215 232 255
215 232 255
215 232 255
215 232 255
215 232 255
215 232 255
215 232 255
215 232 255
215 232 255
215 232 255
215 232 255
215 232 255
215 232 255
215 232 255
215 232 255
215 232 255
215 232 255
215 232 255
215 232 255
215 232 255
215 232 255
215 232 255
215 232 255
215 232 255
215 232 255
215 232 255
215 232 255
215 232 255
215 232 255
215 232 255
215 232 255
215 232 255
215 232 255
215 232 255
215 232 255
215 232 255
215 232 255
215 232 255
215 232 255
215 232 255
215 232 255
215 232 255
215 232 255
215 232 255
215 232 255
215 232 255
215 232 255
215 232 255
215 232 255
215 232 255
215 232 255
215 232 255
215 232 255
215 232 255
215 232 255
215 232 255
215 232 255
215 232 255
215 232 255
215 232 255
215 232 255
215 232 255
215 232 255
215 232 255
215 232 255
215 232 255
215 232 255
215 232 255
215 232 255
215 232 255
215 232 255
215 232 255
215 232 255
215 232 255
215 232 255
215 232 255
215 232 255
215 232 255
215 232 255
215 232 255
215 232 255
215 232 255
215 232 255
215 232 255
215 232 255
215 232 255
215 232 255
215 232 255
215 232 255
215 232 255
215 232 255
215 232 255
216 232 255
216 232 255
216 232 255
216 232 255
216 232 255
216 232 255
216 232 255
216 232 255
216 232 255
216 232 255
216 232 255
216 232 255
216 232 255
216 232 255
216 232 255
216 232 255
216 232 255
216 232 255
216 232 255
216 232 255
216 232 255
216 233 255
216 233 255
216 233 255
216 233 255
216 233 255
216 233 255
216 233 255
216 233 255
216 233 255
216 233 255
216 233 255
216 233 255
216 233 255
216 233 255
216 233 255
216 233 255
216 233 255
216 233 255
216 233 255
216 233 255
216 233 255
216 233 255
216 233 255
216 233 255
216 233 255
216 233 255
216 233 255
216 233 255
216 233 255
216 233 255
216 233 255
216 233 255
216 233 255
216 233 255
216 233 255
216 233 255
216 233 255
216 233 255
216 233 255
216 233 255
216 233 255
216 233 255
216 233 255
216 233 255
216 233 255
217 233 255
217 233 255
217 233 255
217 233 255
217 233 255
217 233 255
217 233 255
217 233 255
217 233 255
217 233 255
217 233 255
217 233 255
217 233 255
217 233 255
217 233 255
217 233 255
217 233 255
217 233 255
217 233 255
217 233 255
217 233 255
217 233 255
217 233 255
217 233 255
217 233 255
217 233 255
217 233 255
217 233 255
217 233 255
217 233 255
217 233 255
217 233 255
217 233 255
217 233 255
217 233 255
217 233 255
217 233 255
217 233 255
217 233 255
217 233 255
217 233 255
217 233 255
217 233 255
217 233 255
217 233 255
217 233 255
217 233 255
217 233 255
217 233 255
217 233 255
217 233 255
217 233 255
217 233 255
217 233 255
217 233 255
217 233 255
217 233 255
217 233 255
217 233 255
217 233 255
217 233 255
217 233 255
217 233 255
217 233 255
217 233 255
217 233 255
217 233 255
217 233 255
217 233 255
217 233 255
217 233 255
217 233 255
217 233 255
217 233 255
217 233 255
217 233 255
217 233 255
217 233 255
217 233 255
217 233 255
217 233 255
217 233 255
217 233 255
217 233 255
217 233 255
217 233 255
217 233 255
217 233 255
217 233 255
217 233 255
217 233 255
217 233 255
217 233 255
217 233 255
217 233 255
217 233 255
217 233 255
217 233 255
217 233 255
217 233 255
217 233 255
217 233 255
217 233 255
217 233 255
217 233 255
217 233 255
217 233 255
217 233 255
217 233 255
217 233 255
217 233 255
217 233 255
217 233 255
217 233 255
217 233 255
217 233 255
217 233 255
217 233 255
217 233 255
217 233 255
217 233 255
217 233 255
217 233 255
217 233 255
217 233 255
217 233 255
217 233 255
217 233 255
217 233 255
217 233 255
217 233 255
217 233 255
217 233 255
216 233 255
216 233 255
216 233 255
216 233 255
216 233 255
216 233 255
216 233 255
216 233 255
216 233 255
216 233 255
216 233 255
216 233 255
216 233 255
216 233 255
216 233 255
216 233 255
216 233 255
216 233 255
216 233 255
216 233 255
216 233 255
216 233 255
216 233 255
216 233 255
216 233 255
216 233 255
216 233 255
216 233 255
216 233 255
216 233 255
216 233 255
216 233 255
216 233 255
216 233 255
216 233 255
216 233 255
216 233 255
216 233 255
216 233 255
216 233 255
216 233 255
216 233 255
216 233 255
216 233 255
216 233 255
216 233 255
216 233 255
216 232 255
216 232 255
216 232 255
216 232 255
216 232 255
216 232 255
216 232 255
216 232 255
216 232 255
216 232 255
216 232 255
216 232 255
216 232 255
216 232 255
216 232 255
216 232 255
216 232 255
216 232 255
216 232 255
216 232 255
216 232 255
216 232 255
216 232 255
215 232 255
215 232 255
215 232 255
215 232 255
215 232 255
215 232 255
215 232 255
215 232 255
215 232 255
215 232 255
215 232 255
215 232 255
215 232 255
215 232 255
215 232 255
215 232 255
215 232 255
215 232 255
215 232 255
215 232 255
215 232 255
215 232 255
215 232 255
215 232 255
215 232 255
215 232 255
215 232 255
215 232 255
215 232 255
215 232 255
215 232 255
215 232 255
215 232 255
215 232 255
215 232 255
215 232 255
215 232 255
215 232 255
215 232 255
215 232 255
215 232 255
215 232 255
215 232 255
215 232 255
215 232 255
215 232 255
215 232 255
215 232 255
215 232 255
215 232 255
215 232 255
215 232 255
215 232 255
215 232 255
215 232 255
215 232 255
215 232 255
215 232 255
215 232 255
215 232 255
215 232 255
215 232 255
215 232 255
215 232 255
215 232 255
215 232 255
215 232 255
215 232 255
215 232 255
215 232 255
215 232 255
215 232 255
215 232 255
215 232 255
215 232 255
215 232 255
215 232 255
215 232 255
215 232 255
215 232 255
215 232 255
215 232 255
215 232 255
215 232 255
215 232 255
215 232 255
215 232 255
215 232 255
215 232 255
215 232 255
215 232 255
215 232 255
215 232 255
215 232 255
215 232 255
215 232 255
215 232 255
215 232 255
215 232 255
215 232 255
215 232 255
215 232 255
215 232 255
215 232 255
215 232 255
215 232 255
215 232 255
215 232 255
215 232 255
215 232 255
215 232 255
215 232 255
215 232 255
215 232 255
215 232 255
215 232 255
215 232 255
216 232 255
216 232 255
216 232 255
216 232 255
216 232 255
216 232 255
216 232 255
216 232 255
216 232 255
216 232 255
216 232 255
216 232 255
216 232 255
216 232 255
216 232 255
216 232 255
216 232 255
216 232 255
216 232 255
216 232 255
216 232 255
216 232 255
216 232 255
216 232 255
216 233 255
216 233 255
216 233 255
216 233 255
216 233 255
216 233 255
216 233 255
216 233 255
216 233 255
216 233 255
216 233 255
216 233 255
216 233 255
216 233 255
216 233 255
216 233 255
216 233 255
216 233 255
216 233 255
216 233 255
216 233 255
216 233 255
216 233 255
216 233 255
216 233 255
216 233 255
216 233 255
216 233 255
216 233 255
216 233 255
216 233 255
216 233 255
216 233 255
216 233 255
216 233 255
216 233 255
216 233 255
216 233 255
216 233 255
216 233 255
216 233 255
216 233 255
216 233 255
216 233 255
216 233 255
216 233 255
216 233 255
217 233 255
217 233 255
217 233 255
217 233 255
217 233 255
217 233 255
217 233 255
217 233 255
217 233 255
217 233 255
217 233 255
217 233 255
217 233 255
217 233 255
217 233 255
217 233 255
217 233 255
217 233 255
217 233 255
217 233 255
217 233 255
217 233 255
217 233 255
217 233 255
217 233 255
217 233 255
217 233 255
217 233 255
217 233 255
217 233 255
217 233 255
217 233 255
217 233 255
217 233 255
217 233 255
217 233 255
217 233 255
217 233 255
217 233 255
217 233 255
217 233 255
217 233 255
217 233 255
217 233 255
217 233 255
217 233 255
217 233 255
217 233 255
217 233 255
217 233 255
217 233 255
217 233 255
217 233 255
217 233 255
217 233 255
217 233 255
217 233 255
217 233 255
217 233 255
217 233 255
217 233 255
217 233 255
217 233 255
217 233 255
217 233 255
217 233 255
217 233 255
217 233 255
217 233 255
217 233 255
217 233 255
218 233 255
218 233 255
218 233 255
218 233 255
218 233 255
217 233 255
217 233 255
217 233 255
217 233 255
217 233 255
217 233 255
217 233 255
217 233 255
217 233 255
217 233 255
217 233 255
217 233 255
217 233 255
217 233 255
217 233 255
217 233 255
217 233 255
217 233 255
217 233 255
217 233 255
217 233 255
217 233 255
217 233 255
217 233 255
217 233 255
217 233 255
217 233 255
217 233 255
217 233 255
217 233 255
217 233 255
217 233 255
217 233 255
217 233 255
217 233 255
217 233 255
217 233 255
217 233 255
217 233 255
217 233 255
217 233 255
217 233 255
217 233 255
217 233 255
217 233 255
217 233 255
217 233 255
217 233 255
217 233 255
217 233 255
217 233 255
217 233 255
217 233 255
217 233 255
217 233 255
217 233 255
217 233 255
217 233 255
217 233 255
217 233 255
217 233 255
217 233 255
217 233 255
217 233 255
217 233 255
217 233 255
217 233 255
217 233 255
217 233 255
217 233 255
217 233 255
217 233 255
217 233 255
217 233 255
217 233 255
217 233 255
216 233 255
216 233 255
216 233 255
216 233 255
216 233 255
216 233 255
216 233 255
216 233 255
216 233 255
216 233 255
216 233 255
216 233 255
216 233 255
216 233 255
216 233 255
216 233 255
216 233 255
216 233 255
216 233 255
216 233 255
216 233 255
216 233 255
216 233 255
216 233 255
216 233 255
216 233 255
216 233 255
216 233 255
216 233 255
216 233 255
216 233 255
216 233 255
216 233 255
216 233 255
216 233 255
216 233 255
216 233 255
216 233 255
216 233 255
216 233 255
216 233 255
216 233 255
216 233 255
216 233 255
216 233 255
216 233 255
216 233 255
216 233 255
216 232 255
216 232 255
216 232 255
216 232 255
216 232 255
216 232 255
216 232 255
216 232 255
216 232 255
216 232 255
216 232 255
216 232 255
216 232 255
216 232 255
216 232 255
216 232 255
216 232 255
216 232 255
216 232 255
216 232 255
216 232 255
216 232 255
216 232 255
216 232 255
216 232 255
216 232 255
216 232 255
215 232 255
215 232 255
215 232 255
215 232 255
215 232 255
215 232 255
215 232 255
215 232 255
215 232 255
215 232 255
215 232 255
215 232 255
215 232 255
215 232 255
215 232 255
215 232 255
215 232 255
215 232 255
215 232 255
215 232 255
215 232 255
215 232 255
215 232 255
215 232 255
215 232 255
215 232 255
215 232 255
215 232 255
215 232 255
215 232 255
215 232 255
215 232 255
215 232 255
215 232 255
215 232 255
215 232 255
215 232 255
215 232 255
215 232 255
215 232 255
215 232 255
215 232 255
215 232 255
215 232 255
215 232 255
215 232 255
215 232 255
215 232 255
215 232 255
215 232 255
215 232 255
215 232 255
215 232 255
215 232 255
215 232 255
215 232 255
215 232 255
215 232 255
215 232 255
215 232 255
215 232 255
215 232 255
215 232 255
215 232 255
215 232 255
215 232 255
215 232 255
215 232 255
215 232 255
215 232 255
215 232 255
215 232 255
215 232 255
215 232 255
215 232 255
215 232 255
215 232 255
215 232 255
215 232 255
215 232 255
215 232 255
215 232 255
215 232 255
215 232 255
215 232 255
215 232 255
215 232 255
216 232 255
216 232 255
216 232 255
216 232 255
216 232 255
216 232 255
216 232 255
216 232 255
216 232 255
216 232 255
216 232 255
216 232 255
216 232 255
216 232 255
216 232 255
216 232 255
216 232 255
216 232 255
216 232 255
216 232 255
216 232 255
216 232 255
216 232 255
216 232 255
216 232 255
216 232 255
216 232 255
216 232 255
216 233 255
216 233 255
216 233 255
216 233 255
216 233 255
216 233 255
216 233 255
216 233 255
216 233 255
216 233 255
216 233 255
216 233 255
216 233 255
216 233 255
216 233 255
216 233 255
216 233 255
216 233 255
216 233 255
216 233 255
216 233 255
216 233 255
216 233 255
216 233 255
216 233 255
216 233 255
216 233 255
216 233 255
216 233 255
216 233 255
216 233 255
216 233 255
216 233 255
216 233 255
216 233 255
216 233 255
216 233 255
216 233 255
216 233 255
216 233 255
216 233 255
216 233 255
216 233 255
216 233 255
216 233 255
216 233 255
216 233 255
216 233 255
217 233 255
217 233 255
217 233 255
217 233 255
217 233 255
217 233 255
217 233 255
217 233 255
217 233 255
217 233 255
217 233 255
217 233 255
217 233 255
217 233 255
217 233 255
217 233 255
217 233 255
217 233 255
217 233 255
217 233 255
217 233 255
217 233 255
217 233 255
217 233 255
217 233 255
217 233 255
217 233 255
217 233 255
217 233 255
217 233 255
217 233 255
217 233 255
217 233 255
217 233 255
217 233 255
217 233 255
217 233 255
217 233 255
217 233 255
217 233 255
217 233 255
217 233 255
217 233 255
217 233 255
217 233 255
217 233 255
217 233 255
217 233 255
217 233 255
217 233 255
217 233 255
217 233 255
217 233 255
217 233 255
217 233 255
217 233 255
217 233 255
217 233 255
217 233 255
217 233 255
217 233 255
217 233 255
217 233 255
217 233 255
217 233 255
217 233 255
217 233 255
217 233 255
217 233 255
217 233 255
217 233 255
217 233 255
217 233 255
217 233 255
217 233 255
217 233 255
218 233 255
218 233 255
218 233 255
218 233 255
218 233 255
218 234 255
218 234 255
218 234 255
218 234 255
218 234 255
218 234 255
218 234 255
218 233 255
218 233 255
218 233 255
218 233 255
218 233 255
218 233 255
218 233 255
218 233 255
218 233 255
217 233 255
217 233 255
217 233 255
217 233 255
217 233 255
217 233 255
217 233 255
217 233 255
217 233 255
217 233 255
217 233 255
217 233 255
217 233 255
217 233 255
217 233 255
217 233 255
217 233 255
217 233 255
217 233 255
217 233 255
217 233 255
217 233 255
217 233 255
217 233 255
217 233 255
217 233 255
217 233 255
217 233 255
217 233 255
217 233 255
217 233 255
217 233 255
217 233 255
217 233 255
217 233 255
217 233 255
217 233 255
217 233 255
217 233 255
217 233 255
217 233 255
217 233 255
217 233 255
217 233 255
217 233 255
217 233 255
217 233 255
217 233 255
217 233 255
217 233 255
217 233 255
217 233 255
217 233 255
217 233 255
217 233 255
217 233 255
217 233 255
217 233 255
217 233 255
217 233 255
217 233 255
217 233 255
217 233 255
217 233 255
217 233 255
217 233 255
217 233 255
217 233 255
217 233 255
217 233 255
217 233 255
217 233 255
217 233 255
217 233 255
217 233 255
216 233 255
216 233 255
216 233 255
216 233 255
216 233 255
216 233 255
216 233 255
216 233 255
216 233 255
216 233 255
216 233 255
216 233 255
216 233 255
216 233 255
216 233 255
216 233 255
216 233 255
216 233 255
216 233 255
216 233 255
216 233 255
216 233 255
216 233 255
216 233 255
216 233 255
216 233 255
216 233 255
216 233 255
216 233 255
216 233 255
216 233 255
216 233 255
216 233 255
216 233 255
216 233 255
216 233 255
216 233 255
216 233 255
216 233 255
216 233 255
216 233 255
216 233 255
216 233 255
216 233 255
216 233 255
216 233 255
216 233 255
216 233 255
216 233 255
216 233 255
216 233 255
216 232 255
216 232 255
216 232 255
216 232 255
216 232 255
216 232 255
216 232 255
216 232 255
216 232 255
216 232 255
216 232 255
216 232 255
216 232 255
216 232 255
216 232 255
216 232 255
216 232 255
216 232 255
216 232 255
216 232 255
216 232 255
216 232 255
216 232 255
216 232 255
216 232 255
216 232 255
216 232 255
216 232 255
216 232 255
216 232 255
216 232 255
216 232 255
216 232 255
216 232 255
216 232 255
216 232 255
216 232 255
216 232 255
216 232 255
215 232 255
215 232 255
215 232 255
215 232 255
215 232 255
215 232 255
215 232 255
215 232 255
215 232 255
215 232 255
215 232 255
215 232 255
215 232 255
215 232 255
215 232 255
215 232 255
215 232 255
215 232 255
215 232 255
215 232 255
215 232 255
215 232 255
215 232 255
215 232 255
215 232 255
215 232 255
215 232 255
215 232 255
215 232 255
215 232 255
215 232 255
215 232 255
215 232 255
215 232 255
215 232 255
215 232 255
215 232 255
215 232 255
215 232 255
216 232 255
216 232 255
216 232 255
216 232 255
216 232 255
216 232 255
216 232 255
216 232 255
216 232 255
216 232 255
216 232 255
216 232 255
216 232 255
216 232 255
216 232 255
216 232 255
216 232 255
216 232 255
216 232 255
216 232 255
216 232 255
216 232 255
216 232 255
216 232 255
216 232 255
216 232 255
216 232 255
216 232 255
216 232 255
216 232 255
216 232 255
216 232 255
216 232 255
216 232 255
216 232 255
216 232 255
216 232 255
216 232 255
216 233 255
216 233 255
216 233 255
216 233 255
216 233 255
216 233 255
216 233 255
216 233 255
216 233 255
216 233 255
216 233 255
216 233 255
216 233 255
216 233 255
216 233 255
216 233 255
216 233 255
216 233 255
216 233 255
216 233 255
216 233 255
216 233 255
216 233 255
216 233 255
216 233 255
216 233 255
216 233 255
216 233 255
216 233 255
216 233 255
216 233 255
216 233 255
216 233 255
216 233 255
216 233 255
216 233 255
216 233 255
216 233 255
216 233 255
216 233 255
216 233 255
216 233 255
216 233 255
216 233 255
216 233 255
216 233 255
216 233 255
216 233 255
216 233 255
216 233 255
216 233 255
217 233 255
217 233 255
217 233 255
217 233 255
217 233 255
217 233 255
217 233 255
217 233 255
217 233 255
217 233 255
217 233 255
217 233 255
217 233 255
217 233 255
217 233 255
217 233 255
217 233 255
217 233 255
217 233 255
217 233 255
217 233 255
217 233 255
217 233 255
217 233 255
217 233 255
217 233 255
217 233 255
217 233 255
217 233 255
217 233 255
217 233 255
217 233 255
217 233 255
217 233 255
217 233 255
217 233 255
217 233 255
217 233 255
217 233 255
217 233 255
217 233 255
217 233 255
217 233 255
217 233 255
217 233 255
217 233 255
217 233 255
217 233 255
217 233 255
217 233 255
217 233 255
217 233 255
217 233 255
217 233 255
217 233 255
217 233 255
217 233 255
217 233 255
217 233 255
217 233 255
217 233 255
217 233 255
217 233 255
217 233 255
217 233 255
217 233 255
217 233 255
217 233 255
217 233 255
217 233 255
217 233 255
217 233 255
217 233 255
217 233 255
217 233 255
217 233 255
218 233 255
218 233 255
218 233 255
218 233 255
218 233 255
218 233 255
218 233 255
218 233 255
218 233 255
218 234 255
218 234 255
218 234 255
218 234 255
218 234 255
218 234 255
218 234 255
218 234 255
218 234 255
218 234 255
218 234 255
218 234 255
218 234 255
218 234 255
218 234 255
218 234 255
218 234 255
218 234 255
218 234 255
218 234 255
218 234 255
218 234 255
218 234 255
218 233 255
218 233 255
218 233 255
218 233 255
218 233 255
218 233 255
218 233 255
218 233 255
218 233 255
217 233 255
217 233 255
217 233 255
217 233 255
217 233 255
217 233 255
217 233 255
217 233 255
217 233 255
217 233 255
217 233 255
217 233 255
217 233 255
217 233 255
217 233 255
217 233 255
217 233 255
217 233 255
217 233 255
217 233 255
217 233 255
217 233 255
217 233 255
217 233 255
217 233 255
217 233 255
217 233 255
217 233 255
217 233 255
217 233 255
217 233 255
217 233 255
217 233 255
217 233 255
217 233 255
217 233 255
217 233 255
217 233 255
217 233 255
217 233 255
217 233 255
217 233 255
217 233 255
217 233 255
217 233 255
217 233 255
217 233 255
217 233 255
217 233 255
217 233 255
217 233 255
217 233 255
217 233 255
217 233 255
217 233 255
217 233 255
217 233 255
217 233 255
217 233 255
217 233 255
217 233 255
217 233 255
217 233 255
217 233 255
217 233 255
217 233 255
217 233 255
217 233 255
217 233 255
217 233 255
217 233 255
217 233 255
217 233 255
217 233 255
217 233 255
217 233 255
216 233 255
216 233 255
216 233 255
216 233 255
216 233 255
216 233 255
216 233 255
216 233 255
216 233 255
216 233 255
216 233 255
216 233 255
216 233 255
216 233 255
216 233 255
216 233 255
216 233 255
216 233 255
216 233 255
216 233 255
216 233 255
216 233 255
216 233 255
216 233 255
216 233 255
216 233 255
216 233 255
216 233 255
216 233 255
216 233 255
216 233 255
216 233 255
216 233 255
216 233 255
216 233 255
216 233 255
216 233 255
216 233 255
216 233 255
216 233 255
216 233 255
216 233 255
216 233 255
216 233 255
216 233 255
216 233 255
216 233 255
216 233 255
216 233 255
216 233 255
216 233 255
216 233 255
216 233 255
216 233 255
216 233 255
216 233 255
216 233 255
216 232 255
216 232 255
216 232 255
216 232 255
216 232 255
216 232 255
216 232 255
216 232 255
216 232 255
216 232 255
216 232 255
216 232 255
216 232 255
216 232 255
216 232 255
216 232 255
216 232 255
216 232 255
216 232 255
216 232 255
216 232 255
216 232 255
216 232 255
216 232 255
216 232 255
216 232 255
216 232 255
216 232 255
216 232 255
216 232 255
216 232 255
216 232 255
216 232 255
216 232 255
216 232 255
216 232 255
216 232 255
216 232 255
216 232 255
216 232 255
216 232 255
216 232 255
216 232 255
216 232 255
216 232 255
216 232 255
216 232 255
216 232 255
216 232 255
216 232 255
216 232 255
216 232 255
216 232 255
216 232 255
216 232 255
216 232 255
216 232 255
216 232 255
216 232 255
216 232 255
216 232 255
216 232 255
216 232 255
216 232 255
216 232 255
216 232 255
216 232 255
216 232 255
216 232 255
216 232 255
216 232 255
216 232 255
216 232 255
216 232 255
216 232 255
216 232 255
216 232 255
216 232 255
216 232 255
216 232 255
216 232 255
216 233 255
216 233 255
216 233 255
216 233 255
216 233 255
216 233 255
216 233 255
216 233 255
216 233 255
216 233 255
216 233 255
216 233 255
216 233 255
216 233 255
216 233 255
216 233 255
216 233 255
216 233 255
216 233 255
216 233 255
216 233 255
216 233 255
216 233 255
216 233 255
216 233 255
216 233 255
216 233 255
216 233 255
216 233 255
216 233 255
216 233 255
216 233 255
216 233 255
216 233 255
216 233 255
216 233 255
216 233 255
216 233 255
216 233 255
216 233 255
216 233 255
216 233 255
216 233 255
216 233 255
216 233 255
216 233 255
216 233 255
216 233 255
216 233 255
216 233 255
216 233 255
216 233 255
216 233 255
216 233 255
216 233 255
216 233 255
216 233 255
216 233 255
216 233 255
217 233 255
217 233 255
217 233 255
217 233 255
217 233 255
217 233 255
217 233 255
217 233 255
217 233 255
217 233 255
217 233 255
217 233 255
217 233 255
217 233 255
217 233 255
217 233 255
217 233 255
217 233 255
217 233 255
217 233 255
217 233 255
217 233 255
217 233 255
217 233 255
217 233 255
217 233 255
217 233 255
217 233 255
217 233 255
217 233 255
217 233 255
217 233 255
217 233 255
217 233 255
217 233 255
217 233 255
217 233 255
217 233 255
217 233 255
217 233 255
217 233 255
217 233 255
217 233 255
217 233 255
217 233 255
217 233 255
217 233 255
217 233 255
217 233 255
217 233 255
217 233 255
217 233 255
217 233 255
217 233 255
217 233 255
217 233 255
217 233 255
217 233 255
217 233 255
217 233 255
217 233 255
217 233 255
217 233 255
217 233 255
217 233 255
217 233 255
217 233 255
217 233 255
217 233 255
217 233 255
217 233 255
217 233 255
217 233 255
217 233 255
217 233 255
217 233 255
218 233 255
218 233 255
218 233 255
218 233 255
218 233 255
218 233 255
218 233 255
218 233 255
218 234 255
218 234 255
218 234 255
218 234 255
218 234 255
218 234 255
218 234 255
218 234 255
218 234 255
218 234 255
218 234 255
218 234 255
218 234 255
218 234 255
218 234 255
218 234 255
218 234 255
218 234 255
218 234 255
218 234 255
218 234 255
218 234 255
218 234 255
218 234 255
218 234 255
218 234 255
218 234 255
218 234 255
218 234 255
218 234 255
218 234 255
218 234 255
218 234 255
218 234 255
218 234 255
218 234 255
218 234 255
218 234 255
218 234 255
218 234 255
218 234 255
218 234 255
218 234 255
218 234 255
218 234 255
218 233 255
218 233 255
218 233 255
218 233 255
218 233 255
218 233 255
218 233 255
218 233 255
217 233 255
217 233 255
217 233 255
217 233 255
217 233 255
217 233 255
217 233 255
217 233 255
217 233 255
217 233 255
217 233 255
217 233 255
217 233 255
217 233 255
217 233 255
217 233 255
217 233 255
217 233 255
217 233 255
217 233 255
217 233 255
217 233 255
217 233 255
217 233 255
217 233 255
217 233 255
217 233 255
217 233 255
217 233 255
217 233 255
217 233 255
217 233 255
217 233 255
217 233 255
217 233 255
217 233 255
217 233 255
217 233 255
217 233 255
217 233 255
217 233 255
217 233 255
217 233 255
217 233 255
217 233 255
217 233 255
217 233 255
217 233 255
217 233 255
217 233 255
217 233 255
217 233 255
217 233 255
217 233 255
217 233 255
217 233 255
217 233 255
217 233 255
217 233 255
217 233 255
217 233 255
217 233 255
217 233 255
217 233 255
217 233 255
217 233 255
217 233 255
217 233 255
217 233 255
217 233 255
217 233 255
217 233 255
217 233 255
217 233 255
217 233 255
217 233 255
217 233 255
216 233 255
216 233 255
216 233 255
216 233 255
216 233 255
216 233 255
216 233 255
216 233 255
216 233 255
216 233 255
216 233 255
216 233 255
216 233 255
216 233 255
216 233 255
216 233 255
216 233 255
216 233 255
216 233 255
216 233 255
216 233 255
216 233 255
216 233 255
216 233 255
216 233 255
216 233 255
216 233 255
216 233 255
216 233 255
216 233 255
216 233 255
216 233 255
216 233 255
216 233 255
216 233 255
216 233 255
216 233 255
216 233 255
216 233 255
216 233 255
216 233 255
216 233 255
216 233 255
216 233 255
216 233 255
216 233 255
216 233 255
216 233 255
216 233 255
216 233 255
216 233 255
216 233 255
216 233 255
216 233 255
216 233 255
216 233 255
216 233 255
216 233 255
216 233 255
216 233 255
216 233 255
216 233 255
216 233 255
216 233 255
216 233 255
216 233 255
216 233 255
216 233 255
216 233 255
216 233 255
216 233 255
216 233 255
216 233 255
216 233 255
216 233 255
216 233 255
216 233 255
216 233 255
216 232 255
216 232 255
216 232 255
216 233 255
216 232 255
216 232 255
216 232 255
216 232 255
216 232 255
216 232 255
216 232 255
216 232 255
216 232 255
216 232 255
216 232 255
216 233 255
216 233 255
216 233 255
216 232 255
216 233 255
216 233 255
216 233 255
216 233 255
216 233 255
216 233 255
216 233 255
216 233 255
216 233 255
216 233 255
216 233 255
216 233 255
216 233 255
216 233 255
216 233 255
216 233 255
216 233 255
216 233 255
216 233 255
216 233 255
216 233 255
216 233 255
216 233 255
216 233 255
216 233 255
216 233 255
216 233 255
216 233 255
216 233 255
216 233 255
216 233 255
216 233 255
216 233 255
216 233 255
216 233 255
216 233 255
216 233 255
216 233 255
216 233 255
216 233 255
216 233 255
216 233 255
216 233 255
216 233 255
216 233 255
216 233 255
216 233 255
216 233 255
216 233 255
216 233 255
216 233 255
216 233 255
216 233 255
216 233 255
216 233 255
216 233 255
216 233 255
216 233 255
216 233 255
216 233 255
216 233 255
216 233 255
216 233 255
216 233 255
216 233 255
216 233 255
216 233 255
216 233 255
216 233 255
216 233 255
216 233 255
216 233 255
216 233 255
216 233 255
216 233 255
216 233 255
216 233 255
217 233 255
217 233 255
217 233 255
217 233 255
217 233 255
217 233 255
217 233 255
217 233 255
217 233 255
217 233 255
217 233 255
217 233 255
217 233 255
217 233 255
217 233 255
217 233 255
217 233 255
217 233 255
217 233 255
217 233 255
217 233 255
217 233 255
217 233 255
217 233 255
217 233 255
217 233 255
217 233 255
217 233 255
217 233 255
217 233 255
217 233 255
217 233 255
217 233 255
217 233 255
217 233 255
217 233 255
217 233 255
217 233 255
217 233 255
217 233 255
217 233 255
217 233 255
217 233 255
217 233 255
217 233 255
217 233 255
217 233 255
217 233 255
217 233 255
217 233 255
217 233 255
217 233 255
217 233 255
217 233 255
217 233 255
217 233 255
217 233 255
217 233 255
217 233 255
217 233 255
217 233 255
217 233 255
217 233 255
217 233 255
217 233 255
217 233 255
217 233 255
217 233 255
217 233 255
217 233 255
217 233 255
217 233 255
217 233 255
217 233 255
217 233 255
217 233 255
218 233 255
218 233 255
218 233 255
218 233 255
218 233 255
218 233 255
218 233 255
218 233 255
218 233 255
218 233 255
218 234 255
218 234 255
218 234 255
218 234 255
218 234 255
218 234 255
218 234 255
218 234 255
218 234 255
218 234 255
218 234 255
218 234 255
218 234 255
218 234 255
218 234 255
218 234 255
218 234 255
218 234 255
218 234 255
218 234 255
218 234 255
218 234 255
218 234 255
218 234 255
218 234 255
218 234 255
218 234 255
218 234 255
218 234 255
218 234 255
218 234 255
218 234 255
218 234 255
218 234 255
218 234 255
218 234 255
218 234 255
218 234 255
218 234 255
218 234 255
218 234 255
218 234 255
218 234 255
218 234 255
218 234 255
218 234 255
218 234 255
218 234 255
218 234 255
218 234 255
218 234 255
218 234 255
218 234 255
218 234 255
218 234 255
218 234 255
218 234 255
218 234 255
218 234 255
218 234 255
218 234 255
218 234 255
218 234 255
218 234 255
218 234 255
218 233 255
218 233 255
218 233 255
218 233 255
218 233 255
218 233 255
218 233 255
218 233 255
218 233 255
217 233 255
217 233 255
217 233 255
217 233 255
217 233 255
217 233 255
217 233 255
217 233 255
217 233 255
217 233 255
217 233 255
217 233 255
217 233 255
217 233 255
217 233 255
217 233 255
217 233 255
217 233 255
217 233 255
217 233 255
217 233 255
217 233 255
217 233 255
217 233 255
217 233 255
217 233 255
217 233 255
217 233 255
217 233 255
217 233 255
217 233 255
217 233 255
217 233 255
217 233 255
217 233 255
217 233 255
217 233 255
217 233 255
217 233 255
217 233 255
217 233 255
217 233 255
217 233 255
217 233 255
217 233 255
217 233 255
217 233 255
217 233 255
217 233 255
217 233 255
217 233 255
217 233 255
217 233 255
217 233 255
217 233 255
217 233 255
217 233 255
217 233 255
217 233 255
217 233 255
217 233 255
217 233 255
217 233 255
217 233 255
217 233 255
217 233 255
217 233 255
217 233 255
217 233 255
217 233 255
217 233 255
217 233 255
217 233 255
217 233 255
217 233 255
217 233 255
217 233 255
217 233 255
217 233 255
216 233 255
216 233 255
216 233 255
216 233 255
216 233 255
216 233 255
216 233 255
216 233 255
216 233 255
216 233 255
216 233 255
216 233 255
216 233 255
216 233 255
216 233 255
216 233 255
216 233 255
216 233 255
216 233 255
216 233 255
216 233 255
216 233 255
216 233 255
216 233 255
216 233 255
216 233 255
216 233 255
216 233 255
216 233 255
216 233 255
216 233 255
216 233 255
216 233 255
216 233 255
216 233 255
216 233 255
216 233 255
216 233 255
216 233 255
216 233 255
216 233 255
216 233 255
216 233 255
216 233 255
216 233 255
216 233 255
216 233 255
216 233 255
216 233 255
216 233 255
216 233 255
216 233 255
216 233 255
216 233 255
216 233 255
216 233 255
216 233 255
216 233 255
216 233 255
216 233 255
216 233 255
216 233 255
216 233 255
216 233 255
216 233 255
216 233 255
216 233 255
216 233 255
216 233 255
216 233 255
216 233 255
216 233 255
216 233 255
216 233 255
216 233 255
216 233 255
216 233 255
216 233 255
216 233 255
216 233 255
216 233 255
216 233 255
216 233 255
216 233 255
216 233 255
216 233 255
216 233 255
216 233 255
216 233 255
216 233 255
216 233 255
216 233 255
216 233 255
216 233 255
216 233 255
216 233 255
216 233 255
216 233 255
216 233 255
216 233 255
216 233 255
216 233 255
216 233 255
216 233 255
216 233 255
216 233 255
216 233 255
216 233 255
216 233 255
216 233 255
216 233 255
216 233 255
216 233 255
216 233 255
216 233 255
216 233 255
216 233 255
216 233 255
216 233 255
216 233 255
216 233 255
216 233 255
216 233 255
216 233 255
216 233 255
216 233 255
216 233 255
216 233 255
216 233 255
216 233 255
216 233 255
216 233 255
216 233 255
216 233 255
216 233 255
216 233 255
216 233 255
216 233 255
216 233 255
216 233 255
216 233 255
216 233 255
216 233 255
216 233 255
216 233 255
216 233 255
216 233 255
216 233 255
216 233 255
217 233 255
217 233 255
217 233 255
217 233 255
217 233 255
217 233 255
217 233 255
217 233 255
217 233 255
217 233 255
217 233 255
217 233 255
217 233 255
217 233 255
217 233 255
217 233 255
217 233 255
217 233 255
217 233 255
217 233 255
217 233 255
217 233 255
217 233 255
217 233 255
217 233 255
217 233 255
217 233 255
217 233 255
217 233 255
217 233 255
217 233 255
217 233 255
217 233 255
217 233 255
217 233 255
217 233 255
217 233 255
217 233 255
217 233 255
217 233 255
217 233 255
217 233 255
217 233 255
217 233 255
217 233 255
217 233 255
217 233 255
217 233 255
217 233 255
217 233 255
217 233 255
217 233 255
217 233 255
217 233 255
217 233 255
217 233 255
217 233 255
217 233 255
217 233 255
217 233 255
217 233 255
217 233 255
217 233 255
217 233 255
217 233 255
217 233 255
217 233 255
217 233 255
217 233 255
217 233 255
217 233 255
217 233 255
217 233 255
217 233 255
217 233 255
217 233 255
217 233 255
218 233 255
218 233 255
218 233 255
218 233 255
218 233 255
218 233 255
218 233 255
218 233 255
218 233 255
218 233 255
218 234 255
218 234 255
218 234 255
218 234 255
218 234 255
218 234 255
218 234 255
218 234 255
218 234 255
218 234 255
218 234 255
218 234 255
218 234 255
218 234 255
218 234 255
218 234 255
218 234 255
218 234 255
218 234 255
218 234 255
218 234 255
218 234 255
218 234 255
218 234 255
218 234 255
218 234 255
218 234 255
218 234 255
218 234 255
218 234 255
218 234 255
218 234 255
218 234 255
218 234 255
218 234 255
218 234 255
218 234 255
218 234 255
218 234 255
218 234 255
218 234 255
218 234 255
218 234 255
218 234 255
218 234 255
218 234 255
218 234 255
218 234 255
218 234 255
218 234 255
218 234 255
218 234 255
218 234 255
218 234 255
218 234 255
218 234 255
218 234 255
218 234 255
218 234 255
218 234 255
218 234 255
218 234 255
218 234 255
218 234 255
218 234 255
218 234 255
218 234 255
218 234 255
218 234 255
218 234 255
218 234 255
218 234 255
218 234 255
218 234 255
218 234 255
218 234 255
218 234 255
218 234 255
218 234 255
218 234 255
218 234 255
218 234 255
218 234 255
218 234 255
218 234 255
218 234 255
218 234 255
218 233 255
218 233 255
218 233 255
218 233 255
218 233 255
218 233 255
218 233 255
218 233 255
218 233 255
217 233 255
217 233 255
217 233 255
217 233 255
217 233 255
217 233 255
217 233 255
217 233 255
217 233 255
217 233 255
217 233 255
217 233 255
217 233 255
217 233 255
217 233 255
217 233 255
217 233 255
217 233 255
217 233 255
217 233 255
217 233 255
217 233 255
217 233 255
217 233 255
217 233 255
217 233 255
217 233 255
217 233 255
217 233 255
217 233 255
217 233 255
217 233 255
217 233 255
217 233 255
217 233 255
217 233 255
217 233 255
217 233 255
217 233 255
217 233 255
217 233 255
217 233 255
217 233 255
217 233 255
217 233 255
217 233 255
217 233 255
217 233 255
217 233 255
217 233 255
217 233 255
217 233 255
217 233 255
217 233 255
217 233 255
217 233 255
217 233 255
217 233 255
217 233 255
217 233 255
217 233 255
217 233 255
217 233 255
217 233 255
217 233 255
217 233 255
217 233 255
217 233 255
217 233 255
217 233 255
217 233 255
217 233 255
217 233 255
217 233 255
217 233 255
217 233 255
217 233 255
217 233 255
217 233 255
217 233 255
217 233 255
217 233 255
217 233 255
216 233 255
216 233 255
216 233 255
216 233 255
216 233 255
216 233 255
216 233 255
216 233 255
216 233 255
216 233 255
216 233 255
216 233 255
216 233 255
216 233 255
216 233 255
216 233 255
216 233 255
216 233 255
216 233 255
216 233 255
216 233 255
216 233 255
216 233 255
216 233 255
216 233 255
216 233 255
216 233 255
216 233 255
216 233 255
216 233 255
216 233 255
216 233 255
216 233 255
216 233 255
216 233 255
216 233 255
216 233 255
216 233 255
216 233 255
216 233 255
216 233 255
216 233 255
216 233 255
216 233 255
216 233 255
216 233 255
216 233 255
216 233 255
216 233 255
216 233 255
216 233 255
216 233 255
216 233 255
216 233 255
216 233 255
216 233 255
216 233 255
216 233 255
216 233 255
216 233 255
216 233 255
216 233 255
216 233 255
216 233 255
216 233 255
216 233 255
216 233 255
216 233 255
216 233 255
216 233 255
216 233 255
216 233 255
216 233 255
216 233 255
216 233 255
216 233 255
216 233 255
216 233 255
216 233 255
216 233 255
216 233 255
216 233 255
216 233 255
216 233 255
216 233 255
216 233 255
216 233 255
216 233 255
216 233 255
216 233 255
216 233 255
216 233 255
216 233 255
216 233 255
216 233 255
216 233 255
216 233 255
216 233 255
216 233 255
216 233 255
216 233 255
216 233 255
216 233 255
216 233 255
216 233 255
216 233 255
216 233 255
216 233 255
216 233 255
216 233 255
216 233 255
216 233 255
216 233 255
216 233 255
216 233 255
216 233 255
216 233 255
216 233 255
217 233 255
217 233 255
217 233 255
217 233 255
217 233 255
217 233 255
217 233 255
217 233 255
217 233 255
217 233 255
217 233 255
217 233 255
217 233 255
217 233 255
217 233 255
217 233 255
217 233 255
217 233 255
217 233 255
217 233 255
217 233 255
217 233 255
217 233 255
217 233 255
217 233 255
217 233 255
217 233 255
217 233 255
217 233 255
217 233 255
217 233 255
217 233 255
217 233 255
217 233 255
217 233 255
217 233 255
217 233 255
217 233 255
217 233 255
217 233 255
217 233 255
217 233 255
217 233 255
217 233 255
217 233 255
217 233 255
217 233 255
217 233 255
217 233 255
217 233 255
217 233 255
217 233 255
217 233 255
217 233 255
217 233 255
217 233 255
217 233 255
217 233 255
217 233 255
217 233 255
217 233 255
217 233 255
217 233 255
217 233 255
217 233 255
217 233 255
217 233 255
217 233 255
217 233 255
217 233 255
217 233 255
217 233 255
217 233 255
217 233 255
217 233 255
217 233 255
217 233 255
217 233 255
217 233 255
217 233 255
217 233 255
217 233 255
218 233 255
218 233 255
218 233 255
218 233 255
218 233 255
218 233 255
218 233 255
218 233 255
218 233 255
218 234 255
218 234 255
218 234 255
218 234 255
218 234 255
218 234 255
218 234 255
218 234 255
218 234 255
218 234 255
218 234 255
218 234 255
218 234 255
218 234 255
218 234 255
218 234 255
218 234 255
218 234 255
218 234 255
218 234 255
218 234 255
218 234 255
218 234 255
218 234 255
218 234 255
218 234 255
218 234 255
218 234 255
218 234 255
218 234 255
218 234 255
218 234 255
218 234 255
218 234 255
218 234 255
218 234 255
218 234 255
218 234 255
218 234 255
218 234 255
218 234 255
218 234 255
218 234 255
218 234 255
218 234 255
218 234 255
218 234 255
218 234 255
218 234 255
218 234 255
218 234 255
218 234 255
218 234 255
218 234 255
218 234 255
218 234 255
218 234 255
218 234 255
218 234 255
218 234 255
218 234 255
218 234 255
218 234 255
218 234 255
218 234 255
218 234 255
218 234 255
218 234 255
218 234 255
218 234 255
218 234 255
218 234 255
218 234 255
218 234 255
218 234 255
218 234 255
218 234 255
218 234 255
218 234 255
218 234 255
218 234 255
218 234 255
218 234 255
218 234 255
218 234 255
218 234 255
218 234 255
218 234 255
218 234 255
218 234 255
218 234 255
218 234 255
218 234 255
218 234 255
218 234 255
218 234 255
218 234 255
218 234 255
218 234 255
218 234 255
218 234 255
218 234 255
218 234 255
218 234 255
218 234 255
218 234 255
218 234 255
218 234 255
218 234 255
218 234 255
218 234 255
218 233 255
218 233 255
218 233 255
218 233 255
218 233 255
218 233 255
218 233 255
218 233 255
218 233 255
217 233 255
217 233 255
217 233 255
217 233 255
217 233 255
217 233 255
217 233 255
217 233 255
217 233 255
217 233 255
217 233 255
217 233 255
217 233 255
217 233 255
217 233 255
217 233 255
217 233 255
217 233 255
217 233 255
217 233 255
217 233 255
217 233 255
217 233 255
217 233 255
217 233 255
217 233 255
217 233 255
217 233 255
217 233 255
217 233 255
217 233 255
217 233 255
217 233 255
217 233 255
217 233 255
217 233 255
217 233 255
217 233 255
217 233 255
217 233 255
217 233 255
217 233 255
217 233 255
217 233 255
217 233 255
217 233 255
217 233 255
217 233 255
217 233 255
217 233 255
217 233 255
217 233 255
217 233 255
217 233 255
217 233 255
217 233 255
217 233 255
217 233 255
217 233 255
217 233 255
217 233 255
217 233 255
217 233 255
217 233 255
217 233 255
217 233 255
217 233 255
217 233 255
217 233 255
217 233 255
217 233 255
217 233 255
217 233 255
217 233 255
217 233 255
217 233 255
217 233 255
217 233 255
217 233 255
217 233 255
217 233 255
217 233 255
217 233 255
217 233 255
217 233 255
217 233 255
217 233 255
217 233 255
216 233 255
216 233 255
216 233 255
216 233 255
216 233 255
216 233 255
216 233 255
216 233 255
216 233 255
216 233 255
216 233 255
216 233 255
216 233 255
216 233 255
216 233 255
216 233 255
216 233 255
216 233 255
216 233 255
216 233 255
216 233 255
216 233 255
216 233 255
216 233 255
216 233 255
216 233 255
216 233 255
216 233 255
216 233 255
216 233 255
216 233 255
216 233 255
216 233 255
216 233 255
216 233 255
216 233 255
216 233 255
216 233 255
216 233 255
216 233 255
216 233 255
216 233 255
216 233 255
216 233 255
216 233 255
216 233 255
216 233 255
216 233 255
216 233 255
216 233 255
216 233 255
216 233 255
216 233 255
216 233 255
216 233 255
216 233 255
216 233 255
216 233 255
216 233 255
216 233 255
216 233 255
216 233 255
216 233 255
216 233 255
216 233 255
216 233 255
216 233 255
216 233 255
216 233 255
216 233 255
216 233 255
216 233 255
216 233 255
216 233 255
216 233 255
216 233 255
216 233 255
216 233 255
216 233 255
216 233 255
216 233 255
216 233 255
216 233 255
216 233 255
217 233 255
217 233 255
217 233 255
217 233 255
217 233 255
217 233 255
217 233 255
217 233 255
217 233 255
217 233 255
217 233 255
217 233 255
217 233 255
217 233 255
217 233 255
217 233 255
217 233 255
217 233 255
217 233 255
217 233 255
217 233 255
217 233 255
217 233 255
217 233 255
217 233 255
217 233 255
217 233 255
217 233 255
217 233 255
217 233 255
217 233 255
217 233 255
217 233 255
217 233 255
217 233 255
217 233 255
217 233 255
217 233 255
217 233 255
217 233 255
217 233 255
217 233 255
217 233 255
217 233 255
217 233 255
217 233 255
217 233 255
217 233 255
217 233 255
217 233 255
217 233 255
217 233 255
217 233 255
217 233 255
217 233 255
217 233 255
217 233 255
217 233 255
217 233 255
217 233 255
217 233 255
217 233 255
217 233 255
217 233 255
217 233 255
217 233 255
217 233 255
217 233 255
217 233 255
217 233 255
217 233 255
217 233 255
217 233 255
217 233 255
217 233 255
217 233 255
217 233 255
217 233 255
217 233 255
217 233 255
217 233 255
217 233 255
217 233 255
217 233 255
217 233 255
217 233 255
217 233 255
217 233 255
218 233 255
218 233 255
218 233 255
218 233 255
218 233 255
218 233 255
218 233 255
218 233 255
218 233 255
218 234 255
218 234 255
218 234 255
218 234 255
218 234 255
218 234 255
218 234 255
218 234 255
218 234 255
218 234 255
218 234 255
218 234 255
218 234 255
218 234 255
218 234 255
218 234 255
218 234 255
218 234 255
218 234 255
218 234 255
218 234 255
218 234 255
218 234 255
218 234 255
218 234 255
218 234 255
218 234 255
218 234 255
218 234 255
218 234 255
218 234 255
218 234 255
218 234 255
218 234 255
218 234 255
218 234 255
218 234 255
218 234 255
218 234 255
218 234 255
218 234 255
218 234 255
218 234 255
218 234 255
218 234 255
218 234 255
218 234 255
218 234 255
218 234 255
218 234 255
218 234 255
218 234 255
218 234 255
218 234 255
218 234 255
218 234 255
218 234 255
218 234 255
218 234 255
218 234 255
218 234 255
218 234 255
218 234 255
218 234 255
218 234 255
218 234 255
218 234 255
218 234 255
218 234 255
218 234 255
218 234 255
218 234 255
218 234 255
218 234 255
218 234 255
218 234 255
218 234 255
218 234 255
218 234 255
218 234 255
218 234 255
218 234 255
218 234 255
218 234 255
218 234 255
218 234 255
218 234 255
218 234 255
218 234 255
218 234 255
218 234 255
218 234 255
218 234 255
218 234 255
218 234 255
218 234 255
218 234 255
218 234 255
218 234 255
218 234 255
218 234 255
218 234 255
218 234 255
218 234 255
218 234 255
218 234 255
218 234 255
218 234 255
218 234 255
218 234 255
218 234 255
218 234 255
218 234 255
218 234 255
218 234 255
218 234 255
218 234 255
218 234 255
218 234 255
218 234 255
218 234 255
218 234 255
218 234 255
218 234 255
218 234 255
218 234 255
218 234 255
218 234 255
218 234 255
218 234 255
218 234 255
218 234 255
218 234 255
218 234 255
218 233 255
218 233 255
218 233 255
218 233 255
218 233 255
218 233 255
218 233 255
218 233 255
218 233 255
218 233 255
217 233 255
217 233 255
217 233 255
217 233 255
217 233 255
217 233 255
217 233 255
217 233 255
217 233 255
217 233 255
217 233 255
217 233 255
217 233 255
217 233 255
217 233 255
217 233 255
217 233 255
217 233 255
217 233 255
217 233 255
217 233 255
217 233 255
217 233 255
217 233 255
217 233 255
217 233 255
217 233 255
217 233 255
217 233 255
217 233 255
217 233 255
217 233 255
217 233 255
217 233 255
217 233 255
217 233 255
217 233 255
217 233 255
217 233 255
217 233 255
217 233 255
217 233 255
217 233 255
217 233 255
217 233 255
217 233 255
217 233 255
217 233 255
217 233 255
217 233 255
217 233 255
217 233 255
217 233 255
217 233 255
217 233 255
217 233 255
217 233 255
217 233 255
217 233 255
217 233 255
217 233 255
217 233 255
217 233 255
217 233 255
217 233 255
217 233 255
217 233 255
217 233 255
217 233 255
217 233 255
217 233 255
217 233 255
217 233 255
217 233 255
217 233 255
217 233 255
217 233 255
217 233 255
217 233 255
217 233 255
217 233 255
217 233 255
217 233 255
217 233 255
217 233 255
217 233 255
217 233 255
217 233 255
217 233 255
217 233 255
217 233 255
217 233 255
217 233 255
217 233 255
217 233 255
217 233 255
217 233 255
217 233 255
217 233 255
217 233 255
217 233 255
217 233 255
217 233 255
217 233 255
217 233 255
217 233 255
217 233 255
217 233 255
217 233 255
217 233 255
217 233 255
217 233 255
217 233 255
217 233 255
217 233 255
217 233 255
217 233 255
217 233 255
217 233 255
217 233 255
217 233 255
217 233 255
217 233 255
217 233 255
217 233 255
217 233 255
217 233 255
217 233 255
217 233 255
217 233 255
217 233 255
217 233 255
217 233 255
217 233 255
217 233 255
217 233 255
217 233 255
217 233 255
217 233 255
217 233 255
217 233 255
217 233 255
217 233 255
217 233 255
217 233 255
217 233 255
217 233 255
217 233 255
217 233 255
217 233 255
217 233 255
217 233 255
217 233 255
217 233 255
217 233 255
217 233 255
217 233 255
217 233 255
217 233 255
217 233 255
217 233 255
217 233 255
217 233 255
217 233 255
217 233 255
217 233 255
217 233 255
217 233 255
217 233 255
217 233 255
217 233 255
217 233 255
217 233 255
217 233 255
217 233 255
217 233 255
217 233 255
217 233 255
217 233 255
217 233 255
217 233 255
217 233 255
217 233 255
217 233 255
217 233 255
217 233 255
217 233 255
217 233 255
217 233 255
217 233 255
217 233 255
217 233 255
217 233 255
217 233 255
217 233 255
217 233 255
217 233 255
217 233 255
217 233 255
217 233 255
217 233 255
217 233 255
217 233 255
217 233 255
217 233 255
217 233 255
217 233 255
217 233 255
217 233 255
217 233 255
217 233 255
217 233 255
217 233 255
217 233 255
217 233 255
217 233 255
217 233 255
217 233 255
217 233 255
217 233 255
217 233 255
217 233 255
217 233 255
217 233 255
217 233 255
217 233 255
217 233 255
217 233 255
217 233 255
217 233 255
217 233 255
217 233 255
217 233 255
217 233 255
217 233 255
218 233 255
218 233 255
218 233 255
218 233 255
218 233 255
218 233 255
218 233 255
218 233 255
218 233 255
218 234 255
218 234 255
218 234 255
218 234 255
218 234 255
218 234 255
218 234 255
218 234 255
218 234 255
218 234 255
218 234 255
218 234 255
218 234 255
218 234 255
218 234 255
218 234 255
218 234 255
218 234 255
218 234 255
218 234 255
218 234 255
218 234 255
218 234 255
218 234 255
218 234 255
218 234 255
218 234 255
218 234 255
218 234 255
218 234 255
218 234 255
218 234 255
218 234 255
218 234 255
218 234 255
218 234 255
218 234 255
218 234 255
218 234 255
218 234 255
218 234 255
218 234 255
218 234 255
218 234 255
218 234 255
218 234 255
218 234 255
218 234 255
218 234 255
218 234 255
218 234 255
218 234 255
218 234 255
218 234 255
218 234 255
218 234 255
218 234 255
218 234 255
218 234 255
218 234 255
218 234 255
218 234 255
218 234 255
218 234 255
218 234 255
218 234 255
218 234 255
218 234 255
218 234 255
218 234 255
218 234 255
218 234 255
218 234 255
218 234 255
218 234 255
218 234 255
218 234 255
218 234 255
218 234 255
218 234 255
218 234 255
218 234 255
218 234 255
218 234 255
218 234 255
218 234 255
218 234 255
218 234 255
218 234 255
218 234 255
218 234 255
218 234 255
218 234 255
218 234 255
218 234 255
218 234 255
218 234 255
218 234 255
218 234 255
218 234 255
218 234 255
218 234 255
218 234 255
218 234 255
218 234 255
218 234 255
218 234 255
218 234 255
218 234 255
218 234 255
218 234 255
218 234 255
218 234 255
218 234 255
218 234 255
218 234 255
218 234 255
218 234 255
218 234 255
218 234 255
218 234 255
218 234 255
218 234 255
218 234 255
218 234 255
218 234 255
218 234 255
218 234 255
218 234 255
218 234 255
218 234 255
218 234 255
218 234 255
218 234 255
218 234 255
218 234 255
218 234 255
218 234 255
218 234 255
218 234 255
218 234 255
218 234 255
218 234 255
218 234 255
218 234 255
218 234 255
218 234 255
218 234 255
218 234 255
218 234 255
218 234 255
218 234 255
218 234 255
218 234 255
218 234 255
218 234 255
218 234 255
218 234 255
218 234 255
218 233 255
218 233 255
218 233 255
218 233 255
218 233 255
218 233 255
218 233 255
218 233 255
218 233 255
218 233 255
217 233 255
217 233 255
217 233 255
217 233 255
217 233 255
217 233 255
217 233 255
217 233 255
217 233 255
217 233 255
217 233 255
217 233 255
217 233 255
217 233 255
217 233 255
217 233 255
217 233 255
217 233 255
217 233 255
217 233 255
217 233 255
217 233 255
217 233 255
217 233 255
217 233 255
217 233 255
217 233 255
217 233 255
217 233 255
217 233 255
217 233 255
217 233 255
217 233 255
217 233 255
217 233 255
217 233 255
217 233 255
217 233 255
217 233 255
217 233 255
217 233 255
217 233 255
217 233 255
217 233 255
217 233 255
217 233 255
217 233 255
217 233 255
217 233 255
217 233 255
217 233 255
217 233 255
217 233 255
217 233 255
217 233 255
217 233 255
217 233 255
217 233 255
217 233 255
217 233 255
217 233 255
217 233 255
217 233 255
217 233 255
217 233 255
217 233 255
217 233 255
217 233 255
217 233 255
217 233 255
217 233 255
217 233 255
217 233 255
217 233 255
217 233 255
217 233 255
217 233 255
217 233 255
217 233 255
217 233 255
217 233 255
217 233 255
217 233 255
217 233 255
217 233 255
217 233 255
217 233 255
217 233 255
217 233 255
217 233 255
217 233 255
217 233 255
217 233 255
217 233 255
217 233 255
217 233 255
217 233 255
217 233 255
217 233 255
217 233 255
217 233 255
217 233 255
217 233 255
217 233 255
217 233 255
217 233 255
217 233 255
217 233 255
217 233 255
217 233 255
217 233 255
217 233 255
217 233 255
217 233 255
217 233 255
217 233 255
217 233 255
217 233 255
217 233 255
217 233 255
217 233 255
217 233 255
217 233 255
217 233 255
217 233 255
217 233 255
217 233 255
217 233 255
217 233 255
217 233 255
217 233 255
217 233 255
217 233 255
217 233 255
217 233 255
217 233 255
217 233 255
217 233 255
217 233 255
217 233 255
217 233 255
217 233 255
217 233 255
217 233 255
217 233 255
217 233 255
217 233 255
217 233 255
217 233 255
217 233 255
217 233 255
217 233 255
217 233 255
217 233 255
217 233 255
217 233 255
217 233 255
217 233 255
217 233 255
217 233 255
217 233 255
217 233 255
217 233 255
217 233 255
217 233 255
217 233 255
217 233 255
217 233 255
217 233 255
217 233 255
217 233 255
217 233 255
217 233 255
217 233 255
217 233 255
217 233 255
217 233 255
217 233 255
217 233 255
217 233 255
217 233 255
217 233 255
217 233 255
217 233 255
217 233 255
217 233 255
217 233 255
217 233 255
217 233 255
217 233 255
217 233 255
217 233 255
217 233 255
217 233 255
217 233 255
217 233 255
217 233 255
217 233 255
217 233 255
217 233 255
217 233 255
217 233 255
217 233 255
217 233 255
217 233 255
217 233 255
217 233 255
217 233 255
217 233 255
218 233 255
218 233 255
218 233 255
218 233 255
218 233 255
218 233 255
218 233 255
218 233 255
218 233 255
218 234 255
218 234 255
218 234 255
218 234 255
218 234 255
218 234 255
218 234 255
218 234 255
218 234 255
218 234 255
218 234 255
218 234 255
218 234 255
218 234 255
218 234 255
218 234 255
218 234 255
218 234 255
218 234 255
218 234 255
218 234 255
218 234 255
218 234 255
218 234 255
218 234 255
218 234 255
218 234 255
218 234 255
218 234 255
218 234 255
218 234 255
218 234 255
218 234 255
218 234 255
218 234 255
218 234 255
218 234 255
218 234 255
218 234 255
218 234 255
218 234 255
218 234 255
218 234 255
218 234 255
218 234 255
218 234 255
218 234 255
218 234 255
218 234 255
218 234 255
218 234 255
218 234 255
218 234 255
218 234 255
218 234 255
218 234 255
218 234 255
218 234 255
218 234 255
218 234 255
218 234 255
218 234 255
218 234 255
218 234 255
218 234 255
218 234 255
218 234 255
218 234 255
218 234 255
218 234 255
218 234 255
218 234 255
218 234 255
218 234 255
218 234 255
218 234 255
218 234 255
218 234 255
218 234 255
218 234 255
218 234 255
218 234 255
218 234 255
218 234 255
218 234 255
218 234 255
219 234 255
219 234 255
219 234 255
219 234 255
219 234 255
219 234 255
219 234 255
219 234 255
219 234 255
219 234 255
219 234 255
219 234 255
218 234 255
218 234 255
218 234 255
218 234 255
218 234 255
218 234 255
218 234 255
218 234 255
218 234 255
218 234 255
218 234 255
218 234 255
218 234 255
218 234 255
218 234 255
218 234 255
218 234 255
218 234 255
218 234 255
218 234 255
218 234 255
218 234 255
218 234 255
218 234 255
218 234 255
218 234 255
218 234 255
218 234 255
218 234 255
218 234 255
218 234 255
218 234 255
218 234 255
218 234 255
218 234 255
218 234 255
218 234 255
218 234 255
218 234 255
218 234 255
218 234 255
218 234 255
218 234 255
218 234 255
218 234 255
218 234 255
218 234 255
218 234 255
218 234 255
218 234 255
218 234 255
218 234 255
218 234 255
218 234 255
218 234 255
218 234 255
218 234 255
218 234 255
218 234 255
218 234 255
218 234 255
218 234 255
218 234 255
218 234 255
218 234 255
218 234 255
218 234 255
218 234 255
218 234 255
218 234 255
218 234 255
218 234 255
218 234 255
218 234 255
218 234 255
218 234 255
218 234 255
218 234 255
218 234 255
218 234 255
218 234 255
218 234 255
218 234 255
218 234 255
218 234 255
218 234 255
218 234 255
218 234 255
218 233 255
218 233 255
218 233 255
218 233 255
218 233 255
218 233 255
218 233 255
218 233 255
218 233 255
218 233 255
217 233 255
217 233 255
217 233 255
217 233 255
217 233 255
217 233 255
217 233 255
217 233 255
217 233 255
217 233 255
217 233 255
217 233 255
217 233 255
217 233 255
217 233 255
217 233 255
217 233 255
217 233 255
217 233 255
217 233 255
217 233 255
217 233 255
217 233 255
217 233 255
217 233 255
217 233 255
217 233 255
217 233 255
217 233 255
217 233 255
217 233 255
217 233 255
217 233 255
217 233 255
217 233 255
217 233 255
217 233 255
217 233 255
217 233 255
217 233 255
217 233 255
217 233 255
217 233 255
217 233 255
217 233 255
217 233 255
217 233 255
217 233 255
217 233 255
217 233 255
217 233 255
217 233 255
217 233 255
217 233 255
217 233 255
217 233 255
217 233 255
217 233 255
217 233 255
217 233 255
217 233 255
217 233 255
217 233 255
217 233 255
217 233 255
217 233 255
217 233 255
217 233 255
217 233 255
217 233 255
217 233 255
217 233 255
217 233 255
217 233 255
217 233 255
217 233 255
217 233 255
217 233 255
217 233 255
217 233 255
217 233 255
217 233 255
217 233 255
217 233 255
217 233 255
217 233 255
217 233 255
217 233 255
217 233 255
217 233 255
217 233 255
217 233 255
217 233 255
217 233 255
217 233 255
217 233 255
217 233 255
217 233 255
217 233 255
217 233 255
217 233 255
217 233 255
217 233 255
217 233 255
217 233 255
217 233 255
217 233 255
217 233 255
217 233 255
217 233 255
217 233 255
217 233 255
217 233 255
217 233 255
217 233 255
217 233 255
217 233 255
217 233 255
217 233 255
217 233 255
217 233 255
217 233 255
217 233 255
217 233 255
217 233 255
217 233 255
217 233 255
217 233 255
217 233 255
217 233 255
217 233 255
217 233 255
217 233 255
217 233 255
217 233 255
217 233 255
217 233 255
217 233 255
217 233 255
217 233 255
217 233 255
217 233 255
217 233 255
217 233 255
217 233 255
217 233 255
217 233 255
217 233 255
217 233 255
217 233 255
217 233 255
217 233 255
217 233 255
217 233 255
217 233 255
217 233 255
217 233 255
217 233 255
217 233 255
217 233 255
217 233 255
217 233 255
217 233 255
217 233 255
217 233 255
217 233 255
217 233 255
217 233 255
217 233 255
217 233 255
217 233 255
217 233 255
217 233 255
217 233 255
217 233 255
217 233 255
217 233 255
217 233 255
217 233 255
217 233 255
217 233 255
218 233 255
218 233 255
218 233 255
218 233 255
218 233 255
218 233 255
218 233 255
218 233 255
218 233 255
218 234 255
218 234 255
218 234 255
218 234 255
218 234 255
218 234 255
218 234 255
218 234 255
218 234 255
218 234 255
218 234 255
218 234 255
218 234 255
218 234 255
218 234 255
218 234 255
218 234 255
218 234 255
218 234 255
218 234 255
218 234 255
218 234 255
218 234 255
218 234 255
218 234 255
218 234 255
218 234 255
218 234 255
218 234 255
218 234 255
218 234 255
218 234 255
218 234 255
218 234 255
218 234 255
218 234 255
218 234 255
218 234 255
218 234 255
218 234 255
218 234 255
218 234 255
218 234 255
218 234 255
218 234 255
218 234 255
218 234 255
218 234 255
218 234 255
218 234 255
218 234 255
218 234 255
218 234 255
218 234 255
218 234 255
218 234 255
218 234 255
218 234 255
218 234 255
218 234 255
218 234 255
218 234 255
218 234 255
218 234 255
218 234 255
218 234 255
218 234 255
218 234 255
218 234 255
218 234 255
218 234 255
218 234 255
218 234 255
218 234 255
218 234 255
218 234 255
218 234 255
218 234 255
218 234 255
218 234 255
218 234 255
218 234 255
218 234 255
218 234 255
218 234 255
218 234 255
218 234 255
218 234 255
219 234 255
219 234 255
219 234 255
219 234 255
219 234 255
219 234 255
219 234 255
219 234 255
219 234 255
219 234 255
219 234 255
219 234 255
219 234 255
219 234 255
219 234 255
219 234 255
219 234 255
219 234 255
219 234 255
219 234 255
219 234 255
219 234 255
219 234 255
219 234 255
219 234 255
219 234 255
219 234 255
219 234 255
219 234 255
219 234 255
219 234 255
219 234 255
219 234 255
219 234 255
219 234 255
219 234 255
219 234 255
219 234 255
219 234 255
218 234 255
218 234 255
218 234 255
218 234 255
218 234 255
218 234 255
218 234 255
218 234 255
218 234 255
218 234 255
218 234 255
218 234 255
218 234 255
218 234 255
218 234 255
218 234 255
218 234 255
218 234 255
218 234 255
218 234 255
218 234 255
218 234 255
218 234 255
218 234 255
218 234 255
218 234 255
218 234 255
218 234 255
218 234 255
218 234 255
218 234 255
218 234 255
218 234 255
218 234 255
218 234 255
218 234 255
218 234 255
218 234 255
218 234 255
218 234 255
218 234 255
218 234 255
218 234 255
218 234 255
218 234 255
218 234 255
218 234 255
218 234 255
218 234 255
218 234 255
218 234 255
218 234 255
218 234 255
218 234 255
218 234 255
218 234 255
218 234 255
218 234 255
218 234 255
218 234 255
218 234 255
218 234 255
218 234 255
218 234 255
218 234 255
218 234 255
218 234 255
218 234 255
218 234 255
218 234 255
218 234 255
218 234 255
218 234 255
218 234 255
218 234 255
218 234 255
218 234 255
218 234 255
218 234 255
218 234 255
218 234 255
218 234 255
218 234 255
218 234 255
218 234 255
218 234 255
218 234 255
218 234 255
218 233 255
218 233 255
218 233 255
218 233 255
218 233 255
218 233 255
218 233 255
218 233 255
218 233 255
218 233 255
218 233 255
217 233 255
217 233 255
217 233 255
217 233 255
217 233 255
217 233 255
217 233 255
217 233 255
217 233 255
217 233 255
217 233 255
217 233 255
217 233 255
217 233 255
217 233 255
217 233 255
217 233 255
217 233 255
217 233 255
217 233 255
217 233 255
217 233 255
217 233 255
217 233 255
217 233 255
217 233 255
217 233 255
217 233 255
217 233 255
217 233 255
217 233 255
217 233 255
217 233 255
217 233 255
217 233 255
217 233 255
217 233 255
217 233 255
217 233 255
217 233 255
217 233 255
217 233 255
217 233 255
217 233 255
217 233 255
217 233 255
217 233 255
217 233 255
217 233 255
217 233 255
217 233 255
217 233 255
217 233 255
217 233 255
217 233 255
217 233 255
217 233 255
217 233 255
217 233 255
217 233 255
217 233 255
217 233 255
217 233 255
217 233 255
217 233 255
217 233 255
217 233 255
217 233 255
217 233 255
217 233 255
217 233 255
217 233 255
217 233 255
217 233 255
217 233 255
217 233 255
217 233 255
217 233 255
217 233 255
217 233 255
217 233 255
217 233 255
217 233 255
217 233 255
217 233 255
217 233 255
217 233 255
217 233 255
217 233 255
217 233 255
217 233 255
217 233 255
217 233 255
217 233 255
217 233 255
217 233 255
217 233 255
217 233 255
217 233 255
217 233 255
217 233 255
217 233 255
217 233 255
217 233 255
217 233 255
217 233 255
217 233 255
217 233 255
217 233 255
217 233 255
217 233 255
217 233 255
217 233 255
217 233 255
217 233 255
217 233 255
217 233 255
217 233 255
217 233 255
217 233 255
217 233 255
217 233 255
217 233 255
217 233 255
217 233 255
217 233 255
217 233 255
217 233 255
217 233 255
217 233 255
217 233 255
217 233 255
217 233 255
217 233 255
217 233 255
217 233 255
217 233 255
217 233 255
217 233 255
217 233 255
217 233 255
217 233 255
217 233 255
217 233 255
217 233 255
217 233 255
217 233 255
217 233 255
217 233 255
218 233 255
218 233 255
218 233 255
218 233 255
218 233 255
218 233 255
218 233 255
218 233 255
218 233 255
218 233 255
218 234 255
218 234 255
218 234 255
218 234 255
218 234 255
218 234 255
218 234 255
218 234 255
218 234 255
218 234 255
218 234 255
218 234 255
218 234 255
218 234 255
218 234 255
218 234 255
218 234 255
218 234 255
218 234 255
218 234 255
218 234 255
218 234 255
218 234 255
218 234 255
218 234 255
218 234 255
218 234 255
218 234 255
218 234 255
218 234 255
218 234 255
218 234 255
218 234 255
218 234 255
218 234 255
218 234 255
218 234 255
218 234 255
218 234 255
218 234 255
218 234 255
218 234 255
218 234 255
218 234 255
218 234 255
218 234 255
218 234 255
218 234 255
218 234 255
218 234 255
218 234 255
218 234 255
218 234 255
218 234 255
218 234 255
218 234 255
218 234 255
218 234 255
218 234 255
218 234 255
218 234 255
218 234 255
218 234 255
218 234 255
218 234 255
218 234 255
218 234 255
218 234 255
218 234 255
218 234 255
218 234 255
218 234 255
218 234 255
218 234 255
218 234 255
218 234 255
218 234 255
218 234 255
218 234 255
218 234 255
218 234 255
218 234 255
218 234 255
218 234 255
218 234 255
218 234 255
218 234 255
218 234 255
218 234 255
219 234 255
219 234 255
219 234 255
219 234 255
219 234 255
219 234 255
219 234 255
219 234 255
219 234 255
219 234 255
219 234 255
219 234 255
219 234 255
219 234 255
219 234 255
219 234 255
219 234 255
219 234 255
219 234 255
219 234 255
219 234 255
219 234 255
219 234 255
219 234 255
219 234 255
219 234 255
219 234 255
219 234 255
219 234 255
219 234 255
219 234 255
219 234 255
219 234 255
219 234 255
219 234 255
219 234 255
219 234 255
219 234 255
219 234 255
219 234 255
219 234 255
219 234 255
219 234 255
219 234 255
219 234 255
219 234 255
219 234 255
219 234 255
219 234 255
219 234 255
219 234 255
219 234 255
219 234 255
219 234 255
219 234 255
219 234 255
219 234 255
219 234 255
219 234 255
219 234 255
219 234 255
219 234 255
219 234 255
219 234 255
219 234 255
219 234 255
219 234 255
218 234 255
218 234 255
218 234 255
218 234 255
218 234 255
218 234 255
218 234 255
218 234 255
218 234 255
218 234 255
218 234 255
218 234 255
218 234 255
218 234 255
218 234 255
218 234 255
218 234 255
218 234 255
218 234 255
218 234 255
218 234 255
218 234 255
218 234 255
218 234 255
218 234 255
218 234 255
218 234 255
218 234 255
218 234 255
218 234 255
218 234 255
218 234 255
218 234 255
218 234 255
218 234 255
218 234 255
218 234 255
218 234 255
218 234 255
218 234 255
218 234 255
218 234 255
218 234 255
218 234 255
218 234 255
218 234 255
218 234 255
218 234 255
218 234 255
218 234 255
218 234 255
218 234 255
218 234 255
218 234 255
218 234 255
218 234 255
218 234 255
218 234 255
218 234 255
218 234 255
218 234 255
218 234 255
218 234 255
218 234 255
218 234 255
218 234 255
218 234 255
218 234 255
218 234 255
218 234 255
218 234 255
218 234 255
218 234 255
218 234 255
218 234 255
218 234 255
218 234 255
218 234 255
218 234 255
218 234 255
218 234 255
218 234 255
218 234 255
218 234 255
218 234 255
218 234 255
218 234 255
218 234 255
218 234 255
218 234 255
218 234 255
218 233 255
218 233 255
218 233 255
218 233 255
218 233 255
218 233 255
218 233 255
218 233 255
218 233 255
218 233 255
218 233 255
218 233 255
218 233 255
217 233 255
217 233 255
217 233 255
217 233 255
217 233 255
217 233 255
217 233 255
217 233 255
217 233 255
217 233 255
217 233 255
217 233 255
217 233 255
217 233 255
217 233 255
217 233 255
217 233 255
217 233 255
217 233 255
217 233 255
217 233 255
217 233 255
217 233 255
217 233 255
217 233 255
217 233 255
217 233 255
217 233 255
217 233 255
217 233 255
217 233 255
217 233 255
217 233 255
217 233 255
217 233 255
217 233 255
217 233 255
217 233 255
217 233 255
217 233 255
217 233 255
217 233 255
217 233 255
217 233 255
217 233 255
217 233 255
217 233 255
217 233 255
217 233 255
217 233 255
217 233 255
217 233 255
217 233 255
217 233 255
217 233 255
217 233 255
217 233 255
217 233 255
217 233 255
217 233 255
217 233 255
217 233 255
217 233 255
217 233 255
217 233 255
217 233 255
217 233 255
217 233 255
217 233 255
217 233 255
217 233 255
217 233 255
217 233 255
217 233 255
217 233 255
217 233 255
217 233 255
217 233 255
217 233 255
217 233 255
217 233 255
217 233 255
217 233 255
217 233 255
217 233 255
217 233 255
217 233 255
217 233 255
217 233 255
217 233 255
217 233 255
217 233 255
217 233 255
217 233 255
217 233 255
217 233 255
217 233 255
217 233 255
217 233 255
217 233 255
217 233 255
217 233 255
217 233 255
217 233 255
217 233 255
217 233 255
217 233 255
217 233 255
217 233 255
217 233 255
218 233 255
218 233 255
218 233 255
218 233 255
218 233 255
218 233 255
218 233 255
218 233 255
218 233 255
218 233 255
218 233 255
218 233 255
218 233 255
218 234 255
218 234 255
218 234 255
218 234 255
218 234 255
218 234 255
218 234 255
218 234 255
218 234 255
218 234 255
218 234 255
218 234 255
218 234 255
218 234 255
218 234 255
218 234 255
218 234 255
218 234 255
218 234 255
218 234 255
218 234 255
218 234 255
218 234 255
218 234 255
218 234 255
218 234 255
218 234 255
218 234 255
218 234 255
218 234 255
218 234 255
218 234 255
218 234 255
218 234 255
218 234 255
218 234 255
218 234 255
218 234 255
218 234 255
218 234 255
218 234 255
218 234 255
218 234 255
218 234 255
218 234 255
218 234 255
218 234 255
218 234 255
218 234 255
218 234 255
218 234 255
218 234 255
218 234 255
218 234 255
218 234 255
218 234 255
218 234 255
218 234 255
218 234 255
218 234 255
218 234 255
218 234 255
218 234 255
218 234 255
218 234 255
218 234 255
218 234 255
218 234 255
218 234 255
218 234 255
218 234 255
218 234 255
218 234 255
218 234 255
218 234 255
218 234 255
218 234 255
218 234 255
218 234 255
218 234 255
218 234 255
218 234 255
218 234 255
218 234 255
218 234 255
218 234 255
218 234 255
218 234 255
218 234 255
218 234 255
218 234 255
219 234 255
219 234 255
219 234 255
219 234 255
219 234 255
219 234 255
219 234 255
219 234 255
219 234 255
219 234 255
219 234 255
219 234 255
219 234 255
219 234 255
219 234 255
219 234 255
219 234 255
219 234 255
219 234 255
219 234 255
219 234 255
219 234 255
219 234 255
219 234 255
219 234 255
219 234 255
219 234 255
219 234 255
219 234 255
219 234 255
219 234 255
219 234 255
219 234 255
219 234 255
219 234 255
219 234 255
219 234 255
219 234 255
219 234 255
219 234 255
219 234 255
219 234 255
219 234 255
219 234 255
219 234 255
219 234 255
219 234 255
219 234 255
219 234 255
219 234 255
219 234 255
219 234 255
219 234 255
219 234 255
219 234 255
219 234 255
219 234 255
219 234 255
219 234 255
219 234 255
219 234 255
219 234 255
219 234 255
219 234 255
219 234 255
219 234 255
219 234 255
219 234 255
219 234 255
219 234 255
219 234 255
219 234 255
219 234 255
219 234 255
219 234 255
219 234 255
219 234 255
219 234 255
219 234 255
219 234 255
219 234 255
219 234 255
219 234 255
219 234 255
219 234 255
219 234 255
219 234 255
219 234 255
219 234 255
219 234 255
219 234 255
219 234 255
219 234 255
219 234 255
219 234 255
219 234 255
219 234 255
218 234 255
218 234 255
218 234 255
218 234 255
218 234 255
218 234 255
218 234 255
218 234 255
218 234 255
218 234 255
218 234 255
218 234 255
218 234 255
218 234 255
218 234 255
218 234 255
218 234 255
218 234 255
218 234 255
218 234 255
218 234 255
218 234 255
218 234 255
218 234 255
218 234 255
218 234 255
218 234 255
218 234 255
218 234 255
218 234 255
218 234 255
218 234 255
218 234 255
218 234 255
218 234 255
218 234 255
218 234 255
218 234 255
218 234 255
218 234 255
218 234 255
218 234 255
218 234 255
218 234 255
218 234 255
218 234 255
218 234 255
218 234 255
218 234 255
218 234 255
218 234 255
218 234 255
218 234 255
218 234 255
218 234 255
218 234 255
218 234 255
218 234 255
218 234 255
218 234 255
218 234 255
218 234 255
218 234 255
218 234 255
218 234 255
218 234 255
218 234 255
218 234 255
218 234 255
218 234 255
218 234 255
218 234 255
218 234 255
218 234 255
218 234 255
218 234 255
218 234 255
218 234 255
218 234 255
218 234 255
218 234 255
218 234 255
218 234 255
218 234 255
218 234 255
218 234 255
218 234 255
218 234 255
218 234 255
218 234 255
218 234 255
218 234 255
218 234 255
218 234 255
218 234 255
218 234 255
218 234 255
218 234 255
218 234 255
218 233 255
218 233 255
218 233 255
218 233 255
218 233 255
218 233 255
218 233 255
218 233 255
218 233 255
218 233 255
218 233 255
218 233 255
218 233 255
218 233 255
218 233 255
218 233 255
218 233 255
218 233 255
217 233 255
217 233 255
217 233 255
217 233 255
217 233 255
217 233 255
217 233 255
217 233 255
217 233 255
217 233 255
217 233 255
217 233 255
217 233 255
217 233 255
217 233 255
217 233 255
217 233 255
217 233 255
217 233 255
217 233 255
217 233 255
217 233 255
217 233 255
217 233 255
217 233 255
217 233 255
217 233 255
217 233 255
217 233 255
217 233 255
217 233 255
217 233 255
217 233 255
217 233 255
217 233 255
217 233 255
217 233 255
217 233 255
217 233 255
217 233 255
217 233 255
217 233 255
217 233 255
217 233 255
217 233 255
217 233 255
217 233 255
217 233 255
217 233 255
217 233 255
217 233 255
217 233 255
218 233 255
217 233 255
218 233 255
218 233 255
218 233 255
218 233 255
218 233 255
218 233 255
218 233 255
218 233 255
218 233 255
218 233 255
218 233 255
218 233 255
218 233 255
218 233 255
218 233 255
218 233 255
218 233 255
218 233 255
218 234 255
218 233 255
218 234 255
218 234 255
218 234 255
218 234 255
218 234 255
218 234 255
218 234 255
218 234 255
218 234 255
218 234 255
218 234 255
218 234 255
218 234 255
218 234 255
218 234 255
218 234 255
218 234 255
218 234 255
218 234 255
218 234 255
218 234 255
218 234 255
218 234 255
218 234 255
218 234 255
218 234 255
218 234 255
218 234 255
218 234 255
218 234 255
218 234 255
218 234 255
218 234 255
218 234 255
218 234 255
218 234 255
218 234 255
218 234 255
218 234 255
218 234 255
218 234 255
218 234 255
218 234 255
218 234 255
218 234 255
218 234 255
218 234 255
218 234 255
218 234 255
218 234 255
218 234 255
218 234 255
218 234 255
218 234 255
218 234 255
218 234 255
218 234 255
218 234 255
218 234 255
218 234 255
218 234 255
218 234 255
218 234 255
218 234 255
218 234 255
218 234 255
218 234 255
218 234 255
218 234 255
218 234 255
218 234 255
218 234 255
218 234 255
218 234 255
218 234 255
218 234 255
218 234 255
218 234 255
218 234 255
218 234 255
218 234 255
218 234 255
218 234 255
218 234 255
218 234 255
218 234 255
218 234 255
218 234 255
218 234 255
218 234 255
218 234 255
218 234 255
218 234 255
218 234 255
218 234 255
218 234 255
219 234 255
219 234 255
219 234 255
219 234 255
219 234 255
219 234 255
219 234 255
219 234 255
219 234 255
219 234 255
219 234 255
219 234 255
219 234 255
219 234 255
219 234 255
219 234 255
219 234 255
219 234 255
219 234 255
219 234 255
219 234 255
219 234 255
219 234 255
219 234 255
219 234 255
219 234 255
219 234 255
219 234 255
219 234 255
219 234 255
219 234 255
219 234 255
219 234 255
219 234 255
219 234 255
219 234 255
219 234 255
219 234 255
219 234 255
219 234 255
219 234 255
219 234 255
219 234 255
219 234 255
219 234 255
219 234 255
219 234 255
219 234 255
219 234 255
219 234 255
219 234 255
219 234 255
219 234 255
219 234 255
219 234 255
219 234 255
219 234 255
219 234 255
219 234 255
219 234 255
219 234 255
219 234 255
219 234 255
219 234 255
219 234 255
219 234 255
219 234 255
219 234 255
219 234 255
219 234 255
219 234 255
219 234 255
219 234 255
219 234 255
219 234 255
219 234 255
219 234 255
219 234 255
219 234 255
219 234 255
219 234 255
219 234 255
219 234 255
219 234 255
219 234 255
219 234 255
219 234 255
219 234 255
219 234 255
219 234 255
219 234 255
219 234 255
219 234 255
219 234 255
219 234 255
219 234 255
219 234 255
219 234 255
219 234 255
219 234 255
219 234 255
219 234 255
219 234 255
219 234 255
219 234 255
219 234 255
219 234 255
219 234 255
219 234 255
219 234 255
219 234 255
219 234 255
219 234 255
219 234 255
219 234 255
219 234 255
219 234 255
219 234 255
219 234 255
219 234 255
219 234 255
219 234 255
219 234 255
219 234 255
219 234 255
219 234 255
219 234 255
219 234 255
219 234 255
218 234 255
218 234 255
218 234 255
218 234 255
218 234 255
218 234 255
218 234 255
218 234 255
218 234 255
218 234 255
218 234 255
218 234 255
218 234 255
218 234 255
218 234 255
218 234 255
218 234 255
218 234 255
218 234 255
218 234 255
218 234 255
218 234 255
218 234 255
218 234 255
218 234 255
218 234 255
218 234 255
218 234 255
218 234 255
218 234 255
218 234 255
218 234 255
218 234 255
218 234 255
218 234 255
218 234 255
218 234 255
218 234 255
218 234 255
218 234 255
218 234 255
218 234 255
218 234 255
218 234 255
218 234 255
218 234 255
218 234 255
218 234 255
218 234 255
218 234 255
218 234 255
218 234 255
218 234 255
218 234 255
218 234 255
218 234 255
218 234 255
218 234 255
218 234 255
218 234 255
218 234 255
218 234 255
218 234 255
218 234 255
218 234 255
218 234 255
218 234 255
218 234 255
218 234 255
218 234 255
218 234 255
218 234 255
218 234 255
218 234 255
218 234 255
218 234 255
218 234 255
218 234 255
218 234 255
218 234 255
218 234 255
218 234 255
218 234 255
218 234 255
218 234 255
218 234 255
218 234 255
218 234 255
218 234 255
218 234 255
218 234 255
218 234 255
218 234 255
218 234 255
218 234 255
218 234 255
218 234 255
218 234 255
218 234 255
218 234 255
218 234 255
218 234 255
218 234 255
218 234 255
218 234 255
218 234 255
218 234 255
218 234 255
218 234 255
218 234 255
218 234 255
218 234 255
218 234 255
218 234 255
218 234 255
218 234 255
218 234 255
218 234 255
218 234 255
218 234 255
218 234 255
218 234 255
218 234 255
218 234 255
218 234 255
218 234 255
218 234 255
218 234 255
218 234 255
218 234 255
218 234 255
218 234 255
218 234 255
218 234 255
218 234 255
218 234 255
218 234 255
218 234 255
218 234 255
218 234 255
218 234 255
218 234 255
218 234 255
218 234 255
218 234 255
218 234 255
218 234 255
218 234 255
218 234 255
218 234 255
218 234 255
218 234 255
218 234 255
218 234 255
218 234 255
218 234 255
218 234 255
218 234 255
218 234 255
218 234 255
218 234 255
218 234 255
218 234 255
218 234 255
218 234 255
218 234 255
218 234 255
218 234 255
218 234 255
218 234 255
218 234 255
218 234 255
218 234 255
218 234 255
218 234 255
218 234 255
218 234 255
218 234 255
218 234 255
218 234 255
218 234 255
218 234 255
218 234 255
218 234 255
218 234 255
218 234 255
218 234 255
218 234 255
218 234 255
218 234 255
218 234 255
218 234 255
218 234 255
218 234 255
218 234 255
218 234 255
218 234 255
218 234 255
218 234 255
218 234 255
218 234 255
218 234 255
218 234 255
218 234 255
218 234 255
218 234 255
218 234 255
218 234 255
218 234 255
218 234 255
218 234 255
218 234 255
218 234 255
218 234 255
218 234 255
218 234 255
218 234 255
218 234 255
218 234 255
218 234 255
218 234 255
218 234 255
218 234 255
218 234 255
218 234 255
218 234 255
218 234 255
218 234 255
218 234 255
218 234 255
218 234 255
218 234 255
218 234 255
218 234 255
218 234 255
218 234 255
218 234 255
218 234 255
218 234 255
218 234 255
218 234 255
218 234 255
218 234 255
218 234 255
218 234 255
218 234 255
218 234 255
218 234 255
218 234 255
218 234 255
218 234 255
218 234 255
218 234 255
218 234 255
218 234 255
218 234 255
219 234 255
219 234 255
219 234 255
219 234 255
219 234 255
219 234 255
219 234 255
219 234 255
219 234 255
219 234 255
219 234 255
219 234 255
219 234 255
219 234 255
219 234 255
219 234 255
219 234 255
219 234 255
219 234 255
219 234 255
219 234 255
219 234 255
219 234 255
219 234 255
219 234 255
219 234 255
219 234 255
219 234 255
219 234 255
219 234 255
219 234 255
219 234 255
219 234 255
219 234 255
219 234 255
219 234 255
219 234 255
219 234 255
219 234 255
219 234 255
219 234 255
219 234 255
219 234 255
219 234 255
219 234 255
219 234 255
219 234 255
219 234 255
219 234 255
219 234 255
219 234 255
219 234 255
219 234 255
219 234 255
219 234 255
219 234 255
219 234 255
219 234 255
219 234 255
219 234 255
219 234 255
219 234 255
219 234 255
219 234 255
219 234 255
219 234 255
219 234 255
219 234 255
219 234 255
219 234 255
219 234 255
219 234 255
219 234 255
219 234 255
219 234 255
219 234 255
219 234 255
219 234 255
219 234 255
219 234 255
219 234 255
219 234 255
219 234 255
219 234 255
219 234 255
219 234 255
219 234 255
219 234 255
219 234 255
219 234 255
219 234 255
219 234 255
219 234 255
219 234 255
219 234 255
219 234 255
219 234 255
219 234 255
219 234 255
219 234 255
219 234 255
219 234 255
219 234 255
219 234 255
219 234 255
219 234 255
219 234 255
219 234 255
219 234 255
219 234 255
219 234 255
219 234 255
219 234 255
219 234 255
219 234 255
219 234 255
219 234 255
219 234 255
219 234 255
219 234 255
219 234 255
219 234 255
219 234 255
219 234 255
219 234 255
219 234 255
219 234 255
219 234 255
219 234 255
219 234 255
219 234 255
219 234 255
219 234 255
219 234 255
219 234 255
219 234 255
219 234 255
219 234 255
219 234 255
219 234 255
219 234 255
219 234 255
219 234 255
219 234 255
219 234 255
219 234 255
219 234 255
219 234 255
219 234 255
219 234 255
219 234 255
219 234 255
219 234 255
219 234 255
219 234 255
219 234 255
219 234 255
219 234 255
219 234 255
219 234 255
219 234 255
218 234 255
218 234 255
218 234 255
218 234 255
218 234 255
218 234 255
218 234 255
218 234 255
218 234 255
218 234 255
218 234 255
218 234 255
218 234 255
218 234 255
218 234 255
218 234 255
218 234 255
218 234 255
218 234 255
218 234 255
218 234 255
218 234 255
218 234 255
218 234 255
218 234 255
218 234 255
218 234 255
218 234 255
218 234 255
218 234 255
218 234 255
218 234 255
218 234 255
218 234 255
218 234 255
218 234 255
218 234 255
218 234 255
218 234 255
218 234 255
218 234 255
218 234 255
218 234 255
218 234 255
218 234 255
218 234 255
218 234 255
218 234 255
218 234 255
218 234 255
218 234 255
218 234 255
218 234 255
218 234 255
218 234 255
218 234 255
218 234 255
218 234 255
218 234 255
218 234 255
218 234 255
218 234 255
218 234 255
218 234 255
218 234 255
218 234 255
218 234 255
218 234 255
218 234 255
218 234 255
218 234 255
218 234 255
218 234 255
218 234 255
218 234 255
218 234 255
218 234 255
218 234 255
218 234 255
218 234 255
218 234 255
218 234 255
218 234 255
218 234 255
218 234 255
218 234 255
218 234 255
218 234 255
218 234 255
218 234 255
218 234 255
218 234 255
218 234 255
218 234 255
218 234 255
218 234 255
218 234 255
218 234 255
218 234 255
218 234 255
218 234 255
218 234 255
218 234 255
218 234 255
218 234 255
218 234 255
218 234 255
218 234 255
218 234 255
218 234 255
218 234 255
218 234 255
218 234 255
218 234 255
218 234 255
218 234 255
218 234 255
218 234 255
218 234 255
218 234 255
218 234 255
218 234 255
218 234 255
218 234 255
218 234 255
218 234 255
218 234 255
218 234 255
218 234 255
218 234 255
218 234 255
218 234 255
218 234 255
218 234 255
218 234 255
218 234 255
218 234 255
218 234 255
218 234 255
218 234 255
218 234 255
218 234 255
218 234 255
218 234 255
218 234 255
218 234 255
218 234 255
218 234 255
218 234 255
218 234 255
218 234 255
218 234 255
218 234 255
218 234 255
218 234 255
218 234 255
218 234 255
218 234 255
218 234 255
218 234 255
218 234 255
218 234 255
218 234 255
218 234 255
218 234 255
218 234 255
218 234 255
218 234 255
218 234 255
218 234 255
218 234 255
218 234 255
218 234 255
218 234 255
218 234 255
218 234 255
218 234 255
218 234 255
218 234 255
218 234 255
218 234 255
218 234 255
218 234 255
218 234 255
218 234 255
218 234 255
218 234 255
218 234 255
218 234 255
218 234 255
218 234 255
218 234 255
218 234 255
218 234 255
218 234 255
218 234 255
218 234 255
218 234 255
218 234 255
218 234 255
218 234 255
218 234 255
218 234 255
218 234 255
218 234 255
218 234 255
218 234 255
218 234 255
218 234 255
218 234 255
218 234 255
218 234 255
218 234 255
218 234 255
218 234 255
218 234 255
218 234 255
218 234 255
218 234 255
218 234 255
218 234 255
218 234 255
219 234 255
219 234 255
219 234 255
219 234 255
219 234 255
219 234 255
219 234 255
219 234 255
219 234 255
219 234 255
219 234 255
219 234 255
219 234 255
219 234 255
219 234 255
219 234 255
219 234 255
219 234 255
219 234 255
219 234 255
219 234 255
219 234 255
219 234 255
219 234 255
219 234 255
219 234 255
219 234 255
219 234 255
219 234 255
219 234 255
219 234 255
219 234 255
219 234 255
219 234 255
219 234 255
219 234 255
219 234 255
219 234 255
219 234 255
219 234 255
219 234 255
219 234 255
219 234 255
219 234 255
219 234 255
219 234 255
219 234 255
219 234 255
219 234 255
219 234 255
219 234 255
219 234 255
219 234 255
219 234 255
219 234 255
219 234 255
219 234 255
219 234 255
219 234 255
219 234 255
219 234 255
219 234 255
219 234 255
219 234 255
219 234 255
219 234 255
219 234 255
219 234 255
219 234 255
219 234 255
219 234 255
219 234 255
219 234 255
219 234 255
219 234 255
219 234 255
219 234 255
219 234 255
219 234 255
219 234 255
219 234 255
219 234 255
219 234 255
219 234 255
219 234 255
219 234 255
219 234 255
219 234 255
219 234 255
219 234 255
219 234 255
219 234 255
219 234 255
219 234 255
219 234 255
219 234 255
219 234 255
219 234 255
219 234 255
219 234 255
219 234 255
219 234 255
219 234 255
219 234 255
219 234 255
219 234 255
219 234 255
219 234 255
219 234 255
219 234 255
219 234 255
219 234 255
219 234 255
219 234 255
219 234 255
219 234 255
219 234 255
219 234 255
219 234 255
219 234 255
219 234 255
219 234 255
219 234 255
219 234 255
219 234 255
219 234 255
219 234 255
219 234 255
219 234 255
219 234 255
219 234 255
219 234 255
219 234 255
219 234 255
219 234 255
219 234 255
219 234 255
219 234 255
219 234 255
219 234 255
219 234 255
219 234 255
219 234 255
219 234 255
219 234 255
219 234 255
219 234 255
219 234 255
219 234 255
219 234 255
219 234 255
219 234 255
219 234 255
219 234 255
219 234 255
219 234 255
219 234 255
219 234 255
219 234 255
219 234 255
219 234 255
219 234 255
219 234 255
219 234 255
219 234 255
219 234 255
219 234 255
219 234 255
219 234 255
219 234 255
219 234 255
219 234 255
219 234 255
219 234 255
219 234 255
219 234 255
219 234 255
219 234 255
219 234 255
219 234 255
219 234 255
219 234 255
219 234 255
219 234 255
219 234 255
219 234 255
219 234 255
219 234 255
219 234 255
219 234 255
219 234 255
219 234 255
219 234 255
219 234 255
219 234 255
219 234 255
219 234 255
219 234 255
218 234 255
218 234 255
218 234 255
218 234 255
218 234 255
218 234 255
218 234 255
218 234 255
218 234 255
218 234 255
218 234 255
218 234 255
218 234 255
218 234 255
218 234 255
218 234 255
218 234 255
218 234 255
218 234 255
218 234 255
218 234 255
218 234 255
218 234 255
218 234 255
218 234 255
218 234 255
218 234 255
218 234 255
218 234 255
218 234 255
218 234 255
218 234 255
218 234 255
218 234 255
218 234 255
218 234 255
218 234 255
218 234 255
218 234 255
218 234 255
218 234 255
218 234 255
218 234 255
218 234 255
218 234 255
218 234 255
218 234 255
218 234 255
218 234 255
218 234 255
218 234 255
218 234 255
218 234 255
218 234 255
218 234 255
218 234 255
218 234 255
218 234 255
218 234 255
218 234 255
218 234 255
218 234 255
218 234 255
218 234 255
218 234 255
218 234 255
218 234 255
218 234 255
218 234 255
218 234 255
218 234 255
218 234 255
218 234 255
218 234 255
218 234 255
218 234 255
218 234 255
218 234 255
218 234 255
218 234 255
218 234 255
218 234 255
218 234 255
218 234 255
218 234 255
218 234 255
218 234 255
218 234 255
218 234 255
218 234 255
218 234 255
218 234 255
218 234 255
218 234 255
218 234 255
218 234 255
218 234 255
218 234 255
218 234 255
218 234 255
218 234 255
218 234 255
218 234 255
218 234 255
218 234 255
218 234 255
218 234 255
218 234 255
218 234 255
218 234 255
218 234 255
218 234 255
218 234 255
218 234 255
218 234 255
218 234 255
218 234 255
218 234 255
218 234 255
218 234 255
218 234 255
218 234 255
218 234 255
218 234 255
218 234 255
218 234 255
218 234 255
218 234 255
218 234 255
218 234 255
218 234 255
218 234 255
218 234 255
218 234 255
218 234 255
218 234 255
218 234 255
218 234 255
218 234 255
218 234 255
218 234 255
218 234 255
218 234 255
218 234 255
218 234 255
218 234 255
218 234 255
218 234 255
218 234 255
218 234 255
218 234 255
218 234 255
218 234 255
218 234 255
218 234 255
218 234 255
218 234 255
218 234 255
218 234 255
218 234 255
218 234 255
218 234 255
218 234 255
218 234 255
218 234 255
218 234 255
218 234 255
218 234 255
218 234 255
218 234 255
218 234 255
218 234 255
218 234 255
218 234 255
218 234 255
218 234 255
218 234 255
218 234 255
218 234 255
218 234 255
218 234 255
218 234 255
218 234 255
219 234 255
219 234 255
219 234 255
219 234 255
219 234 255
219 234 255
219 234 255
219 234 255
219 234 255
219 234 255
219 234 255
219 234 255
219 234 255
219 234 255
219 234 255
219 234 255
219 234 255
219 234 255
219 234 255
219 234 255
219 234 255
219 234 255
219 234 255
219 234 255
219 234 255
219 234 255
219 234 255
219 234 255
219 234 255
219 234 255
219 234 255
219 234 255
219 234 255
219 234 255
219 234 255
219 234 255
219 234 255
219 234 255
219 234 255
219 234 255
219 234 255
219 234 255
219 234 255
219 234 255
219 234 255
219 234 255
219 234 255
219 234 255
219 234 255
219 234 255
219 234 255
219 234 255
219 234 255
219 234 255
219 234 255
219 234 255
219 234 255
219 234 255
219 234 255
219 234 255
219 234 255
219 234 255
219 234 255
219 234 255
219 234 255
219 234 255
219 234 255
219 234 255
219 234 255
219 234 255
219 234 255
219 234 255
219 234 255
219 234 255
219 234 255
219 234 255
219 234 255
219 234 255
219 234 255
219 234 255
219 234 255
219 234 255
219 234 255
219 234 255
219 234 255
219 234 255
219 234 255
219 234 255
219 234 255
219 234 255
219 234 255
219 234 255
219 234 255
219 234 255
219 234 255
219 234 255
219 234 255
219 234 255
219 234 255
219 234 255
219 234 255
219 234 255
219 234 255
219 234 255
219 234 255
219 234 255
219 234 255
219 234 255
219 235 255
219 235 255
219 235 255
219 235 255
219 235 255
219 235 255
219 235 255
219 235 255
219 235 255
219 234 255
219 234 255
219 234 255
219 234 255
219 234 255
219 234 255
219 234 255
219 234 255
219 234 255
219 234 255
219 234 255
219 234 255
219 234 255
219 234 255
219 234 255
219 234 255
219 234 255
219 234 255
219 234 255
219 234 255
219 234 255
219 234 255
219 234 255
219 234 255
219 234 255
219 234 255
219 234 255
219 234 255
219 234 255
219 234 255
219 234 255
219 234 255
219 234 255
219 234 255
219 234 255
219 234 255
219 234 255
219 234 255
219 234 255
219 234 255
219 234 255
219 234 255
219 234 255
219 234 255
219 234 255
219 234 255
219 234 255
219 234 255
219 234 255
219 234 255
219 234 255
219 234 255
219 234 255
219 234 255
219 234 255
219 234 255
219 234 255
219 234 255
219 234 255
219 234 255
219 234 255
219 234 255
219 234 255
219 234 255
219 234 255
219 234 255
219 234 255
219 234 255
219 234 255
219 234 255
219 234 255
219 234 255
219 234 255
219 234 255
219 234 255
219 234 255
219 234 255
219 234 255
219 234 255
219 234 255
219 234 255
219 234 255
219 234 255
219 234 255
219 234 255
219 234 255
219 234 255
219 234 255
219 234 255
219 234 255
219 234 255
219 234 255
219 234 255
219 234 255
219 234 255
219 234 255
219 234 255
219 234 255
219 234 255
219 234 255
219 234 255
219 234 255
219 234 255
219 234 255
219 234 255
219 234 255
219 234 255
219 234 255
219 234 255
219 234 255
219 234 255
219 234 255
219 234 255
219 234 255
219 234 255
219 234 255
219 234 255
219 234 255
219 234 255
219 234 255
219 234 255
218 234 255
218 234 255
218 234 255
218 234 255
218 234 255
218 234 255
218 234 255
218 234 255
218 234 255
218 234 255
218 234 255
218 234 255
218 234 255
218 234 255
218 234 255
218 234 255
218 234 255
218 234 255
218 234 255
218 234 255
218 234 255
218 234 255
218 234 255
218 234 255
218 234 255
218 234 255
218 234 255
218 234 255
218 234 255
218 234 255
218 234 255
218 234 255
218 234 255
218 234 255
218 234 255
218 234 255
218 234 255
218 234 255
218 234 255
218 234 255
218 234 255
218 234 255
218 234 255
218 234 255
218 234 255
218 234 255
218 234 255
218 234 255
218 234 255
218 234 255
218 234 255
218 234 255
218 234 255
218 234 255
218 234 255
218 234 255
218 234 255
218 234 255
218 234 255
218 234 255
218 234 255
218 234 255
218 234 255
218 234 255
218 234 255
218 234 255
218 234 255
218 234 255
218 234 255
218 234 255
218 234 255
218 234 255
218 234 255
218 234 255
218 234 255
218 234 255
218 234 255
218 234 255
218 234 255
218 234 255
218 234 255
218 234 255
218 234 255
218 234 255
218 234 255
218 234 255
218 234 255
218 234 255
218 234 255
218 234 255
218 234 255
218 234 255
218 234 255
218 234 255
218 234 255
218 234 255
218 234 255
218 234 255
218 234 255
218 234 255
218 234 255
218 234 255
218 234 255
218 234 255
218 234 255
218 234 255
218 234 255
218 234 255
218 234 255
218 234 255
218 234 255
218 234 255
218 234 255
218 234 255
218 234 255
218 234 255
218 234 255
218 234 255
218 234 255
218 234 255
218 234 255
218 234 255
218 234 255
218 234 255
218 234 255
218 234 255
218 234 255
218 234 255
218 234 255
218 234 255
218 234 255
218 234 255
218 234 255
218 234 255
218 234 255
218 234 255
218 234 255
218 234 255
218 234 255
219 234 255
218 234 255
219 234 255
219 234 255
219 234 255
219 234 255
219 234 255
219 234 255
219 234 255
219 234 255
219 234 255
219 234 255
219 234 255
219 234 255
219 234 255
219 234 255
219 234 255
219 234 255
219 234 255
219 234 255
219 234 255
219 234 255
219 234 255
219 234 255
219 234 255
219 234 255
219 234 255
219 234 255
219 234 255
219 234 255
219 234 255
219 234 255
219 234 255
219 234 255
219 234 255
219 234 255
219 234 255
219 234 255
219 234 255
219 234 255
219 234 255
219 234 255
219 234 255
219 234 255
219 234 255
219 234 255
219 234 255
219 234 255
219 234 255
219 234 255
219 234 255
219 234 255
219 234 255
219 234 255
219 234 255
219 234 255
219 234 255
219 234 255
219 234 255
219 234 255
219 234 255
219 234 255
219 234 255
219 234 255
219 234 255
219 234 255
219 234 255
219 234 255
219 234 255
219 234 255
219 234 255
219 234 255
219 234 255
219 234 255
219 234 255
219 234 255
219 234 255
219 234 255
219 234 255
219 234 255
219 234 255
219 234 255
219 234 255
219 234 255
219 234 255
219 234 255
219 234 255
219 234 255
219 234 255
219 234 255
219 234 255
219 234 255
219 234 255
219 234 255
219 234 255
219 234 255
219 234 255
219 234 255
219 234 255
219 234 255
219 234 255
219 234 255
219 234 255
219 234 255
219 234 255
219 234 255
219 234 255
219 234 255
219 234 255
219 234 255
219 234 255
219 234 255
219 234 255
219 234 255
219 234 255
219 234 255
219 234 255
219 234 255
219 234 255
219 234 255
219 234 255
219 234 255
219 234 255
219 234 255
219 235 255
219 235 255
219 235 255
219 235 255
219 235 255
219 235 255
219 235 255
220 235 255
220 235 255
220 235 255
220 235 255
220 235 255
220 235 255
220 235 255
220 235 255
220 235 255
220 235 255
219 235 255
219 235 255
219 235 255
219 235 255
219 235 255
219 235 255
219 235 255
219 235 255
219 235 255
219 235 255
219 235 255
219 235 255
219 235 255
219 235 255
219 235 255
219 235 255
219 235 255
219 235 255
219 235 255
219 234 255
219 234 255
219 234 255
219 234 255
219 234 255
219 234 255
219 234 255
219 234 255
219 234 255
219 234 255
219 234 255
219 234 255
219 234 255
219 234 255
219 234 255
219 234 255
219 234 255
219 234 255
219 234 255
219 234 255
219 234 255
219 234 255
219 234 255
219 234 255
219 234 255
219 234 255
219 234 255
219 234 255
219 234 255
219 234 255
219 234 255
219 234 255
219 234 255
219 234 255
219 234 255
219 234 255
219 234 255
219 234 255
219 234 255
219 234 255
219 234 255
219 234 255
219 234 255
219 234 255
219 234 255
219 234 255
219 234 255
219 234 255
219 234 255
219 234 255
219 234 255
219 234 255
219 234 255
219 234 255
219 234 255
219 234 255
219 234 255
219 234 255
219 234 255
219 234 255
219 234 255
219 234 255
219 234 255
219 234 255
219 234 255
219 234 255
219 234 255
219 234 255
219 234 255
219 234 255
219 234 255
219 234 255
219 234 255
219 234 255
219 234 255
219 234 255
219 234 255
219 234 255
219 234 255
219 234 255
219 234 255
219 234 255
219 234 255
219 234 255
219 234 255
219 234 255
219 234 255
219 234 255
219 234 255
219 234 255
219 234 255
219 234 255
219 234 255
219 234 255
219 234 255
219 234 255
219 234 255
219 234 255
219 234 255
219 234 255
219 234 255
219 234 255
219 234 255
219 234 255
219 234 255
219 234 255
219 234 255
219 234 255
219 234 255
219 234 255
219 234 255
219 234 255
219 234 255
219 234 255
219 234 255
219 234 255
219 234 255
219 234 255
219 234 255
219 234 255
219 234 255
219 234 255
219 234 255
219 234 255
219 234 255
219 234 255
219 234 255
219 234 255
219 234 255
219 234 255
219 234 255
219 234 255
218 234 255
218 234 255
218 234 255
218 234 255
218 234 255
218 234 255
218 234 255
218 234 255
218 234 255
218 234 255
218 234 255
218 234 255
218 234 255
218 234 255
218 234 255
218 234 255
218 234 255
218 234 255
218 234 255
218 234 255
218 234 255
218 234 255
218 234 255
218 234 255
218 234 255
218 234 255
218 234 255
218 234 255
218 234 255
218 234 255
218 234 255
218 234 255
218 234 255
218 234 255
218 234 255
218 234 255
218 234 255
218 234 255
218 234 255
218 234 255
218 234 255
218 234 255
218 234 255
218 234 255
218 234 255
218 234 255
218 234 255
218 234 255
218 234 255
218 234 255
218 234 255
218 234 255
218 234 255
218 234 255
218 234 255
218 234 255
218 234 255
218 234 255
218 234 255
218 234 255
218 234 255
218 234 255
218 234 255
218 234 255
218 234 255
218 234 255
218 234 255
218 234 255
218 234 255
218 234 255
218 234 255
218 234 255
218 234 255
218 234 255
218 234 255
218 234 255
219 234 255
218 234 255
219 234 255
219 234 255
219 234 255
219 234 255
219 234 255
219 234 255
219 234 255
219 234 255
219 234 255
219 234 255
219 234 255
219 234 255
219 234 255
219 234 255
219 234 255
219 234 255
219 234 255
219 234 255
219 234 255
219 234 255
219 234 255
219 234 255
219 234 255
219 234 255
219 234 255
219 234 255
219 234 255
219 234 255
219 234 255
219 234 255
219 234 255
219 234 255
219 234 255
219 234 255
219 234 255
219 234 255
219 234 255
219 234 255
219 234 255
219 234 255
219 234 255
219 234 255
219 234 255
219 234 255
219 234 255
219 234 255
219 234 255
219 234 255
219 234 255
219 234 255
219 234 255
219 234 255
219 234 255
219 234 255
219 234 255
219 234 255
219 234 255
219 234 255
219 234 255
219 234 255
219 234 255
219 234 255
219 234 255
219 234 255
219 234 255
219 234 255
219 234 255
219 234 255
219 234 255
219 234 255
219 234 255
219 234 255
219 234 255
219 234 255
219 234 255
219 234 255
219 234 255
219 234 255
219 234 255
219 234 255
219 234 255
219 234 255
219 234 255
219 234 255
219 234 255
219 234 255
219 234 255
219 234 255
219 234 255
219 234 255
219 234 255
219 234 255
219 234 255
219 234 255
219 234 255
219 234 255
219 234 255
219 234 255
219 234 255
219 234 255
219 234 255
219 234 255
219 234 255
219 234 255
219 234 255
219 234 255
219 234 255
219 234 255
219 234 255
219 234 255
219 234 255
219 234 255
219 234 255
219 234 255
219 234 255
219 234 255
219 234 255
219 234 255
219 234 255
219 234 255
219 234 255
219 234 255
219 234 255
219 234 255
219 234 255
219 234 255
219 234 255
219 234 255
219 234 255
219 234 255
219 234 255
219 235 255
219 235 255
219 235 255
219 235 255
219 235 255
219 235 255
219 235 255
219 235 255
219 235 255
219 235 255
219 235 255
219 235 255
219 235 255
219 235 255
219 235 255
219 235 255
219 235 255
219 235 255
219 235 255
220 235 255
220 235 255
220 235 255
220 235 255
220 235 255
220 235 255
220 235 255
220 235 255
220 235 255
220 235 255
220 235 255
220 235 255
220 235 255
220 235 255
220 235 255
220 235 255
220 235 255
220 235 255
220 235 255
220 235 255
220 235 255
220 235 255
220 235 255
220 235 255
220 235 255
220 235 255
220 235 255
220 235 255
220 235 255
220 235 255
220 235 255
220 235 255
220 235 255
220 235 255
220 235 255
220 235 255
220 235 255
220 235 255
220 235 255
220 235 255
220 235 255
220 235 255
220 235 255
219 235 255
219 235 255
219 235 255
219 235 255
219 235 255
219 235 255
219 235 255
219 235 255
219 235 255
219 235 255
219 235 255
219 235 255
219 235 255
219 235 255
219 235 255
219 235 255
219 235 255
219 235 255
219 235 255
219 234 255
219 234 255
219 234 255
219 234 255
219 234 255
219 234 255
219 234 255
219 234 255
219 234 255
219 234 255
219 234 255
219 234 255
219 234 255
219 234 255
219 234 255
219 234 255
219 234 255
219 234 255
219 234 255
219 234 255
219 234 255
219 234 255
219 234 255
219 234 255
219 234 255
219 234 255
219 234 255
219 234 255
219 234 255
219 234 255
219 234 255
219 234 255
219 234 255
219 234 255
219 234 255
219 234 255
219 234 255
219 234 255
219 234 255
219 234 255
219 234 255
219 234 255
219 234 255
219 234 255
219 234 255
219 234 255
219 234 255
219 234 255
219 234 255
219 234 255
219 234 255
219 234 255
219 234 255
219 234 255
219 234 255
219 234 255
219 234 255
219 234 255
219 234 255
219 234 255
219 234 255
219 234 255
219 234 255
219 234 255
219 234 255
219 234 255
219 234 255
219 234 255
219 234 255
219 234 255
219 234 255
219 234 255
219 234 255
219 234 255
219 234 255
219 234 255
219 234 255
219 234 255
219 234 255
219 234 255
219 234 255
219 234 255
219 234 255
219 234 255
219 234 255
219 234 255
219 234 255
219 234 255
219 234 255
219 234 255
219 234 255
219 234 255
219 234 255
219 234 255
219 234 255
219 234 255
219 234 255
219 234 255
219 234 255
219 234 255
219 234 255
219 234 255
219 234 255
219 234 255
219 234 255
219 234 255
219 234 255
219 234 255
219 234 255
219 234 255
219 234 255
219 234 255
219 234 255
219 234 255
219 234 255
219 234 255
219 234 255
219 234 255
219 234 255
219 234 255
219 234 255
219 234 255
219 234 255
219 234 255
219 234 255
219 234 255
219 234 255
219 234 255
219 234 255
219 234 255
219 234 255
219 234 255
219 234 255
219 234 255
219 234 255
219 234 255
219 234 255
219 234 255
219 234 255
219 234 255
219 234 255
219 234 255
219 234 255
219 234 255
219 234 255
219 234 255
219 234 255
219 234 255
219 234 255
219 234 255
219 234 255
219 234 255
219 234 255
219 234 255
219 234 255
219 234 255
219 234 255
219 234 255
219 234 255
219 234 255
219 234 255
219 234 255
219 234 255
219 234 255
219 234 255
219 234 255
219 234 255
219 234 255
219 234 255
219 234 255
219 234 255
219 234 255
219 234 255
219 234 255
219 234 255
219 234 255
219 234 255
219 234 255
219 234 255
219 234 255
219 234 255
219 234 255
219 234 255
219 234 255
219 234 255
219 234 255
219 234 255
219 234 255
219 234 255
219 234 255
219 234 255
219 234 255
219 234 255
219 234 255
219 234 255
219 234 255
219 234 255
219 234 255
219 234 255
219 234 255
219 234 255
219 234 255
219 234 255
219 234 255
219 234 255
219 234 255
219 234 255
219 234 255
219 234 255
219 234 255
219 234 255
219 234 255
219 234 255
219 234 255
219 234 255
219 234 255
219 234 255
219 234 255
219 234 255
219 234 255
219 234 255
219 234 255
219 234 255
219 234 255
219 234 255
219 234 255
219 234 255
219 234 255
219 234 255
219 234 255
219 234 255
219 234 255
219 234 255
219 234 255
219 234 255
219 234 255
219 234 255
219 234 255
219 234 255
219 234 255
219 234 255
219 234 255
219 234 255
219 234 255
219 234 255
219 234 255
219 234 255
219 234 255
219 234 255
219 234 255
219 234 255
219 234 255
219 234 255
219 234 255
219 234 255
219 234 255
219 234 255
219 234 255
219 234 255
219 234 255
219 234 255
219 234 255
219 234 255
219 234 255
219 234 255
219 234 255
219 234 255
219 234 255
219 234 255
219 234 255
219 234 255
219 234 255
219 234 255
219 234 255
219 234 255
219 234 255
219 234 255
219 234 255
219 234 255
219 234 255
219 234 255
219 234 255
219 234 255
219 234 255
219 234 255
219 234 255
219 234 255
219 234 255
219 234 255
219 234 255
219 234 255
219 234 255
219 234 255
219 234 255
219 234 255
219 234 255
219 234 255
219 234 255
219 235 255
219 235 255
219 235 255
219 235 255
219 235 255
219 235 255
219 235 255
219 235 255
219 235 255
219 235 255
219 235 255
219 235 255
219 235 255
219 235 255
219 235 255
219 235 255
219 235 255
219 235 255
220 235 255
220 235 255
220 235 255
220 235 255
220 235 255
220 235 255
220 235 255
220 235 255
220 235 255
220 235 255
220 235 255
220 235 255
220 235 255
220 235 255
220 235 255
220 235 255
220 235 255
220 235 255
220 235 255
220 235 255
220 235 255
220 235 255
220 235 255
220 235 255
220 235 255
220 235 255
220 235 255
220 235 255
220 235 255
220 235 255
220 235 255
220 235 255
220 235 255
220 235 255
220 235 255
220 235 255
220 235 255
220 235 255
220 235 255
220 235 255
220 235 255
220 235 255
220 235 255
220 235 255
220 235 255
220 235 255
220 235 255
220 235 255
220 235 255
220 235 255
220 235 255
220 235 255
220 235 255
220 235 255
220 235 255
220 235 255
220 235 255
220 235 255
220 235 255
220 235 255
220 235 255
220 235 255
220 235 255
220 235 255
220 235 255
220 235 255
220 235 255
220 235 255
220 235 255
220 235 255
220 235 255
220 235 255
220 235 255
220 235 255
220 235 255
220 235 255
220 235 255
220 235 255
220 235 255
220 235 255
220 235 255
220 235 255
220 235 255
220 235 255
220 235 255
220 235 255
220 235 255
220 235 255
220 235 255
220 235 255
219 235 255
219 235 255
219 235 255
219 235 255
219 235 255
219 235 255
219 235 255
219 235 255
219 235 255
219 235 255
219 235 255
219 235 255
219 235 255
219 235 255
219 235 255
219 235 255
219 235 255
219 235 255
219 234 255
219 234 255
219 234 255
219 234 255
219 234 255
219 234 255
219 234 255
219 234 255
219 234 255
219 234 255
219 234 255
219 234 255
219 234 255
219 234 255
219 234 255
219 234 255
219 234 255
219 234 255
219 234 255
219 234 255
219 234 255
219 234 255
219 234 255
219 234 255
219 234 255
219 234 255
219 234 255
219 234 255
219 234 255
219 234 255
219 234 255
219 234 255
219 234 255
219 234 255
219 234 255
219 234 255
219 234 255
219 234 255
219 234 255
219 234 255
219 234 255
219 234 255
219 234 255
219 234 255
219 234 255
219 234 255
219 234 255
219 234 255
219 234 255
219 234 255
219 234 255
219 234 255
219 234 255
219 234 255
219 234 255
219 234 255
219 234 255
219 234 255
219 234 255
219 234 255
219 234 255
219 234 255
219 234 255
219 234 255
219 234 255
219 234 255
219 234 255
219 234 255
219 234 255
219 234 255
219 234 255
219 234 255
219 234 255
219 234 255
219 234 255
219 234 255
219 234 255
219 234 255
219 234 255
219 234 255
219 234 255
219 234 255
219 234 255
219 234 255
219 234 255
219 234 255
219 234 255
219 234 255
219 234 255
219 234 255
219 234 255
219 234 255
219 234 255
219 234 255
219 234 255
219 234 255
219 234 255
219 234 255
219 234 255
219 234 255
219 234 255
219 234 255
219 234 255
219 234 255
219 234 255
219 234 255
219 234 255
219 234 255
219 234 255
219 234 255
219 234 255
219 234 255
219 234 255
219 234 255
219 234 255
219 234 255
219 234 255
219 234 255
219 234 255
219 234 255
219 234 255
219 234 255
219 234 255
219 234 255
219 234 255
219 234 255
219 234 255
219 234 255
219 234 255
219 234 255
219 234 255
219 234 255
219 234 255
219 234 255
219 234 255
219 234 255
219 234 255
219 234 255
219 234 255
219 234 255
219 234 255
219 234 255
219 234 255
219 234 255
219 234 255
219 234 255
219 234 255
219 234 255
219 234 255
219 234 255
219 234 255
219 234 255
219 234 255
219 234 255
219 234 255
219 234 255
219 234 255
219 234 255
219 234 255
219 234 255
219 234 255
219 234 255
219 234 255
219 234 255
219 234 255
219 234 255
219 234 255
219 234 255
219 234 255
219 234 255
219 234 255
219 234 255
219 234 255
219 234 255
219 234 255
219 234 255
219 234 255
219 234 255
219 234 255
219 234 255
219 234 255
219 234 255
219 234 255
219 234 255
219 234 255
219 234 255
219 234 255
219 234 255
219 234 255
219 234 255
219 234 255
219 234 255
219 234 255
219 234 255
219 234 255
219 234 255
219 234 255
219 234 255
219 234 255
219 234 255
219 234 255
219 234 255
219 234 255
219 234 255
219 234 255
219 234 255
219 234 255
219 234 255
219 234 255
219 234 255
219 234 255
219 234 255
219 234 255
219 234 255
219 234 255
219 234 255
219 234 255
219 234 255
219 234 255
219 234 255
219 234 255
219 234 255
219 234 255
219 234 255
219 234 255
219 234 255
219 234 255
219 234 255
219 234 255
219 234 255
219 234 255
219 234 255
219 234 255
219 234 255
219 234 255
219 234 255
219 234 255
219 234 255
219 234 255
219 234 255
219 234 255
219 234 255
219 234 255
219 234 255
219 234 255
219 234 255
219 234 255
219 234 255
219 234 255
219 235 255
219 235 255
219 235 255
219 235 255
219 235 255
219 235 255
219 235 255
219 235 255
219 235 255
219 235 255
219 235 255
219 235 255
219 235 255
219 235 255
219 235 255
219 235 255
219 235 255
219 235 255
219 235 255
219 235 255
220 235 255
220 235 255
220 235 255
220 235 255
220 235 255
220 235 255
220 235 255
220 235 255
220 235 255
220 235 255
220 235 255
220 235 255
220 235 255
220 235 255
220 235 255
220 235 255
220 235 255
220 235 255
220 235 255
220 235 255
220 235 255
220 235 255
220 235 255
220 235 255
220 235 255
220 235 255
220 235 255
220 235 255
220 235 255
220 235 255
220 235 255
220 235 255
220 235 255
220 235 255
220 235 255
220 235 255
220 235 255
220 235 255
220 235 255
220 235 255
220 235 255
220 235 255
220 235 255
220 235 255
220 235 255
220 235 255
220 235 255
220 235 255
220 235 255
220 235 255
220 235 255
220 235 255
220 235 255
220 235 255
220 235 255
220 235 255
220 235 255
220 235 255
220 235 255
220 235 255
220 235 255
220 235 255
220 235 255
220 235 255
220 235 255
220 235 255
220 235 255
220 235 255
220 235 255
220 235 255
220 235 255
220 235 255
220 235 255
220 235 255
220 235 255
220 235 255
220 235 255
220 235 255
220 235 255
220 235 255
220 235 255
220 235 255
220 235 255
220 235 255
220 235 255
220 235 255
220 235 255
220 235 255
220 235 255
220 235 255
220 235 255
220 235 255
220 235 255
220 235 255
220 235 255
220 235 255
220 235 255
220 235 255
220 235 255
220 235 255
220 235 255
220 235 255
220 235 255
220 235 255
220 235 255
220 235 255
220 235 255
220 235 255
220 235 255
220 235 255
220 235 255
220 235 255
220 235 255
220 235 255
220 235 255
220 235 255
220 235 255
220 235 255
220 235 255
220 235 255
220 235 255
220 235 255
220 235 255
220 235 255
220 235 255
220 235 255
220 235 255
220 235 255
220 235 255
220 235 255
220 235 255
220 235 255
220 235 255
220 235 255
220 235 255
220 235 255
220 235 255
220 235 255
219 235 255
219 235 255
219 235 255
219 235 255
219 235 255
219 235 255
219 235 255
219 235 255
219 235 255
219 235 255
219 235 255
219 235 255
219 235 255
219 235 255
219 235 255
219 235 255
219 235 255
219 235 255
219 234 255
219 235 255
219 234 255
219 234 255
219 234 255
219 234 255
219 234 255
219 234 255
219 234 255
219 234 255
219 234 255
219 234 255
219 234 255
219 234 255
219 234 255
219 234 255
219 234 255
219 234 255
219 234 255
219 234 255
219 234 255
219 234 255
219 234 255
219 234 255
219 234 255
219 234 255
219 234 255
219 234 255
219 234 255
219 234 255
219 234 255
219 234 255
219 234 255
219 234 255
219 234 255
219 234 255
219 234 255
219 234 255
219 234 255
219 234 255
219 234 255
219 234 255
219 234 255
219 234 255
219 234 255
219 234 255
219 234 255
219 234 255
219 234 255
219 234 255
219 234 255
219 234 255
219 234 255
219 234 255
219 234 255
219 234 255
219 234 255
219 234 255
219 234 255
219 234 255
219 234 255
219 234 255
219 234 255
219 234 255
219 234 255
219 234 255
219 234 255
219 234 255
219 234 255
219 234 255
219 234 255
219 234 255
219 234 255
219 234 255
219 234 255
219 234 255
219 234 255
219 234 255
219 234 255
219 234 255
219 234 255
219 234 255
219 234 255
219 234 255
219 234 255
219 234 255
219 234 255
219 234 255
219 234 255
219 234 255
219 234 255
219 234 255
219 234 255
219 234 255
219 234 255
219 234 255
219 234 255
219 234 255
219 234 255
219 234 255
219 234 255
219 234 255
219 234 255
219 234 255
219 234 255
219 234 255
219 234 255
219 234 255
219 234 255
219 234 255
219 234 255
219 234 255
219 234 255
219 234 255
219 234 255
219 234 255
219 234 255
219 234 255
219 234 255
219 234 255
219 234 255
219 234 255
219 234 255
219 234 255
219 234 255
219 234 255
219 234 255
219 234 255
219 234 255
219 234 255
219 234 255
219 234 255
219 234 255
219 234 255
219 234 255
219 234 255
219 234 255
219 234 255
219 234 255
219 234 255
219 234 255
219 234 255
219 234 255
219 234 255
219 234 255
219 234 255
219 234 255
219 234 255
219 234 255
219 234 255
219 234 255
219 234 255
219 234 255
219 234 255
219 234 255
219 234 255
219 234 255
219 234 255
219 234 255
219 234 255
219 234 255
219 234 255
219 234 255
219 234 255
219 234 255
219 234 255
219 234 255
219 234 255
219 234 255
219 234 255
219 234 255
219 234 255
219 234 255
219 234 255
219 234 255
219 234 255
219 234 255
219 234 255
219 234 255
219 234 255
219 234 255
219 234 255
219 234 255
219 234 255
219 234 255
219 234 255
219 234 255
219 234 255
219 234 255
219 234 255
219 234 255
219 234 255
219 234 255
219 234 255
219 234 255
219 234 255
219 234 255
219 234 255
219 235 255
219 235 255
219 235 255
219 235 255
219 235 255
219 235 255
219 235 255
219 235 255
219 235 255
219 235 255
219 235 255
219 235 255
219 235 255
219 235 255
219 235 255
219 235 255
219 235 255
219 235 255
219 235 255
219 235 255
220 235 255
220 235 255
220 235 255
220 235 255
220 235 255
220 235 255
220 235 255
220 235 255
220 235 255
220 235 255
220 235 255
220 235 255
220 235 255
220 235 255
220 235 255
220 235 255
220 235 255
220 235 255
220 235 255
220 235 255
220 235 255
220 235 255
220 235 255
220 235 255
220 235 255
220 235 255
220 235 255
220 235 255
220 235 255
220 235 255
220 235 255
220 235 255
220 235 255
220 235 255
220 235 255
220 235 255
220 235 255
220 235 255
220 235 255
220 235 255
220 235 255
220 235 255
220 235 255
220 235 255
220 235 255
220 235 255
220 235 255
220 235 255
220 235 255
220 235 255
220 235 255
220 235 255
220 235 255
220 235 255
220 235 255
220 235 255
220 235 255
220 235 255
220 235 255
220 235 255
220 235 255
220 235 255
220 235 255
220 235 255
220 235 255
220 235 255
220 235 255
220 235 255
220 235 255
220 235 255
220 235 255
220 235 255
220 235 255
220 235 255
220 235 255
220 235 255
220 235 255
220 235 255
220 235 255
220 235 255
220 235 255
220 235 255
220 235 255
220 235 255
220 235 255
220 235 255
220 235 255
220 235 255
220 235 255
220 235 255
220 235 255
220 235 255
220 235 255
220 235 255
220 235 255
220 235 255
220 235 255
220 235 255
220 235 255
220 235 255
220 235 255
220 235 255
220 235 255
220 235 255
220 235 255
220 235 255
220 235 255
220 235 255
220 235 255
220 235 255
220 235 255
220 235 255
220 235 255
220 235 255
220 235 255
220 235 255
220 235 255
220 235 255
220 235 255
220 235 255
220 235 255
220 235 255
220 235 255
220 235 255
220 235 255
220 235 255
220 235 255
220 235 255
220 235 255
220 235 255
220 235 255
220 235 255
220 235 255
220 235 255
220 235 255
220 235 255
220 235 255
220 235 255
220 235 255
220 235 255
220 235 255
220 235 255
220 235 255
220 235 255
220 235 255
220 235 255
220 235 255
220 235 255
220 235 255
220 235 255
220 235 255
220 235 255
220 235 255
220 235 255
220 235 255
220 235 255
220 235 255
220 235 255
220 235 255
220 235 255
220 235 255
220 235 255
220 235 255
220 235 255
220 235 255
220 235 255
220 235 255
220 235 255
220 235 255
220 235 255
220 235 255
220 235 255
220 235 255
220 235 255
220 235 255
220 235 255
220 235 255
220 235 255
220 235 255
220 235 255
220 235 255
220 235 255
220 235 255
220 235 255
220 235 255
220 235 255
220 235 255
220 235 255
220 235 255
220 235 255
220 235 255
220 235 255
220 235 255
219 235 255
219 235 255
220 235 255
219 235 255
219 235 255
219 235 255
219 235 255
219 235 255
219 235 255
219 235 255
219 235 255
219 235 255
219 235 255
219 235 255
219 235 255
219 235 255
219 235 255
219 235 255
219 235 255
219 235 255
219 235 255
219 235 255
219 235 255
219 235 255
219 234 255
219 234 255
219 234 255
219 234 255
219 234 255
219 234 255
219 234 255
219 234 255
219 234 255
219 234 255
219 234 255
219 234 255
219 234 255
219 234 255
219 234 255
219 234 255
219 234 255
219 234 255
219 234 255
219 234 255
219 234 255
219 234 255
219 234 255
219 234 255
219 234 255
219 234 255
219 234 255
219 234 255
219 234 255
219 234 255
219 234 255
219 234 255
219 234 255
219 234 255
219 234 255
219 234 255
219 234 255
219 234 255
219 234 255
219 234 255
219 234 255
219 234 255
219 234 255
219 234 255
219 234 255
219 234 255
219 234 255
219 234 255
219 234 255
219 234 255
219 234 255
219 234 255
219 234 255
219 234 255
219 234 255
219 234 255
219 234 255
219 234 255
219 234 255
219 234 255
219 234 255
219 234 255
219 234 255
219 234 255
219 234 255
219 234 255
219 234 255
219 234 255
219 234 255
219 234 255
219 234 255
219 234 255
219 234 255
219 234 255
219 234 255
219 234 255
219 234 255
219 234 255
219 234 255
219 234 255
219 234 255
219 234 255
219 234 255
219 234 255
219 234 255
219 234 255
219 234 255
219 234 255
219 234 255
219 234 255
219 234 255
219 234 255
219 234 255
219 234 255
219 234 255
219 234 255
219 234 255
219 234 255
219 234 255
219 234 255
219 234 255
219 234 255
219 234 255
219 234 255
219 234 255
219 234 255
219 234 255
219 234 255
219 234 255
219 234 255
219 234 255
219 234 255
219 234 255
219 234 255
219 234 255
219 234 255
219 234 255
219 234 255
219 234 255
219 234 255
219 234 255
219 234 255
219 234 255
219 234 255
219 234 255
219 234 255
219 234 255
219 234 255
219 234 255
219 234 255
219 234 255
219 235 255
219 235 255
219 235 255
219 235 255
219 235 255
219 235 255
219 235 255
219 235 255
219 235 255
219 235 255
219 235 255
219 235 255
219 235 255
219 235 255
219 235 255
219 235 255
219 235 255
219 235 255
219 235 255
219 235 255
219 235 255
220 235 255
220 235 255
220 235 255
220 235 255
220 235 255
220 235 255
220 235 255
220 235 255
220 235 255
220 235 255
220 235 255
220 235 255
220 235 255
220 235 255
220 235 255
220 235 255
220 235 255
220 235 255
220 235 255
220 235 255
220 235 255
220 235 255
220 235 255
220 235 255
220 235 255
220 235 255
220 235 255
220 235 255
220 235 255
220 235 255
220 235 255
220 235 255
220 235 255
220 235 255
220 235 255
220 235 255
220 235 255
220 235 255
220 235 255
220 235 255
220 235 255
220 235 255
220 235 255
220 235 255
220 235 255
220 235 255
220 235 255
220 235 255
220 235 255
220 235 255
220 235 255
220 235 255
220 235 255
220 235 255
220 235 255
220 235 255
220 235 255
220 235 255
220 235 255
220 235 255
220 235 255
220 235 255
220 235 255
220 235 255
220 235 255
220 235 255
220 235 255
220 235 255
220 235 255
220 235 255
220 235 255
220 235 255
220 235 255
220 235 255
220 235 255
220 235 255
220 235 255
220 235 255
220 235 255
220 235 255
220 235 255
220 235 255
220 235 255
220 235 255
220 235 255
220 235 255
220 235 255
220 235 255
220 235 255
220 235 255
220 235 255
220 235 255
220 235 255
220 235 255
220 235 255
220 235 255
220 235 255
220 235 255
220 235 255
220 235 255
220 235 255
220 235 255
220 235 255
220 235 255
220 235 255
220 235 255
220 235 255
220 235 255
220 235 255
220 235 255
220 235 255
220 235 255
220 235 255
220 235 255
220 235 255
220 235 255
220 235 255
220 235 255
220 235 255
220 235 255
220 235 255
220 235 255
220 235 255
220 235 255
220 235 255
220 235 255
220 235 255
220 235 255
220 235 255
220 235 255
220 235 255
220 235 255
220 235 255
220 235 255
220 235 255
220 235 255
220 235 255
220 235 255
220 235 255
220 235 255
220 235 255
220 235 255
220 235 255
220 235 255
220 235 255
220 235 255
220 235 255
220 235 255
220 235 255
220 235 255
220 235 255
220 235 255
220 235 255
220 235 255
220 235 255
220 235 255
220 235 255
220 235 255
220 235 255
220 235 255
220 235 255
220 235 255
220 235 255
220 235 255
220 235 255
220 235 255
220 235 255
220 235 255
220 235 255
220 235 255
220 235 255
220 235 255
220 235 255
220 235 255
220 235 255
220 235 255
220 235 255
220 235 255
220 235 255
220 235 255
220 235 255
220 235 255
220 235 255
220 235 255
220 235 255
220 235 255
220 235 255
220 235 255
220 235 255
220 235 255
220 235 255
220 235 255
220 235 255
220 235 255
220 235 255
220 235 255
220 235 255
220 235 255
220 235 255
220 235 255
220 235 255
220 235 255
220 235 255
220 235 255
220 235 255
220 235 255
220 235 255
220 235 255
220 235 255
220 235 255
220 235 255
220 235 255
220 235 255
220 235 255
220 235 255
220 235 255
220 235 255
220 235 255
220 235 255
220 235 255
220 235 255
220 235 255
220 235 255
220 235 255
220 235 255
220 235 255
220 235 255
220 235 255
220 235 255
220 235 255
220 235 255
220 235 255
220 235 255
220 235 255
220 235 255
220 235 255
220 235 255
220 235 255
220 235 255
220 235 255
220 235 255
220 235 255
220 235 255
220 235 255
220 235 255
220 235 255
220 235 255
220 235 255
220 235 255
220 235 255
220 235 255
220 235 255
220 235 255
220 235 255
220 235 255
220 235 255
220 235 255
220 235 255
220 235 255
220 235 255
220 235 255
220 235 255
220 235 255
220 235 255
220 235 255
220 235 255
219 235 255
220 235 255
219 235 255
219 235 255
219 235 255
219 235 255
219 235 255
219 235 255
219 235 255
219 235 255
219 235 255
219 235 255
219 235 255
219 235 255
219 235 255
219 235 255
219 235 255
219 235 255
219 235 255
219 235 255
219 235 255
219 235 255
219 235 255
219 235 255
219 235 255
219 235 255
219 235 255
219 235 255
219 235 255
219 235 255
219 235 255
219 235 255
219 235 255
219 235 255
219 235 255
219 235 255
219 235 255
219 235 255
219 235 255
219 235 255
219 235 255
219 235 255
219 235 255
219 235 255
219 235 255
219 235 255
219 235 255
219 235 255
219 235 255
219 235 255
219 235 255
219 235 255
219 235 255
219 235 255
219 235 255
219 235 255
219 235 255
219 235 255
219 235 255
219 235 255
219 235 255
219 235 255
219 235 255
219 235 255
219 235 255
219 235 255
219 235 255
219 235 255
219 235 255
219 235 255
219 235 255
219 235 255
219 235 255
219 235 255
219 235 255
219 235 255
219 235 255
219 235 255
219 235 255
219 235 255
219 235 255
219 235 255
219 235 255
219 235 255
219 235 255
219 235 255
219 235 255
219 235 255
219 235 255
219 235 255
219 235 255
219 235 255
220 235 255
219 235 255
220 235 255
220 235 255
220 235 255
220 235 255
220 235 255
220 235 255
220 235 255
220 235 255
220 235 255
220 235 255
220 235 255
220 235 255
220 235 255
220 235 255
220 235 255
220 235 255
220 235 255
220 235 255
220 235 255
220 235 255
220 235 255
220 235 255
220 235 255
220 235 255
220 235 255
220 235 255
220 235 255
220 235 255
220 235 255
220 235 255
220 235 255
220 235 255
220 235 255
220 235 255
220 235 255
220 235 255
220 235 255
220 235 255
220 235 255
220 235 255
220 235 255
220 235 255
220 235 255
220 235 255
220 235 255
220 235 255
220 235 255
220 235 255
220 235 255
220 235 255
220 235 255
220 235 255
220 235 255
220 235 255
220 235 255
220 235 255
220 235 255
220 235 255
220 235 255
220 235 255
220 235 255
220 235 255
220 235 255
220 235 255
220 235 255
220 235 255
220 235 255
220 235 255
220 235 255
220 235 255
220 235 255
220 235 255
220 235 255
220 235 255
220 235 255
220 235 255
220 235 255
220 235 255
220 235 255
220 235 255
220 235 255
220 235 255
220 235 255
220 235 255
220 235 255
220 235 255
220 235 255
220 235 255
220 235 255
220 235 255
220 235 255
220 235 255
220 235 255
220 235 255
220 235 255
220 235 255
220 235 255
220 235 255
220 235 255
220 235 255
220 235 255
220 235 255
220 235 255
220 235 255
220 235 255
220 235 255
220 235 255
220 235 255
220 235 255
220 235 255
220 235 255
220 235 255
220 235 255
220 235 255
220 235 255
220 235 255
220 235 255
220 235 255
220 235 255
220 235 255
220 235 255
220 235 255
220 235 255
220 235 255
220 235 255
220 235 255
220 235 255
220 235 255
220 235 255
220 235 255
220 235 255
220 235 255
220 235 255
220 235 255
220 235 255
220 235 255
220 235 255
220 235 255
220 235 255
220 235 255
220 235 255
220 235 255
220 235 255
220 235 255
220 235 255
220 235 255
220 235 255
220 235 255
220 235 255
220 235 255
220 235 255
220 235 255
220 235 255
220 235 255
220 235 255
220 235 255
220 235 255
220 235 255
220 235 255
220 235 255
220 235 255
220 235 255
220 235 255
220 235 255
220 235 255
220 235 255
220 235 255
220 235 255
220 235 255
220 235 255
220 235 255
220 235 255
220 235 255
220 235 255
220 235 255
220 235 255
220 235 255
220 235 255
220 235 255
220 235 255
220 235 255
220 235 255
220 235 255
220 235 255
220 235 255
220 235 255
220 235 255
220 235 255
220 235 255
220 235 255
220 235 255
220 235 255
220 235 255
220 235 255
220 235 255
220 235 255
220 235 255
220 235 255
220 235 255
220 235 255
220 235 255
220 235 255
220 235 255
220 235 255
220 235 255
220 235 255
220 235 255
220 235 255
220 235 255
220 235 255
220 235 255
220 235 255
220 235 255
220 235 255
220 235 255
220 235 255
220 235 255
220 235 255
220 235 255
220 235 255
220 235 255
220 235 255
220 235 255
220 235 255
220 235 255
220 235 255
220 235 255
220 235 255
220 235 255
220 235 255
220 235 255
220 235 255
220 235 255
220 235 255
220 235 255
220 235 255
220 235 255
220 235 255
220 235 255
220 235 255
220 235 255
220 235 255
220 235 255
220 235 255
220 235 255
220 235 255
220 235 255
220 235 255
220 235 255
220 235 255
220 235 255
220 235 255
220 235 255
220 235 255
220 235 255
220 235 255
220 235 255
220 235 255
220 235 255
220 235 255
220 235 255
220 235 255
220 235 255
220 235 255
220 235 255
220 235 255
220 235 255
220 235 255
220 235 255
220 235 255
220 235 255
220 235 255
220 235 255
220 235 255
220 235 255
220 235 255
220 235 255
220 235 255
220 235 255
220 235 255
220 235 255
220 235 255
220 235 255
220 235 255
220 235 255
220 235 255
220 235 255
220 235 255
220 235 255
220 235 255
220 235 255
220 235 255
220 235 255
220 235 255
220 235 255
220 235 255
220 235 255
220 235 255
220 235 255
220 235 255
220 235 255
220 235 255
220 235 255
220 235 255
220 235 255
220 235 255
220 235 255
220 235 255
220 235 255
220 235 255
220 235 255
220 235 255
220 235 255
220 235 255
220 235 255
220 235 255
220 235 255
220 235 255
220 235 255
220 235 255
220 235 255
220 235 255
220 235 255
220 235 255
220 235 255
220 235 255
220 235 255
220 235 255
220 235 255
220 235 255
220 235 255
220 235 255
220 235 255
220 235 255
220 235 255
220 235 255
220 235 255
220 235 255
220 235 255
220 235 255
220 235 255
220 235 255
220 235 255
220 235 255
220 235 255
220 235 255
220 235 255
220 235 255
220 235 255
220 235 255
220 235 255
220 235 255
220 235 255
220 235 255
220 235 255
220 235 255
220 235 255
220 235 255
220 235 255
220 235 255
220 235 255
220 235 255
220 235 255
220 235 255
220 235 255
220 235 255
220 235 255
220 235 255
220 235 255
220 235 255
220 235 255
220 235 255
220 235 255
220 235 255
220 235 255
220 235 255
220 235 255
220 235 255
220 235 255
220 235 255
220 235 255
220 235 255
220 235 255
220 235 255
220 235 255
220 235 255
220 235 255
220 235 255
220 235 255
220 235 255
220 235 255
220 235 255
220 235 255
220 235 255
220 235 255
220 235 255
220 235 255
220 235 255
220 235 255
220 235 255
220 235 255
220 235 255
220 235 255
220 235 255
220 235 255
220 235 255
220 235 255
220 235 255
220 235 255
220 235 255
220 235 255
220 235 255
220 235 255
220 235 255
220 235 255
220 235 255
220 235 255
220 235 255
220 235 255
220 235 255
220 235 255
220 235 255
220 235 255
220 235 255
220 235 255
220 235 255
220 235 255
220 235 255
220 235 255
220 235 255
220 235 255
220 235 255
220 235 255
220 235 255
220 235 255
220 235 255
220 235 255
220 235 255
220 235 255
220 235 255
220 235 255
220 235 255
220 235 255
220 235 255
220 235 255
220 235 255
220 235 255
220 235 255
220 235 255
220 235 255
220 235 255
220 235 255
220 235 255
220 235 255
220 235 255
220 235 255
220 235 255
220 235 255
220 235 255
220 235 255
220 235 255
220 235 255
220 235 255
220 235 255
220 235 255
220 235 255
220 235 255
220 235 255
220 235 255
220 235 255
220 235 255
220 235 255
220 235 255
220 235 255
220 235 255
220 235 255
220 235 255
220 235 255
220 235 255
220 235 255
220 235 255
220 235 255
220 235 255
220 235 255
220 235 255
220 235 255
220 235 255
220 235 255
220 235 255
220 235 255
220 235 255
220 235 255
220 235 255
220 235 255
220 235 255
220 235 255
220 235 255
220 235 255
220 235 255
220 235 255
220 235 255
220 235 255
220 235 255
220 235 255
220 235 255
220 235 255
220 235 255
220 235 255
220 235 255
220 235 255
220 235 255
220 235 255
220 235 255
220 235 255
220 235 255
220 235 255
220 235 255
220 235 255
220 235 255
220 235 255
220 235 255
220 235 255
220 235 255
220 235 255
220 235 255
220 235 255
220 235 255
220 235 255
220 235 255
220 235 255
220 235 255
220 235 255
220 235 255
220 235 255
220 235 255
220 235 255
220 235 255
220 235 255
220 235 255
220 235 255
220 235 255
220 235 255
220 235 255
220 235 255
220 235 255
220 235 255
220 235 255
220 235 255
220 235 255
220 235 255
220 235 255
220 235 255
220 235 255
220 235 255
220 235 255
220 235 255
220 235 255
220 235 255
220 235 255
220 235 255
220 235 255
220 235 255
220 235 255
220 235 255
220 235 255
220 235 255
220 235 255
220 235 255
220 235 255
220 235 255
220 235 255
220 235 255
220 235 255
220 235 255
220 235 255
220 235 255
220 235 255
220 235 255
220 235 255
220 235 255
220 235 255
220 235 255
220 235 255
220 235 255
220 235 255
220 235 255
220 235 255
220 235 255
220 235 255
220 235 255
220 235 255
220 235 255
220 235 255
220 235 255
220 235 255
220 235 255
220 235 255
220 235 255
220 235 255
220 235 255
220 235 255
220 235 255
220 235 255
220 235 255
220 235 255
220 235 255
220 235 255
220 235 255
220 235 255
220 235 255
220 235 255
220 235 255
220 235 255
220 235 255
220 235 255
220 235 255
220 235 255
220 235 255
220 235 255
220 235 255
220 235 255
220 235 255
220 235 255
220 235 255
220 235 255
220 235 255
220 235 255
220 235 255
220 235 255
220 235 255
220 235 255
220 235 255
220 235 255
220 235 255
220 235 255
220 235 255
220 235 255
220 235 255
220 235 255
220 235 255
220 235 255
220 235 255
220 235 255
220 235 255
220 235 255
220 235 255
220 235 255
220 235 255
220 235 255
220 235 255
220 235 255
220 235 255
220 235 255
220 235 255
220 235 255
220 235 255
220 235 255
220 235 255
220 235 255
220 235 255
220 235 255
220 235 255
220 235 255
220 235 255
220 235 255
220 235 255
220 235 255
220 235 255
220 235 255
220 235 255
220 235 255
220 235 255
220 235 255
220 235 255
220 235 255
220 235 255
220 235 255
220 235 255
220 235 255
220 235 255
220 235 255
220 235 255
220 235 255
220 235 255
220 235 255
220 235 255
220 235 255
220 235 255
220 235 255
220 235 255
220 235 255
220 235 255
220 235 255
220 235 255
220 235 255
220 235 255
220 235 255
220 235 255
220 235 255
220 235 255
220 235 255
220 235 255
220 235 255
220 235 255
220 235 255
220 235 255
220 235 255
220 235 255
220 235 255
220 235 255
220 235 255
220 235 255
220 235 255
220 235 255
220 235 255
220 235 255
220 235 255
220 235 255
220 235 255
220 235 255
220 235 255
220 235 255
220 235 255
220 235 255
220 235 255
220 235 255
220 235 255
220 235 255
220 235 255
220 235 255
220 235 255
220 235 255
220 235 255
220 235 255
220 235 255
220 235 255
220 235 255
220 235 255
220 235 255
220 235 255
220 235 255
220 235 255
220 235 255
220 235 255
220 235 255
220 235 255
220 235 255
220 235 255
220 235 255
220 235 255
220 235 255
220 235 255
220 235 255
220 235 255
220 235 255
220 235 255
220 235 255
220 235 255
220 235 255
220 235 255
220 235 255
220 235 255
220 235 255
220 235 255
220 235 255
220 235 255
220 235 255
220 235 255
220 235 255
220 235 255
220 235 255
220 235 255
220 235 255
220 235 255
220 235 255
220 235 255
220 235 255
220 235 255
220 235 255
220 235 255
220 235 255
220 235 255
220 235 255
220 235 255
220 235 255
220 235 255
220 235 255
220 235 255
220 235 255
220 235 255
220 235 255
220 235 255
220 235 255
220 235 255
220 235 255
220 235 255
220 235 255
220 235 255
220 235 255
220 235 255
220 235 255
220 235 255
220 235 255
220 235 255
220 235 255
220 235 255
220 235 255
220 235 255
220 235 255
220 235 255
220 235 255
220 235 255
220 235 255
220 235 255
220 235 255
220 235 255
220 235 255
220 235 255
220 235 255
220 235 255
220 235 255
220 235 255
220 235 255
220 235 255
220 235 255
220 235 255
220 235 255
220 235 255
220 235 255
220 235 255
220 235 255
220 235 255
220 235 255
220 235 255
220 235 255
220 235 255
220 235 255
220 235 255
220 235 255
220 235 255
220 235 255
220 235 255
220 235 255
220 235 255
220 235 255
220 235 255
220 235 255
220 235 255
220 235 255
220 235 255
220 235 255
220 235 255
220 235 255
220 235 255
220 235 255
220 235 255
220 235 255
220 235 255
220 235 255
220 235 255
220 235 255
220 235 255
220 235 255
220 235 255
220 235 255
220 235 255
220 235 255
220 235 255
220 235 255
220 235 255
220 235 255
220 235 255
220 235 255
220 235 255
220 235 255
220 235 255
220 235 255
220 235 255
220 235 255
220 235 255
220 235 255
220 235 255
220 235 255
220 235 255
220 235 255
220 235 255
220 235 255
220 235 255
220 235 255
220 235 255
220 235 255
220 235 255
220 235 255
220 235 255
220 235 255
220 235 255
220 235 255
220 235 255
220 235 255
220 235 255
220 235 255
220 235 255
220 235 255
220 235 255
220 235 255
220 235 255
220 235 255
220 235 255
220 235 255
220 235 255
220 235 255
220 235 255
220 235 255
220 235 255
220 235 255
220 235 255
220 235 255
220 235 255
220 235 255
220 235 255
220 235 255
220 235 255
220 235 255
220 235 255
220 235 255
220 235 255
220 235 255
220 235 255
220 235 255
220 235 255
220 235 255
220 235 255
220 235 255
220 235 255
220 235 255
220 235 255
220 235 255
220 235 255
220 235 255
220 235 255
220 235 255
220 235 255
220 235 255
220 235 255
220 235 255
220 235 255
220 235 255
220 235 255
220 235 255
220 235 255
220 235 255
220 235 255
220 235 255
221 235 255
221 235 255
221 235 255
221 235 255
221 235 255
221 235 255
221 235 255
221 235 255
221 235 255
221 235 255
220 235 255
220 235 255
220 235 255
220 235 255
220 235 255
220 235 255
220 235 255
220 235 255
220 235 255
220 235 255
220 235 255
220 235 255
220 235 255
220 235 255
220 235 255
220 235 255
220 235 255
220 235 255
220 235 255
220 235 255
220 235 255
220 235 255
220 235 255
220 235 255
220 235 255
220 235 255
220 235 255
220 235 255
220 235 255
220 235 255
220 235 255
220 235 255
220 235 255
220 235 255
220 235 255
220 235 255
220 235 255
220 235 255
220 235 255
220 235 255
220 235 255
220 235 255
220 235 255
220 235 255
220 235 255
220 235 255
220 235 255
220 235 255
220 235 255
220 235 255
220 235 255
220 235 255
220 235 255
220 235 255
220 235 255
220 235 255
220 235 255
220 235 255
220 235 255
220 235 255
220 235 255
220 235 255
220 235 255
220 235 255
220 235 255
220 235 255
220 235 255
220 235 255
220 235 255
220 235 255
220 235 255
220 235 255
220 235 255
220 235 255
220 235 255
220 235 255
220 235 255
220 235 255
220 235 255
220 235 255
220 235 255
220 235 255
220 235 255
220 235 255
220 235 255
220 235 255
220 235 255
220 235 255
220 235 255
220 235 255
220 235 255
220 235 255
220 235 255
220 235 255
220 235 255
220 235 255
220 235 255
220 235 255
220 235 255
220 235 255
220 235 255
220 235 255
220 235 255
220 235 255
220 235 255
220 235 255
220 235 255
220 235 255
220 235 255
220 235 255
220 235 255
220 235 255
220 235 255
220 235 255
220 235 255
220 235 255
220 235 255
220 235 255
220 235 255
220 235 255
220 235 255
220 235 255
220 235 255
220 235 255
220 235 255
220 235 255
220 235 255
220 235 255
220 235 255
220 235 255
220 235 255
220 235 255
220 235 255
220 235 255
220 235 255
220 235 255
220 235 255
220 235 255
220 235 255
220 235 255
220 235 255
220 235 255
220 235 255
220 235 255
220 235 255
220 235 255
220 235 255
220 235 255
220 235 255
220 235 255
220 235 255
220 235 255
220 235 255
220 235 255
220 235 255
220 235 255
220 235 255
220 235 255
220 235 255
220 235 255
220 235 255
220 235 255
220 235 255
220 235 255
220 235 255
220 235 255
220 235 255
220 235 255
220 235 255
220 235 255
220 235 255
220 235 255
220 235 255
220 235 255
220 235 255
220 235 255
220 235 255
220 235 255
220 235 255
220 235 255
220 235 255
220 235 255
220 235 255
220 235 255
220 235 255
220 235 255
220 235 255
220 235 255
220 235 255
220 235 255
220 235 255
220 235 255
220 235 255
220 235 255
220 235 255
220 235 255
220 235 255
220 235 255
220 235 255
220 235 255
220 235 255
220 235 255
220 235 255
220 235 255
220 235 255
220 235 255
220 235 255
220 235 255
220 235 255
220 235 255
220 235 255
220 235 255
220 235 255
220 235 255
220 235 255
220 235 255
220 235 255
220 235 255
220 235 255
220 235 255
220 235 255
220 235 255
220 235 255
220 235 255
220 235 255
220 235 255
220 235 255
220 235 255
220 235 255
220 235 255
220 235 255
220 235 255
220 235 255
220 235 255
220 235 255
220 235 255
220 235 255
220 235 255
220 235 255
220 235 255
220 235 255
220 235 255
220 235 255
220 235 255
220 235 255
220 235 255
220 235 255
220 235 255
220 235 255
220 235 255
220 235 255
220 235 255
220 235 255
220 235 255
220 235 255
220 235 255
220 235 255
220 235 255
220 235 255
220 235 255
220 235 255
220 235 255
220 235 255
220 235 255
220 235 255
220 235 255
220 235 255
220 235 255
220 235 255
220 235 255
220 235 255
220 235 255
220 235 255
220 235 255
220 235 255
220 235 255
220 235 255
220 235 255
220 235 255
220 235 255
220 235 255
220 235 255
220 235 255
220 235 255
220 235 255
220 235 255
220 235 255
220 235 255
220 235 255
220 235 255
220 235 255
220 235 255
220 235 255
220 235 255
220 235 255
220 235 255
220 235 255
220 235 255
220 235 255
220 235 255
220 235 255
220 235 255
220 235 255
220 235 255
220 235 255
220 235 255
220 235 255
220 235 255
220 235 255
220 235 255
220 235 255
220 235 255
220 235 255
220 235 255
220 235 255
220 235 255
220 235 255
220 235 255
220 235 255
220 235 255
220 235 255
220 235 255
220 235 255
220 235 255
220 235 255
220 235 255
220 235 255
220 235 255
220 235 255
220 235 255
220 235 255
220 235 255
220 235 255
220 235 255
220 235 255
220 235 255
220 235 255
220 235 255
220 235 255
220 235 255
220 235 255
220 235 255
220 235 255
220 235 255
220 235 255
220 235 255
220 235 255
220 235 255
220 235 255
220 235 255
220 235 255
220 235 255
220 235 255
220 235 255
220 235 255
220 235 255
220 235 255
220 235 255
220 235 255
220 235 255
220 235 255
220 235 255
220 235 255
220 235 255
220 235 255
220 235 255
220 235 255
220 235 255
220 235 255
220 235 255
220 235 255
220 235 255
220 235 255
220 235 255
220 235 255
220 235 255
220 235 255
220 235 255
220 235 255
221 235 255
221 235 255
221 235 255
221 235 255
221 235 255
221 235 255
221 235 255
221 235 255
221 235 255
221 235 255
221 235 255
221 235 255
221 235 255
221 235 255
221 235 255
221 235 255
221 235 255
221 235 255
221 235 255
221 235 255
221 235 255
221 235 255
221 235 255
221 235 255
221 235 255
221 235 255
221 235 255
221 235 255
221 235 255
221 235 255
221 235 255
221 235 255
221 235 255
221 235 255
221 235 255
221 235 255
221 235 255
221 235 255
221 235 255
221 235 255
221 235 255
221 235 255
221 235 255
221 235 255
221 235 255
221 235 255
221 235 255
221 235 255
221 235 255
221 235 255
221 235 255
221 235 255
221 235 255
221 235 255
221 235 255
221 235 255
221 235 255
221 235 255
221 235 255
221 235 255
221 235 255
221 235 255
221 235 255
221 235 255
221 235 255
221 235 255
221 235 255
221 235 255
221 235 255
221 235 255
221 235 255
221 235 255
221 235 255
221 235 255
221 235 255
221 235 255
221 235 255
221 235 255
221 235 255
220 235 255
221 235 255
221 235 255
220 235 255
220 235 255
220 235 255
220 235 255
220 235 255
220 235 255
220 235 255
220 235 255
220 235 255
220 235 255
220 235 255
220 235 255
220 235 255
220 235 255
220 235 255
220 235 255
220 235 255
220 235 255
220 235 255
220 235 255
220 235 255
220 235 255
220 235 255
220 235 255
220 235 255
220 235 255
220 235 255
220 235 255
220 235 255
220 235 255
220 235 255
220 235 255
220 235 255
220 235 255
220 235 255
220 235 255
220 235 255
220 235 255
220 235 255
220 235 255
220 235 255
220 235 255
220 235 255
220 235 255
220 235 255
220 235 255
220 235 255
220 235 255
220 235 255
220 235 255
220 235 255
220 235 255
220 235 255
220 235 255
220 235 255
220 235 255
220 235 255
220 235 255
220 235 255
220 235 255
220 235 255
220 235 255
220 235 255
220 235 255
220 235 255
220 235 255
220 235 255
220 235 255
220 235 255
220 235 255
220 235 255
220 235 255
220 235 255
220 235 255
220 235 255
220 235 255
220 235 255
220 235 255
220 235 255
220 235 255
220 235 255
220 235 255
220 235 255
220 235 255
220 235 255
220 235 255
220 235 255
220 235 255
220 235 255
220 235 255
220 235 255
220 235 255
220 235 255
220 235 255
220 235 255
220 235 255
220 235 255
220 235 255
220 235 255
220 235 255
220 235 255
220 235 255
220 235 255
220 235 255
220 235 255
220 235 255
220 235 255
220 235 255
220 235 255
220 235 255
220 235 255
220 235 255
220 235 255
220 235 255
220 235 255
220 235 255
220 235 255
220 235 255
220 235 255
220 235 255
220 235 255
220 235 255
220 235 255
220 235 255
220 235 255
220 235 255
220 235 255
220 235 255
220 235 255
220 235 255
220 235 255
220 235 255
220 235 255
220 235 255
220 235 255
220 235 255
220 235 255
220 235 255
220 235 255
220 235 255
220 235 255
220 235 255
220 235 255
220 235 255
220 235 255
220 235 255
220 235 255
220 235 255
220 235 255
220 235 255
220 235 255
220 235 255
220 235 255
220 235 255
220 235 255
220 235 255
220 235 255
220 235 255
220 235 255
220 235 255
220 235 255
220 235 255
220 235 255
220 235 255
220 235 255
220 235 255
220 235 255
220 235 255
220 235 255
220 235 255
220 235 255
220 235 255
220 235 255
220 235 255
220 235 255
220 235 255
220 235 255
220 235 255
220 235 255
220 235 255
220 235 255
220 235 255
220 235 255
220 235 255
220 235 255
220 235 255
220 235 255
220 235 255
220 235 255
220 235 255
220 235 255
220 235 255
220 235 255
220 235 255
220 235 255
220 235 255
220 235 255
220 235 255
220 235 255
220 235 255
220 235 255
220 235 255
220 235 255
220 235 255
220 235 255
220 235 255
220 235 255
220 235 255
220 235 255
220 235 255
220 235 255
220 235 255
220 235 255
220 235 255
220 235 255
220 235 255
220 235 255
220 235 255
220 235 255
220 235 255
220 235 255
220 235 255
220 235 255
220 235 255
220 235 255
220 235 255
220 235 255
220 235 255
220 235 255
220 235 255
220 235 255
220 235 255
220 235 255
220 235 255
220 235 255
220 235 255
220 235 255
220 235 255
220 235 255
220 235 255
220 235 255
220 235 255
220 235 255
220 235 255
220 235 255
220 235 255
220 235 255
220 235 255
220 235 255
220 235 255
220 235 255
220 235 255
220 235 255
220 235 255
220 235 255
220 235 255
220 235 255
221 235 255
220 235 255
221 235 255
221 235 255
220 235 255
221 235 255
221 235 255
221 235 255
221 235 255
221 235 255
221 235 255
221 235 255
221 235 255
221 235 255
221 235 255
221 235 255
221 235 255
221 235 255
221 235 255
221 235 255
221 235 255
221 235 255
221 235 255
221 235 255
221 235 255
221 235 255
221 235 255
221 235 255
221 235 255
221 235 255
221 235 255
221 235 255
221 235 255
221 235 255
221 235 255
221 235 255
221 235 255
221 235 255
221 235 255
221 235 255
221 235 255
221 235 255
221 235 255
221 235 255
221 235 255
221 235 255
221 235 255
221 235 255
221 235 255
221 235 255
221 235 255
221 235 255
221 235 255
221 235 255
221 235 255
221 235 255
221 235 255
221 235 255
221 235 255
221 235 255
221 235 255
221 235 255
221 235 255
221 235 255
221 235 255
221 235 255
221 235 255
221 235 255
221 235 255
221 235 255
221 235 255
221 235 255
221 235 255
221 235 255
221 235 255
221 235 255
221 235 255
221 235 255
221 235 255
221 235 255
221 235 255
221 235 255
221 235 255
221 235 255
221 235 255
221 235 255
221 235 255
221 235 255
221 235 255
221 235 255
221 235 255
221 235 255
221 235 255
221 235 255
221 235 255
221 235 255
221 235 255
221 235 255
221 235 255
221 235 255
221 235 255
221 235 255
221 235 255
221 235 255
221 235 255
221 235 255
221 235 255
221 235 255
221 235 255
221 235 255
221 235 255
221 235 255
221 235 255
221 235 255
221 235 255
221 235 255
221 235 255
221 235 255
221 235 255
221 235 255
221 235 255
221 235 255
221 235 255
221 235 255
221 235 255
221 235 255
221 235 255
221 235 255
221 235 255
221 235 255
221 235 255
221 235 255
221 235 255
221 235 255
221 235 255
221 235 255
221 235 255
221 235 255
221 235 255
221 235 255
221 235 255
221 235 255
221 235 255
221 235 255
221 235 255
221 235 255
221 235 255
221 235 255
221 235 255
221 235 255
221 235 255
221 235 255
221 235 255
221 235 255
221 235 255
221 235 255
221 235 255
221 235 255
221 235 255
221 235 255
221 235 255
221 235 255
221 235 255
221 235 255
221 235 255
221 235 255
221 235 255
221 235 255
221 235 255
221 235 255
221 235 255
221 235 255
221 235 255
221 235 255
221 235 255
221 235 255
221 235 255
221 235 255
221 235 255
221 235 255
221 235 255
221 235 255
221 235 255
221 235 255
221 235 255
221 235 255
221 235 255
221 235 255
221 235 255
221 235 255
221 235 255
221 235 255
221 235 255
221 235 255
221 235 255
221 235 255
221 235 255
221 235 255
221 235 255
221 235 255
221 235 255
221 235 255
221 235 255
221 235 255
221 235 255
221 235 255
221 235 255
221 235 255
221 235 255
221 235 255
221 235 255
221 235 255
221 235 255
221 235 255
221 235 255
221 235 255
221 235 255
221 235 255
221 235 255
221 235 255
221 235 255
221 235 255
221 235 255
221 235 255
220 235 255
220 235 255
220 235 255
220 235 255
220 235 255
220 235 255
220 235 255
220 235 255
220 235 255
220 235 255
220 235 255
220 235 255
220 235 255
220 235 255
220 235 255
220 235 255
220 235 255
220 235 255
220 235 255
220 235 255
220 235 255
220 235 255
220 235 255
220 235 255
220 235 255
220 235 255
220 235 255
220 235 255
220 235 255
220 235 255
220 235 255
220 235 255
220 235 255
220 235 255
220 235 255
220 235 255
220 235 255
220 235 255
220 235 255
220 235 255
220 235 255
220 235 255
220 235 255
220 235 255
220 235 255
220 235 255
220 235 255
220 235 255
220 235 255
220 235 255
220 235 255
220 235 255
220 235 255
220 235 255
220 235 255
220 235 255
220 235 255
220 235 255
220 235 255
220 235 255
220 235 255
220 235 255
220 235 255
220 235 255
220 235 255
220 235 255
220 235 255
220 235 255
220 235 255
220 235 255
220 235 255
220 235 255
220 235 255
220 235 255
220 235 255
220 235 255
220 235 255
220 235 255
220 235 255
220 235 255
220 235 255
220 235 255
220 235 255
220 235 255
220 235 255
220 235 255
220 235 255
220 235 255
220 235 255
220 235 255
220 235 255
220 235 255
220 235 255
220 235 255
221 235 255
220 235 255
221 235 255
220 235 255
220 235 255
221 235 255
221 235 255
221 235 255
221 235 255
221 235 255
221 235 255
221 235 255
221 235 255
221 235 255
221 235 255
221 235 255
221 235 255
221 235 255
221 235 255
221 235 255
221 235 255
221 235 255
221 235 255
221 235 255
221 235 255
221 235 255
221 235 255
221 235 255
221 235 255
221 235 255
221 235 255
221 235 255
221 235 255
221 235 255
221 235 255
221 235 255
221 235 255
221 235 255
221 235 255
221 235 255
221 235 255
221 235 255
221 235 255
221 235 255
221 235 255
221 235 255
221 235 255
221 235 255
221 235 255
221 235 255
221 235 255
221 235 255
221 235 255
221 235 255
221 235 255
221 235 255
221 235 255
221 235 255
221 235 255
221 235 255
221 235 255
221 235 255
221 235 255
221 235 255
221 235 255
221 235 255
221 235 255
221 235 255
221 235 255
221 235 255
221 235 255
221 235 255
221 235 255
221 235 255
221 235 255
221 235 255
221 235 255
221 235 255
221 235 255
221 235 255
221 235 255
221 235 255
221 235 255
221 235 255
221 235 255
221 235 255
221 235 255
221 235 255
221 235 255
221 235 255
221 235 255
221 235 255
221 235 255
221 235 255
221 235 255
221 235 255
221 235 255
221 235 255
221 235 255
221 235 255
221 235 255
221 235 255
221 235 255
221 235 255
221 235 255
221 235 255
221 235 255
221 235 255
221 235 255
221 235 255
221 235 255
221 235 255
221 235 255
221 235 255
221 235 255
221 235 255
221 235 255
221 235 255
221 235 255
221 235 255
221 235 255
221 235 255
221 235 255
221 235 255
221 235 255
221 235 255
221 235 255
221 235 255
221 235 255
221 235 255
221 235 255
221 235 255
221 235 255
221 235 255
221 235 255
221 235 255
221 235 255
221 235 255
221 235 255
221 235 255
221 235 255
221 235 255
221 235 255
221 235 255
221 235 255
221 235 255
221 235 255
221 235 255
221 235 255
221 235 255
221 235 255
221 235 255
221 235 255
221 235 255
221 235 255
221 235 255
221 235 255
221 235 255
221 235 255
221 235 255
221 235 255
221 235 255
221 235 255
221 235 255
221 235 255
221 235 255
221 235 255
221 235 255
221 235 255
221 235 255
221 235 255
221 235 255
221 235 255
221 235 255
221 235 255
221 235 255
221 235 255
221 235 255
221 235 255
221 235 255
221 235 255
221 235 255
221 235 255
221 235 255
221 235 255
221 235 255
221 235 255
221 235 255
221 235 255
221 235 255
221 235 255
221 235 255
221 235 255
221 235 255
221 235 255
221 235 255
221 235 255
221 235 255
221 235 255
221 235 255
221 235 255
221 235 255
221 235 255
221 235 255
221 235 255
221 235 255
221 235 255
221 235 255
221 235 255
221 235 255
221 235 255
221 235 255
221 235 255
221 235 255
221 235 255
221 235 255
221 235 255
221 235 255
221 235 255
221 235 255
221 235 255
221 235 255
221 235 255
221 235 255
221 235 255
221 235 255
221 235 255
221 235 255
221 235 255
221 235 255
221 235 255
221 235 255
221 235 255
221 235 255
221 235 255
221 235 255
221 235 255
221 235 255
221 235 255
221 235 255
221 235 255
221 235 255
221 235 255
221 235 255
221 235 255
221 235 255
221 235 255
221 235 255
221 235 255
221 235 255
221 235 255
221 235 255
221 235 255
221 235 255
221 235 255
221 235 255
221 235 255
221 235 255
221 235 255
221 235 255
221 235 255
221 235 255
221 235 255
221 235 255
221 235 255
221 235 255
221 235 255
221 235 255
221 235 255
221 235 255
221 235 255
221 235 255
221 235 255
221 235 255
221 235 255
221 235 255
221 235 255
221 235 255
221 235 255
221 235 255
221 235 255
221 235 255
221 235 255
221 235 255
221 235 255
221 235 255
221 235 255
221 235 255
221 235 255
221 235 255
221 235 255
221 235 255
221 235 255
221 235 255
221 235 255
221 235 255
221 235 255
221 235 255
221 235 255
221 235 255
221 235 255
221 235 255
221 235 255
221 235 255
221 235 255
221 235 255
221 235 255
221 235 255
221 235 255
221 235 255
221 235 255
221 235 255
221 235 255
221 235 255
221 235 255
221 235 255
221 235 255
221 235 255
221 235 255
221 235 255
221 235 255
221 235 255
221 235 255
221 235 255
221 235 255
221 235 255
221 235 255
221 235 255
221 235 255
221 235 255
221 235 255
221 235 255
221 235 255
221 235 255
221 235 255
221 235 255
221 235 255
221 235 255
221 235 255
221 235 255
221 235 255
221 235 255
221 235 255
221 235 255
221 235 255
221 235 255
221 235 255
221 235 255
221 235 255
221 235 255
221 235 255
221 235 255
221 235 255
221 235 255
221 235 255
221 235 255
221 235 255
221 235 255
221 235 255
221 235 255
221 235 255
221 235 255
221 235 255
221 235 255
221 235 255
221 235 255
221 235 255
221 235 255
221 235 255
221 235 255
221 235 255
221 235 255
221 235 255
221 235 255
221 235 255
221 235 255
221 235 255
221 235 255
221 235 255
221 235 255
221 235 255
221 235 255
221 235 255
221 235 255
221 235 255
221 235 255
221 235 255
221 235 255
221 235 255
221 235 255
221 235 255
221 235 255
221 235 255
221 235 255
221 235 255
221 235 255
221 235 255
221 235 255
221 235 255
221 235 255
221 235 255
221 235 255
221 235 255
221 235 255
221 235 255
221 235 255
221 235 255
221 235 255
221 235 255
221 235 255
221 235 255
221 235 255
221 235 255
221 235 255
221 235 255
221 235 255
221 235 255
221 235 255
221 235 255
221 235 255
221 235 255
221 235 255
221 235 255
221 235 255
221 235 255
221 235 255
221 235 255
221 235 255
221 235 255
221 235 255
221 235 255
221 235 255
221 235 255
221 235 255
221 235 255
221 235 255
221 235 255
221 235 255
221 235 255
221 235 255
221 235 255
221 235 255
221 235 255
221 235 255
221 235 255
221 235 255
221 235 255
221 235 255
221 235 255
221 235 255
221 235 255
221 235 255
221 235 255
221 235 255
221 235 255
221 235 255
221 235 255
221 235 255
221 235 255
221 235 255
221 235 255
221 235 255
221 235 255
221 235 255
221 235 255
221 235 255
221 235 255
221 235 255
221 235 255
221 235 255
221 235 255
221 235 255
221 235 255
221 235 255
221 235 255
221 235 255
221 235 255
221 235 255
221 235 255
221 235 255
221 235 255
221 235 255
221 235 255
221 235 255
221 235 255
221 235 255
221 235 255
221 235 255
221 235 255
221 235 255
221 235 255
221 235 255
221 235 255
221 235 255
221 235 255
221 235 255
221 235 255
221 235 255
221 235 255
221 235 255
221 235 255
221 235 255
221 235 255
221 235 255
221 235 255
221 235 255
221 235 255
221 235 255
221 235 255
221 235 255
221 235 255
221 235 255
221 235 255
221 235 255
221 235 255
221 235 255
221 235 255
221 235 255
221 235 255
221 235 255
221 235 255
221 235 255
221 235 255
221 235 255
221 235 255
221 235 255
221 235 255
221 235 255
221 235 255
221 235 255
221 235 255
221 235 255
221 235 255
221 235 255
221 235 255
221 235 255
221 235 255
221 235 255
221 235 255
221 235 255
221 235 255
221 235 255
221 235 255
221 235 255
221 235 255
221 235 255
221 235 255
221 235 255
221 235 255
221 235 255
221 235 255
221 235 255
221 235 255
221 235 255
221 235 255
221 235 255
221 235 255
221 235 255
221 235 255
221 235 255
221 235 255
221 235 255
221 235 255
221 235 255
221 235 255
221 235 255
221 235 255
221 235 255
221 235 255
221 235 255
221 235 255
221 235 255
221 235 255
221 235 255
221 235 255
221 235 255
221 235 255
221 235 255
221 235 255
221 235 255
221 235 255
221 235 255
221 235 255
221 235 255
221 235 255
221 235 255
221 235 255
221 235 255
221 235 255
221 235 255
221 235 255
221 235 255
221 235 255
221 235 255
221 235 255
221 235 255
221 235 255
221 235 255
221 235 255
221 235 255
221 235 255
221 235 255
221 235 255
221 235 255
221 235 255
221 235 255
221 235 255
221 235 255
221 235 255
221 235 255
221 235 255
221 235 255
221 235 255
221 235 255
221 235 255
221 235 255
221 235 255
221 235 255
221 235 255
221 235 255
221 235 255
221 235 255
221 235 255
221 235 255
221 235 255
221 235 255
221 235 255
221 235 255
221 235 255
221 235 255
221 235 255
221 235 255
221 235 255
221 235 255
221 235 255
221 235 255
221 235 255
221 235 255
221 235 255
221 235 255
221 235 255
221 235 255
221 235 255
221 235 255
221 235 255
221 235 255
221 235 255
221 235 255
221 235 255
221 235 255
221 235 255
221 235 255
221 235 255
221 235 255
221 235 255
221 235 255
221 235 255
221 235 255
221 235 255
221 235 255
221 235 255
221 235 255
221 235 255
221 235 255
221 235 255
221 235 255
221 235 255
221 235 255
221 235 255
221 235 255
221 235 255
221 235 255
221 235 255
221 235 255
221 235 255
221 235 255
221 235 255
221 235 255
221 235 255
221 235 255
221 235 255
221 235 255
221 235 255
221 235 255
221 235 255
221 235 255
221 235 255
221 235 255
221 235 255
221 235 255
221 235 255
221 235 255
221 235 255
221 235 255
221 235 255
221 235 255
221 235 255
221 235 255
221 235 255
221 235 255
221 235 255
221 235 255
221 235 255
221 235 255
221 235 255
221 235 255
221 235 255
221 235 255
221 235 255
221 235 255
221 235 255
221 235 255
221 235 255
221 235 255
221 235 255
221 235 255
221 235 255
221 235 255
221 235 255
221 235 255
221 235 255
221 235 255
221 235 255
221 235 255
221 235 255
221 235 255
221 235 255
221 235 255
221 235 255
221 235 255
221 235 255
221 235 255
221 235 255
221 235 255
221 235 255
221 235 255
221 235 255
221 235 255
221 235 255
221 235 255
221 235 255
221 235 255
221 235 255
221 235 255
221 235 255
221 235 255
221 235 255
221 235 255
221 235 255
221 235 255
221 235 255
221 235 255
221 235 255
221 235 255
221 235 255
221 235 255
221 235 255
221 235 255
221 235 255
221 235 255
221 235 255
221 235 255
221 235 255
221 235 255
221 235 255
221 235 255
221 235 255
221 235 255
221 235 255
221 235 255
221 235 255
221 235 255
221 235 255
221 235 255
221 235 255
221 235 255
221 235 255
221 235 255
221 235 255
221 235 255
221 235 255
221 235 255
221 235 255
221 235 255
221 235 255
221 235 255
221 235 255
221 235 255
221 235 255
221 235 255
221 235 255
221 235 255
221 235 255
221 235 255
221 235 255
221 235 255
221 235 255
221 235 255
221 235 255
221 235 255
221 235 255
221 235 255
221 235 255
221 235 255
221 235 255
221 235 255
221 235 255
221 235 255
221 235 255
221 235 255
221 235 255
221 235 255
221 235 255
221 235 255
221 235 255
221 235 255
221 235 255
221 235 255
221 235 255
221 235 255
221 235 255
221 235 255
221 235 255
221 235 255
221 235 255
221 235 255
221 235 255
221 235 255
221 235 255
221 235 255
221 235 255
221 235 255
221 235 255
221 235 255
221 235 255
221 235 255
221 235 255
221 235 255
221 235 255
221 235 255
221 235 255
221 235 255
221 235 255
221 235 255
221 235 255
221 235 255
221 235 255
221 235 255
221 235 255
221 235 255
221 235 255
221 235 255
221 235 255
221 235 255
221 235 255
221 235 255
221 235 255
221 235 255
221 235 255
221 235 255
221 235 255
221 235 255
221 235 255
221 235 255
221 235 255
221 235 255
221 235 255
221 235 255
221 235 255
221 235 255
221 235 255
221 235 255
221 235 255
221 235 255
221 235 255
221 235 255
221 235 255
221 235 255
221 235 255
221 235 255
221 235 255
221 235 255
221 235 255
221 235 255
221 235 255
221 235 255
221 235 255
221 235 255
221 235 255
221 235 255
221 235 255
221 235 255
221 235 255
221 235 255
221 235 255
221 235 255
221 235 255
221 235 255
221 235 255
221 235 255
221 235 255
221 235 255
221 235 255
221 235 255
221 235 255
221 235 255
221 235 255
221 235 255
221 235 255
221 235 255
221 235 255
221 235 255
221 235 255
221 235 255
221 235 255
221 235 255
221 235 255
221 235 255
221 235 255
221 235 255
221 235 255
221 235 255
221 235 255
221 235 255
221 235 255
221 235 255
221 235 255
221 235 255
221 235 255
221 235 255
221 235 255
221 235 255
221 235 255
221 235 255
221 235 255
221 235 255
221 235 255
221 235 255
221 235 255
221 235 255
221 235 255
221 235 255
221 235 255
221 235 255
221 235 255
221 235 255
221 235 255
221 235 255
221 235 255
221 235 255
221 235 255
221 235 255
221 235 255
221 235 255
221 235 255
221 235 255
221 235 255
221 235 255
221 235 255
221 235 255
221 235 255
221 235 255
221 235 255
221 235 255
221 235 255
221 235 255
221 235 255
221 235 255
221 235 255
221 235 255
221 235 255
221 235 255
221 235 255
221 235 255
221 235 255
221 235 255
221 235 255
221 235 255
221 235 255
221 235 255
221 235 255
221 235 255
221 235 255
221 235 255
221 235 255
221 235 255
221 235 255
221 235 255
221 235 255
221 235 255
221 235 255
221 235 255
221 235 255
221 235 255
221 235 255
221 235 255
221 235 255
221 235 255
221 235 255
221 235 255
221 235 255
221 235 255
221 235 255
221 235 255
221 235 255
221 235 255
221 235 255
221 235 255
221 235 255
221 235 255
221 235 255
221 235 255
221 235 255
221 235 255
221 235 255
221 235 255
221 235 255
221 235 255
221 235 255
221 235 255
221 235 255
221 235 255
221 235 255
221 235 255
221 235 255
221 235 255
221 235 255
221 235 255
221 235 255
221 235 255
221 235 255
221 235 255
221 235 255
221 235 255
221 235 255
221 235 255
221 235 255
221 235 255
221 235 255
221 235 255
221 235 255
221 235 255
221 235 255
221 235 255
221 235 255
221 235 255
221 235 255
221 235 255
221 235 255
221 235 255
221 235 255
221 235 255
221 235 255
221 235 255
221 235 255
221 235 255
221 235 255
221 235 255
221 235 255
221 235 255
221 235 255
221 235 255
221 235 255
221 235 255
221 235 255
221 235 255
221 235 255
221 235 255
221 235 255
221 235 255
221 235 255
221 235 255
221 235 255
221 235 255
221 235 255
221 235 255
221 235 255
221 235 255
221 235 255
221 235 255
221 235 255
221 235 255
221 235 255
221 235 255
221 235 255
221 235 255
221 235 255
221 235 255
221 235 255
221 235 255
221 235 255
221 235 255
221 235 255
221 235 255
221 235 255
221 235 255
221 235 255
221 235 255
221 235 255
221 235 255
221 235 255
221 235 255
221 235 255
221 235 255
221 235 255
221 235 255
221 235 255
221 235 255
221 235 255
221 235 255
221 235 255
221 235 255
221 235 255
221 235 255
221 235 255
221 235 255
221 235 255
221 235 255
221 235 255
221 235 255
221 235 255
221 235 255
221 235 255
221 235 255
221 235 255
221 235 255
221 235 255
221 235 255
221 235 255
221 235 255
221 235 255
221 235 255
221 235 255
221 235 255
221 235 255
221 235 255
221 235 255
221 235 255
221 235 255
221 235 255
221 235 255
221 235 255
221 235 255
221 235 255
221 235 255
221 235 255
221 235 255
221 235 255
221 235 255
221 235 255
221 235 255
221 235 255
221 235 255
221 235 255
221 235 255
221 235 255
221 235 255
221 235 255
221 235 255
221 235 255
221 235 255
221 235 255
221 235 255
221 235 255
221 235 255
221 235 255
221 235 255
221 235 255
221 235 255
221 235 255
221 235 255
221 235 255
221 235 255
221 235 255
221 235 255
221 235 255
221 235 255
221 235 255
221 235 255
221 235 255
221 235 255
221 235 255
221 235 255
221 235 255
221 235 255
221 235 255
221 235 255
221 235 255
221 235 255
221 235 255
221 235 255
221 235 255
221 235 255
221 235 255
221 235 255
221 235 255
221 235 255
221 235 255
221 235 255
221 235 255
221 235 255
221 235 255
221 235 255
221 235 255
221 235 255
221 235 255
221 235 255
221 235 255
221 235 255
221 235 255
221 235 255
221 235 255
221 235 255
221 235 255
221 235 255
221 235 255
221 235 255
221 235 255
221 235 255
221 235 255
221 235 255
221 235 255
221 235 255
221 235 255
221 235 255
221 235 255
221 235 255
221 235 255
221 235 255
221 235 255
221 235 255
221 235 255
221 235 255
221 235 255
221 235 255
221 235 255
221 235 255
221 235 255
221 235 255
221 235 255
221 235 255
221 235 255
221 235 255
221 235 255
221 235 255
221 235 255
221 235 255
221 235 255
221 235 255
221 235 255
221 235 255
221 235 255
221 235 255
221 235 255
221 235 255
221 235 255
221 235 255
221 235 255
221 235 255
221 235 255
221 235 255
221 235 255
221 235 255
221 235 255
221 235 255
221 235 255
221 235 255
221 235 255
221 235 255
221 235 255
221 235 255
221 235 255
221 235 255
221 235 255
221 235 255
221 235 255
221 235 255
221 235 255
221 235 255
221 235 255
221 235 255
221 235 255
221 235 255
221 235 255
221 235 255
221 235 255
221 235 255
221 235 255
221 235 255
221 235 255
221 235 255
221 235 255
221 235 255
221 235 255
221 235 255
221 235 255
221 235 255
221 235 255
221 235 255
221 235 255
221 235 255
221 235 255
221 235 255
221 235 255
221 235 255
221 235 255
221 235 255
221 235 255
221 235 255
221 235 255
221 235 255
221 235 255
221 235 255
221 235 255
221 235 255
221 235 255
221 235 255
221 235 255
221 235 255
221 235 255
221 235 255
221 235 255
221 235 255
221 235 255
221 235 255
221 235 255
221 235 255
221 235 255
221 235 255
221 235 255
221 235 255
221 235 255
221 235 255
221 235 255
221 235 255
221 235 255
221 235 255
221 235 255
221 235 255
221 235 255
221 235 255
221 235 255
221 235 255
221 235 255
221 235 255
221 235 255
221 235 255
221 235 255
221 235 255
221 235 255
221 235 255
221 235 255
221 235 255
221 235 255
221 236 255
221 236 255
221 236 255
221 236 255
221 236 255
221 236 255
221 236 255
221 236 255
221 236 255
221 236 255
221 236 255
221 236 255
221 236 255
221 236 255
221 236 255
221 236 255
221 236 255
221 236 255
221 236 255
221 236 255
221 236 255
221 236 255
221 236 255
221 236 255
221 236 255
221 236 255
221 236 255
221 236 255
221 236 255
221 236 255
221 236 255
221 236 255
221 236 255
221 236 255
221 236 255
221 236 255
221 236 255
221 236 255
221 236 255
221 236 255
221 236 255
221 236 255
221 236 255
221 236 255
221 236 255
221 236 255
221 236 255
221 236 255
221 236 255
221 236 255
221 236 255
221 236 255
221 236 255
221 236 255
221 236 255
221 236 255
221 236 255
221 236 255
221 236 255
221 236 255
221 236 255
221 236 255
221 236 255
221 236 255
221 236 255
221 236 255
221 236 255
221 236 255
221 236 255
221 236 255
221 236 255
221 236 255
221 236 255
221 236 255
221 236 255
221 236 255
221 236 255
221 236 255
221 236 255
221 236 255
221 236 255
221 236 255
221 236 255
221 236 255
221 236 255
221 236 255
221 236 255
221 236 255
221 236 255
221 236 255
221 236 255
221 236 255
221 236 255
221 236 255
221 236 255
221 236 255
221 236 255
221 236 255
221 236 255
221 236 255
221 236 255
221 236 255
221 236 255
221 236 255
221 236 255
221 236 255
221 236 255
221 236 255
221 236 255
221 236 255
221 236 255
221 236 255
221 236 255
221 236 255
221 236 255
221 236 255
221 236 255
221 236 255
221 236 255
221 236 255
221 236 255
221 236 255
221 236 255
221 236 255
221 236 255
221 236 255
221 236 255
221 236 255
221 236 255
221 236 255
221 236 255
221 236 255
221 236 255
221 236 255
221 236 255
221 236 255
221 236 255
221 236 255
221 236 255
221 236 255
221 236 255
221 236 255
221 236 255
221 236 255
221 236 255
221 236 255
221 236 255
221 236 255
221 236 255
221 236 255
221 236 255
221 236 255
221 236 255
221 236 255
221 236 255
221 236 255
221 236 255
221 236 255
221 236 255
221 236 255
221 236 255
221 236 255
221 236 255
221 236 255
221 236 255
221 236 255
221 236 255
221 236 255
221 236 255
221 236 255
221 236 255
221 236 255
221 236 255
221 236 255
221 236 255
221 236 255
221 236 255
221 236 255
221 236 255
221 236 255
221 236 255
221 236 255
221 236 255
221 236 255
221 236 255
221 236 255
221 236 255
221 236 255
221 236 255
221 236 255
221 236 255
221 236 255
221 236 255
221 236 255
221 236 255
221 236 255
221 236 255
221 236 255
221 236 255
221 236 255
221 236 255
221 236 255
221 236 255
221 236 255
221 236 255
221 236 255
221 236 255
221 236 255
221 236 255
221 236 255
221 236 255
221 236 255
221 236 255
221 236 255
221 236 255
221 236 255
221 236 255
221 236 255
221 236 255
221 236 255
221 236 255
221 236 255
221 236 255
221 236 255
221 236 255
221 236 255
221 236 255
221 236 255
221 236 255
221 236 255
221 236 255
221 236 255
221 236 255
221 236 255
221 236 255
221 236 255
221 236 255
221 236 255
221 236 255
221 236 255
221 236 255
221 236 255
221 236 255
221 236 255
221 236 255
221 236 255
221 236 255
221 236 255
221 236 255
221 236 255
221 236 255
221 236 255
221 236 255
221 236 255
221 236 255
221 236 255
221 236 255
221 236 255
221 236 255
221 236 255
221 236 255
221 236 255
221 236 255
221 236 255
221 236 255
221 236 255
221 236 255
221 236 255
221 236 255
221 236 255
221 236 255
221 236 255
221 236 255
221 236 255
221 236 255
221 236 255
221 236 255
221 236 255
221 236 255
221 236 255
221 236 255
221 236 255
221 236 255
221 236 255
221 236 255
221 236 255
221 236 255
221 236 255
221 236 255
221 236 255
221 236 255
221 236 255
221 236 255
221 236 255
221 236 255
221 236 255
221 236 255
221 236 255
221 236 255
221 236 255
221 236 255
221 236 255
221 236 255
221 236 255
221 236 255
221 236 255
221 236 255
221 236 255
221 236 255
221 236 255
221 236 255
221 236 255
221 236 255
221 236 255
221 236 255
221 236 255
221 236 255
221 236 255
221 236 255
221 236 255
221 236 255
221 236 255
221 236 255
221 236 255
221 236 255
221 236 255
221 236 255
221 236 255
221 236 255
221 236 255
221 236 255
221 236 255
221 236 255
221 236 255
221 236 255
221 236 255
221 236 255
221 236 255
221 236 255
221 236 255
221 236 255
221 236 255
221 236 255
221 236 255
221 236 255
221 236 255
221 236 255
221 236 255
221 236 255
221 236 255
221 236 255
221 236 255
221 236 255
221 236 255
221 236 255
221 236 255
221 236 255
221 236 255
221 236 255
221 236 255
221 236 255
221 236 255
221 236 255
221 236 255
221 236 255
221 236 255
221 236 255
221 236 255
221 236 255
221 236 255
221 236 255
221 236 255
221 236 255
221 236 255
221 236 255
221 236 255
221 236 255
221 236 255
221 236 255
221 236 255
221 236 255
221 236 255
221 236 255
221 236 255
221 236 255
221 236 255
221 236 255
221 236 255
221 236 255
221 236 255
221 236 255
221 236 255
221 236 255
221 236 255
221 236 255
221 236 255
221 236 255
221 236 255
221 236 255
221 236 255
221 236 255
221 236 255
221 236 255
221 236 255
221 236 255
221 236 255
221 236 255
221 236 255
221 236 255
221 236 255
221 236 255
221 236 255
221 236 255
221 236 255
221 236 255
221 236 255
221 236 255
221 236 255
221 236 255
221 236 255
221 236 255
221 236 255
221 236 255
221 236 255
221 236 255
221 236 255
221 236 255
221 236 255
221 236 255
221 236 255
221 236 255
221 236 255
221 236 255
221 236 255
221 236 255
221 236 255
221 236 255
221 236 255
221 236 255
221 236 255
221 236 255
221 236 255
221 236 255
221 236 255
221 236 255
221 236 255
221 236 255
221 236 255
221 236 255
221 236 255
221 236 255
221 236 255
221 236 255
221 236 255
221 236 255
221 236 255
221 236 255
221 236 255
221 236 255
221 236 255
221 236 255
221 236 255
221 236 255
221 236 255
221 236 255
221 236 255
221 236 255
221 236 255
221 236 255
221 236 255
221 236 255
221 236 255
221 236 255
221 236 255
221 236 255
221 236 255
221 236 255
221 236 255
221 236 255
221 236 255
221 236 255
221 236 255
221 236 255
221 236 255
221 236 255
221 236 255
221 236 255
221 236 255
221 236 255
221 236 255
221 236 255
221 236 255
221 236 255
221 236 255
221 236 255
221 236 255
221 236 255
221 236 255
221 236 255
221 236 255
221 236 255
221 236 255
221 236 255
221 236 255
221 236 255
221 236 255
221 236 255
221 236 255
221 236 255
221 236 255
221 236 255
221 236 255
221 236 255
221 236 255
221 236 255
221 236 255
222 236 255
221 236 255
221 236 255
222 236 255
222 236 255
222 236 255
221 236 255
222 236 255
222 236 255
222 236 255
221 236 255
222 236 255
222 236 255
221 236 255
222 236 255
222 236 255
222 236 255
222 236 255
222 236 255
222 236 255
222 236 255
222 236 255
222 236 255
222 236 255
222 236 255
222 236 255
222 236 255
222 236 255
222 236 255
222 236 255
222 236 255
222 236 255
222 236 255
222 236 255
222 236 255
222 236 255
222 236 255
222 236 255
222 236 255
222 236 255
222 236 255
222 236 255
222 236 255
222 236 255
222 236 255
222 236 255
222 236 255
222 236 255
222 236 255
222 236 255
222 236 255
222 236 255
222 236 255
222 236 255
222 236 255
222 236 255
222 236 255
222 236 255
222 236 255
222 236 255
222 236 255
222 236 255
222 236 255
222 236 255
222 236 255
222 236 255
222 236 255
222 236 255
222 236 255
222 236 255
222 236 255
222 236 255
222 236 255
222 236 255
222 236 255
222 236 255
222 236 255
222 236 255
222 236 255
222 236 255
222 236 255
222 236 255
222 236 255
222 236 255
222 236 255
222 236 255
222 236 255
222 236 255
222 236 255
222 236 255
222 236 255
222 236 255
222 236 255
222 236 255
222 236 255
222 236 255
222 236 255
222 236 255
222 236 255
222 236 255
222 236 255
222 236 255
222 236 255
222 236 255
222 236 255
222 236 255
222 236 255
222 236 255
222 236 255
222 236 255
222 236 255
222 236 255
222 236 255
222 236 255
222 236 255
222 236 255
222 236 255
222 236 255
222 236 255
222 236 255
222 236 255
222 236 255
222 236 255
222 236 255
222 236 255
222 236 255
222 236 255
222 236 255
222 236 255
222 236 255
222 236 255
222 236 255
222 236 255
222 236 255
222 236 255
222 236 255
222 236 255
222 236 255
222 236 255
222 236 255
222 236 255
222 236 255
222 236 255
222 236 255
222 236 255
222 236 255
222 236 255
222 236 255
222 236 255
222 236 255
222 236 255
222 236 255
222 236 255
222 236 255
222 236 255
221 236 255
222 236 255
222 236 255
221 236 255
222 236 255
221 236 255
222 236 255
222 236 255
221 236 255
221 236 255
221 236 255
221 236 255
221 236 255
221 236 255
221 236 255
221 236 255
221 236 255
221 236 255
221 236 255
221 236 255
221 236 255
221 236 255
221 236 255
221 236 255
221 236 255
221 236 255
221 236 255
221 236 255
221 236 255
221 236 255
221 236 255
221 236 255
221 236 255
221 236 255
221 236 255
221 236 255
221 236 255
221 236 255
221 236 255
221 236 255
221 236 255
221 236 255
221 236 255
221 236 255
221 236 255
221 236 255
221 236 255
221 236 255
221 236 255
221 236 255
221 236 255
221 236 255
221 236 255
221 236 255
221 236 255
221 236 255
221 236 255
221 236 255
221 236 255
221 236 255
221 236 255
221 236 255
221 236 255
221 236 255
221 236 255
221 236 255
221 236 255
221 236 255
221 236 255
221 236 255
221 236 255
221 236 255
221 236 255
221 236 255
221 236 255
221 236 255
221 236 255
221 236 255
221 236 255
221 236 255
221 236 255
221 236 255
221 236 255
221 236 255
221 236 255
221 236 255
221 236 255
221 236 255
221 236 255
221 236 255
221 236 255
221 236 255
221 236 255
221 236 255
221 236 255
221 236 255
221 236 255
221 236 255
221 236 255
221 236 255
221 236 255
221 236 255
221 236 255
221 236 255
221 236 255
221 236 255
221 236 255
221 236 255
221 236 255
221 236 255
221 236 255
221 236 255
221 236 255
221 236 255
221 236 255
221 236 255
221 236 255
221 236 255
221 236 255
221 236 255
221 236 255
221 236 255
221 236 255
221 236 255
221 236 255
221 236 255
221 236 255
221 236 255
221 236 255
222 236 255
222 236 255
222 236 255
222 236 255
222 236 255
222 236 255
222 236 255
222 236 255
222 236 255
222 236 255
222 236 255
222 236 255
222 236 255
222 236 255
222 236 255
222 236 255
222 236 255
222 236 255
222 236 255
222 236 255
222 236 255
222 236 255
222 236 255
222 236 255
222 236 255
222 236 255
222 236 255
222 236 255
222 236 255
222 236 255
222 236 255
222 236 255
222 236 255
222 236 255
222 236 255
222 236 255
222 236 255
222 236 255
222 236 255
222 236 255
222 236 255
222 236 255
222 236 255
222 236 255
222 236 255
222 236 255
222 236 255
222 236 255
222 236 255
222 236 255
222 236 255
222 236 255
222 236 255
222 236 255
222 236 255
222 236 255
222 236 255
222 236 255
222 236 255
222 236 255
222 236 255
222 236 255
222 236 255
222 236 255
222 236 255
222 236 255
222 236 255
222 236 255
222 236 255
222 236 255
222 236 255
222 236 255
222 236 255
222 236 255
222 236 255
222 236 255
222 236 255
222 236 255
222 236 255
222 236 255
222 236 255
222 236 255
222 236 255
222 236 255
222 236 255
222 236 255
222 236 255
222 236 255
222 236 255
222 236 255
222 236 255
222 236 255
222 236 255
222 236 255
222 236 255
222 236 255
222 236 255
222 236 255
222 236 255
222 236 255
222 236 255
222 236 255
222 236 255
222 236 255
222 236 255
222 236 255
222 236 255
222 236 255
222 236 255
222 236 255
222 236 255
222 236 255
222 236 255
222 236 255
222 236 255
222 236 255
222 236 255
222 236 255
222 236 255
222 236 255
222 236 255
222 236 255
222 236 255
222 236 255
222 236 255
222 236 255
222 236 255
222 236 255
222 236 255
222 236 255
222 236 255
222 236 255
222 236 255
222 236 255
222 236 255
222 236 255
222 236 255
222 236 255
222 236 255
222 236 255
222 236 255
222 236 255
222 236 255
222 236 255
222 236 255
222 236 255
222 236 255
222 236 255
222 236 255
222 236 255
222 236 255
222 236 255
222 236 255
222 236 255
222 236 255
222 236 255
222 236 255
222 236 255
222 236 255
222 236 255
222 236 255
222 236 255
222 236 255
222 236 255
222 236 255
222 236 255
222 236 255
222 236 255
222 236 255
222 236 255
222 236 255
222 236 255
222 236 255
222 236 255
222 236 255
222 236 255
222 236 255
222 236 255
222 236 255
222 236 255
222 236 255
222 236 255
222 236 255
222 236 255
222 236 255
222 236 255
222 236 255
222 236 255
222 236 255
222 236 255
222 236 255
222 236 255
222 236 255
222 236 255
222 236 255
222 236 255
222 236 255
222 236 255
222 236 255
222 236 255
222 236 255
222 236 255
222 236 255
222 236 255
222 236 255
222 236 255
222 236 255
222 236 255
222 236 255
222 236 255
222 236 255
222 236 255
222 236 255
222 236 255
222 236 255
222 236 255
222 236 255
222 236 255
222 236 255
222 236 255
222 236 255
222 236 255
222 236 255
222 236 255
222 236 255
222 236 255
222 236 255
222 236 255
222 236 255
222 236 255
222 236 255
222 236 255
222 236 255
222 236 255
222 236 255
222 236 255
222 236 255
222 236 255
222 236 255
222 236 255
222 236 255
222 236 255
222 236 255
222 236 255
222 236 255
222 236 255
222 236 255
222 236 255
222 236 255
222 236 255
222 236 255
222 236 255
222 236 255
222 236 255
222 236 255
222 236 255
222 236 255
222 236 255
222 236 255
222 236 255
222 236 255
222 236 255
222 236 255
222 236 255
222 236 255
222 236 255
222 236 255
222 236 255
222 236 255
222 236 255
222 236 255
222 236 255
222 236 255
222 236 255
222 236 255
222 236 255
222 236 255
222 236 255
222 236 255
222 236 255
222 236 255
222 236 255
222 236 255
222 236 255
222 236 255
222 236 255
222 236 255
222 236 255
222 236 255
222 236 255
222 236 255
222 236 255
222 236 255
222 236 255
222 236 255
222 236 255
222 236 255
222 236 255
222 236 255
222 236 255
222 236 255
222 236 255
222 236 255
222 236 255
222 236 255
222 236 255
222 236 255
222 236 255
222 236 255
222 236 255
222 236 255
222 236 255
222 236 255
222 236 255
222 236 255
222 236 255
222 236 255
222 236 255
222 236 255
222 236 255
222 236 255
222 236 255
222 236 255
222 236 255
222 236 255
222 236 255
222 236 255
222 236 255
222 236 255
222 236 255
222 236 255
222 236 255
222 236 255
222 236 255
222 236 255
222 236 255
222 236 255
222 236 255
222 236 255
222 236 255
222 236 255
222 236 255
222 236 255
222 236 255
222 236 255
222 236 255
222 236 255
222 236 255
222 236 255
222 236 255
222 236 255
222 236 255
222 236 255
222 236 255
222 236 255
222 236 255
222 236 255
222 236 255
222 236 255
222 236 255
222 236 255
222 236 255
222 236 255
222 236 255
222 236 255
222 236 255
222 236 255
222 236 255
222 236 255
222 236 255
222 236 255
222 236 255
222 236 255
222 236 255
222 236 255
222 236 255
222 236 255
222 236 255
222 236 255
222 236 255
222 236 255
222 236 255
222 236 255
222 236 255
222 236 255
222 236 255
222 236 255
222 236 255
222 236 255
222 236 255
222 236 255
222 236 255
222 236 255
222 236 255
222 236 255
222 236 255
222 236 255
222 236 255
222 236 255
222 236 255
222 236 255
222 236 255
222 236 255
222 236 255
222 236 255
222 236 255
222 236 255
222 236 255
222 236 255
222 236 255
222 236 255
222 236 255
222 236 255
222 236 255
222 236 255
222 236 255
222 236 255
222 236 255
222 236 255
222 236 255
222 236 255
222 236 255
222 236 255
222 236 255
222 236 255
222 236 255
222 236 255
222 236 255
222 236 255
222 236 255
222 236 255
222 236 255
222 236 255
222 236 255
222 236 255
222 236 255
222 236 255
222 236 255
222 236 255
222 236 255
222 236 255
222 236 255
222 236 255
222 236 255
222 236 255
222 236 255
222 236 255
222 236 255
222 236 255
222 236 255
222 236 255
222 236 255
222 236 255
222 236 255
222 236 255
222 236 255
222 236 255
222 236 255
222 236 255
222 236 255
222 236 255
222 236 255
222 236 255
222 236 255
222 236 255
222 236 255
222 236 255
222 236 255
222 236 255
222 236 255
222 236 255
222 236 255
222 236 255
222 236 255
222 236 255
222 236 255
222 236 255
222 236 255
222 236 255
222 236 255
222 236 255
222 236 255
222 236 255
222 236 255
222 236 255
222 236 255
222 236 255
222 236 255
222 236 255
222 236 255
222 236 255
222 236 255
222 236 255
222 236 255
222 236 255
222 236 255
222 236 255
222 236 255
222 236 255
222 236 255
222 236 255
222 236 255
222 236 255
222 236 255
222 236 255
222 236 255
222 236 255
222 236 255
222 236 255
222 236 255
222 236 255
222 236 255
222 236 255
222 236 255
222 236 255
222 236 255
222 236 255
222 236 255
222 236 255
222 236 255
222 236 255
222 236 255
222 236 255
222 236 255
222 236 255
222 236 255
222 236 255
222 236 255
222 236 255
222 236 255
222 236 255
222 236 255
222 236 255
222 236 255
222 236 255
222 236 255
222 236 255
222 236 255
222 236 255
222 236 255
222 236 255
222 236 255
222 236 255
222 236 255
222 236 255
222 236 255
222 236 255
222 236 255
222 236 255
222 236 255
222 236 255
222 236 255
222 236 255
222 236 255
222 236 255
222 236 255
222 236 255
222 236 255
222 236 255
222 236 255
222 236 255
222 236 255
222 236 255
222 236 255
222 236 255
222 236 255
222 236 255
222 236 255
222 236 255
222 236 255
222 236 255
222 236 255
222 236 255
222 236 255
222 236 255
222 236 255
222 236 255
222 236 255
222 236 255
222 236 255
222 236 255
222 236 255
222 236 255
222 236 255
222 236 255
222 236 255
222 236 255
222 236 255
222 236 255
222 236 255
222 236 255
222 236 255
222 236 255
222 236 255
222 236 255
222 236 255
222 236 255
222 236 255
222 236 255
222 236 255
222 236 255
222 236 255
222 236 255
222 236 255
222 236 255
222 236 255
222 236 255
222 236 255
222 236 255
222 236 255
222 236 255
222 236 255
222 236 255
222 236 255
222 236 255
222 236 255
222 236 255
222 236 255
222 236 255
222 236 255
222 236 255
222 236 255
222 236 255
222 236 255
222 236 255
222 236 255
222 236 255
222 236 255
222 236 255
222 236 255
222 236 255
222 236 255
222 236 255
222 236 255
222 236 255
222 236 255
222 236 255
222 236 255
222 236 255
222 236 255
222 236 255
222 236 255
222 236 255
222 236 255
222 236 255
222 236 255
222 236 255
222 236 255
222 236 255
222 236 255
222 236 255
222 236 255
222 236 255
222 236 255
222 236 255
222 236 255
222 236 255
222 236 255
222 236 255
222 236 255
222 236 255
222 236 255
222 236 255
222 236 255
222 236 255
222 236 255
222 236 255
222 236 255
222 236 255
222 236 255
222 236 255
222 236 255
222 236 255
222 236 255
222 236 255
222 236 255
222 236 255
222 236 255
222 236 255
222 236 255
222 236 255
222 236 255
222 236 255
222 236 255
222 236 255
222 236 255
222 236 255
222 236 255
222 236 255
222 236 255
222 236 255
222 236 255
222 236 255
222 236 255
222 236 255
222 236 255
222 236 255
222 236 255
222 236 255
222 236 255
222 236 255
222 236 255
222 236 255
222 236 255
222 236 255
222 236 255
222 236 255
222 236 255
222 236 255
222 236 255
222 236 255
222 236 255
222 236 255
222 236 255
222 236 255
222 236 255
222 236 255
222 236 255
222 236 255
222 236 255
222 236 255
222 236 255
222 236 255
222 236 255
222 236 255
222 236 255
222 236 255
222 236 255
222 236 255
222 236 255
222 236 255
222 236 255
222 236 255
222 236 255
222 236 255
222 236 255
222 236 255
222 236 255
222 236 255
222 236 255
222 236 255
222 236 255
222 236 255
222 236 255
222 236 255
222 236 255
222 236 255
222 236 255
222 236 255
222 236 255
222 236 255
222 236 255
222 236 255
222 236 255
222 236 255
222 236 255
222 236 255
222 236 255
222 236 255
222 236 255
222 236 255
222 236 255
222 236 255
222 236 255
222 236 255
222 236 255
222 236 255
222 236 255
222 236 255
222 236 255
222 236 255
222 236 255
222 236 255
222 236 255
222 236 255
222 236 255
222 236 255
222 236 255
222 236 255
222 236 255
222 236 255
222 236 255
222 236 255
222 236 255
222 236 255
222 236 255
222 236 255
222 236 255
222 236 255
222 236 255
222 236 255
222 236 255
222 236 255
222 236 255
222 236 255
222 236 255
222 236 255
222 236 255
222 236 255
222 236 255
222 236 255
222 236 255
222 236 255
222 236 255
222 236 255
222 236 255
222 236 255
222 236 255
222 236 255
222 236 255
222 236 255
222 236 255
222 236 255
222 236 255
222 236 255
222 236 255
222 236 255
222 236 255
222 236 255
222 236 255
222 236 255
222 236 255
222 236 255
222 236 255
222 236 255
222 236 255
222 236 255
222 236 255
222 236 255
222 236 255
222 236 255
222 236 255
222 236 255
222 236 255
222 236 255
222 236 255
222 236 255
222 236 255
222 236 255
222 236 255
222 236 255
222 236 255
222 236 255
222 236 255
222 236 255
222 236 255
222 236 255
222 236 255
222 236 255
222 236 255
222 236 255
222 236 255
222 236 255
222 236 255
222 236 255
222 236 255
222 236 255
222 236 255
222 236 255
222 236 255
222 236 255
222 236 255
222 236 255
222 236 255
222 236 255
222 236 255
222 236 255
222 236 255
222 236 255
222 236 255
222 236 255
222 236 255
222 236 255
222 236 255
222 236 255
222 236 255
222 236 255
222 236 255
222 236 255
222 236 255
222 236 255
222 236 255
222 236 255
222 236 255
222 236 255
222 236 255
222 236 255
222 236 255
222 236 255
222 236 255
222 236 255
222 236 255
222 236 255
222 236 255
222 236 255
222 236 255
222 236 255
222 236 255
222 236 255
222 236 255
222 236 255
222 236 255
222 236 255
222 236 255
222 236 255
222 236 255
222 236 255
222 236 255
222 236 255
222 236 255
222 236 255
222 236 255
222 236 255
222 236 255
222 236 255
222 236 255
222 236 255
222 236 255
222 236 255
222 236 255
222 236 255
222 236 255
222 236 255
222 236 255
222 236 255
222 236 255
222 236 255
222 236 255
222 236 255
222 236 255
222 236 255
222 236 255
222 236 255
222 236 255
222 236 255
222 236 255
222 236 255
222 236 255
222 236 255
222 236 255
222 236 255
222 236 255
222 236 255
222 236 255
222 236 255
222 236 255
222 236 255
222 236 255
222 236 255
222 236 255
222 236 255
222 236 255
222 236 255
222 236 255
222 236 255
222 236 255
222 236 255
222 236 255
222 236 255
222 236 255
222 236 255
222 236 255
222 236 255
222 236 255
222 236 255
222 236 255
222 236 255
222 236 255
222 236 255
222 236 255
222 236 255
222 236 255
222 236 255
222 236 255
222 236 255
222 236 255
222 236 255
222 236 255
222 236 255
222 236 255
222 236 255
222 236 255
222 236 255
222 236 255
222 236 255
222 236 255
222 236 255
222 236 255
222 236 255
222 236 255
222 236 255
222 236 255
222 236 255
222 236 255
222 236 255
222 236 255
222 236 255
222 236 255
222 236 255
222 236 255
222 236 255
222 236 255
222 236 255
222 236 255
222 236 255
222 236 255
222 236 255
222 236 255
222 236 255
222 236 255
222 236 255
222 236 255
222 236 255
222 236 255
222 236 255
222 236 255
222 236 255
222 236 255
222 236 255
222 236 255
222 236 255
222 236 255
222 236 255
222 236 255
222 236 255
222 236 255
222 236 255
222 236 255
222 236 255
222 236 255
222 236 255
222 236 255
222 236 255
222 236 255
222 236 255
222 236 255
222 236 255
222 236 255
222 236 255
222 236 255
222 236 255
222 236 255
222 236 255
222 236 255
222 236 255
222 236 255
222 236 255
222 236 255
222 236 255
222 236 255
222 236 255
222 236 255
222 236 255
222 236 255
222 236 255
222 236 255
222 236 255
222 236 255
222 236 255
222 236 255
222 236 255
222 236 255
222 236 255
222 236 255
222 236 255
222 236 255
222 236 255
222 236 255
222 236 255
222 236 255
222 236 255
222 236 255
222 236 255
222 236 255
222 236 255
222 236 255
222 236 255
222 236 255
222 236 255
222 236 255
222 236 255
222 236 255
222 236 255
222 236 255
222 236 255
222 236 255
222 236 255
222 236 255
222 236 255
222 236 255
222 236 255
222 236 255
222 236 255
222 236 255
222 236 255
222 236 255
222 236 255
222 236 255
222 236 255
222 236 255
222 236 255
222 236 255
222 236 255
222 236 255
222 236 255
222 236 255
222 236 255
222 236 255
222 236 255
222 236 255
222 236 255
222 236 255
222 236 255
222 236 255
222 236 255
222 236 255
222 236 255
222 236 255
222 236 255
222 236 255
222 236 255
222 236 255
222 236 255
222 236 255
222 236 255
222 236 255
222 236 255
222 236 255
222 236 255
222 236 255
222 236 255
222 236 255
222 236 255
222 236 255
222 236 255
222 236 255
222 236 255
222 236 255
222 236 255
222 236 255
222 236 255
222 236 255
222 236 255
222 236 255
222 236 255
222 236 255
222 236 255
222 236 255
222 236 255
222 236 255
222 236 255
222 236 255
222 236 255
222 236 255
222 236 255
222 236 255
222 236 255
222 236 255
222 236 255
222 236 255
222 236 255
222 236 255
222 236 255
222 236 255
222 236 255
222 236 255
222 236 255
222 236 255
222 236 255
222 236 255
222 236 255
222 236 255
222 236 255
222 236 255
222 236 255
222 236 255
222 236 255
222 236 255
222 236 255
222 236 255
222 236 255
222 236 255
222 236 255
222 236 255
222 236 255
222 236 255
222 236 255
222 236 255
222 236 255
222 236 255
222 236 255
222 236 255
222 236 255
222 236 255
222 236 255
222 236 255
222 236 255
222 236 255
222 236 255
222 236 255
222 236 255
222 236 255
222 236 255
222 236 255
222 236 255
222 236 255
222 236 255
222 236 255
222 236 255
222 236 255
222 236 255
222 236 255
222 236 255
222 236 255
222 236 255
222 236 255
222 236 255
222 236 255
222 236 255
222 236 255
222 236 255
222 236 255
222 236 255
222 236 255
222 236 255
222 236 255
222 236 255
222 236 255
222 236 255
222 236 255
222 236 255
222 236 255
222 236 255
222 236 255
222 236 255
222 236 255
222 236 255
222 236 255
222 236 255
222 236 255
222 236 255
222 236 255
222 236 255
222 236 255
222 236 255
222 236 255
222 236 255
222 236 255
222 236 255
222 236 255
222 236 255
222 236 255
222 236 255
222 236 255
222 236 255
222 236 255
222 236 255
222 236 255
222 236 255
222 236 255
222 236 255
222 236 255
222 236 255
222 236 255
222 236 255
222 236 255
222 236 255
222 236 255
222 236 255
222 236 255
222 236 255
222 236 255
222 236 255
222 236 255
222 236 255
222 236 255
222 236 255
222 236 255
222 236 255
222 236 255
222 236 255
222 236 255
222 236 255
222 236 255
222 236 255
222 236 255
222 236 255
222 236 255
222 236 255
222 236 255
222 236 255
222 236 255
222 236 255
222 236 255
222 236 255
222 236 255
222 236 255
222 236 255
222 236 255
222 236 255
222 236 255
222 236 255
222 236 255
222 236 255
222 236 255
222 236 255
222 236 255
222 236 255
222 236 255
222 236 255
222 236 255
222 236 255
222 236 255
222 236 255
222 236 255
222 236 255
222 236 255
222 236 255
222 236 255
222 236 255
222 236 255
222 236 255
222 236 255
222 236 255
222 236 255
222 236 255
222 236 255
222 236 255
222 236 255
222 236 255
222 236 255
222 236 255
222 236 255
222 236 255
222 236 255
222 236 255
222 236 255
222 236 255
222 236 255
222 236 255
222 236 255
222 236 255
222 236 255
222 236 255
222 236 255
222 236 255
222 236 255
222 236 255
222 236 255
222 236 255
222 236 255
222 236 255
222 236 255
222 236 255
222 236 255
222 236 255
222 236 255
222 236 255
222 236 255
222 236 255
222 236 255
222 236 255
222 236 255
222 236 255
222 236 255
222 236 255
222 236 255
222 236 255
222 236 255
222 236 255
222 236 255
222 236 255
222 236 255
222 236 255
222 236 255
222 236 255
222 236 255
222 236 255
222 236 255
222 236 255
222 236 255
222 236 255
222 236 255
222 236 255
222 236 255
222 236 255
222 236 255
222 236 255
222 236 255
222 236 255
222 236 255
222 236 255
222 236 255
222 236 255
222 236 255
222 236 255
222 236 255
222 236 255
222 236 255
222 236 255
222 236 255
222 236 255
222 236 255
222 236 255
222 236 255
222 236 255
222 236 255
222 236 255
222 236 255
222 236 255
222 236 255
222 236 255
222 236 255
222 236 255
222 236 255
222 236 255
222 236 255
222 236 255
222 236 255
222 236 255
222 236 255
222 236 255
222 236 255
222 236 255
222 236 255
222 236 255
222 236 255
222 236 255
222 236 255
222 236 255
222 236 255
222 236 255
222 236 255
222 236 255
222 236 255
222 236 255
222 236 255
222 236 255
222 236 255
222 236 255
222 236 255
222 236 255
222 236 255
222 236 255
222 236 255
222 236 255
222 236 255
222 236 255
222 236 255
222 236 255
222 236 255
222 236 255
222 236 255
222 236 255
222 236 255
222 236 255
222 236 255
222 236 255
222 236 255
222 236 255
222 236 255
222 236 255
222 236 255
222 236 255
222 236 255
222 236 255
222 236 255
222 236 255
222 236 255
222 236 255
222 236 255
222 236 255
222 236 255
222 236 255
222 236 255
222 236 255
222 236 255
222 236 255
222 236 255
222 236 255
222 236 255
222 236 255
222 236 255
222 236 255
222 236 255
222 236 255
222 236 255
222 236 255
222 236 255
222 236 255
222 236 255
222 236 255
222 236 255
222 236 255
222 236 255
222 236 255
222 236 255
222 236 255
222 236 255
222 236 255
222 236 255
222 236 255
222 236 255
222 236 255
222 236 255
222 236 255
222 236 255
222 236 255
222 236 255
222 236 255
222 236 255
222 236 255
222 236 255
222 236 255
222 236 255
222 236 255
222 236 255
222 236 255
222 236 255
222 236 255
222 236 255
222 236 255
222 236 255
222 236 255
222 236 255
222 236 255
222 236 255
222 236 255
222 236 255
222 236 255
222 236 255
222 236 255
222 236 255
222 236 255
222 236 255
222 236 255
222 236 255
222 236 255
222 236 255
222 236 255
222 236 255
222 236 255
222 236 255
222 236 255
222 236 255
222 236 255
222 236 255
222 236 255
222 236 255
222 236 255
222 236 255
222 236 255
222 236 255
222 236 255
222 236 255
222 236 255
222 236 255
222 236 255
222 236 255
222 236 255
222 236 255
222 236 255
222 236 255
222 236 255
222 236 255
222 236 255
222 236 255
222 236 255
222 236 255
222 236 255
222 236 255
222 236 255
222 236 255
222 236 255
222 236 255
222 236 255
222 236 255
222 236 255
222 236 255
222 236 255
222 236 255
222 236 255
222 236 255
222 236 255
222 236 255
222 236 255
222 236 255
222 236 255
222 236 255
222 236 255
222 236 255
222 236 255
222 236 255
222 236 255
222 236 255
222 236 255
222 236 255
222 236 255
222 236 255
222 236 255
222 236 255
222 236 255
222 236 255
222 236 255
222 236 255
222 236 255
222 236 255
222 236 255
222 236 255
222 236 255
222 236 255
222 236 255
222 236 255
222 236 255
222 236 255
222 236 255
222 236 255
222 236 255
222 236 255
222 236 255
222 236 255
222 236 255
222 236 255
222 236 255
222 236 255
222 236 255
222 236 255
222 236 255
222 236 255
222 236 255
222 236 255
222 236 255
222 236 255
222 236 255
222 236 255
222 236 255
222 236 255
222 236 255
222 236 255
222 236 255
222 236 255
222 236 255
222 236 255
222 236 255
222 236 255
222 236 255
222 236 255
222 236 255
222 236 255
222 236 255
222 236 255
222 236 255
222 236 255
222 236 255
222 236 255
222 236 255
222 236 255
222 236 255
222 236 255
222 236 255
222 236 255
222 236 255
222 236 255
222 236 255
222 236 255
222 236 255
222 236 255
222 236 255
222 236 255
222 236 255
222 236 255
222 236 255
222 236 255
222 236 255
222 236 255
222 236 255
222 236 255
222 236 255
222 236 255
222 236 255
222 236 255
222 236 255
222 236 255
222 236 255
222 236 255
222 236 255
222 236 255
222 236 255
222 236 255
222 236 255
222 236 255
222 236 255
222 236 255
222 236 255
222 236 255
222 236 255
222 236 255
222 236 255
222 236 255
222 236 255
222 236 255
222 236 255
222 236 255
222 236 255
222 236 255
222 236 255
222 236 255
222 236 255
222 236 255
222 236 255
222 236 255
222 236 255
222 236 255
222 236 255
222 236 255
222 236 255
222 236 255
222 236 255
222 236 255
222 236 255
222 236 255
222 236 255
222 236 255
222 236 255
222 236 255
222 236 255
222 236 255
222 236 255
223 236 255
223 236 255
223 236 255
223 236 255
223 236 255
223 236 255
223 236 255
223 236 255
223 236 255
223 236 255
223 236 255
223 236 255
223 236 255
223 236 255
223 236 255
223 236 255
223 236 255
223 236 255
223 236 255
223 236 255
223 236 255
223 236 255
223 236 255
223 236 255
223 236 255
223 236 255
223 236 255
223 236 255
223 236 255
223 236 255
223 236 255
223 236 255
223 236 255
223 236 255
223 236 255
223 236 255
223 236 255
223 236 255
223 236 255
223 236 255
223 236 255
223 236 255
223 236 255
223 236 255
223 236 255
223 236 255
223 236 255
223 236 255
223 236 255
223 236 255
223 236 255
223 236 255
223 236 255
223 236 255
223 236 255
223 236 255
223 236 255
223 236 255
223 236 255
223 236 255
223 236 255
223 236 255
223 236 255
223 236 255
223 236 255
223 236 255
223 236 255
223 236 255
223 236 255
223 236 255
223 236 255
223 236 255
223 236 255
223 236 255
223 236 255
223 236 255
223 236 255
223 236 255
223 236 255
223 236 255
223 236 255
223 236 255
223 236 255
223 236 255
223 236 255
223 236 255
223 236 255
223 236 255
223 236 255
223 236 255
223 236 255
223 236 255
223 236 255
223 236 255
223 236 255
223 236 255
223 236 255
223 236 255
223 236 255
223 236 255
223 236 255
223 236 255
223 236 255
223 236 255
223 236 255
223 236 255
223 236 255
223 236 255
223 236 255
223 236 255
223 236 255
223 236 255
223 236 255
223 236 255
223 236 255
223 236 255
223 236 255
223 236 255
223 236 255
223 236 255
223 236 255
223 236 255
223 236 255
223 236 255
223 236 255
223 236 255
223 236 255
223 236 255
223 236 255
223 236 255
223 236 255
223 236 255
223 236 255
223 236 255
223 236 255
223 236 255
223 236 255
223 236 255
223 236 255
223 236 255
223 236 255
222 236 255
223 236 255
222 236 255
222 236 255
222 236 255
222 236 255
222 236 255
222 236 255
222 236 255
222 236 255
222 236 255
222 236 255
222 236 255
222 236 255
222 236 255
222 236 255
222 236 255
222 236 255
222 236 255
222 236 255
222 236 255
222 236 255
222 236 255
222 236 255
222 236 255
222 236 255
222 236 255
222 236 255
222 236 255
222 236 255
222 236 255
222 236 255
222 236 255
222 236 255
222 236 255
222 236 255
222 236 255
222 236 255
222 236 255
222 236 255
222 236 255
222 236 255
222 236 255
222 236 255
222 236 255
222 236 255
222 236 255
222 236 255
222 236 255
222 236 255
222 236 255
222 236 255
222 236 255
222 236 255
222 236 255
222 236 255
222 236 255
222 236 255
222 236 255
222 236 255
222 236 255
222 236 255
222 236 255
222 236 255
222 236 255
222 236 255
222 236 255
222 236 255
222 236 255
222 236 255
222 236 255
222 236 255
222 236 255
222 236 255
222 236 255
222 236 255
222 236 255
222 236 255
222 236 255
222 236 255
222 236 255
222 236 255
222 236 255
222 236 255
222 236 255
222 236 255
222 236 255
222 236 255
222 236 255
222 236 255
222 236 255
222 236 255
222 236 255
222 236 255
222 236 255
222 236 255
222 236 255
222 236 255
222 236 255
222 236 255
222 236 255
222 236 255
222 236 255
222 236 255
222 236 255
222 236 255
222 236 255
222 236 255
222 236 255
222 236 255
222 236 255
222 236 255
222 236 255
222 236 255
222 236 255
222 236 255
222 236 255
222 236 255
222 236 255
222 236 255
222 236 255
222 236 255
222 236 255
222 236 255
222 236 255
222 236 255
222 236 255
222 236 255
222 236 255
222 236 255
222 236 255
222 236 255
222 236 255
222 236 255
222 236 255
222 236 255
222 236 255
222 236 255
222 236 255
222 236 255
222 236 255
222 236 255
222 236 255
222 236 255
222 236 255
222 236 255
222 236 255
222 236 255
222 236 255
222 236 255
222 236 255
222 236 255
222 236 255
222 236 255
222 236 255
222 236 255
222 236 255
222 236 255
222 236 255
222 236 255
222 236 255
222 236 255
222 236 255
222 236 255
222 236 255
222 236 255
222 236 255
222 236 255
222 236 255
222 236 255
222 236 255
222 236 255
222 236 255
222 236 255
222 236 255
222 236 255
222 236 255
222 236 255
222 236 255
222 236 255
222 236 255
222 236 255
222 236 255
222 236 255
222 236 255
222 236 255
222 236 255
222 236 255
222 236 255
222 236 255
222 236 255
222 236 255
222 236 255
222 236 255
222 236 255
222 236 255
222 236 255
222 236 255
222 236 255
222 236 255
222 236 255
222 236 255
222 236 255
222 236 255
222 236 255
222 236 255
222 236 255
222 236 255
222 236 255
222 236 255
222 236 255
222 236 255
222 236 255
222 236 255
222 236 255
223 236 255
222 236 255
223 236 255
222 236 255
223 236 255
223 236 255
223 236 255
223 236 255
223 236 255
223 236 255
223 236 255
223 236 255
223 236 255
223 236 255
223 236 255
223 236 255
223 236 255
223 236 255
223 236 255
223 236 255
223 236 255
223 236 255
223 236 255
223 236 255
223 236 255
223 236 255
223 236 255
223 236 255
223 236 255
223 236 255
223 236 255
223 236 255
223 236 255
223 236 255
223 236 255
223 236 255
223 236 255
223 236 255
223 236 255
223 236 255
223 236 255
223 236 255
223 236 255
223 236 255
223 236 255
223 236 255
223 236 255
223 236 255
223 236 255
223 236 255
223 236 255
223 236 255
223 236 255
223 236 255
223 236 255
223 236 255
223 236 255
223 236 255
223 236 255
223 236 255
223 236 255
223 236 255
223 236 255
223 236 255
223 236 255
223 236 255
223 236 255
223 236 255
223 236 255
223 236 255
223 236 255
223 236 255
223 236 255
223 236 255
223 236 255
223 236 255
223 236 255
223 236 255
223 236 255
223 236 255
223 236 255
223 236 255
223 236 255
223 236 255
223 236 255
223 236 255
223 236 255
223 236 255
223 236 255
223 236 255
223 236 255
223 236 255
223 236 255
223 236 255
223 236 255
223 236 255
223 236 255
223 236 255
223 236 255
223 236 255
223 236 255
223 236 255
223 236 255
223 236 255
223 236 255
223 236 255
223 236 255
223 236 255
223 236 255
223 236 255
223 236 255
223 236 255
223 236 255
223 236 255
223 236 255
223 236 255
223 236 255
223 236 255
223 236 255
223 236 255
223 236 255
223 236 255
223 236 255
223 236 255
223 236 255
223 236 255
223 236 255
223 236 255
223 236 255
223 236 255
223 236 255
223 236 255
223 236 255
223 236 255
223 236 255
223 236 255
223 236 255
223 236 255
223 236 255
223 236 255
223 236 255
223 236 255
223 236 255
223 236 255
223 236 255
223 236 255
223 236 255
223 236 255
223 236 255
223 236 255
223 236 255
223 236 255
223 236 255
223 236 255
223 236 255
223 236 255
223 236 255
223 236 255
223 236 255
223 236 255
223 236 255
223 236 255
223 236 255
223 236 255
223 236 255
223 236 255
223 236 255
223 236 255
223 236 255
223 236 255
223 236 255
223 236 255
223 236 255
223 236 255
223 236 255
223 236 255
223 236 255
223 236 255
223 236 255
223 236 255
223 236 255
223 236 255
223 236 255
223 236 255
223 236 255
223 236 255
223 236 255
223 236 255
223 236 255
223 236 255
223 236 255
223 236 255
223 236 255
223 236 255
223 236 255
223 236 255
223 236 255
223 236 255
223 236 255
223 236 255
223 236 255
223 236 255
223 236 255
223 236 255
223 236 255
223 236 255
223 236 255
223 236 255
223 236 255
223 236 255
223 236 255
223 236 255
223 236 255
223 236 255
223 236 255
223 236 255
223 236 255
223 236 255
223 236 255
223 236 255
223 236 255
223 236 255
223 236 255
223 236 255
223 236 255
223 236 255
223 236 255
223 236 255
222 236 255
222 236 255
222 236 255
222 236 255
222 236 255
222 236 255
222 236 255
222 236 255
222 236 255
222 236 255
222 236 255
222 236 255
222 236 255
222 236 255
222 236 255
222 236 255
222 236 255
222 236 255
222 236 255
222 236 255
222 236 255
222 236 255
222 236 255
222 236 255
222 236 255
222 236 255
222 236 255
222 236 255
222 236 255
222 236 255
222 236 255
222 236 255
222 236 255
222 236 255
222 236 255
222 236 255
222 236 255
222 236 255
222 236 255
222 236 255
222 236 255
222 236 255
222 236 255
222 236 255
222 236 255
222 236 255
222 236 255
222 236 255
222 236 255
222 236 255
222 236 255
222 236 255
222 236 255
222 236 255
222 236 255
222 236 255
222 236 255
222 236 255
222 236 255
222 236 255
222 236 255
222 236 255
222 236 255
222 236 255
222 236 255
222 236 255
222 236 255
222 236 255
222 236 255
222 236 255
222 236 255
222 236 255
222 236 255
222 236 255
222 236 255
222 236 255
222 236 255
222 236 255
222 236 255
222 236 255
222 236 255
222 236 255
222 236 255
222 236 255
222 236 255
222 236 255
222 236 255
222 236 255
222 236 255
222 236 255
222 236 255
222 236 255
222 236 255
222 236 255
222 236 255
222 236 255
222 236 255
222 236 255
222 236 255
222 236 255
222 236 255
222 236 255
222 236 255
222 236 255
222 236 255
222 236 255
222 236 255
222 236 255
222 236 255
222 236 255
222 236 255
222 236 255
222 236 255
222 236 255
222 236 255
222 236 255
222 236 255
222 236 255
222 236 255
222 236 255
222 236 255
222 236 255
222 236 255
222 236 255
222 236 255
222 236 255
222 236 255
222 236 255
222 236 255
222 236 255
222 236 255
222 236 255
222 236 255
222 236 255
222 236 255
222 236 255
222 236 255
222 236 255
222 236 255
222 236 255
222 236 255
222 236 255
223 236 255
223 236 255
223 236 255
223 236 255
223 236 255
223 236 255
223 236 255
223 236 255
223 236 255
223 236 255
223 236 255
223 236 255
223 236 255
223 236 255
223 236 255
223 236 255
223 236 255
223 236 255
223 236 255
223 236 255
223 236 255
223 236 255
223 236 255
223 236 255
223 236 255
223 236 255
223 236 255
223 236 255
223 236 255
223 236 255
223 236 255
223 236 255
223 236 255
223 236 255
223 236 255
223 236 255
223 236 255
223 236 255
223 236 255
223 236 255
223 236 255
223 236 255
223 236 255
223 236 255
223 236 255
223 236 255
223 236 255
223 236 255
223 236 255
223 236 255
223 236 255
223 236 255
223 236 255
223 236 255
223 236 255
223 236 255
223 236 255
223 236 255
223 236 255
223 236 255
223 236 255
223 236 255
223 236 255
223 236 255
223 236 255
223 236 255
223 236 255
223 236 255
223 236 255
223 236 255
223 236 255
223 236 255
223 236 255
223 236 255
223 236 255
223 236 255
223 236 255
223 236 255
223 236 255
223 236 255
223 236 255
223 237 255
223 237 255
223 237 255
223 237 255
223 237 255
223 237 255
223 237 255
223 237 255
223 237 255
223 237 255
223 237 255
223 237 255
223 237 255
223 237 255
223 237 255
223 237 255
223 237 255
223 237 255
223 237 255
223 237 255
223 237 255
223 237 255
223 237 255
223 237 255
223 237 255
223 237 255
223 237 255
223 237 255
223 237 255
223 237 255
223 237 255
223 237 255
223 237 255
223 237 255
223 237 255
223 237 255
223 237 255
223 237 255
223 237 255
223 237 255
223 237 255
223 237 255
223 237 255
223 237 255
223 237 255
223 237 255
223 237 255
223 237 255
223 237 255
223 237 255
223 237 255
223 237 255
223 237 255
223 237 255
223 237 255
223 237 255
223 237 255
223 237 255
223 237 255
223 237 255
223 237 255
223 237 255
223 237 255
223 237 255
223 237 255
223 237 255
223 237 255
223 237 255
223 237 255
223 237 255
223 237 255
223 237 255
223 237 255
223 237 255
223 237 255
223 237 255
223 237 255
223 237 255
223 237 255
223 237 255
223 237 255
223 237 255
223 237 255
223 237 255
223 237 255
223 237 255
223 237 255
223 237 255
223 237 255
223 237 255
223 237 255
223 237 255
223 237 255
223 237 255
223 237 255
223 237 255
223 237 255
223 237 255
223 237 255
223 237 255
223 237 255
223 237 255
223 237 255
223 237 255
223 237 255
223 237 255
223 237 255
223 237 255
223 237 255
223 237 255
223 237 255
223 237 255
223 237 255
223 237 255
223 237 255
223 237 255
223 237 255
223 237 255
223 237 255
223 237 255
223 237 255
223 237 255
223 237 255
223 237 255
223 237 255
223 237 255
223 237 255
223 237 255
223 237 255
223 237 255
223 236 255
223 236 255
223 236 255
223 236 255
223 236 255
223 236 255
223 236 255
223 236 255
223 236 255
223 236 255
223 236 255
223 236 255
223 236 255
223 236 255
223 236 255
223 236 255
223 236 255
223 236 255
223 236 255
223 236 255
223 236 255
223 236 255
223 236 255
223 236 255
223 236 255
223 236 255
223 236 255
223 236 255
223 236 255
223 236 255
223 236 255
223 236 255
223 236 255
223 236 255
223 236 255
223 236 255
223 236 255
223 236 255
223 236 255
223 236 255
223 236 255
223 236 255
223 236 255
223 236 255
223 236 255
223 236 255
223 236 255
223 236 255
223 236 255
223 236 255
223 236 255
223 236 255
223 236 255
223 236 255
223 236 255
223 236 255
223 236 255
223 236 255
223 236 255
223 236 255
223 236 255
223 236 255
223 236 255
223 236 255
223 236 255
223 236 255
223 236 255
223 236 255
223 236 255
223 236 255
223 236 255
223 236 255
223 236 255
223 236 255
223 236 255
223 236 255
223 236 255
223 236 255
223 236 255
223 236 255
223 236 255
223 236 255
222 236 255
222 236 255
222 236 255
222 236 255
222 236 255
222 236 255
222 236 255
222 236 255
222 236 255
222 236 255
222 236 255
222 236 255
222 236 255
222 236 255
222 236 255
222 236 255
222 236 255
222 236 255
222 236 255
222 236 255
222 236 255
222 236 255
222 236 255
222 236 255
222 236 255
222 236 255
222 236 255
222 236 255
222 236 255
222 236 255
222 236 255
222 236 255
222 236 255
222 236 255
222 236 255
222 236 255
222 236 255
222 236 255
222 236 255
222 236 255
222 236 255
222 236 255
222 236 255
222 236 255
222 236 255
222 236 255
222 236 255
222 236 255
222 236 255
222 236 255
222 236 255
222 236 255
222 236 255
222 236 255
222 236 255
222 236 255
222 236 255
222 236 255
222 236 255
222 236 255
222 236 255
222 236 255
222 236 255
222 236 255
222 236 255
222 236 255
222 236 255
222 236 255
222 236 255
222 236 255
222 236 255
222 236 255
222 236 255
222 236 255
222 236 255
222 236 255
222 236 255
223 236 255
223 236 255
223 236 255
223 236 255
223 236 255
223 236 255
223 236 255
223 236 255
223 236 255
223 236 255
223 236 255
223 236 255
223 236 255
223 236 255
223 236 255
223 236 255
223 236 255
223 236 255
223 236 255
223 236 255
223 236 255
223 236 255
223 236 255
223 236 255
223 236 255
223 236 255
223 236 255
223 236 255
223 236 255
223 236 255
223 236 255
223 236 255
223 236 255
223 236 255
223 236 255
223 236 255
223 236 255
223 236 255
223 236 255
223 236 255
223 236 255
223 236 255
223 236 255
223 236 255
223 236 255
223 236 255
223 236 255
223 236 255
223 236 255
223 236 255
223 236 255
223 236 255
223 236 255
223 236 255
223 236 255
223 236 255
223 236 255
223 236 255
223 236 255
223 236 255
223 236 255
223 236 255
223 236 255
223 236 255
223 236 255
223 236 255
223 236 255
223 236 255
223 236 255
223 236 255
223 236 255
223 236 255
223 236 255
223 236 255
223 236 255
223 236 255
223 236 255
223 236 255
223 237 255
223 237 255
223 237 255
223 237 255
223 237 255
223 237 255
223 237 255
223 237 255
223 237 255
223 237 255
223 237 255
223 237 255
223 237 255
223 237 255
223 237 255
223 237 255
223 237 255
223 237 255
223 237 255
223 237 255
223 237 255
223 237 255
223 237 255
223 237 255
223 237 255
223 237 255
223 237 255
223 237 255
223 237 255
223 237 255
223 237 255
223 237 255
223 237 255
223 237 255
223 237 255
223 237 255
223 237 255
223 237 255
223 237 255
223 237 255
223 237 255
223 237 255
223 237 255
223 237 255
223 237 255
223 237 255
223 237 255
223 237 255
223 237 255
223 237 255
223 237 255
223 237 255
223 237 255
223 237 255
223 237 255
223 237 255
223 237 255
223 237 255
223 237 255
223 237 255
223 237 255
223 237 255
223 237 255
223 237 255
223 237 255
223 237 255
223 237 255
223 237 255
223 237 255
223 237 255
223 237 255
223 237 255
223 237 255
223 237 255
223 237 255
223 237 255
223 237 255
223 237 255
223 237 255
223 237 255
223 237 255
223 237 255
223 237 255
223 237 255
223 237 255
223 237 255
223 237 255
223 237 255
223 237 255
223 237 255
223 237 255
223 237 255
223 237 255
223 237 255
223 237 255
223 237 255
223 237 255
223 237 255
223 237 255
223 237 255
223 237 255
223 237 255
223 237 255
223 237 255
223 237 255
223 237 255
223 237 255
223 237 255
223 237 255
223 237 255
223 237 255
223 237 255
223 237 255
223 237 255
223 237 255
223 237 255
223 237 255
223 237 255
223 237 255
223 237 255
223 237 255
223 237 255
223 237 255
223 237 255
223 237 255
223 237 255
223 237 255
223 237 255
223 237 255
223 237 255
223 237 255
223 237 255
223 237 255
223 237 255
223 237 255
223 237 255
223 237 255
223 237 255
223 237 255
223 237 255
223 237 255
223 237 255
223 237 255
223 237 255
223 237 255
223 237 255
223 237 255
223 237 255
223 237 255
223 237 255
223 237 255
223 237 255
223 237 255
223 237 255
223 237 255
223 237 255
223 237 255
223 237 255
223 237 255
223 237 255
223 237 255
223 237 255
223 237 255
223 237 255
223 237 255
223 237 255
223 237 255
223 237 255
223 237 255
223 237 255
223 237 255
223 237 255
223 237 255
223 237 255
223 237 255
223 237 255
223 237 255
223 237 255
223 237 255
223 237 255
223 237 255
223 237 255
223 237 255
223 237 255
223 237 255
223 237 255
223 237 255
223 237 255
223 237 255
223 237 255
223 237 255
223 237 255
223 237 255
223 237 255
223 237 255
223 237 255
223 237 255
223 236 255
223 236 255
223 236 255
223 236 255
223 236 255
223 236 255
223 236 255
223 236 255
223 236 255
223 236 255
223 236 255
223 236 255
223 236 255
223 236 255
223 236 255
223 236 255
223 236 255
223 236 255
223 236 255
223 236 255
223 236 255
223 236 255
223 236 255
223 236 255
223 236 255
223 236 255
223 236 255
223 236 255
223 236 255
223 236 255
223 236 255
223 236 255
223 236 255
223 236 255
223 236 255
223 236 255
223 236 255
223 236 255
223 236 255
223 236 255
223 236 255
223 236 255
223 236 255
223 236 255
223 236 255
223 236 255
223 236 255
223 236 255
223 236 255
223 236 255
223 236 255
223 236 255
223 236 255
223 236 255
223 236 255
223 236 255
223 236 255
223 236 255
223 236 255
223 236 255
223 236 255
223 236 255
223 236 255
223 236 255
223 236 255
223 236 255
223 236 255
223 236 255
223 236 255
223 236 255
223 236 255
223 236 255
223 236 255
223 236 255
223 236 255
223 236 255
223 236 255
223 236 255
223 236 255
222 236 255
222 236 255
222 236 255
222 236 255
222 236 255
222 236 255
222 236 255
222 236 255
222 236 255
222 236 255
222 236 255
222 236 255
222 236 255
222 236 255
222 236 255
222 236 255
222 236 255
222 236 255
222 236 255
222 236 255
222 236 255
222 236 255
223 236 255
223 236 255
223 236 255
223 236 255
223 236 255
223 236 255
223 236 255
223 236 255
223 236 255
223 236 255
223 236 255
223 236 255
223 236 255
223 236 255
223 236 255
223 236 255
223 236 255
223 236 255
223 236 255
223 236 255
223 236 255
223 236 255
223 236 255
223 236 255
223 236 255
223 236 255
223 236 255
223 236 255
223 236 255
223 236 255
223 236 255
223 236 255
223 236 255
223 236 255
223 236 255
223 236 255
223 236 255
223 236 255
223 236 255
223 236 255
223 236 255
223 236 255
223 236 255
223 236 255
223 236 255
223 236 255
223 236 255
223 236 255
223 236 255
223 236 255
223 236 255
223 236 255
223 236 255
223 236 255
223 236 255
223 236 255
223 236 255
223 236 255
223 236 255
223 236 255
223 236 255
223 236 255
223 236 255
223 236 255
223 236 255
223 236 255
223 236 255
223 236 255
223 236 255
223 236 255
223 236 255
223 236 255
223 236 255
223 236 255
223 236 255
223 237 255
223 237 255
223 237 255
223 237 255
223 237 255
223 237 255
223 237 255
223 237 255
223 237 255
223 237 255
223 237 255
223 237 255
223 237 255
223 237 255
223 237 255
223 237 255
223 237 255
223 237 255
223 237 255
223 237 255
223 237 255
223 237 255
223 237 255
223 237 255
223 237 255
223 237 255
223 237 255
223 237 255
223 237 255
223 237 255
223 237 255
223 237 255
223 237 255
223 237 255
223 237 255
223 237 255
223 237 255
223 237 255
223 237 255
223 237 255
223 237 255
223 237 255
223 237 255
223 237 255
223 237 255
223 237 255
223 237 255
223 237 255
223 237 255
223 237 255
223 237 255
223 237 255
223 237 255
223 237 255
223 237 255
223 237 255
223 237 255
223 237 255
223 237 255
223 237 255
223 237 255
223 237 255
223 237 255
223 237 255
223 237 255
223 237 255
223 237 255
223 237 255
223 237 255
223 237 255
223 237 255
223 237 255
223 237 255
223 237 255
223 237 255
223 237 255
223 237 255
223 237 255
223 237 255
223 237 255
223 237 255
223 237 255
223 237 255
223 237 255
223 237 255
224 237 255
224 237 255
224 237 255
224 237 255
224 237 255
224 237 255
224 237 255
224 237 255
224 237 255
224 237 255
224 237 255
224 237 255
224 237 255
224 237 255
224 237 255
224 237 255
224 237 255
224 237 255
224 237 255
224 237 255
224 237 255
224 237 255
224 237 255
224 237 255
224 237 255
224 237 255
224 237 255
224 237 255
224 237 255
224 237 255
224 237 255
224 237 255
224 237 255
224 237 255
224 237 255
224 237 255
224 237 255
224 237 255
224 237 255
224 237 255
224 237 255
224 237 255
224 237 255
224 237 255
224 237 255
224 237 255
224 237 255
224 237 255
224 237 255
224 237 255
224 237 255
224 237 255
224 237 255
224 237 255
224 237 255
224 237 255
224 237 255
224 237 255
224 237 255
224 237 255
224 237 255
224 237 255
224 237 255
224 237 255
224 237 255
224 237 255
224 237 255
224 237 255
224 237 255
224 237 255
224 237 255
224 237 255
224 237 255
224 237 255
224 237 255
224 237 255
224 237 255
224 237 255
224 237 255
223 237 255
224 237 255
223 237 255
223 237 255
223 237 255
223 237 255
223 237 255
223 237 255
223 237 255
223 237 255
223 237 255
223 237 255
223 237 255
223 237 255
223 237 255
223 237 255
223 237 255
223 237 255
223 237 255
223 237 255
223 237 255
223 237 255
223 237 255
223 237 255
223 237 255
223 237 255
223 237 255
223 237 255
223 237 255
223 237 255
223 237 255
223 237 255
223 237 255
223 237 255
223 237 255
223 237 255
223 237 255
223 237 255
223 237 255
223 237 255
223 237 255
223 237 255
223 237 255
223 237 255
223 237 255
223 237 255
223 237 255
223 237 255
223 237 255
223 237 255
223 237 255
223 237 255
223 237 255
223 237 255
223 237 255
223 237 255
223 237 255
223 237 255
223 237 255
223 237 255
223 237 255
223 237 255
223 237 255
223 237 255
223 237 255
223 237 255
223 237 255
223 237 255
223 237 255
223 237 255
223 237 255
223 237 255
223 237 255
223 237 255
223 237 255
223 237 255
223 237 255
223 237 255
223 237 255
223 237 255
223 237 255
223 237 255
223 237 255
223 237 255
223 237 255
223 237 255
223 237 255
223 236 255
223 236 255
223 236 255
223 236 255
223 236 255
223 236 255
223 236 255
223 236 255
223 236 255
223 236 255
223 236 255
223 236 255
223 236 255
223 236 255
223 236 255
223 236 255
223 236 255
223 236 255
223 236 255
223 236 255
223 236 255
223 236 255
223 236 255
223 236 255
223 236 255
223 236 255
223 236 255
223 236 255
223 236 255
223 236 255
223 236 255
223 236 255
223 236 255
223 236 255
223 236 255
223 236 255
223 236 255
223 236 255
223 236 255
223 236 255
223 236 255
223 236 255
223 236 255
223 236 255
223 236 255
223 236 255
223 236 255
223 236 255
223 236 255
223 236 255
223 236 255
223 236 255
223 236 255
223 236 255
223 236 255
223 236 255
223 236 255
223 236 255
223 236 255
223 236 255
223 236 255
223 236 255
223 236 255
223 236 255
223 236 255
223 236 255
223 236 255
223 236 255
223 236 255
223 236 255
223 236 255
223 236 255
223 236 255
223 236 255
223 236 255
223 236 255
223 236 255
223 236 255
223 236 255
223 236 255
223 236 255
223 236 255
223 236 255
223 236 255
223 236 255
223 236 255
223 236 255
223 236 255
223 236 255
223 236 255
223 236 255
223 236 255
223 236 255
223 236 255
223 236 255
223 236 255
223 236 255
223 236 255
223 236 255
223 236 255
223 236 255
223 236 255
223 236 255
223 236 255
223 236 255
223 236 255
223 236 255
223 236 255
223 236 255
223 236 255
223 236 255
223 236 255
223 236 255
223 236 255
223 236 255
223 236 255
223 236 255
223 236 255
223 236 255
223 236 255
223 236 255
223 236 255
223 236 255
223 236 255
223 237 255
223 237 255
223 237 255
223 237 255
223 237 255
223 237 255
223 237 255
223 237 255
223 237 255
223 237 255
223 237 255
223 237 255
223 237 255
223 237 255
223 237 255
223 237 255
223 237 255
223 237 255
223 237 255
223 237 255
223 237 255
223 237 255
223 237 255
223 237 255
223 237 255
223 237 255
223 237 255
223 237 255
223 237 255
223 237 255
223 237 255
223 237 255
223 237 255
223 237 255
223 237 255
223 237 255
223 237 255
223 237 255
223 237 255
223 237 255
223 237 255
223 237 255
223 237 255
223 237 255
223 237 255
223 237 255
223 237 255
223 237 255
223 237 255
223 237 255
223 237 255
223 237 255
223 237 255
223 237 255
223 237 255
223 237 255
223 237 255
223 237 255
223 237 255
223 237 255
223 237 255
223 237 255
223 237 255
223 237 255
223 237 255
223 237 255
223 237 255
223 237 255
223 237 255
223 237 255
223 237 255
223 237 255
223 237 255
223 237 255
223 237 255
223 237 255
224 237 255
223 237 255
224 237 255
224 237 255
224 237 255
224 237 255
224 237 255
224 237 255
224 237 255
224 237 255
224 237 255
224 237 255
224 237 255
224 237 255
224 237 255
224 237 255
224 237 255
224 237 255
224 237 255
224 237 255
224 237 255
224 237 255
224 237 255
224 237 255
224 237 255
224 237 255
224 237 255
224 237 255
224 237 255
224 237 255
224 237 255
224 237 255
224 237 255
224 237 255
224 237 255
224 237 255
224 237 255
224 237 255
224 237 255
224 237 255
224 237 255
224 237 255
224 237 255
224 237 255
224 237 255
224 237 255
224 237 255
224 237 255
224 237 255
224 237 255
224 237 255
224 237 255
224 237 255
224 237 255
224 237 255
224 237 255
224 237 255
224 237 255
224 237 255
224 237 255
224 237 255
224 237 255
224 237 255
224 237 255
224 237 255
224 237 255
224 237 255
224 237 255
224 237 255
224 237 255
224 237 255
224 237 255
224 237 255
224 237 255
224 237 255
224 237 255
224 237 255
224 237 255
224 237 255
224 237 255
224 237 255
224 237 255
224 237 255
224 237 255
224 237 255
224 237 255
224 237 255
224 237 255
224 237 255
224 237 255
224 237 255
224 237 255
224 237 255
224 237 255
224 237 255
224 237 255
224 237 255
224 237 255
224 237 255
224 237 255
224 237 255
224 237 255
224 237 255
224 237 255
224 237 255
224 237 255
224 237 255
224 237 255
224 237 255
224 237 255
224 237 255
224 237 255
224 237 255
224 237 255
224 237 255
224 237 255
224 237 255
224 237 255
224 237 255
224 237 255
224 237 255
224 237 255
224 237 255
224 237 255
224 237 255
224 237 255
224 237 255
224 237 255
224 237 255
224 237 255
224 237 255
224 237 255
224 237 255
224 237 255
224 237 255
224 237 255
224 237 255
224 237 255
224 237 255
224 237 255
224 237 255
224 237 255
224 237 255
224 237 255
224 237 255
224 237 255
224 237 255
223 237 255
223 237 255
223 237 255
223 237 255
223 237 255
223 237 255
223 237 255
223 237 255
223 237 255
223 237 255
223 237 255
223 237 255
223 237 255
223 237 255
223 237 255
223 237 255
223 237 255
223 237 255
223 237 255
223 237 255
223 237 255
223 237 255
223 237 255
223 237 255
223 237 255
223 237 255
223 237 255
223 237 255
223 237 255
223 237 255
223 237 255
223 237 255
223 237 255
223 237 255
223 237 255
223 237 255
223 237 255
223 237 255
223 237 255
223 237 255
223 237 255
223 237 255
223 237 255
223 237 255
223 237 255
223 237 255
223 237 255
223 237 255
223 237 255
223 237 255
223 237 255
223 237 255
223 237 255
223 237 255
223 237 255
223 237 255
223 237 255
223 237 255
223 237 255
223 237 255
223 237 255
223 237 255
223 237 255
223 237 255
223 237 255
223 237 255
223 237 255
223 237 255
223 237 255
223 237 255
223 237 255
223 237 255
223 237 255
223 237 255
223 237 255
223 237 255
223 237 255
223 237 255
223 236 255
223 236 255
223 236 255
223 236 255
223 236 255
223 236 255
223 236 255
223 236 255
223 236 255
223 236 255
223 236 255
223 236 255
223 236 255
223 236 255
223 236 255
223 236 255
223 236 255
223 236 255
223 236 255
223 236 255
223 236 255
223 236 255
223 236 255
223 236 255
223 236 255
223 236 255
223 236 255
223 236 255
223 236 255
223 236 255
223 236 255
223 236 255
223 236 255
223 236 255
223 236 255
223 236 255
223 236 255
223 236 255
223 236 255
223 236 255
223 236 255
223 236 255
223 236 255
223 236 255
223 236 255
223 236 255
223 236 255
223 236 255
223 236 255
223 236 255
223 236 255
223 236 255
223 236 255
223 236 255
223 236 255
223 236 255
223 236 255
223 236 255
223 236 255
223 236 255
223 236 255
223 236 255
223 236 255
223 236 255
223 236 255
223 236 255
223 236 255
223 236 255
223 236 255
223 236 255
223 236 255
223 236 255
223 236 255
223 236 255
223 236 255
223 236 255
223 237 255
223 237 255
223 237 255
223 237 255
223 237 255
223 237 255
223 237 255
223 237 255
223 237 255
223 237 255
223 237 255
223 237 255
223 237 255
223 237 255
223 237 255
223 237 255
223 237 255
223 237 255
223 237 255
223 237 255
223 237 255
223 237 255
223 237 255
223 237 255
223 237 255
223 237 255
223 237 255
223 237 255
223 237 255
223 237 255
223 237 255
223 237 255
223 237 255
223 237 255
223 237 255
223 237 255
223 237 255
223 237 255
223 237 255
223 237 255
223 237 255
223 237 255
223 237 255
223 237 255
223 237 255
223 237 255
223 237 255
223 237 255
223 237 255
223 237 255
223 237 255
223 237 255
223 237 255
223 237 255
223 237 255
223 237 255
223 237 255
223 237 255
223 237 255
223 237 255
223 237 255
223 237 255
223 237 255
223 237 255
223 237 255
223 237 255
223 237 255
223 237 255
223 237 255
223 237 255
223 237 255
223 237 255
223 237 255
223 237 255
223 237 255
224 237 255
224 237 255
224 237 255
224 237 255
224 237 255
224 237 255
224 237 255
224 237 255
224 237 255
224 237 255
224 237 255
224 237 255
224 237 255
224 237 255
224 237 255
224 237 255
224 237 255
224 237 255
224 237 255
224 237 255
224 237 255
224 237 255
224 237 255
224 237 255
224 237 255
224 237 255
224 237 255
224 237 255
224 237 255
224 237 255
224 237 255
224 237 255
224 237 255
224 237 255
224 237 255
224 237 255
224 237 255
224 237 255
224 237 255
224 237 255
224 237 255
224 237 255
224 237 255
224 237 255
224 237 255
224 237 255
224 237 255
224 237 255
224 237 255
224 237 255
224 237 255
224 237 255
224 237 255
224 237 255
224 237 255
224 237 255
224 237 255
224 237 255
224 237 255
224 237 255
224 237 255
224 237 255
224 237 255
224 237 255
224 237 255
224 237 255
224 237 255
224 237 255
224 237 255
224 237 255
224 237 255
224 237 255
224 237 255
224 237 255
224 237 255
224 237 255
224 237 255
224 237 255
224 237 255
224 237 255
224 237 255
224 237 255
224 237 255
224 237 255
224 237 255
224 237 255
224 237 255
224 237 255
224 237 255
224 237 255
224 237 255
224 237 255
224 237 255
224 237 255
224 237 255
224 237 255
224 237 255
224 237 255
224 237 255
224 237 255
224 237 255
224 237 255
224 237 255
224 237 255
224 237 255
224 237 255
224 237 255
224 237 255
224 237 255
224 237 255
224 237 255
224 237 255
224 237 255
224 237 255
224 237 255
224 237 255
224 237 255
224 237 255
224 237 255
224 237 255
224 237 255
224 237 255
224 237 255
224 237 255
224 237 255
224 237 255
224 237 255
224 237 255
224 237 255
224 237 255
224 237 255
224 237 255
224 237 255
224 237 255
224 237 255
224 237 255
224 237 255
224 237 255
224 237 255
224 237 255
224 237 255
224 237 255
224 237 255
224 237 255
224 237 255
224 237 255
224 237 255
224 237 255
224 237 255
224 237 255
224 237 255
224 237 255
224 237 255
224 237 255
224 237 255
224 237 255
224 237 255
224 237 255
224 237 255
224 237 255
224 237 255
224 237 255
224 237 255
224 237 255
224 237 255
224 237 255
224 237 255
224 237 255
224 237 255
224 237 255
224 237 255
224 237 255
224 237 255
224 237 255
224 237 255
224 237 255
224 237 255
224 237 255
224 237 255
224 237 255
224 237 255
224 237 255
224 237 255
224 237 255
224 237 255
224 237 255
224 237 255
224 237 255
224 237 255
224 237 255
224 237 255
224 237 255
224 237 255
224 237 255
224 237 255
224 237 255
224 237 255
223 237 255
223 237 255
223 237 255
223 237 255
223 237 255
223 237 255
223 237 255
223 237 255
223 237 255
223 237 255
223 237 255
223 237 255
223 237 255
223 237 255
223 237 255
223 237 255
223 237 255
223 237 255
223 237 255
223 237 255
223 237 255
223 237 255
223 237 255
223 237 255
223 237 255
223 237 255
223 237 255
223 237 255
223 237 255
223 237 255
223 237 255
223 237 255
223 237 255
223 237 255
223 237 255
223 237 255
223 237 255
223 237 255
223 237 255
223 237 255
223 237 255
223 237 255
223 237 255
223 237 255
223 237 255
223 237 255
223 237 255
223 237 255
223 237 255
223 237 255
223 237 255
223 237 255
223 237 255
223 237 255
223 237 255
223 237 255
223 237 255
223 237 255
223 237 255
223 237 255
223 237 255
223 237 255
223 237 255
223 237 255
223 237 255
223 237 255
223 237 255
223 237 255
223 237 255
223 237 255
223 237 255
223 237 255
223 237 255
223 237 255
223 237 255
223 236 255
223 236 255
223 236 255
223 236 255
223 236 255
223 236 255
223 236 255
223 236 255
223 236 255
223 236 255
223 236 255
223 236 255
223 236 255
223 236 255
223 236 255
223 236 255
223 236 255
223 236 255
223 236 255
223 236 255
223 236 255
223 236 255
223 236 255
223 236 255
223 236 255
223 236 255
223 236 255
223 236 255
223 236 255
223 236 255
223 237 255
223 237 255
223 237 255
223 237 255
223 237 255
223 237 255
223 237 255
223 237 255
223 237 255
223 237 255
223 237 255
223 237 255
223 237 255
223 237 255
223 237 255
223 237 255
223 237 255
223 237 255
223 237 255
223 237 255
223 237 255
223 237 255
223 237 255
223 237 255
223 237 255
223 237 255
223 237 255
223 237 255
223 237 255
223 237 255
223 237 255
223 237 255
223 237 255
223 237 255
223 237 255
223 237 255
223 237 255
223 237 255
223 237 255
223 237 255
223 237 255
223 237 255
223 237 255
223 237 255
223 237 255
223 237 255
223 237 255
223 237 255
223 237 255
223 237 255
223 237 255
223 237 255
223 237 255
223 237 255
223 237 255
223 237 255
223 237 255
223 237 255
223 237 255
223 237 255
223 237 255
223 237 255
223 237 255
223 237 255
223 237 255
223 237 255
223 237 255
223 237 255
223 237 255
223 237 255
223 237 255
223 237 255
223 237 255
223 237 255
223 237 255
223 237 255
224 237 255
224 237 255
224 237 255
224 237 255
224 237 255
224 237 255
224 237 255
224 237 255
224 237 255
224 237 255
224 237 255
224 237 255
224 237 255
224 237 255
224 237 255
224 237 255
224 237 255
224 237 255
224 237 255
224 237 255
224 237 255
224 237 255
224 237 255
224 237 255
224 237 255
224 237 255
224 237 255
224 237 255
224 237 255
224 237 255
224 237 255
224 237 255
224 237 255
224 237 255
224 237 255
224 237 255
224 237 255
224 237 255
224 237 255
224 237 255
224 237 255
224 237 255
224 237 255
224 237 255
224 237 255
224 237 255
224 237 255
224 237 255
224 237 255
224 237 255
224 237 255
224 237 255
224 237 255
224 237 255
224 237 255
224 237 255
224 237 255
224 237 255
224 237 255
224 237 255
224 237 255
224 237 255
224 237 255
224 237 255
224 237 255
224 237 255
224 237 255
224 237 255
224 237 255
224 237 255
224 237 255
224 237 255
224 237 255
224 237 255
224 237 255
224 237 255
224 237 255
224 237 255
224 237 255
224 237 255
224 237 255
224 237 255
224 237 255
224 237 255
224 237 255
224 237 255
224 237 255
224 237 255
224 237 255
224 237 255
224 237 255
224 237 255
224 237 255
224 237 255
224 237 255
224 237 255
224 237 255
224 237 255
224 237 255
224 237 255
224 237 255
224 237 255
224 237 255
224 237 255
224 237 255
224 237 255
224 237 255
224 237 255
224 237 255
224 237 255
224 237 255
224 237 255
224 237 255
224 237 255
224 237 255
224 237 255
224 237 255
224 237 255
224 237 255
224 237 255
224 237 255
224 237 255
224 237 255
224 237 255
224 237 255
224 237 255
224 237 255
224 237 255
224 237 255
224 237 255
224 237 255
224 237 255
224 237 255
224 237 255
224 237 255
224 237 255
224 237 255
224 237 255
224 237 255
224 237 255
224 237 255
224 237 255
224 237 255
224 237 255
224 237 255
224 237 255
224 237 255
224 237 255
224 237 255
224 237 255
224 237 255
224 237 255
224 237 255
224 237 255
224 237 255
224 237 255
224 237 255
224 237 255
224 237 255
224 237 255
224 237 255
224 237 255
224 237 255
224 237 255
224 237 255
224 237 255
224 237 255
224 237 255
224 237 255
224 237 255
224 237 255
224 237 255
224 237 255
224 237 255
224 237 255
224 237 255
224 237 255
224 237 255
224 237 255
224 237 255
224 237 255
224 237 255
224 237 255
224 237 255
224 237 255
224 237 255
224 237 255
224 237 255
224 237 255
224 237 255
224 237 255
224 237 255
224 237 255
224 237 255
224 237 255
224 237 255
224 237 255
224 237 255
224 237 255
224 237 255
224 237 255
224 237 255
224 237 255
224 237 255
224 237 255
224 237 255
224 237 255
224 237 255
224 237 255
224 237 255
224 237 255
224 237 255
224 237 255
224 237 255
224 237 255
224 237 255
224 237 255
224 237 255
224 237 255
224 237 255
224 237 255
224 237 255
224 237 255
224 237 255
224 237 255
224 237 255
224 237 255
224 237 255
224 237 255
224 237 255
224 237 255
224 237 255
224 237 255
224 237 255
224 237 255
224 237 255
224 237 255
224 237 255
224 237 255
224 237 255
223 237 255
223 237 255
223 237 255
223 237 255
223 237 255
223 237 255
223 237 255
223 237 255
223 237 255
223 237 255
223 237 255
223 237 255
223 237 255
223 237 255
223 237 255
223 237 255
223 237 255
223 237 255
223 237 255
223 237 255
223 237 255
223 237 255
223 237 255
223 237 255
223 237 255
223 237 255
223 237 255
223 237 255
223 237 255
223 237 255
223 237 255
223 237 255
223 237 255
223 237 255
223 237 255
223 237 255
223 237 255
223 237 255
223 237 255
223 237 255
223 237 255
223 237 255
223 237 255
223 237 255
223 237 255
223 237 255
223 237 255
223 237 255
223 237 255
223 237 255
223 237 255
223 237 255
223 237 255
223 237 255
223 237 255
223 237 255
223 237 255
223 237 255
223 237 255
223 237 255
223 237 255
223 237 255
223 237 255
223 237 255
223 237 255
223 237 255
223 237 255
223 237 255
223 237 255
223 237 255
223 237 255
223 237 255
223 237 255
223 237 255
223 237 255
223 236 255
223 236 255
223 236 255
223 236 255
223 236 255
223 237 255
223 237 255
223 237 255
223 237 255
223 237 255
223 237 255
223 237 255
223 237 255
223 237 255
223 237 255
223 237 255
223 237 255
223 237 255
223 237 255
223 237 255
223 237 255
223 237 255
223 237 255
223 237 255
223 237 255
223 237 255
223 237 255
223 237 255
223 237 255
223 237 255
223 237 255
223 237 255
223 237 255
223 237 255
223 237 255
223 237 255
223 237 255
223 237 255
223 237 255
223 237 255
223 237 255
223 237 255
223 237 255
223 237 255
223 237 255
223 237 255
223 237 255
223 237 255
223 237 255
223 237 255
223 237 255
223 237 255
223 237 255
223 237 255
223 237 255
223 237 255
223 237 255
223 237 255
223 237 255
223 237 255
223 237 255
223 237 255
223 237 255
223 237 255
223 237 255
223 237 255
224 237 255
224 237 255
224 237 255
224 237 255
224 237 255
224 237 255
224 237 255
224 237 255
224 237 255
224 237 255
224 237 255
224 237 255
224 237 255
224 237 255
224 237 255
224 237 255
224 237 255
224 237 255
224 237 255
224 237 255
224 237 255
224 237 255
224 237 255
224 237 255
224 237 255
224 237 255
224 237 255
224 237 255
224 237 255
224 237 255
224 237 255
224 237 255
224 237 255
224 237 255
224 237 255
224 237 255
224 237 255
224 237 255
224 237 255
224 237 255
224 237 255
224 237 255
224 237 255
224 237 255
224 237 255
224 237 255
224 237 255
224 237 255
224 237 255
224 237 255
224 237 255
224 237 255
224 237 255
224 237 255
224 237 255
224 237 255
224 237 255
224 237 255
224 237 255
224 237 255
224 237 255
224 237 255
224 237 255
224 237 255
224 237 255
224 237 255
224 237 255
224 237 255
224 237 255
224 237 255
224 237 255
224 237 255
224 237 255
224 237 255
224 237 255
224 237 255
224 237 255
224 237 255
224 237 255
224 237 255
224 237 255
224 237 255
224 237 255
224 237 255
224 237 255
224 237 255
224 237 255
224 237 255
224 237 255
224 237 255
224 237 255
224 237 255
224 237 255
224 237 255
224 237 255
224 237 255
224 237 255
224 237 255
224 237 255
224 237 255
224 237 255
224 237 255
224 237 255
224 237 255
224 237 255
224 237 255
224 237 255
224 237 255
224 237 255
224 237 255
224 237 255
224 237 255
225 237 255
224 237 255
225 237 255
225 237 255
225 237 255
225 237 255
225 237 255
224 237 255
225 237 255
225 237 255
225 237 255
225 237 255
225 237 255
225 237 255
225 237 255
225 237 255
225 237 255
225 237 255
225 237 255
225 237 255
225 237 255
225 237 255
225 237 255
225 237 255
225 237 255
225 237 255
225 237 255
225 237 255
225 237 255
225 237 255
225 237 255
225 237 255
225 237 255
225 237 255
225 237 255
225 237 255
225 237 255
225 237 255
225 237 255
225 237 255
225 237 255
225 237 255
225 237 255
225 237 255
225 237 255
225 237 255
225 237 255
225 237 255
225 237 255
225 237 255
224 237 255
225 237 255
224 237 255
224 237 255
224 237 255
224 237 255
224 237 255
224 237 255
224 237 255
224 237 255
224 237 255
224 237 255
224 237 255
224 237 255
224 237 255
224 237 255
224 237 255
224 237 255
224 237 255
224 237 255
224 237 255
224 237 255
224 237 255
224 237 255
224 237 255
224 237 255
224 237 255
224 237 255
224 237 255
224 237 255
224 237 255
224 237 255
224 237 255
224 237 255
224 237 255
224 237 255
224 237 255
224 237 255
224 237 255
224 237 255
224 237 255
224 237 255
224 237 255
224 237 255
224 237 255
224 237 255
224 237 255
224 237 255
224 237 255
224 237 255
224 237 255
224 237 255
224 237 255
224 237 255
224 237 255
224 237 255
224 237 255
224 237 255
224 237 255
224 237 255
224 237 255
224 237 255
224 237 255
224 237 255
224 237 255
224 237 255
224 237 255
224 237 255
224 237 255
224 237 255
224 237 255
224 237 255
224 237 255
224 237 255
224 237 255
224 237 255
224 237 255
224 237 255
224 237 255
224 237 255
224 237 255
224 237 255
224 237 255
224 237 255
224 237 255
224 237 255
224 237 255
224 237 255
224 237 255
224 237 255
224 237 255
224 237 255
224 237 255
224 237 255
224 237 255
224 237 255
224 237 255
224 237 255
224 237 255
224 237 255
224 237 255
224 237 255
224 237 255
224 237 255
224 237 255
224 237 255
224 237 255
224 237 255
224 237 255
224 237 255
224 237 255
224 237 255
224 237 255
224 237 255
224 237 255
224 237 255
223 237 255
223 237 255
223 237 255
223 237 255
223 237 255
223 237 255
223 237 255
223 237 255
223 237 255
223 237 255
223 237 255
223 237 255
223 237 255
223 237 255
223 237 255
223 237 255
223 237 255
223 237 255
223 237 255
223 237 255
223 237 255
223 237 255
223 237 255
223 237 255
223 237 255
223 237 255
223 237 255
223 237 255
223 237 255
223 237 255
223 237 255
223 237 255
223 237 255
223 237 255
223 237 255
223 237 255
223 237 255
223 237 255
223 237 255
223 237 255
223 237 255
223 237 255
223 237 255
223 237 255
223 237 255
223 237 255
223 237 255
223 237 255
223 237 255
223 237 255
223 237 255
223 237 255
223 237 255
223 237 255
223 237 255
223 237 255
223 237 255
223 237 255
223 237 255
223 237 255
223 237 255
223 237 255
223 237 255
223 237 255
223 237 255
223 237 255
223 237 255
223 237 255
223 237 255
223 237 255
223 237 255
223 237 255
223 237 255
223 237 255
223 237 255
223 237 255
223 237 255
223 237 255
223 237 255
223 237 255
223 237 255
223 237 255
223 237 255
223 237 255
223 237 255
223 237 255
223 237 255
223 237 255
223 237 255
223 237 255
223 237 255
223 237 255
223 237 255
223 237 255
223 237 255
223 237 255
223 237 255
223 237 255
223 237 255
223 237 255
223 237 255
223 237 255
223 237 255
223 237 255
224 237 255
224 237 255
224 237 255
224 237 255
224 237 255
224 237 255
224 237 255
224 237 255
224 237 255
224 237 255
224 237 255
224 237 255
224 237 255
224 237 255
224 237 255
224 237 255
224 237 255
224 237 255
224 237 255
224 237 255
224 237 255
224 237 255
224 237 255
224 237 255
224 237 255
224 237 255
224 237 255
224 237 255
224 237 255
224 237 255
224 237 255
224 237 255
224 237 255
224 237 255
224 237 255
224 237 255
224 237 255
224 237 255
224 237 255
224 237 255
224 237 255
224 237 255
224 237 255
224 237 255
224 237 255
224 237 255
224 237 255
224 237 255
224 237 255
224 237 255
224 237 255
224 237 255
224 237 255
224 237 255
224 237 255
224 237 255
224 237 255
224 237 255
224 237 255
224 237 255
224 237 255
224 237 255
224 237 255
224 237 255
224 237 255
224 237 255
224 237 255
224 237 255
224 237 255
224 237 255
224 237 255
224 237 255
224 237 255
224 237 255
224 237 255
224 237 255
224 237 255
224 237 255
224 237 255
224 237 255
224 237 255
224 237 255
224 237 255
224 237 255
224 237 255
224 237 255
224 237 255
224 237 255
224 237 255
224 237 255
224 237 255
224 237 255
224 237 255
224 237 255
224 237 255
224 237 255
224 237 255
224 237 255
224 237 255
224 237 255
224 237 255
225 237 255
225 237 255
225 237 255
225 237 255
225 237 255
225 237 255
225 237 255
225 237 255
225 237 255
225 237 255
225 237 255
225 237 255
225 237 255
225 237 255
225 237 255
225 237 255
225 237 255
225 237 255
225 237 255
225 237 255
225 237 255
225 237 255
225 237 255
225 238 255
225 237 255
225 238 255
225 238 255
225 238 255
225 238 255
225 238 255
225 238 255
225 238 255
225 238 255
225 238 255
225 238 255
225 238 255
225 238 255
225 238 255
225 238 255
225 238 255
225 238 255
225 238 255
225 238 255
225 238 255
225 238 255
225 238 255
225 238 255
225 238 255
225 238 255
225 238 255
225 238 255
225 238 255
225 238 255
225 238 255
225 238 255
225 238 255
225 238 255
225 238 255
225 238 255
225 238 255
225 238 255
225 238 255
225 238 255
225 238 255
225 238 255
225 238 255
225 238 255
225 238 255
225 238 255
225 238 255
225 238 255
225 238 255
225 238 255
225 238 255
225 238 255
225 238 255
225 238 255
225 238 255
225 238 255
225 238 255
225 238 255
225 238 255
225 238 255
225 238 255
225 238 255
225 238 255
225 238 255
225 237 255
225 237 255
225 237 255
225 237 255
225 237 255
225 237 255
225 237 255
225 237 255
225 237 255
225 237 255
225 237 255
225 237 255
225 237 255
225 237 255
225 237 255
225 237 255
225 237 255
225 237 255
225 237 255
225 237 255
225 237 255
225 237 255
225 237 255
225 237 255
225 237 255
225 237 255
225 237 255
224 237 255
224 237 255
224 237 255
224 237 255
224 237 255
224 237 255
224 237 255
224 237 255
224 237 255
224 237 255
224 237 255
224 237 255
224 237 255
224 237 255
224 237 255
224 237 255
224 237 255
224 237 255
224 237 255
224 237 255
224 237 255
224 237 255
224 237 255
224 237 255
224 237 255
224 237 255
224 237 255
224 237 255
224 237 255
224 237 255
224 237 255
224 237 255
224 237 255
224 237 255
224 237 255
224 237 255
224 237 255
224 237 255
224 237 255
224 237 255
224 237 255
224 237 255
224 237 255
224 237 255
224 237 255
224 237 255
224 237 255
224 237 255
224 237 255
224 237 255
224 237 255
224 237 255
224 237 255
224 237 255
224 237 255
224 237 255
224 237 255
224 237 255
224 237 255
224 237 255
224 237 255
224 237 255
224 237 255
224 237 255
224 237 255
224 237 255
224 237 255
224 237 255
224 237 255
224 237 255
224 237 255
224 237 255
224 237 255
224 237 255
224 237 255
224 237 255
224 237 255
224 237 255
224 237 255
224 237 255
224 237 255
224 237 255
224 237 255
224 237 255
224 237 255
224 237 255
224 237 255
224 237 255
224 237 255
224 237 255
224 237 255
224 237 255
224 237 255
224 237 255
224 237 255
224 237 255
224 237 255
224 237 255
224 237 255
223 237 255
223 237 255
223 237 255
223 237 255
223 237 255
223 237 255
223 237 255
223 237 255
223 237 255
223 237 255
223 237 255
223 237 255
223 237 255
223 237 255
223 237 255
223 237 255
223 237 255
223 237 255
223 237 255
223 237 255
223 237 255
223 237 255
223 237 255
223 237 255
223 237 255
223 237 255
223 237 255
223 237 255
223 237 255
223 237 255
223 237 255
223 237 255
223 237 255
223 237 255
223 237 255
223 237 255
223 237 255
223 237 255
223 237 255
223 237 255
223 237 255
223 237 255
223 237 255
223 237 255
223 237 255
223 237 255
223 237 255
223 237 255
223 237 255
223 237 255
223 237 255
223 237 255
223 237 255
223 237 255
223 237 255
223 237 255
223 237 255
223 237 255
223 237 255
223 237 255
223 237 255
223 237 255
223 237 255
223 237 255
223 237 255
223 237 255
223 237 255
223 237 255
223 237 255
223 237 255
224 237 255
224 237 255
224 237 255
224 237 255
224 237 255
224 237 255
224 237 255
224 237 255
224 237 255
224 237 255
224 237 255
224 237 255
224 237 255
224 237 255
224 237 255
224 237 255
224 237 255
224 237 255
224 237 255
224 237 255
224 237 255
224 237 255
224 237 255
224 237 255
224 237 255
224 237 255
224 237 255
224 237 255
224 237 255
224 237 255
224 237 255
224 237 255
224 237 255
224 237 255
224 237 255
224 237 255
224 237 255
224 237 255
224 237 255
224 237 255
224 237 255
224 237 255
224 237 255
224 237 255
224 237 255
224 237 255
224 237 255
224 237 255
224 237 255
224 237 255
224 237 255
224 237 255
224 237 255
224 237 255
224 237 255
224 237 255
224 237 255
224 237 255
224 237 255
224 237 255
224 237 255
224 237 255
224 237 255
224 237 255
224 237 255
224 237 255
224 237 255
224 237 255
224 237 255
224 237 255
224 237 255
224 237 255
224 237 255
224 237 255
224 237 255
224 237 255
224 237 255
224 237 255
224 237 255
224 237 255
224 237 255
224 237 255
224 237 255
224 237 255
224 237 255
224 237 255
224 237 255
224 237 255
224 237 255
224 237 255
224 237 255
224 237 255
224 237 255
224 237 255
224 237 255
224 237 255
225 237 255
225 237 255
225 237 255
225 237 255
225 237 255
225 237 255
225 237 255
225 237 255
225 237 255
225 237 255
225 237 255
225 237 255
225 237 255
225 237 255
225 237 255
225 237 255
225 237 255
225 237 255
225 238 255
225 238 255
225 238 255
225 238 255
225 238 255
225 238 255
225 238 255
225 238 255
225 238 255
225 238 255
225 238 255
225 238 255
225 238 255
225 238 255
225 238 255
225 238 255
225 238 255
225 238 255
225 238 255
225 238 255
225 238 255
225 238 255
225 238 255
225 238 255
225 238 255
225 238 255
225 238 255
225 238 255
225 238 255
225 238 255
225 238 255
225 238 255
225 238 255
225 238 255
225 238 255
225 238 255
225 238 255
225 238 255
225 238 255
225 238 255
225 238 255
225 238 255
225 238 255
225 238 255
225 238 255
225 238 255
225 238 255
225 238 255
225 238 255
225 238 255
225 238 255
225 238 255
225 238 255
225 238 255
225 238 255
225 238 255
225 238 255
225 238 255
225 238 255
225 238 255
225 238 255
225 238 255
225 238 255
225 238 255
225 238 255
225 238 255
225 238 255
225 238 255
225 238 255
225 238 255
225 238 255
225 238 255
225 238 255
225 238 255
225 238 255
225 238 255
225 238 255
225 238 255
225 238 255
225 238 255
225 238 255
225 238 255
225 238 255
225 238 255
225 238 255
225 238 255
225 238 255
225 238 255
225 238 255
225 238 255
225 238 255
225 238 255
225 238 255
225 238 255
225 238 255
225 238 255
225 238 255
225 238 255
225 238 255
225 238 255
225 238 255
225 238 255
225 238 255
225 238 255
225 238 255
225 238 255
225 238 255
225 238 255
225 238 255
225 238 255
225 238 255
225 238 255
225 238 255
225 238 255
225 238 255
225 238 255
225 238 255
225 237 255
225 237 255
225 237 255
225 237 255
225 237 255
225 237 255
225 237 255
225 237 255
225 237 255
225 237 255
225 237 255
225 237 255
225 237 255
225 237 255
225 237 255
225 237 255
225 237 255
225 237 255
225 237 255
224 237 255
224 237 255
224 237 255
224 237 255
224 237 255
224 237 255
224 237 255
224 237 255
224 237 255
224 237 255
224 237 255
224 237 255
224 237 255
224 237 255
224 237 255
224 237 255
224 237 255
224 237 255
224 237 255
224 237 255
224 237 255
224 237 255
224 237 255
224 237 255
224 237 255
224 237 255
224 237 255
224 237 255
224 237 255
224 237 255
224 237 255
224 237 255
224 237 255
224 237 255
224 237 255
224 237 255
224 237 255
224 237 255
224 237 255
224 237 255
224 237 255
224 237 255
224 237 255
224 237 255
224 237 255
224 237 255
224 237 255
224 237 255
224 237 255
224 237 255
224 237 255
224 237 255
224 237 255
224 237 255
224 237 255
224 237 255
224 237 255
224 237 255
224 237 255
224 237 255
224 237 255
224 237 255
224 237 255
224 237 255
224 237 255
224 237 255
224 237 255
224 237 255
224 237 255
224 237 255
224 237 255
224 237 255
224 237 255
224 237 255
224 237 255
224 237 255
224 237 255
224 237 255
224 237 255
224 237 255
224 237 255
224 237 255
224 237 255
224 237 255
224 237 255
224 237 255
224 237 255
224 237 255
224 237 255
224 237 255
224 237 255
224 237 255
224 237 255
224 237 255
224 237 255
224 237 255
223 237 255
223 237 255
223 237 255
223 237 255
223 237 255
223 237 255
223 237 255
223 237 255
223 237 255
223 237 255
223 237 255
223 237 255
223 237 255
223 237 255
223 237 255
223 237 255
223 237 255
223 237 255
223 237 255
223 237 255
223 237 255
223 237 255
223 237 255
223 237 255
223 237 255
223 237 255
223 237 255
223 237 255
223 237 255
223 237 255
223 237 255
223 237 255
223 237 255
223 237 255
223 237 255
223 237 255
223 237 255
224 237 255
224 237 255
224 237 255
224 237 255
224 237 255
224 237 255
224 237 255
224 237 255
224 237 255
224 237 255
224 237 255
224 237 255
224 237 255
224 237 255
224 237 255
224 237 255
224 237 255
224 237 255
224 237 255
224 237 255
224 237 255
224 237 255
224 237 255
224 237 255
224 237 255
224 237 255
224 237 255
224 237 255
224 237 255
224 237 255
224 237 255
224 237 255
224 237 255
224 237 255
224 237 255
224 237 255
224 237 255
224 237 255
224 237 255
224 237 255
224 237 255
224 237 255
224 237 255
224 237 255
224 237 255
224 237 255
224 237 255
224 237 255
224 237 255
224 237 255
224 237 255
224 237 255
224 237 255
224 237 255
224 237 255
224 237 255
224 237 255
224 237 255
224 237 255
224 237 255
224 237 255
224 237 255
224 237 255
224 237 255
224 237 255
224 237 255
224 237 255
224 237 255
224 237 255
224 237 255
224 237 255
224 237 255
224 237 255
224 237 255
224 237 255
224 237 255
224 237 255
224 237 255
224 237 255
224 237 255
224 237 255
224 237 255
224 237 255
224 237 255
224 237 255
224 237 255
224 237 255
224 237 255
224 237 255
224 237 255
224 237 255
224 237 255
224 237 255
224 237 255
224 237 255
224 237 255
225 237 255
225 237 255
225 237 255
225 237 255
225 237 255
225 237 255
225 237 255
225 237 255
225 237 255
225 237 255
225 237 255
225 237 255
225 237 255
225 237 255
225 237 255
225 237 255
225 238 255
225 238 255
225 238 255
225 238 255
225 238 255
225 238 255
225 238 255
225 238 255
225 238 255
225 238 255
225 238 255
225 238 255
225 238 255
225 238 255
225 238 255
225 238 255
225 238 255
225 238 255
225 238 255
225 238 255
225 238 255
225 238 255
225 238 255
225 238 255
225 238 255
225 238 255
225 238 255
225 238 255
225 238 255
225 238 255
225 238 255
225 238 255
225 238 255
225 238 255
225 238 255
225 238 255
225 238 255
225 238 255
225 238 255
225 238 255
225 238 255
225 238 255
225 238 255
225 238 255
225 238 255
225 238 255
225 238 255
225 238 255
225 238 255
225 238 255
225 238 255
225 238 255
225 238 255
225 238 255
225 238 255
225 238 255
225 238 255
225 238 255
225 238 255
225 238 255
225 238 255
225 238 255
225 238 255
225 238 255
225 238 255
225 238 255
225 238 255
225 238 255
225 238 255
225 238 255
225 238 255
225 238 255
225 238 255
225 238 255
225 238 255
225 238 255
225 238 255
225 238 255
225 238 255
225 238 255
225 238 255
225 238 255
225 238 255
225 238 255
225 238 255
225 238 255
225 238 255
225 238 255
225 238 255
225 238 255
225 238 255
225 238 255
225 238 255
225 238 255
225 238 255
225 238 255
225 238 255
225 238 255
225 238 255
225 238 255
225 238 255
225 238 255
225 238 255
225 238 255
225 238 255
225 238 255
225 238 255
225 238 255
225 238 255
225 238 255
225 238 255
225 238 255
225 238 255
225 238 255
225 238 255
225 238 255
225 238 255
225 238 255
225 238 255
225 238 255
225 238 255
225 238 255
225 238 255
225 238 255
225 238 255
225 238 255
225 238 255
225 238 255
225 238 255
225 238 255
225 238 255
225 238 255
225 238 255
225 238 255
225 238 255
225 238 255
225 238 255
225 238 255
225 238 255
225 238 255
225 238 255
225 238 255
225 238 255
225 238 255
225 238 255
225 238 255
225 238 255
225 238 255
225 238 255
225 238 255
225 238 255
225 238 255
225 238 255
225 238 255
225 238 255
225 237 255
225 237 255
225 237 255
225 237 255
225 237 255
225 237 255
225 237 255
225 237 255
225 237 255
225 237 255
225 237 255
225 237 255
225 237 255
225 237 255
225 237 255
225 237 255
225 237 255
225 237 255
224 237 255
224 237 255
224 237 255
224 237 255
224 237 255
224 237 255
224 237 255
224 237 255
224 237 255
224 237 255
224 237 255
224 237 255
224 237 255
224 237 255
224 237 255
224 237 255
224 237 255
224 237 255
224 237 255
224 237 255
224 237 255
224 237 255
224 237 255
224 237 255
224 237 255
224 237 255
224 237 255
224 237 255
224 237 255
224 237 255
224 237 255
224 237 255
224 237 255
224 237 255
224 237 255
224 237 255
224 237 255
224 237 255
224 237 255
224 237 255
224 237 255
224 237 255
224 237 255
224 237 255
224 237 255
224 237 255
224 237 255
224 237 255
224 237 255
224 237 255
224 237 255
224 237 255
224 237 255
224 237 255
224 237 255
224 237 255
224 237 255
224 237 255
224 237 255
224 237 255
224 237 255
224 237 255
224 237 255
224 237 255
224 237 255
224 237 255
224 237 255
224 237 255
224 237 255
224 237 255
224 237 255
224 237 255
224 237 255
224 237 255
224 237 255
224 237 255
224 237 255
224 237 255
224 237 255
224 237 255
224 237 255
224 237 255
224 237 255
224 237 255
224 237 255
224 237 255
224 237 255
224 237 255
224 237 255
224 237 255
224 237 255
224 237 255
224 237 255
224 237 255
224 237 255
223 237 255
223 237 255
223 237 255
223 237 255
223 237 255
223 237 255
223 237 255
223 237 255
223 237 255
223 237 255
224 237 255
224 237 255
224 237 255
224 237 255
224 237 255
224 237 255
224 237 255
224 237 255
224 237 255
224 237 255
224 237 255
224 237 255
224 237 255
224 237 255
224 237 255
224 237 255
224 237 255
224 237 255
224 237 255
224 237 255
224 237 255
224 237 255
224 237 255
224 237 255
224 237 255
224 237 255
224 237 255
224 237 255
224 237 255
224 237 255
224 237 255
224 237 255
224 237 255
224 237 255
224 237 255
224 237 255
224 237 255
224 237 255
224 237 255
224 237 255
224 237 255
224 237 255
224 237 255
224 237 255
224 237 255
224 237 255
224 237 255
224 237 255
224 237 255
224 237 255
224 237 255
224 237 255
224 237 255
224 237 255
224 237 255
224 237 255
224 237 255
224 237 255
224 237 255
224 237 255
224 237 255
224 237 255
224 237 255
224 237 255
224 237 255
224 237 255
224 237 255
224 237 255
224 237 255
224 237 255
224 237 255
224 237 255
224 237 255
224 237 255
224 237 255
224 237 255
224 237 255
224 237 255
224 237 255
224 237 255
224 237 255
224 237 255
224 237 255
224 237 255
224 237 255
224 237 255
224 237 255
224 237 255
224 237 255
224 237 255
225 237 255
225 237 255
225 237 255
225 237 255
225 237 255
225 237 255
225 237 255
225 237 255
225 237 255
225 237 255
225 237 255
225 237 255
225 237 255
225 237 255
225 237 255
225 238 255
225 238 255
225 238 255
225 238 255
225 238 255
225 238 255
225 238 255
225 238 255
225 238 255
225 238 255
225 238 255
225 238 255
225 238 255
225 238 255
225 238 255
225 238 255
225 238 255
225 238 255
225 238 255
225 238 255
225 238 255
225 238 255
225 238 255
225 238 255
225 238 255
225 238 255
225 238 255
225 238 255
225 238 255
225 238 255
225 238 255
225 238 255
225 238 255
225 238 255
225 238 255
225 238 255
225 238 255
225 238 255
225 238 255
225 238 255
225 238 255
225 238 255
225 238 255
225 238 255
225 238 255
225 238 255
225 238 255
225 238 255
225 238 255
225 238 255
225 238 255
225 238 255
225 238 255
225 238 255
225 238 255
225 238 255
225 238 255
225 238 255
225 238 255
225 238 255
225 238 255
225 238 255
225 238 255
225 238 255
225 238 255
225 238 255
225 238 255
225 238 255
225 238 255
225 238 255
225 238 255
225 238 255
225 238 255
225 238 255
225 238 255
225 238 255
225 238 255
226 238 255
225 238 255
225 238 255
226 238 255
226 238 255
226 238 255
226 238 255
226 238 255
226 238 255
226 238 255
226 238 255
226 238 255
226 238 255
226 238 255
226 238 255
226 238 255
226 238 255
226 238 255
226 238 255
226 238 255
226 238 255
226 238 255
226 238 255
226 238 255
226 238 255
226 238 255
226 238 255
226 238 255
226 238 255
226 238 255
226 238 255
226 238 255
226 238 255
226 238 255
225 238 255
225 238 255
225 238 255
225 238 255
225 238 255
225 238 255
225 238 255
225 238 255
225 238 255
225 238 255
225 238 255
225 238 255
225 238 255
225 238 255
225 238 255
225 238 255
225 238 255
225 238 255
225 238 255
225 238 255
225 238 255
225 238 255
225 238 255
225 238 255
225 238 255
225 238 255
225 238 255
225 238 255
225 238 255
225 238 255
225 238 255
225 238 255
225 238 255
225 238 255
225 238 255
225 238 255
225 238 255
225 238 255
225 238 255
225 238 255
225 238 255
225 238 255
225 238 255
225 238 255
225 238 255
225 238 255
225 238 255
225 238 255
225 238 255
225 238 255
225 238 255
225 238 255
225 238 255
225 238 255
225 238 255
225 238 255
225 238 255
225 238 255
225 238 255
225 238 255
225 238 255
225 238 255
225 238 255
225 238 255
225 238 255
225 238 255
225 238 255
225 238 255
225 238 255
225 238 255
225 238 255
225 238 255
225 238 255
225 238 255
225 238 255
225 238 255
225 238 255
225 238 255
225 237 255
225 237 255
225 237 255
225 237 255
225 237 255
225 237 255
225 237 255
225 237 255
225 237 255
225 237 255
225 237 255
225 237 255
225 237 255
225 237 255
225 237 255
225 237 255
224 237 255
224 237 255
224 237 255
224 237 255
224 237 255
224 237 255
224 237 255
224 237 255
224 237 255
224 237 255
224 237 255
224 237 255
224 237 255
224 237 255
224 237 255
224 237 255
224 237 255
224 237 255
224 237 255
224 237 255
224 237 255
224 237 255
224 237 255
224 237 255
224 237 255
224 237 255
224 237 255
224 237 255
224 237 255
224 237 255
224 237 255
224 237 255
224 237 255
224 237 255
224 237 255
224 237 255
224 237 255
224 237 255
224 237 255
224 237 255
224 237 255
224 237 255
224 237 255
224 237 255
224 237 255
224 237 255
224 237 255
224 237 255
224 237 255
224 237 255
224 237 255
224 237 255
224 237 255
224 237 255
224 237 255
224 237 255
224 237 255
224 237 255
224 237 255
224 237 255
224 237 255
224 237 255
224 237 255
224 237 255
224 237 255
224 237 255
224 237 255
224 237 255
224 237 255
224 237 255
224 237 255
224 237 255
224 237 255
224 237 255
224 237 255
224 237 255
224 237 255
224 237 255
224 237 255
224 237 255
224 237 255
224 237 255
224 237 255
224 237 255
224 237 255
224 237 255
224 237 255
224 237 255
224 237 255
224 237 255
224 237 255
224 237 255
224 237 255
224 237 255
224 237 255
224 237 255
224 237 255
224 237 255
224 237 255
224 237 255
224 237 255
224 237 255
224 237 255
224 237 255
224 237 255
224 237 255
224 237 255
224 237 255
224 237 255
224 237 255
224 237 255
224 237 255
224 237 255
224 237 255
224 237 255
224 237 255
224 237 255
224 237 255
224 237 255
224 237 255
224 237 255
224 237 255
224 237 255
224 237 255
224 237 255
224 237 255
224 237 255
224 237 255
224 237 255
224 237 255
224 237 255
224 237 255
224 237 255
224 237 255
224 237 255
224 237 255
224 237 255
224 237 255
224 237 255
224 237 255
224 237 255
224 237 255
224 237 255
224 237 255
224 237 255
224 237 255
224 237 255
224 237 255
224 237 255
224 237 255
224 237 255
224 237 255
224 237 255
224 237 255
224 237 255
224 237 255
224 237 255
224 237 255
224 237 255
224 237 255
224 237 255
224 237 255
224 237 255
224 237 255
224 237 255
224 237 255
224 237 255
225 237 255
225 237 255
225 237 255
225 237 255
225 237 255
225 237 255
225 237 255
225 237 255
225 237 255
225 237 255
225 237 255
225 237 255
225 237 255
225 237 255
225 237 255
225 238 255
225 238 255
225 238 255
225 238 255
225 238 255
225 238 255
225 238 255
225 238 255
225 238 255
225 238 255
225 238 255
225 238 255
225 238 255
225 238 255
225 238 255
225 238 255
225 238 255
225 238 255
225 238 255
225 238 255
225 238 255
225 238 255
225 238 255
225 238 255
225 238 255
225 238 255
225 238 255
225 238 255
225 238 255
225 238 255
225 238 255
225 238 255
225 238 255
225 238 255
225 238 255
225 238 255
225 238 255
225 238 255
225 238 255
225 238 255
225 238 255
225 238 255
225 238 255
225 238 255
225 238 255
225 238 255
225 238 255
225 238 255
225 238 255
225 238 255
225 238 255
225 238 255
225 238 255
225 238 255
225 238 255
225 238 255
225 238 255
225 238 255
225 238 255
225 238 255
226 238 255
226 238 255
226 238 255
226 238 255
226 238 255
226 238 255
226 238 255
226 238 255
226 238 255
226 238 255
226 238 255
226 238 255
226 238 255
226 238 255
226 238 255
226 238 255
226 238 255
226 238 255
226 238 255
226 238 255
226 238 255
226 238 255
226 238 255
226 238 255
226 238 255
226 238 255
226 238 255
226 238 255
226 238 255
226 238 255
226 238 255
226 238 255
226 238 255
226 238 255
226 238 255
226 238 255
226 238 255
226 238 255
226 238 255
226 238 255
226 238 255
226 238 255
226 238 255
226 238 255
226 238 255
226 238 255
226 238 255
226 238 255
226 238 255
226 238 255
226 238 255
226 238 255
226 238 255
226 238 255
226 238 255
226 238 255
226 238 255
226 238 255
226 238 255
226 238 255
226 238 255
226 238 255
226 238 255
226 238 255
226 238 255
226 238 255
226 238 255
226 238 255
226 238 255
226 238 255
226 238 255
226 238 255
226 238 255
226 238 255
226 238 255
226 238 255
226 238 255
226 238 255
226 238 255
226 238 255
226 238 255
226 238 255
226 238 255
226 238 255
226 238 255
226 238 255
226 238 255
226 238 255
226 238 255
226 238 255
226 238 255
226 238 255
226 238 255
226 238 255
226 238 255
225 238 255
225 238 255
225 238 255
225 238 255
225 238 255
225 238 255
225 238 255
225 238 255
225 238 255
225 238 255
225 238 255
225 238 255
225 238 255
225 238 255
225 238 255
225 238 255
225 238 255
225 238 255
225 238 255
225 238 255
225 238 255
225 238 255
225 238 255
225 238 255
225 238 255
225 238 255
225 238 255
225 238 255
225 238 255
225 238 255
225 238 255
225 238 255
225 238 255
225 238 255
225 238 255
225 238 255
225 238 255
225 238 255
225 238 255
225 238 255
225 238 255
225 238 255
225 238 255
225 238 255
225 238 255
225 238 255
225 238 255
225 238 255
225 238 255
225 238 255
225 238 255
225 238 255
225 238 255
225 238 255
225 238 255
225 238 255
225 238 255
225 238 255
225 238 255
225 238 255
225 238 255
225 238 255
225 237 255
225 237 255
225 237 255
225 237 255
225 237 255
225 237 255
225 237 255
225 237 255
225 237 255
225 237 255
225 237 255
225 237 255
225 237 255
225 237 255
224 237 255
224 237 255
224 237 255
224 237 255
224 237 255
224 237 255
224 237 255
224 237 255
224 237 255
224 237 255
224 237 255
224 237 255
224 237 255
224 237 255
224 237 255
224 237 255
224 237 255
224 237 255
224 237 255
224 237 255
224 237 255
224 237 255
224 237 255
224 237 255
224 237 255
224 237 255
224 237 255
224 237 255
224 237 255
224 237 255
224 237 255
224 237 255
224 237 255
224 237 255
224 237 255
224 237 255
224 237 255
224 237 255
224 237 255
224 237 255
224 237 255
224 237 255
224 237 255
224 237 255
224 237 255
224 237 255
224 237 255
224 237 255
224 237 255
224 237 255
224 237 255
224 237 255
224 237 255
224 237 255
224 237 255
224 237 255
224 237 255
224 237 255
224 237 255
224 237 255
224 237 255
224 237 255
224 237 255
224 237 255
224 237 255
224 237 255
224 237 255
224 237 255
224 237 255
224 237 255
224 237 255
224 237 255
224 237 255
224 237 255
224 237 255
224 237 255
224 237 255
224 237 255
224 237 255
224 237 255
224 237 255
224 237 255
224 237 255
224 237 255
224 237 255
224 237 255
224 237 255
224 237 255
224 237 255
224 237 255
224 237 255
224 237 255
224 237 255
224 237 255
224 237 255
224 237 255
224 237 255
224 237 255
224 237 255
224 237 255
224 237 255
224 237 255
224 237 255
224 237 255
224 237 255
224 237 255
224 237 255
224 237 255
224 237 255
224 237 255
224 237 255
224 237 255
224 237 255
224 237 255
224 237 255
224 237 255
224 237 255
224 237 255
224 237 255
224 237 255
224 237 255
224 237 255
224 237 255
224 237 255
224 237 255
224 237 255
224 237 255
224 237 255
224 237 255
224 237 255
224 237 255
224 237 255
224 237 255
224 237 255
224 237 255
224 237 255
224 237 255
224 237 255
224 237 255
224 237 255
225 237 255
225 237 255
225 237 255
225 237 255
225 237 255
225 237 255
225 237 255
225 237 255
225 237 255
225 237 255
225 237 255
225 237 255
225 237 255
225 237 255
225 237 255
225 238 255
225 238 255
225 238 255
225 238 255
225 238 255
225 238 255
225 238 255
225 238 255
225 238 255
225 238 255
225 238 255
225 238 255
225 238 255
225 238 255
225 238 255
225 238 255
225 238 255
225 238 255
225 238 255
225 238 255
225 238 255
225 238 255
225 238 255
225 238 255
225 238 255
225 238 255
225 238 255
225 238 255
225 238 255
225 238 255
225 238 255
225 238 255
225 238 255
225 238 255
225 238 255
225 238 255
225 238 255
225 238 255
225 238 255
225 238 255
225 238 255
225 238 255
225 238 255
225 238 255
225 238 255
225 238 255
225 238 255
225 238 255
225 238 255
225 238 255
225 238 255
225 238 255
225 238 255
225 238 255
225 238 255
225 238 255
225 238 255
226 238 255
226 238 255
226 238 255
226 238 255
226 238 255
226 238 255
226 238 255
226 238 255
226 238 255
226 238 255
226 238 255
226 238 255
226 238 255
226 238 255
226 238 255
226 238 255
226 238 255
226 238 255
226 238 255
226 238 255
226 238 255
226 238 255
226 238 255
226 238 255
226 238 255
226 238 255
226 238 255
226 238 255
226 238 255
226 238 255
226 238 255
226 238 255
226 238 255
226 238 255
226 238 255
226 238 255
226 238 255
226 238 255
226 238 255
226 238 255
226 238 255
226 238 255
226 238 255
226 238 255
226 238 255
226 238 255
226 238 255
226 238 255
226 238 255
226 238 255
226 238 255
226 238 255
226 238 255
226 238 255
226 238 255
226 238 255
226 238 255
226 238 255
226 238 255
226 238 255
226 238 255
226 238 255
226 238 255
226 238 255
226 238 255
226 238 255
226 238 255
226 238 255
226 238 255
226 238 255
226 238 255
226 238 255
226 238 255
226 238 255
226 238 255
226 238 255
226 238 255
226 238 255
226 238 255
226 238 255
226 238 255
226 238 255
226 238 255
226 238 255
226 238 255
226 238 255
226 238 255
226 238 255
226 238 255
226 238 255
226 238 255
226 238 255
226 238 255
226 238 255
226 238 255
226 238 255
226 238 255
226 238 255
226 238 255
226 238 255
226 238 255
226 238 255
226 238 255
226 238 255
226 238 255
226 238 255
226 238 255
226 238 255
226 238 255
226 238 255
226 238 255
226 238 255
226 238 255
226 238 255
226 238 255
226 238 255
226 238 255
226 238 255
226 238 255
226 238 255
226 238 255
226 238 255
226 238 255
226 238 255
226 238 255
226 238 255
226 238 255
226 238 255
226 238 255
226 238 255
226 238 255
225 238 255
225 238 255
225 238 255
225 238 255
225 238 255
225 238 255
225 238 255
225 238 255
225 238 255
225 238 255
225 238 255
225 238 255
225 238 255
225 238 255
225 238 255
225 238 255
225 238 255
225 238 255
225 238 255
225 238 255
225 238 255
225 238 255
225 238 255
225 238 255
225 238 255
225 238 255
225 238 255
225 238 255
225 238 255
225 238 255
225 238 255
225 238 255
225 238 255
225 238 255
225 238 255
225 238 255
225 238 255
225 238 255
225 238 255
225 238 255
225 238 255
225 238 255
225 238 255
225 238 255
225 238 255
225 238 255
225 238 255
225 238 255
225 238 255
225 238 255
225 238 255
225 238 255
225 238 255
225 238 255
225 238 255
225 237 255
225 237 255
225 237 255
225 237 255
225 237 255
225 237 255
225 237 255
225 237 255
225 237 255
225 237 255
225 237 255
225 237 255
225 237 255
225 237 255
225 237 255
225 237 255
224 237 255
224 237 255
224 237 255
224 237 255
224 237 255
224 237 255
224 237 255
224 237 255
224 237 255
224 237 255
224 237 255
224 237 255
224 237 255
224 237 255
224 237 255
224 237 255
224 237 255
224 237 255
224 237 255
224 237 255
224 237 255
224 237 255
224 237 255
224 237 255
224 237 255
224 237 255
224 237 255
224 237 255
224 237 255
224 237 255
224 237 255
224 237 255
224 237 255
224 237 255
224 237 255
224 237 255
224 237 255
224 237 255
224 237 255
224 237 255
224 237 255
224 237 255
224 237 255
224 237 255
224 237 255
224 237 255
224 237 255
224 237 255
224 237 255
224 237 255
224 237 255
224 237 255
224 237 255
224 237 255
224 237 255
224 237 255
224 237 255
224 237 255
224 237 255
224 237 255
224 237 255
224 237 255
224 237 255
224 237 255
224 237 255
224 237 255
224 237 255
224 237 255
224 237 255
224 237 255
224 237 255
224 237 255
224 237 255
224 237 255
224 237 255
224 237 255
224 237 255
224 237 255
224 237 255
224 237 255
224 237 255
224 237 255
224 237 255
224 237 255
224 237 255
224 237 255
224 237 255
224 237 255
224 237 255
224 237 255
224 237 255
224 237 255
224 237 255
224 237 255
224 237 255
224 237 255
224 237 255
224 237 255
224 237 255
224 237 255
224 237 255
224 237 255
224 237 255
224 237 255
224 237 255
224 237 255
224 237 255
224 237 255
224 237 255
224 237 255
224 237 255
224 237 255
224 237 255
225 237 255
225 237 255
225 237 255
225 237 255
225 237 255
225 237 255
225 237 255
225 237 255
225 237 255
225 237 255
225 237 255
225 237 255
225 237 255
225 237 255
225 237 255
225 237 255
225 238 255
225 238 255
225 238 255
225 238 255
225 238 255
225 238 255
225 238 255
225 238 255
225 238 255
225 238 255
225 238 255
225 238 255
225 238 255
225 238 255
225 238 255
225 238 255
225 238 255
225 238 255
225 238 255
225 238 255
225 238 255
225 238 255
225 238 255
225 238 255
225 238 255
225 238 255
225 238 255
225 238 255
225 238 255
225 238 255
225 238 255
225 238 255
225 238 255
225 238 255
225 238 255
225 238 255
225 238 255
225 238 255
225 238 255
225 238 255
225 238 255
225 238 255
225 238 255
225 238 255
225 238 255
225 238 255
225 238 255
225 238 255
225 238 255
225 238 255
225 238 255
225 238 255
225 238 255
226 238 255
225 238 255
226 238 255
226 238 255
226 238 255
226 238 255
226 238 255
226 238 255
226 238 255
226 238 255
226 238 255
226 238 255
226 238 255
226 238 255
226 238 255
226 238 255
226 238 255
226 238 255
226 238 255
226 238 255
226 238 255
226 238 255
226 238 255
226 238 255
226 238 255
226 238 255
226 238 255
226 238 255
226 238 255
226 238 255
226 238 255
226 238 255
226 238 255
226 238 255
226 238 255
226 238 255
226 238 255
226 238 255
226 238 255
226 238 255
226 238 255
226 238 255
226 238 255
226 238 255
226 238 255
226 238 255
226 238 255
226 238 255
226 238 255
226 238 255
226 238 255
226 238 255
226 238 255
226 238 255
226 238 255
226 238 255
226 238 255
226 238 255
226 238 255
226 238 255
226 238 255
226 238 255
226 238 255
226 238 255
226 238 255
226 238 255
226 238 255
226 238 255
226 238 255
226 238 255
226 238 255
226 238 255
226 238 255
226 238 255
226 238 255
226 238 255
226 238 255
226 238 255
226 238 255
226 238 255
226 238 255
226 238 255
226 238 255
226 238 255
226 238 255
226 238 255
226 238 255
226 238 255
226 238 255
226 238 255
226 238 255
226 238 255
226 238 255
226 238 255
226 238 255
226 238 255
226 238 255
226 238 255
226 238 255
226 238 255
226 238 255
226 238 255
226 238 255
226 238 255
226 238 255
226 238 255
226 238 255
226 238 255
226 238 255
226 238 255
226 238 255
226 238 255
226 238 255
226 238 255
226 238 255
226 238 255
226 238 255
226 238 255
226 238 255
226 238 255
226 238 255
226 238 255
226 238 255
226 238 255
226 238 255
226 238 255
226 238 255
226 238 255
226 238 255
226 238 255
226 238 255
226 238 255
226 238 255
226 238 255
226 238 255
226 238 255
226 238 255
226 238 255
226 238 255
226 238 255
226 238 255
226 238 255
226 238 255
226 238 255
226 238 255
226 238 255
226 238 255
226 238 255
226 238 255
226 238 255
226 238 255
226 238 255
226 238 255
226 238 255
226 238 255
226 238 255
226 238 255
226 238 255
226 238 255
226 238 255
226 238 255
225 238 255
225 238 255
225 238 255
225 238 255
225 238 255
225 238 255
225 238 255
225 238 255
225 238 255
225 238 255
225 238 255
225 238 255
225 238 255
225 238 255
225 238 255
225 238 255
225 238 255
225 238 255
225 238 255
225 238 255
225 238 255
225 238 255
225 238 255
225 238 255
225 238 255
225 238 255
225 238 255
225 238 255
225 238 255
225 238 255
225 238 255
225 238 255
225 238 255
225 238 255
225 238 255
225 238 255
225 238 255
225 238 255
225 238 255
225 238 255
225 238 255
225 238 255
225 238 255
225 238 255
225 238 255
225 238 255
225 238 255
225 238 255
225 238 255
225 238 255
225 238 255
225 238 255
225 238 255
225 238 255
225 237 255
225 237 255
225 237 255
225 237 255
225 237 255
225 237 255
225 237 255
225 237 255
225 237 255
225 237 255
225 237 255
225 237 255
225 237 255
225 237 255
225 237 255
225 237 255
224 237 255
224 237 255
224 237 255
224 237 255
224 237 255
224 237 255
224 237 255
224 237 255
224 237 255
224 237 255
224 237 255
224 237 255
224 237 255
224 237 255
224 237 255
224 237 255
224 237 255
224 237 255
224 237 255
224 237 255
224 237 255
224 237 255
224 237 255
224 237 255
224 237 255
224 237 255
224 237 255
224 237 255
224 237 255
224 237 255
224 237 255
224 237 255
224 237 255
224 237 255
224 237 255
224 237 255
224 237 255
224 237 255
224 237 255
224 237 255
224 237 255
224 237 255
224 237 255
224 237 255
224 237 255
224 237 255
224 237 255
224 237 255
224 237 255
224 237 255
224 237 255
224 237 255
224 237 255
224 237 255
224 237 255
224 237 255
224 237 255
224 237 255
224 237 255
224 237 255
224 237 255
224 237 255
224 237 255
224 237 255
224 237 255
224 237 255
224 237 255
224 237 255
224 237 255
224 237 255
224 237 255
224 237 255
224 237 255
224 237 255
224 237 255
224 237 255
224 237 255
224 237 255
224 237 255
224 237 255
224 237 255
224 237 255
224 237 255
224 237 255
224 237 255
224 237 255
224 237 255
224 237 255
225 237 255
225 237 255
225 237 255
225 237 255
225 237 255
225 237 255
225 237 255
225 237 255
225 237 255
225 237 255
225 237 255
225 237 255
225 237 255
225 237 255
225 237 255
225 237 255
225 238 255
225 238 255
225 238 255
225 238 255
225 238 255
225 238 255
225 238 255
225 238 255
225 238 255
225 238 255
225 238 255
225 238 255
225 238 255
225 238 255
225 238 255
225 238 255
225 238 255
225 238 255
225 238 255
225 238 255
225 238 255
225 238 255
225 238 255
225 238 255
225 238 255
225 238 255
225 238 255
225 238 255
225 238 255
225 238 255
225 238 255
225 238 255
225 238 255
225 238 255
225 238 255
225 238 255
225 238 255
225 238 255
225 238 255
225 238 255
225 238 255
225 238 255
225 238 255
225 238 255
225 238 255
225 238 255
225 238 255
225 238 255
225 238 255
225 238 255
225 238 255
225 238 255
225 238 255
226 238 255
226 238 255
226 238 255
226 238 255
226 238 255
226 238 255
226 238 255
226 238 255
226 238 255
226 238 255
226 238 255
226 238 255
226 238 255
226 238 255
226 238 255
226 238 255
226 238 255
226 238 255
226 238 255
226 238 255
226 238 255
226 238 255
226 238 255
226 238 255
226 238 255
226 238 255
226 238 255
226 238 255
226 238 255
226 238 255
226 238 255
226 238 255
226 238 255
226 238 255
226 238 255
226 238 255
226 238 255
226 238 255
226 238 255
226 238 255
226 238 255
226 238 255
226 238 255
226 238 255
226 238 255
226 238 255
226 238 255
226 238 255
226 238 255
226 238 255
226 238 255
226 238 255
226 238 255
226 238 255
226 238 255
226 238 255
226 238 255
226 238 255
226 238 255
226 238 255
226 238 255
226 238 255
226 238 255
226 238 255
226 238 255
226 238 255
226 238 255
226 238 255
226 238 255
226 238 255
226 238 255
226 239 255
226 238 255
226 239 255
226 239 255
226 239 255
226 239 255
226 239 255
226 239 255
227 239 255
227 239 255
227 239 255
227 239 255
227 239 255
227 239 255
227 239 255
227 239 255
227 239 255
227 239 255
227 239 255
227 239 255
227 239 255
227 239 255
227 239 255
227 239 255
227 239 255
227 239 255
227 239 255
227 239 255
227 239 255
227 239 255
227 239 255
227 239 255
227 239 255
227 239 255
227 239 255
227 239 255
226 239 255
226 239 255
226 239 255
226 239 255
226 239 255
226 238 255
226 239 255
226 238 255
226 238 255
226 238 255
226 238 255
226 238 255
226 238 255
226 238 255
226 238 255
226 238 255
226 238 255
226 238 255
226 238 255
226 238 255
226 238 255
226 238 255
226 238 255
226 238 255
226 238 255
226 238 255
226 238 255
226 238 255
226 238 255
226 238 255
226 238 255
226 238 255
226 238 255
226 238 255
226 238 255
226 238 255
226 238 255
226 238 255
226 238 255
226 238 255
226 238 255
226 238 255
226 238 255
226 238 255
226 238 255
226 238 255
226 238 255
226 238 255
226 238 255
226 238 255
226 238 255
226 238 255
226 238 255
226 238 255
226 238 255
226 238 255
226 238 255
226 238 255
226 238 255
226 238 255
226 238 255
226 238 255
226 238 255
226 238 255
226 238 255
226 238 255
226 238 255
226 238 255
226 238 255
226 238 255
226 238 255
226 238 255
226 238 255
226 238 255
226 238 255
226 238 255
226 238 255
226 238 255
226 238 255
226 238 255
225 238 255
225 238 255
225 238 255
225 238 255
225 238 255
225 238 255
225 238 255
225 238 255
225 238 255
225 238 255
225 238 255
225 238 255
225 238 255
225 238 255
225 238 255
225 238 255
225 238 255
225 238 255
225 238 255
225 238 255
225 238 255
225 238 255
225 238 255
225 238 255
225 238 255
225 238 255
225 238 255
225 238 255
225 238 255
225 238 255
225 238 255
225 238 255
225 238 255
225 238 255
225 238 255
225 238 255
225 238 255
225 238 255
225 238 255
225 238 255
225 238 255
225 238 255
225 238 255
225 238 255
225 238 255
225 238 255
225 238 255
225 238 255
225 238 255
225 238 255
225 238 255
225 238 255
225 237 255
225 237 255
225 237 255
225 237 255
225 237 255
225 237 255
225 237 255
225 237 255
225 237 255
225 237 255
225 237 255
225 237 255
225 237 255
225 237 255
225 237 255
224 237 255
224 237 255
224 237 255
224 237 255
224 237 255
224 237 255
224 237 255
224 237 255
224 237 255
224 237 255
224 237 255
224 237 255
224 237 255
224 237 255
224 237 255
224 237 255
224 237 255
224 237 255
224 237 255
224 237 255
224 237 255
224 237 255
224 237 255
224 237 255
224 237 255
224 237 255
224 237 255
224 237 255
224 237 255
224 237 255
224 237 255
224 237 255
224 237 255
224 237 255
224 237 255
224 237 255
224 237 255
224 237 255
224 237 255
224 237 255
224 237 255
224 237 255
224 237 255
224 237 255
224 237 255
224 237 255
224 237 255
224 237 255
224 237 255
224 237 255
224 237 255
224 237 255
224 237 255
224 237 255
224 237 255
224 237 255
224 237 255
224 237 255
224 237 255
224 237 255
224 237 255
224 237 255
224 237 255
224 237 255
224 237 255
224 237 255
225 237 255
225 237 255
225 237 255
225 237 255
225 237 255
225 237 255
225 237 255
225 237 255
225 237 255
225 237 255
225 237 255
225 237 255
225 237 255
225 237 255
225 237 255
225 237 255
225 238 255
225 238 255
225 238 255
225 238 255
225 238 255
225 238 255
225 238 255
225 238 255
225 238 255
225 238 255
225 238 255
225 238 255
225 238 255
225 238 255
225 238 255
225 238 255
225 238 255
225 238 255
225 238 255
225 238 255
225 238 255
225 238 255
225 238 255
225 238 255
225 238 255
225 238 255
225 238 255
225 238 255
225 238 255
225 238 255
225 238 255
225 238 255
225 238 255
225 238 255
225 238 255
225 238 255
225 238 255
225 238 255
225 238 255
225 238 255
225 238 255
225 238 255
225 238 255
225 238 255
225 238 255
225 238 255
225 238 255
225 238 255
225 238 255
225 238 255
225 238 255
225 238 255
226 238 255
226 238 255
226 238 255
226 238 255
226 238 255
226 238 255
226 238 255
226 238 255
226 238 255
226 238 255
226 238 255
226 238 255
226 238 255
226 238 255
226 238 255
226 238 255
226 238 255
226 238 255
226 238 255
226 238 255
226 238 255
226 238 255
226 238 255
226 238 255
226 238 255
226 238 255
226 238 255
226 238 255
226 238 255
226 238 255
226 238 255
226 238 255
226 238 255
226 238 255
226 238 255
226 238 255
226 238 255
226 238 255
226 238 255
226 238 255
226 238 255
226 238 255
226 238 255
226 238 255
226 238 255
226 238 255
226 238 255
226 238 255
226 238 255
226 238 255
226 238 255
226 238 255
226 238 255
226 238 255
226 238 255
226 238 255
226 238 255
226 238 255
226 238 255
226 238 255
226 239 255
226 239 255
226 239 255
226 239 255
227 239 255
227 239 255
227 239 255
227 239 255
227 239 255
227 239 255
227 239 255
227 239 255
227 239 255
227 239 255
227 239 255
227 239 255
227 239 255
227 239 255
227 239 255
227 239 255
227 239 255
227 239 255
227 239 255
227 239 255
227 239 255
227 239 255
227 239 255
227 239 255
227 239 255
227 239 255
227 239 255
227 239 255
227 239 255
227 239 255
227 239 255
227 239 255
227 239 255
227 239 255
227 239 255
227 239 255
227 239 255
227 239 255
227 239 255
227 239 255
227 239 255
227 239 255
227 239 255
227 239 255
227 239 255
227 239 255
227 239 255
227 239 255
227 239 255
227 239 255
227 239 255
227 239 255
227 239 255
227 239 255
227 239 255
227 239 255
227 239 255
227 239 255
227 239 255
227 239 255
227 239 255
227 239 255
227 239 255
227 239 255
227 239 255
227 239 255
227 239 255
227 239 255
227 239 255
227 239 255
227 239 255
227 239 255
227 239 255
227 239 255
227 239 255
227 239 255
227 239 255
227 239 255
227 239 255
227 239 255
227 239 255
227 239 255
227 239 255
226 239 255
226 239 255
226 239 255
226 238 255
226 238 255
226 238 255
226 238 255
226 238 255
226 238 255
226 238 255
226 238 255
226 238 255
226 238 255
226 238 255
226 238 255
226 238 255
226 238 255
226 238 255
226 238 255
226 238 255
226 238 255
226 238 255
226 238 255
226 238 255
226 238 255
226 238 255
226 238 255
226 238 255
226 238 255
226 238 255
226 238 255
226 238 255
226 238 255
226 238 255
226 238 255
226 238 255
226 238 255
226 238 255
226 238 255
226 238 255
226 238 255
226 238 255
226 238 255
226 238 255
226 238 255
226 238 255
226 238 255
226 238 255
226 238 255
226 238 255
226 238 255
226 238 255
226 238 255
226 238 255
226 238 255
226 238 255
226 238 255
226 238 255
226 238 255
226 238 255
226 238 255
226 238 255
226 238 255
225 238 255
225 238 255
225 238 255
225 238 255
225 238 255
225 238 255
225 238 255
225 238 255
225 238 255
225 238 255
225 238 255
225 238 255
225 238 255
225 238 255
225 238 255
225 238 255
225 238 255
225 238 255
225 238 255
225 238 255
225 238 255
225 238 255
225 238 255
225 238 255
225 238 255
225 238 255
225 238 255
225 238 255
225 238 255
225 238 255
225 238 255
225 238 255
225 238 255
225 238 255
225 238 255
225 238 255
225 238 255
225 238 255
225 238 255
225 238 255
225 238 255
225 238 255
225 238 255
225 238 255
225 238 255
225 238 255
225 238 255
225 238 255
225 238 255
225 238 255
225 238 255
225 238 255
225 237 255
225 237 255
225 237 255
225 237 255
225 237 255
225 237 255
225 237 255
225 237 255
225 237 255
225 237 255
225 237 255
225 237 255
225 237 255
225 237 255
225 237 255
225 237 255
224 237 255
224 237 255
224 237 255
224 237 255
224 237 255
224 237 255
224 237 255
224 237 255
224 237 255
224 237 255
224 237 255
224 237 255
224 237 255
224 237 255
224 237 255
224 237 255
224 237 255
224 237 255
224 237 255
224 237 255
224 237 255
224 237 255
224 237 255
224 237 255
224 237 255
224 237 255
224 237 255
224 237 255
224 237 255
224 237 255
224 237 255
224 237 255
224 237 255
224 237 255
224 237 255
224 237 255
224 237 255
224 237 255
224 237 255
224 237 255
224 237 255
224 237 255
224 237 255
225 237 255
225 237 255
225 237 255
225 237 255
225 237 255
225 237 255
225 237 255
225 237 255
225 237 255
225 237 255
225 237 255
225 237 255
225 237 255
225 237 255
225 237 255
225 237 255
225 238 255
225 238 255
225 238 255
225 238 255
225 238 255
225 238 255
225 238 255
225 238 255
225 238 255
225 238 255
225 238 255
225 238 255
225 238 255
225 238 255
225 238 255
225 238 255
225 238 255
225 238 255
225 238 255
225 238 255
225 238 255
225 238 255
225 238 255
225 238 255
225 238 255
225 238 255
225 238 255
225 238 255
225 238 255
225 238 255
225 238 255
225 238 255
225 238 255
225 238 255
225 238 255
225 238 255
225 238 255
225 238 255
225 238 255
225 238 255
225 238 255
225 238 255
225 238 255
225 238 255
225 238 255
225 238 255
225 238 255
225 238 255
225 238 255
225 238 255
225 238 255
225 238 255
225 238 255
226 238 255
226 238 255
226 238 255
226 238 255
226 238 255
226 238 255
226 238 255
226 238 255
226 238 255
226 238 255
226 238 255
226 238 255
226 238 255
226 238 255
226 238 255
226 238 255
226 238 255
226 238 255
226 238 255
226 238 255
226 238 255
226 238 255
226 238 255
226 238 255
226 238 255
226 238 255
226 238 255
226 238 255
226 238 255
226 238 255
226 238 255
226 238 255
226 238 255
226 238 255
226 238 255
226 238 255
226 238 255
226 238 255
226 238 255
226 238 255
226 238 255
226 238 255
226 238 255
226 238 255
226 238 255
226 238 255
226 238 255
226 238 255
226 238 255
226 238 255
226 238 255
226 238 255
226 238 255
226 238 255
226 239 255
226 239 255
226 239 255
227 239 255
227 239 255
227 239 255
227 239 255
227 239 255
227 239 255
227 239 255
227 239 255
227 239 255
227 239 255
227 239 255
227 239 255
227 239 255
227 239 255
227 239 255
227 239 255
227 239 255
227 239 255
227 239 255
227 239 255
227 239 255
227 239 255
227 239 255
227 239 255
227 239 255
227 239 255
227 239 255
227 239 255
227 239 255
227 239 255
227 239 255
227 239 255
227 239 255
227 239 255
227 239 255
227 239 255
227 239 255
227 239 255
227 239 255
227 239 255
227 239 255
227 239 255
227 239 255
227 239 255
227 239 255
227 239 255
227 239 255
227 239 255
227 239 255
227 239 255
227 239 255
227 239 255
227 239 255
227 239 255
227 239 255
227 239 255
227 239 255
227 239 255
227 239 255
227 239 255
227 239 255
227 239 255
227 239 255
227 239 255
227 239 255
227 239 255
227 239 255
227 239 255
227 239 255
227 239 255
227 239 255
227 239 255
227 239 255
227 239 255
227 239 255
227 239 255
227 239 255
227 239 255
227 239 255
227 239 255
227 239 255
227 239 255
227 239 255
227 239 255
227 239 255
227 239 255
227 239 255
227 239 255
227 239 255
227 239 255
227 239 255
227 239 255
227 239 255
227 239 255
227 239 255
227 239 255
227 239 255
227 239 255
227 239 255
227 239 255
227 239 255
227 239 255
227 239 255
227 239 255
227 239 255
227 239 255
227 239 255
227 239 255
227 239 255
227 239 255
227 239 255
227 239 255
227 239 255
227 239 255
227 239 255
227 239 255
226 239 255
226 239 255
226 239 255
226 238 255
226 238 255
226 238 255
226 238 255
226 238 255
226 238 255
226 238 255
226 238 255
226 238 255
226 238 255
226 238 255
226 238 255
226 238 255
226 238 255
226 238 255
226 238 255
226 238 255
226 238 255
226 238 255
226 238 255
226 238 255
226 238 255
226 238 255
226 238 255
226 238 255
226 238 255
226 238 255
226 238 255
226 238 255
226 238 255
226 238 255
226 238 255
226 238 255
226 238 255
226 238 255
226 238 255
226 238 255
226 238 255
226 238 255
226 238 255
226 238 255
226 238 255
226 238 255
226 238 255
226 238 255
226 238 255
226 238 255
226 238 255
226 238 255
226 238 255
226 238 255
226 238 255
226 238 255
226 238 255
226 238 255
225 238 255
225 238 255
225 238 255
225 238 255
225 238 255
225 238 255
225 238 255
225 238 255
225 238 255
225 238 255
225 238 255
225 238 255
225 238 255
225 238 255
225 238 255
225 238 255
225 238 255
225 238 255
225 238 255
225 238 255
225 238 255
225 238 255
225 238 255
225 238 255
225 238 255
225 238 255
225 238 255
225 238 255
225 238 255
225 238 255
225 238 255
225 238 255
225 238 255
225 238 255
225 238 255
225 238 255
225 238 255
225 238 255
225 238 255
225 238 255
225 238 255
225 238 255
225 238 255
225 238 255
225 238 255
225 238 255
225 238 255
225 238 255
225 238 255
225 238 255
225 238 255
225 238 255
225 238 255
225 237 255
225 237 255
225 237 255
225 237 255
225 237 255
225 237 255
225 237 255
225 237 255
225 237 255
225 237 255
225 237 255
225 237 255
225 237 255
225 237 255
225 237 255
225 237 255
224 237 255
224 237 255
224 237 255
224 237 255
224 237 255
224 237 255
224 237 255
224 237 255
224 237 255
224 237 255
224 237 255
224 237 255
224 237 255
224 237 255
224 237 255
224 237 255
224 237 255
224 237 255
224 237 255
225 237 255
225 237 255
225 237 255
225 237 255
225 237 255
225 237 255
225 237 255
225 237 255
225 237 255
225 237 255
225 237 255
225 237 255
225 237 255
225 237 255
225 237 255
225 237 255
225 237 255
225 238 255
225 238 255
225 238 255
225 238 255
225 238 255
225 238 255
225 238 255
225 238 255
225 238 255
225 238 255
225 238 255
225 238 255
225 238 255
225 238 255
225 238 255
225 238 255
225 238 255
225 238 255
225 238 255
225 238 255
225 238 255
225 238 255
225 238 255
225 238 255
225 238 255
225 238 255
225 238 255
225 238 255
225 238 255
225 238 255
225 238 255
225 238 255
225 238 255
225 238 255
225 238 255
225 238 255
225 238 255
225 238 255
225 238 255
225 238 255
225 238 255
225 238 255
225 238 255
225 238 255
225 238 255
225 238 255
225 238 255
225 238 255
225 238 255
225 238 255
225 238 255
225 238 255
226 238 255
226 238 255
226 238 255
226 238 255
226 238 255
226 238 255
226 238 255
226 238 255
226 238 255
226 238 255
226 238 255
226 238 255
226 238 255
226 238 255
226 238 255
226 238 255
226 238 255
226 238 255
226 238 255
226 238 255
226 238 255
226 238 255
226 238 255
226 238 255
226 238 255
226 238 255
226 238 255
226 238 255
226 238 255
226 238 255
226 238 255
226 238 255
226 238 255
226 238 255
226 238 255
226 238 255
226 238 255
226 238 255
226 238 255
226 238 255
226 238 255
226 238 255
226 238 255
226 238 255
226 238 255
226 238 255
226 238 255
226 238 255
226 238 255
226 238 255
226 238 255
226 238 255
226 238 255
226 238 255
226 239 255
227 239 255
227 239 255
227 239 255
227 239 255
227 239 255
227 239 255
227 239 255
227 239 255
227 239 255
227 239 255
227 239 255
227 239 255
227 239 255
227 239 255
227 239 255
227 239 255
227 239 255
227 239 255
227 239 255
227 239 255
227 239 255
227 239 255
227 239 255
227 239 255
227 239 255
227 239 255
227 239 255
227 239 255
227 239 255
227 239 255
227 239 255
227 239 255
227 239 255
227 239 255
227 239 255
227 239 255
227 239 255
227 239 255
227 239 255
227 239 255
227 239 255
227 239 255
227 239 255
227 239 255
227 239 255
227 239 255
227 239 255
227 239 255
227 239 255
227 239 255
227 239 255
227 239 255
227 239 255
227 239 255
227 239 255
227 239 255
227 239 255
227 239 255
227 239 255
227 239 255
227 239 255
227 239 255
227 239 255
227 239 255
227 239 255
227 239 255
227 239 255
227 239 255
227 239 255
227 239 255
227 239 255
227 239 255
227 239 255
227 239 255
227 239 255
227 239 255
227 239 255
227 239 255
227 239 255
227 239 255
227 239 255
227 239 255
227 239 255
227 239 255
227 239 255
227 239 255
227 239 255
227 239 255
227 239 255
227 239 255
227 239 255
227 239 255
227 239 255
227 239 255
227 239 255
227 239 255
227 239 255
227 239 255
227 239 255
227 239 255
227 239 255
227 239 255
227 239 255
227 239 255
227 239 255
227 239 255
227 239 255
227 239 255
227 239 255
227 239 255
227 239 255
227 239 255
227 239 255
227 239 255
227 239 255
227 239 255
227 239 255
227 239 255
227 239 255
227 239 255
227 239 255
227 239 255
227 239 255
227 239 255
227 239 255
227 239 255
227 239 255
227 239 255
227 239 255
227 239 255
227 239 255
227 239 255
227 239 255
227 239 255
227 239 255
227 239 255
227 239 255
227 239 255
227 239 255
227 239 255
227 239 255
227 239 255
227 239 255
226 239 255
226 239 255
226 238 255
226 238 255
226 238 255
226 238 255
226 238 255
226 238 255
226 238 255
226 238 255
226 238 255
226 238 255
226 238 255
226 238 255
226 238 255
226 238 255
226 238 255
226 238 255
226 238 255
226 238 255
226 238 255
226 238 255
226 238 255
226 238 255
226 238 255
226 238 255
226 238 255
226 238 255
226 238 255
226 238 255
226 238 255
226 238 255
226 238 255
226 238 255
226 238 255
226 238 255
226 238 255
226 238 255
226 238 255
226 238 255
226 238 255
226 238 255
226 238 255
226 238 255
226 238 255
226 238 255
226 238 255
226 238 255
226 238 255
226 238 255
226 238 255
226 238 255
226 238 255
226 238 255
226 238 255
226 238 255
225 238 255
225 238 255
225 238 255
225 238 255
225 238 255
225 238 255
225 238 255
225 238 255
225 238 255
225 238 255
225 238 255
225 238 255
225 238 255
225 238 255
225 238 255
225 238 255
225 238 255
225 238 255
225 238 255
225 238 255
225 238 255
225 238 255
225 238 255
225 238 255
225 238 255
225 238 255
225 238 255
225 238 255
225 238 255
225 238 255
225 238 255
225 238 255
225 238 255
225 238 255
225 238 255
225 238 255
225 238 255
225 238 255
225 238 255
225 238 255
225 238 255
225 238 255
225 238 255
225 238 255
225 238 255
225 238 255
225 238 255
225 238 255
225 238 255
225 238 255
225 238 255
225 238 255
225 238 255
225 237 255
225 237 255
225 237 255
225 237 255
225 237 255
225 237 255
225 237 255
225 237 255
225 237 255
225 237 255
225 237 255
225 237 255
225 237 255
225 237 255
225 237 255
225 237 255
224 237 255
224 237 255
224 237 255
224 237 255
225 237 255
225 237 255
225 237 255
225 237 255
225 237 255
225 237 255
225 237 255
225 237 255
225 237 255
225 237 255
225 238 255
225 238 255
225 238 255
225 238 255
225 238 255
225 238 255
225 238 255
225 238 255
225 238 255
225 238 255
225 238 255
225 238 255
225 238 255
225 238 255
225 238 255
225 238 255
225 238 255
225 238 255
225 238 255
225 238 255
225 238 255
225 238 255
225 238 255
225 238 255
225 238 255
225 238 255
225 238 255
225 238 255
225 238 255
225 238 255
225 238 255
225 238 255
225 238 255
225 238 255
225 238 255
225 238 255
225 238 255
225 238 255
225 238 255
225 238 255
225 238 255
225 238 255
225 238 255
225 238 255
225 238 255
225 238 255
225 238 255
225 238 255
225 238 255
225 238 255
225 238 255
225 238 255
225 238 255
226 238 255
226 238 255
226 238 255
226 238 255
226 238 255
226 238 255
226 238 255
226 238 255
226 238 255
226 238 255
226 238 255
226 238 255
226 238 255
226 238 255
226 238 255
226 238 255
226 238 255
226 238 255
226 238 255
226 238 255
226 238 255
226 238 255
226 238 255
226 238 255
226 238 255
226 238 255
226 238 255
226 238 255
226 238 255
226 238 255
226 238 255
226 238 255
226 238 255
226 238 255
226 238 255
226 238 255
226 238 255
226 238 255
226 238 255
226 238 255
226 238 255
226 238 255
226 238 255
226 238 255
226 238 255
226 238 255
226 238 255
226 238 255
226 238 255
226 238 255
226 238 255
226 238 255
226 239 255
226 239 255
226 239 255
227 239 255
227 239 255
227 239 255
227 239 255
227 239 255
227 239 255
227 239 255
227 239 255
227 239 255
227 239 255
227 239 255
227 239 255
227 239 255
227 239 255
227 239 255
227 239 255
227 239 255
227 239 255
227 239 255
227 239 255
227 239 255
227 239 255
227 239 255
227 239 255
227 239 255
227 239 255
227 239 255
227 239 255
227 239 255
227 239 255
227 239 255
227 239 255
227 239 255
227 239 255
227 239 255
227 239 255
227 239 255
227 239 255
227 239 255
227 239 255
227 239 255
227 239 255
227 239 255
227 239 255
227 239 255
227 239 255
227 239 255
227 239 255
227 239 255
227 239 255
227 239 255
227 239 255
227 239 255
227 239 255
227 239 255
227 239 255
227 239 255
227 239 255
227 239 255
227 239 255
227 239 255
227 239 255
227 239 255
227 239 255
227 239 255
227 239 255
227 239 255
228 239 255
228 239 255
228 239 255
228 239 255
228 239 255
228 239 255
228 239 255
228 239 255
228 239 255
228 239 255
228 239 255
228 239 255
228 239 255
228 239 255
228 239 255
228 239 255
228 239 255
228 239 255
228 239 255
228 239 255
228 239 255
228 239 255
228 239 255
228 239 255
228 239 255
228 239 255
228 239 255
228 239 255
228 239 255
228 239 255
228 239 255
227 239 255
227 239 255
227 239 255
227 239 255
227 239 255
227 239 255
227 239 255
227 239 255
227 239 255
227 239 255
227 239 255
227 239 255
227 239 255
227 239 255
227 239 255
227 239 255
227 239 255
227 239 255
227 239 255
227 239 255
227 239 255
227 239 255
227 239 255
227 239 255
227 239 255
227 239 255
227 239 255
227 239 255
227 239 255
227 239 255
227 239 255
227 239 255
227 239 255
227 239 255
227 239 255
227 239 255
227 239 255
227 239 255
227 239 255
227 239 255
227 239 255
227 239 255
227 239 255
227 239 255
227 239 255
227 239 255
227 239 255
227 239 255
227 239 255
227 239 255
227 239 255
227 239 255
227 239 255
227 239 255
227 239 255
227 239 255
227 239 255
227 239 255
227 239 255
227 239 255
227 239 255
227 239 255
227 239 255
227 239 255
227 239 255
227 239 255
227 239 255
226 239 255
226 239 255
226 238 255
226 238 255
226 238 255
226 238 255
226 238 255
226 238 255
226 238 255
226 238 255
226 238 255
226 238 255
226 238 255
226 238 255
226 238 255
226 238 255
226 238 255
226 238 255
226 238 255
226 238 255
226 238 255
226 238 255
226 238 255
226 238 255
226 238 255
226 238 255
226 238 255
226 238 255
226 238 255
226 238 255
226 238 255
226 238 255
226 238 255
226 238 255
226 238 255
226 238 255
226 238 255
226 238 255
226 238 255
226 238 255
226 238 255
226 238 255
226 238 255
226 238 255
226 238 255
226 238 255
226 238 255
226 238 255
226 238 255
226 238 255
226 238 255
226 238 255
226 238 255
225 238 255
225 238 255
225 238 255
225 238 255
225 238 255
225 238 255
225 238 255
225 238 255
225 238 255
225 238 255
225 238 255
225 238 255
225 238 255
225 238 255
225 238 255
225 238 255
225 238 255
225 238 255
225 238 255
225 238 255
225 238 255
225 238 255
225 238 255
225 238 255
225 238 255
225 238 255
225 238 255
225 238 255
225 238 255
225 238 255
225 238 255
225 238 255
225 238 255
225 238 255
225 238 255
225 238 255
225 238 255
225 238 255
225 238 255
225 238 255
225 238 255
225 238 255
225 238 255
225 238 255
225 238 255
225 238 255
225 238 255
225 238 255
225 238 255
225 238 255
225 238 255
225 238 255
225 238 255
225 238 255
225 237 255
225 237 255
225 237 255
225 237 255
225 237 255
225 237 255
225 237 255
225 237 255
225 237 255
225 237 255
225 238 255
225 238 255
225 238 255
225 238 255
225 238 255
225 238 255
225 238 255
225 238 255
225 238 255
225 238 255
225 238 255
225 238 255
225 238 255
225 238 255
225 238 255
225 238 255
225 238 255
225 238 255
225 238 255
225 238 255
225 238 255
225 238 255
225 238 255
225 238 255
225 238 255
225 238 255
225 238 255
225 238 255
225 238 255
225 238 255
225 238 255
225 238 255
225 238 255
225 238 255
225 238 255
225 238 255
225 238 255
225 238 255
225 238 255
225 238 255
225 238 255
225 238 255
225 238 255
225 238 255
225 238 255
225 238 255
225 238 255
225 238 255
225 238 255
225 238 255
225 238 255
225 238 255
225 238 255
225 238 255
226 238 255
226 238 255
226 238 255
226 238 255
226 238 255
226 238 255
226 238 255
226 238 255
226 238 255
226 238 255
226 238 255
226 238 255
226 238 255
226 238 255
226 238 255
226 238 255
226 238 255
226 238 255
226 238 255
226 238 255
226 238 255
226 238 255
226 238 255
226 238 255
226 238 255
226 238 255
226 238 255
226 238 255
226 238 255
226 238 255
226 238 255
226 238 255
226 238 255
226 238 255
226 238 255
226 238 255
226 238 255
226 238 255
226 238 255
226 238 255
226 238 255
226 238 255
226 238 255
226 238 255
226 238 255
226 238 255
226 238 255
226 238 255
226 238 255
226 238 255
226 238 255
226 239 255
226 239 255
227 239 255
227 239 255
227 239 255
227 239 255
227 239 255
227 239 255
227 239 255
227 239 255
227 239 255
227 239 255
227 239 255
227 239 255
227 239 255
227 239 255
227 239 255
227 239 255
227 239 255
227 239 255
227 239 255
227 239 255
227 239 255
227 239 255
227 239 255
227 239 255
227 239 255
227 239 255
227 239 255
227 239 255
227 239 255
227 239 255
227 239 255
227 239 255
227 239 255
227 239 255
227 239 255
227 239 255
227 239 255
227 239 255
227 239 255
227 239 255
227 239 255
227 239 255
227 239 255
227 239 255
227 239 255
227 239 255
227 239 255
227 239 255
227 239 255
227 239 255
227 239 255
227 239 255
227 239 255
228 239 255
228 239 255
228 239 255
228 239 255
228 239 255
228 239 255
228 239 255
228 239 255
228 239 255
228 239 255
228 239 255
228 239 255
228 239 255
228 239 255
228 239 255
228 239 255
228 239 255
228 239 255
228 239 255
228 239 255
228 239 255
228 239 255
228 239 255
228 239 255
228 239 255
228 239 255
228 239 255
228 239 255
228 239 255
228 239 255
228 239 255
228 239 255
228 239 255
228 239 255
228 239 255
228 239 255
228 239 255
228 239 255
228 239 255
228 239 255
228 239 255
228 239 255
228 239 255
228 239 255
228 239 255
228 239 255
228 239 255
228 239 255
228 239 255
228 239 255
228 239 255
228 239 255
228 239 255
228 239 255
228 239 255
228 239 255
228 239 255
228 239 255
228 239 255
228 239 255
228 239 255
228 239 255
228 239 255
228 239 255
228 239 255
228 239 255
228 239 255
228 239 255
228 239 255
228 239 255
228 239 255
228 239 255
228 239 255
228 239 255
228 239 255
228 239 255
228 239 255
228 239 255
228 239 255
227 239 255
227 239 255
227 239 255
227 239 255
227 239 255
227 239 255
227 239 255
227 239 255
227 239 255
227 239 255
227 239 255
227 239 255
227 239 255
227 239 255
227 239 255
227 239 255
227 239 255
227 239 255
227 239 255
227 239 255
227 239 255
227 239 255
227 239 255
227 239 255
227 239 255
227 239 255
227 239 255
227 239 255
227 239 255
227 239 255
227 239 255
227 239 255
227 239 255
227 239 255
227 239 255
227 239 255
227 239 255
227 239 255
227 239 255
227 239 255
227 239 255
227 239 255
227 239 255
227 239 255
227 239 255
227 239 255
227 239 255
227 239 255
227 239 255
227 239 255
227 239 255
227 239 255
227 239 255
227 239 255
226 239 255
226 239 255
226 238 255
226 238 255
226 238 255
226 238 255
226 238 255
226 238 255
226 238 255
226 238 255
226 238 255
226 238 255
226 238 255
226 238 255
226 238 255
226 238 255
226 238 255
226 238 255
226 238 255
226 238 255
226 238 255
226 238 255
226 238 255
226 238 255
226 238 255
226 238 255
226 238 255
226 238 255
226 238 255
226 238 255
226 238 255
226 238 255
226 238 255
226 238 255
226 238 255
226 238 255
226 238 255
226 238 255
226 238 255
226 238 255
226 238 255
226 238 255
226 238 255
226 238 255
226 238 255
226 238 255
226 238 255
226 238 255
226 238 255
226 238 255
226 238 255
226 238 255
226 238 255
225 238 255
225 238 255
225 238 255
225 238 255
225 238 255
225 238 255
225 238 255
225 238 255
225 238 255
225 238 255
225 238 255
225 238 255
225 238 255
225 238 255
225 238 255
225 238 255
225 238 255
225 238 255
225 238 255
225 238 255
225 238 255
225 238 255
225 238 255
225 238 255
225 238 255
225 238 255
225 238 255
225 238 255
225 238 255
225 238 255
225 238 255
225 238 255
225 238 255
225 238 255
225 238 255
225 238 255
225 238 255
225 238 255
225 238 255
225 238 255
225 238 255
225 238 255
225 238 255
225 238 255
225 238 255
225 238 255
225 238 255
225 238 255
225 238 255
225 238 255
225 238 255
225 238 255
225 238 255
225 238 255
225 238 255
225 238 255
225 238 255
225 238 255
225 238 255
225 238 255
225 238 255
225 238 255
225 238 255
225 238 255
225 238 255
225 238 255
225 238 255
225 238 255
225 238 255
225 238 255
225 238 255
225 238 255
225 238 255
225 238 255
225 238 255
225 238 255
225 238 255
225 238 255
225 238 255
225 238 255
225 238 255
225 238 255
225 238 255
225 238 255
225 238 255
225 238 255
225 238 255
225 238 255
225 238 255
225 238 255
225 238 255
225 238 255
225 238 255
225 238 255
225 238 255
225 238 255
225 238 255
225 238 255
226 238 255
226 238 255
226 238 255
226 238 255
226 238 255
226 238 255
226 238 255
226 238 255
226 238 255
226 238 255
226 238 255
226 238 255
226 238 255
226 238 255
226 238 255
226 238 255
226 238 255
226 238 255
226 238 255
226 238 255
226 238 255
226 238 255
226 238 255
226 238 255
226 238 255
226 238 255
226 238 255
226 238 255
226 238 255
226 238 255
226 238 255
226 238 255
226 238 255
226 238 255
226 238 255
226 238 255
226 238 255
226 238 255
226 238 255
226 238 255
226 238 255
226 238 255
226 238 255
226 238 255
226 238 255
226 238 255
226 238 255
226 238 255
226 238 255
226 238 255
226 238 255
226 239 255
226 239 255
227 239 255
227 239 255
227 239 255
227 239 255
227 239 255
227 239 255
227 239 255
227 239 255
227 239 255
227 239 255
227 239 255
227 239 255
227 239 255
227 239 255
227 239 255
227 239 255
227 239 255
227 239 255
227 239 255
227 239 255
227 239 255
227 239 255
227 239 255
227 239 255
227 239 255
227 239 255
227 239 255
227 239 255
227 239 255
227 239 255
227 239 255
227 239 255
227 239 255
227 239 255
227 239 255
227 239 255
227 239 255
227 239 255
227 239 255
227 239 255
227 239 255
227 239 255
227 239 255
227 239 255
227 239 255
227 239 255
227 239 255
227 239 255
228 239 255
228 239 255
228 239 255
228 239 255
228 239 255
228 239 255
228 239 255
228 239 255
228 239 255
228 239 255
228 239 255
228 239 255
228 239 255
228 239 255
228 239 255
228 239 255
228 239 255
228 239 255
228 239 255
228 239 255
228 239 255
228 239 255
228 239 255
228 239 255
228 239 255
228 239 255
228 239 255
228 239 255
228 239 255
228 239 255
228 239 255
228 239 255
228 239 255
228 239 255
228 239 255
228 239 255
228 239 255
228 239 255
228 239 255
228 239 255
228 239 255
228 239 255
228 239 255
228 239 255
228 239 255
228 239 255
228 239 255
228 239 255
228 239 255
228 239 255
228 239 255
228 239 255
228 239 255
228 239 255
228 239 255
228 239 255
228 239 255
228 239 255
228 239 255
228 239 255
228 239 255
228 239 255
228 239 255
228 239 255
228 239 255
228 239 255
228 239 255
228 239 255
228 239 255
228 239 255
228 239 255
228 239 255
228 239 255
228 239 255
228 239 255
228 239 255
228 239 255
228 239 255
228 239 255
228 239 255
228 239 255
228 239 255
228 239 255
228 239 255
228 239 255
228 239 255
228 239 255
228 239 255
228 239 255
228 239 255
228 239 255
228 239 255
228 239 255
228 239 255
228 239 255
228 239 255
228 239 255
228 239 255
228 239 255
228 239 255
228 239 255
228 239 255
228 239 255
228 239 255
228 239 255
228 239 255
228 239 255
228 239 255
228 239 255
227 239 255
227 239 255
227 239 255
227 239 255
227 239 255
227 239 255
227 239 255
227 239 255
227 239 255
227 239 255
227 239 255
227 239 255
227 239 255
227 239 255
227 239 255
227 239 255
227 239 255
227 239 255
227 239 255
227 239 255
227 239 255
227 239 255
227 239 255
227 239 255
227 239 255
227 239 255
227 239 255
227 239 255
227 239 255
227 239 255
227 239 255
227 239 255
227 239 255
227 239 255
227 239 255
227 239 255
227 239 255
227 239 255
227 239 255
227 239 255
227 239 255
227 239 255
227 239 255
227 239 255
227 239 255
227 239 255
227 239 255
227 239 255
227 239 255
226 239 255
226 239 255
226 238 255
226 238 255
226 238 255
226 238 255
226 238 255
226 238 255
226 238 255
226 238 255
226 238 255
226 238 255
226 238 255
226 238 255
226 238 255
226 238 255
226 238 255
226 238 255
226 238 255
226 238 255
226 238 255
226 238 255
226 238 255
226 238 255
226 238 255
226 238 255
226 238 255
226 238 255
226 238 255
226 238 255
226 238 255
226 238 255
226 238 255
226 238 255
226 238 255
226 238 255
226 238 255
226 238 255
226 238 255
226 238 255
226 238 255
226 238 255
226 238 255
226 238 255
226 238 255
226 238 255
226 238 255
226 238 255
226 238 255
226 238 255
226 238 255
226 238 255
225 238 255
225 238 255
225 238 255
225 238 255
225 238 255
225 238 255
225 238 255
225 238 255
225 238 255
225 238 255
225 238 255
225 238 255
225 238 255
225 238 255
225 238 255
225 238 255
225 238 255
225 238 255
225 238 255
225 238 255
225 238 255
225 238 255
225 238 255
225 238 255
225 238 255
225 238 255
225 238 255
225 238 255
225 238 255
225 238 255
225 238 255
225 238 255
225 238 255
225 238 255
225 238 255
225 238 255
225 238 255
225 238 255
225 238 255
225 238 255
225 238 255
225 238 255
225 238 255
225 238 255
225 238 255
225 238 255
225 238 255
225 238 255
225 238 255
225 238 255
225 238 255
225 238 255
225 238 255
225 238 255
225 238 255
225 238 255
225 238 255
225 238 255
225 238 255
225 238 255
225 238 255
225 238 255
225 238 255
225 238 255
225 238 255
225 238 255
225 238 255
225 238 255
225 238 255
225 238 255
225 238 255
225 238 255
225 238 255
225 238 255
225 238 255
225 238 255
225 238 255
225 238 255
225 238 255
225 238 255
225 238 255
226 238 255
226 238 255
226 238 255
226 238 255
226 238 255
226 238 255
226 238 255
226 238 255
226 238 255
226 238 255
226 238 255
226 238 255
226 238 255
226 238 255
226 238 255
226 238 255
226 238 255
226 238 255
226 238 255
226 238 255
226 238 255
226 238 255
226 238 255
226 238 255
226 238 255
226 238 255
226 238 255
226 238 255
226 238 255
226 238 255
226 238 255
226 238 255
226 238 255
226 238 255
226 238 255
226 238 255
226 238 255
226 238 255
226 238 255
226 238 255
226 238 255
226 238 255
226 238 255
226 238 255
226 238 255
226 238 255
226 238 255
226 238 255
226 238 255
226 238 255
226 239 255
226 239 255
227 239 255
227 239 255
227 239 255
227 239 255
227 239 255
227 239 255
227 239 255
227 239 255
227 239 255
227 239 255
227 239 255
227 239 255
227 239 255
227 239 255
227 239 255
227 239 255
227 239 255
227 239 255
227 239 255
227 239 255
227 239 255
227 239 255
227 239 255
227 239 255
227 239 255
227 239 255
227 239 255
227 239 255
227 239 255
227 239 255
227 239 255
227 239 255
227 239 255
227 239 255
227 239 255
227 239 255
227 239 255
227 239 255
227 239 255
227 239 255
227 239 255
227 239 255
227 239 255
227 239 255
227 239 255
227 239 255
228 239 255
228 239 255
228 239 255
228 239 255
228 239 255
228 239 255
228 239 255
228 239 255
228 239 255
228 239 255
228 239 255
228 239 255
228 239 255
228 239 255
228 239 255
228 239 255
228 239 255
228 239 255
228 239 255
228 239 255
228 239 255
228 239 255
228 239 255
228 239 255
228 239 255
228 239 255
228 239 255
228 239 255
228 239 255
228 239 255
228 239 255
228 239 255
228 239 255
228 239 255
228 239 255
228 239 255
228 239 255
228 239 255
228 239 255
226 238 249
222 235 240
223 235 241
217 231 224
214 228 214
213 228 212
210 225 204
211 226 207
207 223 193
206 221 188
206 222 193
205 221 188
197 215 157
197 215 161
197 215 159
200 217 169
198 216 163
195 213 149
194 212 144
194 213 144
189 209 125
191 210 135
194 213 147
192 211 140
190 210 135
188 208 122
190 209 128
188 208 122
191 211 135
187 208 120
188 208 125
187 207 117
189 208 120
194 213 142
191 210 137
191 211 137
195 213 151
197 215 153
202 218 171
198 216 165
199 217 163
197 215 157
204 220 182
204 221 186
210 225 204
205 221 188
213 227 211
210 225 201
214 229 217
214 228 215
217 231 226
223 235 240
224 236 244
225 237 246
228 239 254
228 239 255
228 239 255
228 239 255
228 239 255
228 239 255
228 239 255
228 239 255
228 239 255
228 239 255
228 239 255
228 239 255
228 239 255
228 239 255
228 239 255
228 239 255
228 239 255
228 239 255
228 239 255
228 239 255
228 239 255
228 239 255
228 239 255
228 239 255
228 239 255
228 239 255
228 239 255
228 239 255
228 239 255
228 239 255
228 239 255
228 239 255
228 239 255
228 239 255
228 239 255
228 239 255
228 239 255
228 239 255
228 239 255
227 239 255
227 239 255
227 239 255
227 239 255
227 239 255
227 239 255
227 239 255
227 239 255
227 239 255
227 239 255
227 239 255
227 239 255
227 239 255
227 239 255
227 239 255
227 239 255
227 239 255
227 239 255
227 239 255
227 239 255
227 239 255
227 239 255
227 239 255
227 239 255
227 239 255
227 239 255
227 239 255
227 239 255
227 239 255
227 239 255
227 239 255
227 239 255
227 239 255
227 239 255
227 239 255
227 239 255
227 239 255
227 239 255
227 239 255
227 239 255
227 239 255
227 239 255
227 239 255
227 239 255
227 239 255
226 239 255
226 239 255
226 239 255
226 238 255
226 238 255
226 238 255
226 238 255
226 238 255
226 238 255
226 238 255
226 238 255
226 238 255
226 238 255
226 238 255
226 238 255
226 238 255
226 238 255
226 238 255
226 238 255
226 238 255
226 238 255
226 238 255
226 238 255
226 238 255
226 238 255
226 238 255
226 238 255
226 238 255
226 238 255
226 238 255
226 238 255
226 238 255
226 238 255
226 238 255
226 238 255
226 238 255
226 238 255
226 238 255
226 238 255
226 238 255
226 238 255
226 238 255
226 238 255
226 238 255
226 238 255
226 238 255
226 238 255
226 238 255
226 238 255
226 238 255
226 238 255
226 238 255
226 238 255
225 238 255
225 238 255
225 238 255
225 238 255
225 238 255
225 238 255
225 238 255
225 238 255
225 238 255
225 238 255
225 238 255
225 238 255
225 238 255
225 238 255
225 238 255
225 238 255
225 238 255
225 238 255
225 238 255
225 238 255
225 238 255
225 238 255
225 238 255
225 238 255
225 238 255
225 238 255
225 238 255
225 238 255
225 238 255
225 238 255
225 238 255
225 238 255
225 238 255
225 238 255
225 238 255
225 238 255
225 238 255
225 238 255
225 238 255
225 238 255
225 238 255
225 238 255
225 238 255
225 238 255
225 238 255
225 238 255
225 238 255
225 238 255
225 238 255
225 238 255
225 238 255
225 238 255
225 238 255
225 238 255
225 238 255
225 238 255
225 238 255
225 238 255
225 238 255
225 238 255
225 238 255
225 238 255
225 238 255
226 238 255
226 238 255
226 238 255
226 238 255
226 238 255
226 238 255
226 238 255
226 238 255
226 238 255
226 238 255
226 238 255
226 238 255
226 238 255
226 238 255
226 238 255
226 238 255
226 238 255
226 238 255
226 238 255
226 238 255
226 238 255
226 238 255
226 238 255
226 238 255
226 238 255
226 238 255
226 238 255
226 238 255
226 238 255
226 238 255
226 238 255
226 238 255
226 238 255
226 238 255
226 238 255
226 238 255
226 238 255
226 238 255
226 238 255
226 238 255
226 238 255
226 238 255
226 238 255
226 238 255
226 238 255
226 238 255
226 238 255
226 238 255
226 238 255
226 238 255
226 238 255
226 239 255
226 239 255
227 239 255
227 239 255
227 239 255
227 239 255
227 239 255
227 239 255
227 239 255
227 239 255
227 239 255
227 239 255
227 239 255
227 239 255
227 239 255
227 239 255
227 239 255
227 239 255
227 239 255
227 239 255
227 239 255
227 239 255
227 239 255
227 239 255
227 239 255
227 239 255
227 239 255
227 239 255
227 239 255
227 239 255
227 239 255
227 239 255
227 239 255
227 239 255
227 239 255
227 239 255
227 239 255
227 239 255
227 239 255
227 239 255
227 239 255
227 239 255
227 239 255
227 239 255
227 239 255
227 239 255
228 239 255
228 239 255
228 239 255
228 239 255
228 239 255
228 239 255
228 239 255
228 239 255
228 239 255
228 239 255
228 239 255
228 239 255
228 239 255
228 239 255
228 239 255
228 239 255
228 239 255
228 239 255
228 239 255
228 239 255
228 239 255
228 239 255
228 239 255
228 239 255
228 239 255
228 239 255
228 239 255
228 239 255
228 239 255
228 239 255
228 239 255
228 239 255
228 239 255
228 239 255
225 237 248
221 234 234
220 233 233
213 227 209
212 226 204
203 220 184
200 218 171
202 219 175
197 215 159
192 211 135
188 208 128
187 207 120
179 201 72
177 199 44
176 199 36
175 198 0
174 198 0
174 198 0
175 198 0
173 197 0
174 197 0
173 197 0
175 198 0
174 198 0
175 198 0
174 198 0
174 197 0
174 198 0
174 198 0
176 199 0
175 198 0
175 198 0
175 198 0
174 197 0
173 197 0
174 198 0
177 199 0
175 198 0
176 199 0
176 198 0
176 198 0
174 198 0
173 197 0
174 197 0
174 197 0
175 198 0
172 197 0
174 198 0
175 198 0
174 198 0
174 197 0
175 198 0
175 198 0
175 198 0
173 197 0
176 198 0
174 198 0
174 198 0
174 198 0
175 198 0
173 197 0
174 198 0
173 197 0
173 197 0
176 199 0
174 198 0
175 198 0
175 198 0
175 198 0
174 197 0
180 203 88
178 201 72
184 206 108
192 211 140
197 215 159
198 216 169
194 213 151
205 221 188
198 216 165
212 227 209
217 230 223
216 230 221
223 236 242
225 237 245
228 239 255
228 239 255
228 239 255
228 239 255
228 239 255
228 239 255
228 239 255
228 239 255
228 239 255
228 239 255
228 239 255
228 239 255
228 239 255
228 239 255
228 239 255
228 239 255
228 239 255
228 239 255
228 239 255
228 239 255
228 239 255
228 239 255
228 239 255
228 239 255
228 239 255
228 239 255
228 239 255
228 239 255
228 239 255
228 239 255
228 239 255
228 239 255
228 239 255
228 239 255
227 239 255
227 239 255
227 239 255
227 239 255
227 239 255
227 239 255
227 239 255
227 239 255
227 239 255
227 239 255
227 239 255
227 239 255
227 239 255
227 239 255
227 239 255
227 239 255
227 239 255
227 239 255
227 239 255
227 239 255
227 239 255
227 239 255
227 239 255
227 239 255
227 239 255
227 239 255
227 239 255
227 239 255
227 239 255
227 239 255
227 239 255
227 239 255
227 239 255
227 239 255
227 239 255
227 239 255
227 239 255
227 239 255
227 239 255
227 239 255
227 239 255
227 239 255
227 239 255
227 239 255
226 239 255
226 239 255
226 238 255
226 238 255
226 238 255
226 238 255
226 238 255
226 238 255
226 238 255
226 238 255
226 238 255
226 238 255
226 238 255
226 238 255
226 238 255
226 238 255
226 238 255
226 238 255
226 238 255
226 238 255
226 238 255
226 238 255
226 238 255
226 238 255
226 238 255
226 238 255
226 238 255
226 238 255
226 238 255
226 238 255
226 238 255
226 238 255
226 238 255
226 238 255
226 238 255
226 238 255
226 238 255
226 238 255
226 238 255
226 238 255
226 238 255
226 238 255
226 238 255
226 238 255
226 238 255
226 238 255
226 238 255
226 238 255
226 238 255
226 238 255
226 238 255
226 238 255
226 238 255
225 238 255
225 238 255
225 238 255
225 238 255
225 238 255
225 238 255
225 238 255
225 238 255
225 238 255
225 238 255
225 238 255
225 238 255
225 238 255
225 238 255
225 238 255
225 238 255
225 238 255
225 238 255
225 238 255
225 238 255
225 238 255
225 238 255
225 238 255
225 238 255
225 238 255
225 238 255
225 238 255
225 238 255
225 238 255
225 238 255
225 238 255
225 238 255
225 238 255
225 238 255
225 238 255
225 238 255
225 238 255
225 238 255
225 238 255
225 238 255
225 238 255
225 238 255
225 238 255
225 238 255
225 238 255
226 238 255
226 238 255
226 238 255
226 238 255
226 238 255
226 238 255
226 238 255
226 238 255
226 238 255
226 238 255
226 238 255
226 238 255
226 238 255
226 238 255
226 238 255
226 238 255
226 238 255
226 238 255
226 238 255
226 238 255
226 238 255
226 238 255
226 238 255
226 238 255
226 238 255
226 238 255
226 238 255
226 238 255
226 238 255
226 238 255
226 238 255
226 238 255
226 238 255
226 238 255
226 238 255
226 238 255
226 238 255
226 238 255
226 238 255
226 238 255
226 238 255
226 238 255
226 238 255
226 238 255
226 238 255
226 238 255
226 238 255
226 238 255
226 238 255
226 238 255
226 238 255
226 238 255
226 239 255
227 239 255
227 239 255
227 239 255
227 239 255
227 239 255
227 239 255
227 239 255
227 239 255
227 239 255
227 239 255
227 239 255
227 239 255
227 239 255
227 239 255
227 239 255
227 239 255
227 239 255
227 239 255
227 239 255
227 239 255
227 239 255
227 239 255
227 239 255
227 239 255
227 239 255
227 239 255
227 239 255
227 239 255
227 239 255
227 239 255
227 239 255
227 239 255
227 239 255
227 239 255
227 239 255
227 239 255
227 239 255
227 239 255
227 239 255
227 239 255
227 239 255
227 239 255
227 239 255
227 239 255
228 239 255
228 239 255
228 239 255
228 239 255
228 239 255
228 239 255
228 239 255
228 239 255
228 239 255
228 239 255
228 239 255
228 239 255
228 239 255
228 239 255
228 239 255
228 239 255
228 239 255
228 239 255
228 239 255
228 239 255
228 239 255
228 239 255
228 239 255
228 239 255
228 239 255
228 239 255
228 239 255
228 239 255
228 239 255
228 239 255
228 239 255
228 240 255
226 238 249
221 234 236
220 233 234
210 225 204
203 219 175
205 221 184
200 217 169
191 210 133
182 204 95
185 205 95
175 198 25
176 199 0
175 198 0
177 199 0
174 198 0
174 198 0
174 197 0
176 198 0
174 198 0
174 197 0
175 198 0
176 198 0
174 198 0
176 199 0
174 197 0
176 199 0
173 197 0
174 198 0
174 198 0
175 198 0
173 197 0
174 197 0
173 197 0
175 198 0
174 198 0
176 199 0
176 198 0
176 199 0
175 198 0
176 198 0
174 198 0
175 198 0
174 198 0
175 198 0
175 198 0
174 197 0
176 198 0
175 198 0
175 198 0
173 197 0
175 198 0
177 199 0
177 199 0
174 198 0
174 198 0
174 197 0
174 198 0
176 199 0
174 198 0
174 198 0
174 198 0
176 199 0
175 198 0
174 198 0
175 198 0
176 198 0
174 197 0
175 198 0
174 197 0
175 198 0
175 198 0
175 198 0
175 198 0
175 198 0
173 197 0
173 197 0
173 197 0
175 198 0
175 198 0
174 197 0
174 197 0
175 198 0
176 198 0
174 197 0
174 197 0
174 198 0
172 197 0
174 198 0
174 198 0
174 197 0
174 197 0
175 198 0
174 198 0
175 198 0
175 198 0
176 199 51
183 204 95
183 204 92
191 210 137
193 212 147
205 221 186
204 221 188
207 223 193
213 227 209
222 234 237
224 236 244
228 240 255
228 239 255
228 239 255
228 239 255
228 239 255
228 239 255
228 239 255
228 239 255
228 239 255
228 239 255
228 239 255
228 239 255
228 239 255
228 239 255
228 239 255
228 239 255
228 239 255
228 239 255
228 239 255
228 239 255
228 239 255
228 239 255
228 239 255
228 239 255
228 239 255
228 239 255
228 239 255
228 239 255
228 239 255
228 239 255
228 239 255
228 239 255
227 239 255
227 239 255
227 239 255
227 239 255
227 239 255
227 239 255
227 239 255
227 239 255
227 239 255
227 239 255
227 239 255
227 239 255
227 239 255
227 239 255
227 239 255
227 239 255
227 239 255
227 239 255
227 239 255
227 239 255
227 239 255
227 239 255
227 239 255
227 239 255
227 239 255
227 239 255
227 239 255
227 239 255
227 239 255
227 239 255
227 239 255
227 239 255
227 239 255
227 239 255
227 239 255
227 239 255
227 239 255
227 239 255
227 239 255
227 239 255
227 239 255
227 239 255
227 239 255
227 239 255
226 239 255
226 239 255
226 238 255
226 238 255
226 238 255
226 238 255
226 238 255
226 238 255
226 238 255
226 238 255
226 238 255
226 238 255
226 238 255
226 238 255
226 238 255
226 238 255
226 238 255
226 238 255
226 238 255
226 238 255
226 238 255
226 238 255
226 238 255
226 238 255
226 238 255
226 238 255
226 238 255
226 238 255
226 238 255
226 238 255
226 238 255
226 238 255
226 238 255
226 238 255
226 238 255
226 238 255
226 238 255
226 238 255
226 238 255
226 238 255
226 238 255
226 238 255
226 238 255
226 238 255
226 238 255
226 238 255
226 238 255
226 238 255
226 238 255
226 238 255
226 238 255
226 238 255
226 238 255
225 238 255
225 238 255
225 238 255
225 238 255
225 238 255
225 238 255
225 238 255
225 238 255
225 238 255
225 238 255
225 238 255
225 238 255
225 238 255
225 238 255
225 238 255
225 238 255
225 238 255
225 238 255
225 238 255
225 238 255
225 238 255
225 238 255
225 238 255
225 238 255
225 238 255
225 238 255
225 238 255
226 238 255
226 238 255
226 238 255
226 238 255
226 238 255
226 238 255
226 238 255
226 238 255
226 238 255
226 238 255
226 238 255
226 238 255
226 238 255
226 238 255
226 238 255
226 238 255
226 238 255
226 238 255
226 238 255
226 238 255
226 238 255
226 238 255
226 238 255
226 238 255
226 238 255
226 238 255
226 238 255
226 238 255
226 238 255
226 238 255
226 238 255
226 238 255
226 238 255
226 238 255
226 238 255
226 238 255
226 238 255
226 238 255
226 238 255
226 238 255
226 238 255
226 238 255
226 238 255
226 238 255
226 238 255
226 238 255
226 238 255
226 238 255
226 238 255
226 238 255
226 238 255
226 238 255
226 238 255
226 239 255
227 239 255
227 239 255
227 239 255
227 239 255
227 239 255
227 239 255
227 239 255
227 239 255
227 239 255
227 239 255
227 239 255
227 239 255
227 239 255
227 239 255
227 239 255
227 239 255
227 239 255
227 239 255
227 239 255
227 239 255
227 239 255
227 239 255
227 239 255
227 239 255
227 239 255
227 239 255
227 239 255
227 239 255
227 239 255
227 239 255
227 239 255
227 239 255
227 239 255
227 239 255
227 239 255
227 239 255
227 239 255
227 239 255
227 239 255
227 239 255
227 239 255
227 239 255
227 239 255
228 239 255
228 239 255
228 239 255
228 239 255
228 239 255
228 239 255
228 239 255
228 239 255
228 239 255
228 239 255
228 239 255
228 239 255
228 239 255
228 239 255
228 239 255
228 239 255
228 239 255
228 239 255
228 239 255
228 239 255
228 239 255
228 239 255
228 239 255
228 239 255
228 239 255
228 239 255
228 239 255
228 239 255
228 239 255
228 239 255
228 240 255
227 239 253
224 236 244
217 230 224
213 227 212
211 226 206
206 222 188
199 216 165
190 209 122
180 202 88
177 200 44
174 197 0
174 198 0
173 197 0
176 199 0
174 198 0
174 198 0
176 199 0
173 197 0
175 198 0
174 198 0
175 198 0
176 199 0
175 198 0
176 199 0
175 198 0
175 198 0
174 198 0
173 197 0
173 197 0
176 199 0
176 199 0
175 198 0
176 199 0
173 197 0
174 198 0
173 197 0
173 197 0
176 198 0
174 197 0
175 198 0
175 198 0
173 197 0
173 197 0
175 198 0
175 198 0
177 199 0
174 198 0
175 198 0
176 199 0
176 198 0
174 197 0
175 198 0
174 198 0
175 198 0
174 198 0
173 197 0
174 197 0
174 197 0
175 198 0
175 198 0
175 198 0
175 198 0
175 198 0
176 199 0
175 198 0
174 198 0
175 198 0
175 198 0
175 198 0
177 199 0
173 197 0
174 198 0
175 198 0
175 198 0
175 198 0
175 198 0
173 197 0
175 198 0
174 198 0
174 198 0
176 198 0
175 198 0
174 197 0
176 199 0
174 198 0
175 198 0
176 199 0
176 199 0
176 198 0
175 198 0
174 198 0
175 198 0
175 198 0
175 198 0
174 197 0
174 198 0
175 198 0
175 198 0
174 197 0
174 198 0
175 198 0
174 198 0
175 198 0
175 198 0
175 198 0
175 198 0
174 198 0
176 199 0
175 198 0
174 198 0
174 197 0
175 198 0
175 198 0
175 198 0
175 198 0
174 198 0
177 199 51
182 203 84
187 207 117
198 216 161
203 220 181
206 222 189
215 229 218
217 231 226
224 236 244
228 240 255
228 240 255
228 240 255
228 239 255
228 239 255
228 239 255
228 239 255
228 239 255
228 239 255
228 239 255
228 239 255
228 239 255
228 239 255
228 239 255
228 239 255
228 239 255
228 239 255
228 239 255
228 239 255
228 239 255
228 239 255
228 239 255
228 239 255
228 239 255
228 239 255
228 239 255
228 239 255
228 239 255
228 239 255
228 239 255
228 239 255
228 239 255
227 239 255
227 239 255
227 239 255
227 239 255
227 239 255
227 239 255
227 239 255
227 239 255
227 239 255
227 239 255
227 239 255
227 239 255
227 239 255
227 239 255
227 239 255
227 239 255
227 239 255
227 239 255
227 239 255
227 239 255
227 239 255
227 239 255
227 239 255
227 239 255
227 239 255
227 239 255
227 239 255
227 239 255
227 239 255
227 239 255
227 239 255
227 239 255
227 239 255
227 239 255
227 239 255
227 239 255
227 239 255
227 239 255
227 239 255
227 239 255
227 239 255
227 239 255
227 239 255
226 239 255
226 238 255
226 238 255
226 238 255
226 238 255
226 238 255
226 238 255
226 238 255
226 238 255
226 238 255
226 238 255
226 238 255
226 238 255
226 238 255
226 238 255
226 238 255
226 238 255
226 238 255
226 238 255
226 238 255
226 238 255
226 238 255
226 238 255
226 238 255
226 238 255
226 238 255
226 238 255
226 238 255
226 238 255
226 238 255
226 238 255
226 238 255
226 238 255
226 238 255
226 238 255
226 238 255
226 238 255
226 238 255
226 238 255
226 238 255
226 238 255
226 238 255
226 238 255
226 238 255
226 238 255
226 238 255
226 238 255
226 238 255
226 238 255
226 238 255
226 238 255
226 238 255
226 238 255
226 238 255
225 238 255
225 238 255
225 238 255
225 238 255
225 238 255
225 238 255
225 238 255
225 238 255
225 238 255
225 238 255
226 238 255
226 238 255
226 238 255
226 238 255
226 238 255
226 238 255
226 238 255
226 238 255
226 238 255
226 238 255
226 238 255
226 238 255
226 238 255
226 238 255
226 238 255
226 238 255
226 238 255
226 238 255
226 238 255
226 238 255
226 238 255
226 238 255
226 238 255
226 238 255
226 238 255
226 238 255
226 238 255
226 238 255
226 238 255
226 238 255
226 238 255
226 238 255
226 238 255
226 238 255
226 238 255
226 238 255
226 238 255
226 238 255
226 238 255
226 238 255
226 238 255
226 238 255
226 238 255
226 238 255
226 238 255
226 238 255
226 238 255
226 238 255
226 238 255
226 238 255
226 238 255
226 238 255
226 239 255
226 239 255
227 239 255
227 239 255
227 239 255
227 239 255
227 239 255
227 239 255
227 239 255
227 239 255
227 239 255
227 239 255
227 239 255
227 239 255
227 239 255
227 239 255
227 239 255
227 239 255
227 239 255
227 239 255
227 239 255
227 239 255
227 239 255
227 239 255
227 239 255
227 239 255
227 239 255
227 239 255
227 239 255
227 239 255
227 239 255
227 239 255
227 239 255
227 239 255
227 239 255
227 239 255
227 239 255
227 239 255
227 239 255
227 239 255
227 239 255
227 239 255
227 239 255
227 239 255
227 239 255
228 239 255
228 239 255
228 239 255
228 239 255
228 239 255
228 239 255
228 239 255
228 239 255
228 239 255
228 239 255
228 239 255
228 239 255
228 239 255
228 239 255
228 239 255
228 239 255
228 239 255
228 239 255
228 239 255
228 239 255
228 239 255
228 239 255
228 239 255
228 239 255
228 239 255
228 239 255
228 239 255
228 239 255
228 240 255
228 240 255
228 240 255
226 238 250
223 236 242
218 232 227
205 221 184
202 219 179
195 213 153
193 212 140
180 202 72
177 199 25
176 198 0
175 198 0
174 198 0
174 198 0
173 197 0
175 198 0
174 198 0
174 198 0
175 198 0
174 198 0
175 198 0
175 198 0
176 199 0
175 198 0
175 198 0
175 198 0
175 198 0
176 198 0
175 198 0
173 197 0
175 198 0
175 198 0
173 197 0
175 198 0
175 198 0
176 199 0
173 197 0
175 198 0
177 199 0
173 197 0
176 199 0
173 197 0
174 198 0
174 197 0
174 198 0
175 198 0
175 198 0
174 198 0
173 197 0
172 197 0
176 199 0
174 197 0
176 199 0
174 198 0
174 198 0
175 198 0
174 198 0
174 197 0
174 198 0
175 198 0
174 197 0
174 198 0
175 198 0
173 197 0
174 198 0
174 197 0
174 198 0
174 197 0
173 197 0
176 198 0
173 197 0
175 198 0
175 198 0
175 198 0
173 197 0
174 198 0
175 198 0
175 198 0
173 197 0
173 197 0
175 198 0
173 197 0
174 198 0
175 198 0
175 198 0
174 197 0
176 199 0
173 197 0
175 198 0
174 198 0
175 198 0
176 199 0
175 198 0
174 198 0
175 198 0
175 198 0
175 198 0
175 198 0
174 198 0
175 198 0
174 198 0
174 197 0
175 198 0
175 198 0
175 198 0
174 198 0
175 198 0
175 198 0
174 198 0
174 198 0
174 198 0
174 198 0
176 199 0
174 197 0
176 199 0
173 197 0
174 198 0
176 198 0
175 198 0
174 198 0
174 197 0
175 198 0
174 198 0
174 198 0
176 199 0
175 198 0
174 198 0
174 198 0
175 198 0
174 197 0
175 198 0
175 198 0
175 198 0
176 198 0
175 198 25
184 205 102
195 213 144
199 217 165
203 219 177
213 228 212
214 228 215
221 234 237
227 239 253
228 240 255
228 240 255
228 239 255
228 239 255
228 239 255
228 239 255
228 239 255
228 239 255
228 239 255
228 239 255
228 239 255
228 239 255
228 239 255
228 239 255
228 239 255
228 239 255
228 239 255
228 239 255
228 239 255
228 239 255
228 239 255
228 239 255
228 239 255
228 239 255
228 239 255
228 239 255
228 239 255
228 239 255
228 239 255
228 239 255
228 239 255
227 239 255
227 239 255
227 239 255
227 239 255
227 239 255
227 239 255
227 239 255
227 239 255
227 239 255
227 239 255
227 239 255
227 239 255
227 239 255
227 239 255
227 239 255
227 239 255
227 239 255
227 239 255
227 239 255
227 239 255
227 239 255
227 239 255
227 239 255
227 239 255
227 239 255
227 239 255
227 239 255
227 239 255
227 239 255
227 239 255
227 239 255
227 239 255
227 239 255
227 239 255
227 239 255
227 239 255
227 239 255
227 239 255
227 239 255
227 239 255
227 239 255
227 239 255
227 239 255
226 239 255
226 238 255
226 238 255
226 238 255
226 238 255
226 238 255
226 238 255
226 238 255
226 238 255
226 238 255
226 238 255
226 238 255
226 238 255
226 238 255
226 238 255
226 238 255
226 238 255
226 238 255
226 238 255
226 238 255
226 238 255
226 238 255
226 238 255
226 238 255
226 238 255
226 238 255
226 238 255
226 238 255
226 238 255
226 238 255
226 238 255
226 238 255
226 238 255
226 238 255
226 238 255
226 238 255
226 238 255
226 238 255
226 238 255
226 238 255
226 238 255
226 238 255
226 238 255
226 238 255
226 238 255
226 238 255
226 238 255
226 238 255
226 238 255
226 238 255
226 238 255
226 238 255
226 238 255
226 238 255
225 238 255
226 238 255
226 238 255
226 238 255
226 238 255
226 238 255
226 238 255
226 238 255
226 238 255
226 238 255
226 238 255
226 238 255
226 238 255
226 238 255
226 238 255
226 238 255
226 238 255
226 238 255
226 238 255
226 238 255
226 238 255
226 238 255
226 238 255
226 238 255
226 238 255
226 238 255
226 238 255
226 238 255
226 238 255
226 238 255
226 238 255
226 238 255
226 238 255
226 238 255
226 238 255
226 238 255
226 238 255
226 238 255
226 238 255
226 238 255
226 238 255
226 238 255
226 238 255
226 238 255
226 238 255
226 238 255
226 238 255
226 239 255
227 239 255
227 239 255
227 239 255
227 239 255
227 239 255
227 239 255
227 239 255
227 239 255
227 239 255
227 239 255
227 239 255
227 239 255
227 239 255
227 239 255
227 239 255
227 239 255
227 239 255
227 239 255
227 239 255
227 239 255
227 239 255
227 239 255
227 239 255
227 239 255
227 239 255
227 239 255
227 239 255
227 239 255
227 239 255
227 239 255
227 239 255
227 239 255
227 239 255
227 239 255
227 239 255
227 239 255
227 239 255
227 239 255
227 239 255
227 239 255
227 239 255
227 239 255
227 239 255
228 239 255
228 239 255
228 239 255
228 239 255
228 239 255
228 239 255
228 239 255
228 239 255
228 239 255
228 239 255
228 239 255
228 239 255
228 239 255
228 239 255
228 239 255
228 239 255
228 239 255
228 239 255
228 239 255
228 239 255
228 239 255
228 239 255
228 239 255
228 239 255
228 239 255
228 239 255
228 239 255
228 239 255
228 240 255
228 240 255
228 240 255
228 240 255
224 236 242
215 229 218
214 228 214
206 222 189
193 212 144
190 209 128
180 202 76
174 198 25
175 198 0
175 198 0
174 197 0
174 198 0
175 198 0
173 197 0
174 198 0
175 198 0
174 198 0
175 198 0
175 198 0
174 198 0
173 197 0
173 197 0
176 199 0
174 198 0
175 198 0
176 199 0
174 198 0
175 198 0
175 198 0
176 199 0
174 198 0
174 198 0
176 198 0
175 198 0
175 198 0
176 199 0
173 197 0
174 197 0
174 198 0
173 197 0
174 198 0
174 198 0
176 199 0
175 198 0
175 198 0
175 198 0
174 198 0
175 198 0
176 199 0
175 198 0
175 198 0
173 197 0
174 197 0
175 198 0
174 198 0
175 198 0
175 198 0
174 198 0
174 198 0
175 198 0
174 198 0
174 198 0
174 198 0
175 198 0
173 197 0
174 198 0
174 198 0
174 197 0
176 198 0
175 198 0
173 197 0
174 197 0
175 198 0
174 198 0
174 198 0
173 197 0
174 198 0
174 197 0
174 198 0
175 198 0
175 198 0
173 197 0
175 198 0
173 197 0
175 198 0
175 198 0
173 197 0
174 197 0
174 198 0
175 198 0
176 198 0
177 199 0
175 198 0
174 198 0
175 198 0
174 197 0
176 199 0
176 199 0
175 198 0
175 198 0
174 197 0
175 198 0
174 197 0
174 198 0
176 199 0
174 197 0
175 198 0
174 198 0
175 198 0
175 198 0
174 198 0
175 198 0
175 198 0
174 198 0
176 199 0
173 197 0
174 198 0
175 198 0
176 198 0
175 198 0
175 198 0
175 198 0
176 198 0
174 197 0
175 198 0
174 198 0
174 198 0
176 199 0
175 198 0
176 199 0
175 198 0
175 198 0
174 198 0
177 199 0
174 198 0
176 199 0
174 197 0
174 197 0
173 197 0
176 198 0
175 198 0
174 198 0
173 197 0
176 198 0
174 198 0
173 197 0
175 198 0
175 198 0
177 199 36
184 205 99
190 209 122
200 217 171
204 220 184
212 227 209
221 233 234
222 234 237
228 240 255
228 240 255
228 240 255
228 240 255
228 239 255
228 239 255
228 239 255
228 239 255
228 239 255
228 239 255
228 239 255
228 239 255
228 239 255
228 239 255
228 239 255
228 239 255
228 239 255
228 239 255
228 239 255
228 239 255
228 239 255
228 239 255
228 239 255
228 239 255
228 239 255
228 239 255
228 239 255
228 239 255
228 239 255
228 239 255
228 239 255
227 239 255
227 239 255
227 239 255
227 239 255
227 239 255
227 239 255
227 239 255
227 239 255
227 239 255
227 239 255
227 239 255
227 239 255
227 239 255
227 239 255
227 239 255
227 239 255
227 239 255
227 239 255
227 239 255
227 239 255
227 239 255
227 239 255
227 239 255
227 239 255
227 239 255
227 239 255
227 239 255
227 239 255
227 239 255
227 239 255
227 239 255
227 239 255
227 239 255
227 239 255
227 239 255
227 239 255
227 239 255
227 239 255
227 239 255
227 239 255
227 239 255
227 239 255
227 239 255
226 239 255
226 239 255
226 238 255
226 238 255
226 238 255
226 238 255
226 238 255
226 238 255
226 238 255
226 238 255
226 238 255
226 238 255
226 238 255
226 238 255
226 238 255
226 238 255
226 238 255
226 238 255
226 238 255
226 238 255
226 238 255
226 238 255
226 238 255
226 238 255
226 238 255
226 238 255
226 238 255
226 238 255
226 238 255
226 238 255
226 238 255
226 238 255
226 238 255
226 238 255
226 238 255
226 238 255
226 238 255
226 238 255
226 238 255
226 238 255
226 238 255
226 238 255
226 238 255
226 238 255
226 238 255
226 238 255
226 238 255
226 238 255
226 238 255
226 238 255
226 238 255
226 238 255
226 238 255
226 238 255
226 238 255
226 238 255
226 238 255
226 238 255
226 238 255
226 238 255
226 238 255
226 238 255
226 238 255
226 238 255
226 238 255
226 238 255
226 238 255
226 238 255
226 238 255
226 238 255
226 238 255
226 238 255
226 238 255
226 238 255
226 238 255
226 238 255
226 238 255
226 238 255
226 238 255
226 238 255
226 238 255
226 238 255
226 238 255
226 238 255
226 238 255
226 238 255
226 238 255
226 239 255
227 239 255
227 239 255
227 239 255
227 239 255
227 239 255
227 239 255
227 239 255
227 239 255
227 239 255
227 239 255
227 239 255
227 239 255
227 239 255
227 239 255
227 239 255
227 239 255
227 239 255
227 239 255
227 239 255
227 239 255
227 239 255
227 239 255
227 239 255
227 239 255
227 239 255
227 239 255
227 239 255
227 239 255
227 239 255
227 239 255
227 239 255
227 239 255
227 239 255
227 239 255
227 239 255
227 239 255
227 239 255
227 239 255
227 239 255
227 239 255
227 239 255
227 239 255
227 239 255
228 239 255
228 239 255
228 239 255
228 239 255
228 239 255
228 239 255
228 239 255
228 239 255
228 239 255
228 239 255
228 239 255
228 239 255
228 239 255
228 239 255
228 239 255
228 239 255
228 239 255
228 239 255
228 239 255
228 239 255
228 239 255
228 239 255
228 239 255
228 239 255
228 239 255
228 239 255
228 239 255
228 240 255
228 240 255
228 240 255
228 240 255
228 240 255
226 238 250
218 231 226
211 225 204
203 220 184
198 215 159
181 203 80
178 200 51
175 198 0
174 198 0
177 199 0
176 199 0
173 197 0
173 197 0
174 198 0
175 198 0
175 198 0
174 198 0
175 198 0
175 198 0
174 198 0
175 198 0
177 199 0
175 198 0
175 198 0
173 197 0
174 198 0
175 198 0
175 198 0
175 198 0
174 198 0
174 197 0
173 197 0
174 198 0
174 197 0
176 198 0
175 198 0
176 199 0
174 198 0
175 198 0
175 198 0
175 198 0
175 198 0
174 197 0
173 197 0
175 198 0
175 198 0
175 198 0
174 198 0
175 198 0
174 198 0
174 197 0
174 198 0
174 198 0
175 198 0
175 198 0
176 199 0
174 197 0
174 198 0
174 198 0
175 198 0
175 198 0
174 198 0
174 198 0
174 198 0
175 198 0
173 197 0
176 199 0
174 198 0
176 198 0
175 198 0
174 198 0
174 198 0
175 198 0
174 198 0
175 198 0
174 198 0
174 198 0
175 198 0
174 198 0
175 198 0
175 198 0
175 198 0
174 198 0
172 197 0
176 199 0
176 198 0
174 197 0
175 198 0
173 197 0
174 198 0
176 198 0
175 198 0
174 198 0
175 198 0
177 199 0
175 198 0
175 198 0
175 198 0
176 198 0
175 198 0
173 197 0
175 198 0
175 198 0
174 198 0
174 197 0
175 198 0
175 198 0
174 198 0
176 199 0
174 198 0
174 197 0
174 198 0
174 198 0
176 199 0
175 198 0
174 198 0
175 198 0
175 198 0
174 198 0
174 198 0
174 198 0
175 198 0
174 198 0
173 197 0
174 198 0
173 197 0
175 198 0
175 198 0
174 198 0
175 198 0
175 198 0
173 197 0
173 197 0
173 197 0
176 199 0
173 197 0
175 198 0
175 198 0
173 197 0
175 198 0
174 198 0
174 198 0
173 197 0
175 198 0
175 198 0
175 198 0
175 198 0
175 198 0
175 198 0
174 197 0
176 198 0
176 199 0
173 197 0
175 198 0
173 197 0
174 198 0
176 199 0
175 198 0
174 198 0
174 198 0
175 198 0
176 198 0
175 198 0
180 202 80
185 206 108
196 214 151
202 219 177
208 224 198
218 231 226
224 236 244
228 240 255
228 240 255
228 240 255
228 240 255
228 240 255
228 239 255
228 239 255
228 239 255
228 239 255
228 239 255
228 239 255
228 239 255
228 239 255
228 239 255
228 239 255
228 239 255
228 239 255
228 239 255
228 239 255
228 239 255
228 239 255
228 239 255
228 239 255
228 239 255
228 239 255
228 239 255
228 239 255
228 239 255
228 239 255
228 239 255
228 239 255
227 239 255
227 239 255
227 239 255
227 239 255
227 239 255
227 239 255
227 239 255
227 239 255
227 239 255
227 239 255
227 239 255
227 239 255
227 239 255
227 239 255
227 239 255
227 239 255
227 239 255
227 239 255
227 239 255
227 239 255
227 239 255
227 239 255
227 239 255
227 239 255
227 239 255
227 239 255
227 239 255
227 239 255
227 239 255
227 239 255
227 239 255
227 239 255
227 239 255
227 239 255
227 239 255
227 239 255
227 239 255
227 239 255
227 239 255
227 239 255
227 239 255
227 239 255
227 239 255
227 239 255
226 239 255
226 239 255
226 238 255
226 238 255
226 238 255
226 238 255
226 238 255
226 238 255
226 238 255
226 238 255
226 238 255
226 238 255
226 238 255
226 238 255
226 238 255
226 238 255
226 238 255
226 238 255
226 238 255
226 238 255
226 238 255
226 238 255
226 238 255
226 238 255
226 238 255
226 238 255
226 238 255
226 238 255
226 238 255
226 238 255
226 238 255
226 238 255
226 238 255
226 238 255
226 238 255
226 238 255
226 238 255
226 238 255
226 238 255
226 238 255
226 238 255
226 238 255
226 238 255
226 238 255
226 238 255
226 238 255
226 238 255
226 238 255
226 238 255
226 238 255
226 238 255
226 238 255
226 238 255
226 238 255
226 238 255
226 238 255
226 238 255
226 238 255
226 238 255
226 238 255
226 238 255
226 238 255
226 238 255
226 238 255
226 238 255
226 238 255
226 238 255
226 238 255
226 238 255
226 238 255
226 238 255
226 239 255
226 239 255
227 239 255
227 239 255
227 239 255
227 239 255
227 239 255
227 239 255
227 239 255
227 239 255
227 239 255
227 239 255
227 239 255
227 239 255
227 239 255
227 239 255
227 239 255
227 239 255
227 239 255
227 239 255
227 239 255
227 239 255
227 239 255
227 239 255
227 239 255
227 239 255
227 239 255
227 239 255
227 239 255
227 239 255
227 239 255
227 239 255
227 239 255
227 239 255
227 239 255
227 239 255
227 239 255
227 239 255
227 239 255
227 239 255
227 239 255
227 239 255
227 239 255
227 239 255
227 239 255
228 239 255
228 239 255
228 239 255
228 239 255
228 239 255
228 239 255
228 239 255
228 239 255
228 239 255
228 239 255
228 239 255
228 239 255
228 239 255
228 239 255
228 239 255
228 239 255
228 239 255
228 239 255
228 239 255
228 239 255
228 239 255
228 239 255
228 239 255
228 239 255
228 239 255
228 239 255
228 239 255
228 240 255
228 240 255
228 240 255
228 240 255
228 240 255
225 237 248
217 230 223
215 229 217
204 221 186
192 211 140
188 208 125
178 200 62
173 197 0
176 198 0
176 199 0
176 199 0
175 198 0
174 198 0
175 198 0
174 198 0
177 199 0
174 198 0
175 198 0
175 198 0
174 198 0
174 198 0
174 197 0
174 198 0
175 198 0
174 198 0
174 197 0
174 198 0
175 198 0
173 197 0
175 198 0
175 198 0
174 198 0
174 197 0
174 198 0
175 198 0
174 198 0
173 197 0
174 198 0
175 198 0
175 198 0
175 198 0
174 198 0
175 198 0
173 197 0
174 197 0
177 199 0
174 198 0
174 198 0
174 198 0
173 197 0
174 197 0
174 198 0
174 198 0
175 198 0
176 198 0
175 198 0
175 198 0
174 198 0
175 198 0
175 198 0
175 198 0
175 198 0
173 197 0
175 198 0
174 198 0
176 199 0
175 198 0
174 198 0
174 198 0
175 198 0
175 198 0
176 198 0
175 198 0
174 198 0
174 197 0
174 198 0
173 197 0
175 198 0
174 198 0
173 197 0
175 198 0
176 199 0
174 198 0
174 197 0
175 198 0
174 197 0
174 197 0
175 198 0
176 199 0
175 198 0
174 197 0
175 198 0
173 197 0
175 198 0
174 198 0
175 198 0
176 198 0
175 198 0
173 197 0
175 198 0
174 197 0
176 199 0
174 198 0
175 198 0
174 197 0
174 198 0
176 199 0
175 198 0
174 198 0
175 198 0
176 198 0
173 197 0
176 198 0
174 198 0
173 197 0
175 198 0
175 198 0
174 198 0
174 198 0
174 197 0
175 198 0
173 197 0
176 199 0
174 198 0
175 198 0
175 198 0
175 198 0
174 198 0
175 198 0
174 198 0
175 198 0
175 198 0
175 198 0
175 198 0
175 198 0
174 198 0
173 197 0
175 198 0
174 197 0
175 198 0
175 198 0
174 198 0
174 198 0
174 198 0
176 199 0
174 197 0
175 198 0
175 198 0
175 198 0
174 197 0
174 197 0
174 198 0
175 198 0
173 197 0
174 198 0
173 197 0
176 199 0
176 199 0
175 198 0
174 198 0
173 197 0
174 198 0
175 198 0
173 197 0
175 198 0
173 197 0
174 198 0
174 198 0
176 199 0
174 198 0
177 199 0
175 198 0
173 197 0
173 197 0
175 198 0
175 198 0
175 198 0
178 200 57
184 205 102
191 210 133
202 219 175
210 225 199
224 236 242
227 238 252
228 240 255
228 240 255
228 240 255
228 240 255
228 240 255
228 239 255
228 239 255
228 239 255
228 239 255
228 239 255
228 239 255
228 239 255
228 239 255
228 239 255
228 239 255
228 239 255
228 239 255
228 239 255
228 239 255
228 239 255
228 239 255
228 239 255
228 239 255
228 239 255
228 239 255
228 239 255
228 239 255
228 239 255
228 239 255
228 239 255
228 239 255
228 239 255
227 239 255
227 239 255
227 239 255
227 239 255
227 239 255
227 239 255
227 239 255
227 239 255
227 239 255
227 239 255
227 239 255
227 239 255
227 239 255
227 239 255
227 239 255
227 239 255
227 239 255
227 239 255
227 239 255
227 239 255
227 239 255
227 239 255
227 239 255
227 239 255
227 239 255
227 239 255
227 239 255
227 239 255
227 239 255
227 239 255
227 239 255
227 239 255
227 239 255
227 239 255
227 239 255
227 239 255
227 239 255
227 239 255
227 239 255
227 239 255
227 239 255
227 239 255
227 239 255
226 239 255
226 239 255
226 238 255
226 238 255
226 238 255
226 238 255
226 238 255
226 238 255
226 238 255
226 238 255
226 238 255
226 238 255
226 238 255
226 238 255
226 238 255
226 238 255
226 238 255
226 238 255
226 238 255
226 238 255
226 238 255
226 238 255
226 238 255
226 238 255
226 238 255
226 238 255
226 238 255
226 238 255
226 238 255
226 238 255
226 238 255
226 238 255
226 238 255
226 238 255
226 238 255
226 238 255
226 238 255
226 238 255
226 238 255
226 238 255
226 238 255
226 238 255
226 238 255
226 238 255
226 238 255
226 238 255
226 238 255
226 238 255
226 238 255
226 238 255
226 238 255
226 238 255
226 238 255
226 238 255
226 238 255
226 238 255
226 238 255
226 238 255
226 239 255
226 239 255
227 239 255
227 239 255
227 239 255
227 239 255
227 239 255
227 239 255
227 239 255
227 239 255
227 239 255
227 239 255
227 239 255
227 239 255
227 239 255
227 239 255
227 239 255
227 239 255
227 239 255
227 239 255
227 239 255
227 239 255
227 239 255
227 239 255
227 239 255
227 239 255
227 239 255
227 239 255
227 239 255
227 239 255
227 239 255
227 239 255
227 239 255
227 239 255
227 239 255
227 239 255
227 239 255
227 239 255
227 239 255
227 239 255
227 239 255
227 239 255
227 239 255
227 239 255
228 239 255
228 239 255
228 239 255
228 239 255
228 239 255
228 239 255
228 239 255
228 239 255
228 239 255
228 239 255
228 239 255
228 239 255
228 239 255
228 239 255
228 239 255
228 239 255
228 239 255
228 239 255
228 239 255
228 239 255
228 239 255
228 239 255
228 239 255
228 239 255
228 239 255
228 239 255
228 239 255
228 240 255
228 240 255
228 240 255
228 240 255
228 240 255
228 240 255
226 238 250
215 229 215
211 226 206
201 218 173
190 209 128
187 207 108
175 198 25
174 198 0
175 198 0
175 198 0
177 199 0
175 198 0
174 198 0
175 198 0
174 198 0
175 198 0
174 198 0
174 197 0
175 198 0
175 198 0
172 197 0
174 198 0
174 197 0
175 198 0
173 197 0
173 197 0
174 198 0
174 198 0
174 198 0
175 198 0
174 197 0
175 198 0
174 197 0
174 198 0
175 198 0
174 198 0
175 198 0
173 197 0
174 198 0
174 198 0
175 198 0
175 198 0
174 198 0
175 198 0
174 197 0
176 199 0
174 198 0
174 198 0
173 197 0
175 198 0
175 198 0
173 197 0
175 198 0
174 197 0
175 198 0
176 198 0
175 198 0
175 198 0
174 197 0
174 197 0
174 197 0
175 198 0
176 198 0
176 198 0
174 198 0
175 198 0
174 197 0
174 198 0
173 197 0
174 197 0
174 198 0
173 197 0
175 198 0
175 198 0
175 198 0
172 197 0
176 199 0
173 197 0
174 198 0
175 198 0
174 198 0
175 198 0
174 198 0
173 197 0
175 198 0
172 196 0
174 197 0
173 197 0
174 198 0
177 199 0
175 198 0
173 197 0
174 197 0
175 198 0
173 197 0
175 198 0
174 198 0
173 197 0
174 198 0
175 198 0
174 198 0
175 198 0
175 198 0
175 198 0
175 198 0
175 198 0
174 198 0
175 198 0
174 198 0
174 197 0
175 198 0
174 197 0
174 197 0
174 198 0
173 197 0
174 197 0
174 198 0
173 197 0
173 197 0
173 197 0
174 198 0
175 198 0
175 198 0
177 199 0
174 198 0
174 198 0
175 198 0
173 197 0
175 198 0
175 198 0
176 199 0
174 198 0
172 197 0
175 198 0
175 198 0
176 199 0
176 198 0
174 198 0
174 197 0
174 197 0
174 198 0
174 198 0
175 198 0
176 199 0
175 198 0
174 198 0
173 197 0
175 198 0
176 199 0
175 198 0
175 198 0
174 198 0
175 198 0
174 197 0
174 197 0
174 198 0
173 197 0
173 197 0
176 199 0
174 197 0
175 198 0
174 197 0
175 198 0
175 198 0
176 199 0
175 198 0
176 199 0
177 199 0
174 198 0
173 197 0
174 198 0
175 198 0
175 198 0
174 197 0
175 198 0
176 199 0
175 198 0
176 198 0
175 198 0
176 198 0
175 198 0
174 198 0
175 198 0
174 197 0
174 197 0
174 198 0
172 197 0
175 198 0
175 198 0
176 199 36
183 204 88
188 208 122
199 216 163
208 224 199
215 229 218
222 235 240
228 240 255
228 240 255
228 240 255
228 240 255
228 240 255
228 240 255
228 239 255
228 239 255
228 239 255
228 239 255
228 239 255
228 239 255
228 239 255
228 239 255
228 239 255
228 239 255
228 239 255
228 239 255
228 239 255
228 239 255
228 239 255
228 239 255
228 239 255
228 239 255
228 239 255
228 239 255
228 239 255
228 239 255
228 239 255
228 239 255
228 239 255
228 239 255
227 239 255
227 239 255
227 239 255
227 239 255
227 239 255
227 239 255
227 239 255
227 239 255
227 239 255
227 239 255
227 239 255
227 239 255
227 239 255
227 239 255
227 239 255
227 239 255
227 239 255
227 239 255
227 239 255
227 239 255
227 239 255
227 239 255
227 239 255
227 239 255
227 239 255
227 239 255
227 239 255
227 239 255
227 239 255
227 239 255
227 239 255
227 239 255
227 239 255
227 239 255
227 239 255
227 239 255
227 239 255
227 239 255
227 239 255
227 239 255
227 239 255
227 239 255
227 239 255
227 239 255
226 239 255
226 239 255
226 238 255
226 238 255
226 238 255
226 238 255
226 238 255
226 238 255
226 238 255
226 238 255
226 238 255
226 238 255
226 238 255
226 238 255
226 238 255
226 238 255
226 238 255
226 238 255
226 238 255
226 238 255
226 238 255
226 238 255
226 238 255
226 238 255
226 238 255
226 238 255
226 238 255
226 238 255
226 238 255
226 238 255
226 238 255
226 238 255
226 238 255
226 238 255
226 238 255
226 238 255
226 238 255
226 238 255
226 238 255
226 238 255
226 238 255
226 238 255
226 238 255
226 239 255
226 239 255
227 239 255
227 239 255
227 239 255
227 239 255
227 239 255
227 239 255
227 239 255
227 239 255
227 239 255
227 239 255
227 239 255
227 239 255
227 239 255
227 239 255
227 239 255
227 239 255
227 239 255
227 239 255
227 239 255
227 239 255
227 239 255
227 239 255
227 239 255
227 239 255
227 239 255
227 239 255
227 239 255
227 239 255
227 239 255
227 239 255
227 239 255
227 239 255
227 239 255
227 239 255
227 239 255
227 239 255
227 239 255
227 239 255
227 239 255
227 239 255
227 239 255
227 239 255
227 239 255
227 239 255
228 239 255
228 239 255
228 239 255
228 239 255
228 239 255
228 239 255
228 239 255
228 239 255
228 239 255
228 239 255
228 239 255
228 239 255
228 239 255
228 239 255
228 239 255
228 239 255
228 239 255
228 239 255
228 239 255
228 239 255
228 239 255
228 239 255
228 239 255
228 239 255
228 239 255
228 239 255
228 240 255
228 240 255
228 240 255
228 240 255
228 240 255
228 240 255
228 240 255
223 236 242
216 230 221
206 222 189
198 216 163
188 208 120
182 203 84
175 198 0
174 198 0
175 198 0
177 199 0
175 198 0
176 198 0
174 197 0
175 198 0
174 198 0
176 198 0
174 197 0
176 198 0
174 198 0
176 199 0
174 198 0
174 198 0
173 197 0
175 198 0
173 197 0
173 197 0
176 199 0
175 198 0
172 196 0
173 197 0
176 199 0
174 198 0
175 198 0
175 198 0
174 197 0
173 197 0
173 197 0
174 197 0
176 199 0
175 198 0
173 197 0
175 198 0
175 198 0
175 198 0
174 198 0
175 198 0
176 199 0
173 197 0
175 198 0
174 198 0
176 198 0
174 198 0
175 198 0
174 197 0
175 198 0
174 197 0
175 198 0
174 198 0
176 198 0
175 198 0
173 197 0
174 198 0
174 198 0
174 198 0
176 199 0
173 197 0
176 199 0
175 198 0
174 198 0
174 198 0
176 199 0
174 197 0
175 198 0
174 198 0
174 197 0
175 198 0
173 197 0
174 198 0
175 198 0
174 198 0
174 198 0
177 199 0
173 197 0
174 197 0
177 199 0
173 197 0
174 198 0
174 197 0
173 197 0
175 198 0
173 196 0
174 198 0
174 198 0
174 198 0
173 197 0
176 198 0
174 197 0
174 198 0
174 197 0
174 198 0
174 197 0
174 197 0
175 198 0
175 198 0
174 198 0
173 197 0
175 198 0
174 198 0
174 198 0
174 198 0
174 197 0
176 199 0
175 198 0
175 198 0
174 197 0
175 198 0
175 198 0
174 197 0
174 198 0
175 198 0
173 197 0
175 198 0
177 199 0
175 198 0
174 198 0
173 197 0
173 197 0
174 198 0
176 199 0
173 197 0
173 197 0
173 197 0
175 198 0
174 198 0
175 198 0
174 197 0
173 197 0
173 197 0
173 197 0
174 197 0
174 197 0
174 198 0
175 198 0
175 198 0
174 198 0
174 198 0
174 198 0
175 198 0
174 198 0
175 198 0
174 197 0
175 198 0
175 198 0
176 198 0
175 198 0
174 197 0
174 198 0
174 198 0
174 198 0
174 198 0
174 198 0
175 198 0
175 198 0
174 198 0
175 198 0
175 198 0
174 198 0
174 198 0
175 198 0
174 197 0
174 198 0
176 199 0
176 199 0
174 198 0
176 198 0
175 198 0
175 198 0
174 198 0
174 198 0
175 198 0
175 198 0
175 198 0
175 198 0
175 198 0
174 198 0
175 198 0
174 198 0
174 197 0
174 197 0
174 198 0
176 198 0
174 197 0
176 199 0
175 198 0
173 197 0
175 198 0
175 198 0
174 198 0
174 198 0
174 197 0
175 198 0
173 197 0
182 203 76
192 211 137
198 215 161
205 221 184
214 228 212
226 237 248
228 240 255
228 240 255
228 240 255
228 240 255
228 240 255
228 240 255
228 240 255
228 239 255
228 239 255
228 239 255
228 239 255
228 239 255
228 239 255
228 239 255
228 239 255
228 239 255
228 239 255
228 239 255
228 239 255
228 239 255
228 239 255
228 239 255
228 239 255
228 239 255
228 239 255
228 239 255
228 239 255
228 239 255
228 239 255
228 239 255
228 239 255
228 239 255
228 239 255
227 239 255
227 239 255
227 239 255
227 239 255
227 239 255
227 239 255
227 239 255
227 239 255
227 239 255
227 239 255
227 239 255
227 239 255
227 239 255
227 239 255
227 239 255
227 239 255
227 239 255
227 239 255
227 239 255
227 239 255
227 239 255
227 239 255
227 239 255
227 239 255
227 239 255
227 239 255
227 239 255
227 239 255
227 239 255
227 239 255
227 239 255
227 239 255
227 239 255
227 239 255
227 239 255
227 239 255
227 239 255
227 239 255
227 239 255
227 239 255
227 239 255
227 239 255
227 239 255
227 239 255
226 239 255
226 239 255
226 238 255
226 238 255
226 238 255
226 238 255
226 238 255
226 238 255
226 238 255
226 238 255
226 238 255
226 238 255
226 238 255
226 238 255
226 238 255
226 238 255
226 238 255
226 238 255
226 238 255
226 238 255
226 238 255
226 238 255
226 238 255
226 238 255
226 238 255
226 238 255
226 238 255
226 238 255
226 238 255
226 239 255
226 239 255
227 239 255
227 239 255
227 239 255
227 239 255
227 239 255
227 239 255
227 239 255
227 239 255
227 239 255
227 239 255
227 239 255
227 239 255
227 239 255
227 239 255
227 239 255
227 239 255
227 239 255
227 239 255
227 239 255
227 239 255
227 239 255
227 239 255
227 239 255
227 239 255
227 239 255
227 239 255
227 239 255
227 239 255
227 239 255
227 239 255
227 239 255
227 239 255
227 239 255
227 239 255
227 239 255
227 239 255
227 239 255
227 239 255
227 239 255
227 239 255
227 239 255
227 239 255
227 239 255
227 239 255
228 239 255
228 239 255
228 239 255
228 239 255
228 239 255
228 239 255
228 239 255
228 239 255
228 239 255
228 239 255
228 239 255
228 239 255
228 239 255
228 239 255
228 239 255
228 239 255
228 239 255
228 239 255
228 239 255
228 239 255
228 239 255
228 239 255
228 239 255
228 239 255
228 239 255
228 239 255
228 240 255
228 240 255
228 240 255
228 240 255
228 240 255
228 240 255
228 240 255
228 240 255
222 235 238
218 231 226
206 222 189
198 216 163
187 208 120
179 201 62
177 199 0
176 198 0
177 199 0
174 198 0
174 198 0
174 198 0
174 198 0
175 198 0
174 198 0
175 198 0
175 198 0
175 198 0
175 198 0
175 198 0
174 198 0
176 199 0
174 198 0
174 198 0
173 197 0
175 198 0
172 197 0
175 198 0
175 198 0
174 198 0
174 197 0
175 198 0
175 198 0
175 198 0
175 198 0
174 198 0
174 198 0
174 198 0
176 199 0
173 197 0
174 198 0
174 198 0
173 197 0
174 198 0
173 197 0
175 198 0
173 197 0
173 197 0
175 198 0
172 197 0
176 198 0
175 198 0
175 198 0
174 198 0
173 197 0
174 197 0
175 198 0
174 198 0
176 198 0
174 197 0
175 198 0
174 197 0
175 198 0
175 198 0
174 198 0
175 198 0
174 198 0
174 197 0
174 197 0
174 197 0
175 198 0
173 197 0
175 198 0
174 197 0
173 197 0
175 198 0
173 197 0
173 197 0
174 198 0
174 198 0
173 197 0
174 198 0
174 197 0
174 198 0
175 198 0
173 197 0
174 198 0
174 198 0
176 199 0
173 197 0
175 198 0
173 197 0
174 198 0
175 198 0
175 198 0
174 198 0
175 198 0
175 198 0
174 198 0
174 198 0
175 198 0
175 198 0
175 198 0
175 198 0
174 198 0
175 198 0
175 198 0
172 197 0
175 198 0
174 198 0
175 198 0
175 198 0
177 199 0
174 198 0
174 198 0
174 198 0
174 197 0
173 197 0
175 198 0
173 197 0
175 198 0
174 198 0
174 198 0
173 197 0
174 198 0
175 198 0
174 198 0
175 198 0
174 197 0
175 198 0
173 197 0
176 198 0
175 198 0
172 197 0
175 198 0
173 197 0
174 198 0
174 198 0
175 198 0
174 198 0
174 197 0
173 197 0
175 198 0
174 197 0
175 198 0
174 198 0
175 198 0
174 198 0
175 198 0
175 198 0
173 197 0
175 198 0
175 198 0
173 197 0
173 197 0
173 197 0
176 199 0
173 197 0
174 198 0
176 199 0
174 198 0
174 197 0
176 199 0
174 198 0
174 197 0
174 197 0
175 198 0
175 198 0
174 197 0
174 197 0
175 198 0
174 198 0
177 199 0
176 199 0
175 198 0
175 198 0
175 198 0
174 197 0
175 198 0
175 198 0
174 198 0
175 198 0
174 197 0
175 198 0
175 198 0
173 197 0
174 198 0
175 198 0
175 198 0
176 199 0
177 199 0
175 198 0
173 197 0
175 198 0
175 198 0
174 198 0
175 198 0
174 198 0
174 197 0
175 198 0
173 197 0
176 199 0
175 198 0
173 197 0
175 198 0
175 198 0
176 198 0
175 198 0
176 199 0
175 198 0
175 198 0
174 198 0
175 198 0
174 198 0
183 204 95
190 210 130
196 214 155
207 223 194
220 233 231
225 237 248
228 240 255
228 240 255
228 240 255
228 240 255
228 240 255
228 240 255
228 240 255
228 239 255
228 239 255
228 239 255
228 239 255
228 239 255
228 239 255
228 239 255
228 239 255
228 239 255
228 239 255
228 239 255
228 239 255
228 239 255
228 239 255
228 239 255
228 239 255
228 239 255
228 239 255
228 239 255
228 239 255
228 239 255
228 239 255
228 239 255
228 239 255
228 239 255
228 239 255
228 239 255
227 239 255
227 239 255
227 239 255
227 239 255
227 239 255
227 239 255
227 239 255
227 239 255
227 239 255
227 239 255
227 239 255
227 239 255
227 239 255
227 239 255
227 239 255
227 239 255
227 239 255
227 239 255
227 239 255
227 239 255
227 239 255
227 239 255
227 239 255
227 239 255
227 239 255
227 239 255
227 239 255
227 239 255
227 239 255
227 239 255
227 239 255
227 239 255
227 239 255
227 239 255
227 239 255
227 239 255
227 239 255
227 239 255
227 239 255
227 239 255
227 239 255
227 239 255
227 239 255
227 239 255
226 239 255
226 239 255
226 238 255
226 238 255
226 238 255
226 238 255
226 238 255
226 238 255
226 238 255
226 238 255
226 238 255
226 238 255
226 238 255
226 238 255
226 238 255
226 239 255
226 239 255
227 239 255
227 239 255
227 239 255
227 239 255
227 239 255
227 239 255
227 239 255
227 239 255
227 239 255
227 239 255
227 239 255
227 239 255
227 239 255
227 239 255
227 239 255
227 239 255
227 239 255
227 239 255
227 239 255
227 239 255
227 239 255
227 239 255
227 239 255
227 239 255
227 239 255
227 239 255
227 239 255
227 239 255
227 239 255
227 239 255
227 239 255
227 239 255
227 239 255
227 239 255
227 239 255
227 239 255
227 239 255
227 239 255
227 239 255
227 239 255
227 239 255
227 239 255
227 239 255
227 239 255
227 239 255
228 239 255
228 239 255
228 239 255
228 239 255
228 239 255
228 239 255
228 239 255
228 239 255
228 239 255
228 239 255
228 239 255
228 239 255
228 239 255
228 239 255
228 239 255
228 239 255
228 239 255
228 239 255
228 239 255
228 239 255
228 239 255
228 239 255
228 239 255
228 239 255
228 239 255
228 239 255
228 240 255
228 240 255
228 240 255
228 240 255
228 240 255
228 240 255
228 240 255
228 240 255
228 240 255
220 232 230
208 224 198
205 221 186
194 213 151
184 205 95
175 198 0
175 198 0
174 198 0
175 198 0
176 198 0
175 198 0
174 198 0
175 198 0
176 199 0
174 198 0
176 198 0
175 198 0
175 198 0
174 198 0
175 198 0
176 199 0
175 198 0
174 198 0
176 199 0
175 198 0
174 198 0
175 198 0
174 198 0
174 198 0
173 197 0
176 198 0
175 198 0
174 198 0
175 198 0
174 198 0
173 197 0
174 198 0
175 198 0
174 198 0
176 199 0
175 198 0
175 198 0
174 198 0
174 197 0
174 198 0
173 197 0
174 198 0
174 198 0
174 198 0
174 198 0
175 198 0
175 198 0
175 198 0
174 198 0
175 198 0
174 198 0
174 198 0
173 197 0
173 197 0
175 198 0
175 198 0
175 198 0
173 197 0
175 198 0
175 198 0
176 199 0
174 197 0
173 197 0
175 198 0
175 198 0
174 198 0
174 198 0
174 197 0
174 198 0
174 197 0
175 198 0
173 197 0
175 198 0
174 198 0
175 198 0
175 198 0
175 198 0
173 197 0
174 198 0
173 197 0
174 198 0
175 198 0
175 198 0
172 197 0
174 198 0
173 197 0
175 198 0
174 197 0
175 198 0
173 197 0
176 199 0
174 198 0
175 198 0
175 198 0
175 198 0
176 199 0
176 199 0
173 197 0
175 198 0
176 199 0
175 198 0
175 198 0
175 198 0
174 197 0
176 198 0
174 198 0
174 198 0
175 198 0
174 198 0
174 198 0
173 197 0
175 198 0
175 198 0
175 198 0
175 198 0
173 197 0
175 198 0
175 198 0
174 198 0
176 198 0
173 197 0
173 197 0
174 198 0
174 197 0
175 198 0
175 198 0
174 198 0
173 197 0
177 199 0
174 198 0
175 198 0
174 198 0
174 197 0
174 198 0
174 198 0
175 198 0
175 198 0
174 198 0
174 198 0
175 198 0
174 198 0
173 197 0
173 197 0
175 198 0
174 198 0
174 198 0
175 198 0
176 199 0
173 197 0
174 198 0
175 198 0
173 197 0
174 198 0
175 198 0
173 197 0
174 198 0
174 197 0
174 198 0
174 198 0
177 199 0
174 198 0
174 198 0
174 198 0
176 198 0
177 199 0
174 197 0
174 197 0
176 199 0
174 198 0
176 199 0
175 198 0
175 198 0
175 198 0
173 197 0
175 198 0
175 198 0
174 197 0
173 197 0
173 197 0
173 197 0
175 198 0
174 197 0
174 198 0
175 198 0
175 198 0
174 197 0
174 198 0
174 197 0
174 197 0
175 198 0
175 198 0
176 198 0
176 199 0
174 197 0
175 198 0
175 198 0
174 198 0
174 198 0
174 198 0
175 198 0
175 198 0
176 199 0
175 198 0
173 197 0
174 197 0
173 197 0
175 198 0
175 198 0
174 198 0
175 198 0
174 198 0
174 198 0
175 198 0
174 198 0
175 198 0
176 199 0
175 198 0
175 198 0
174 197 0
175 198 25
181 203 95
190 210 135
201 218 173
209 224 199
220 233 234
227 238 250
228 240 255
228 240 255
228 240 255
228 240 255
228 240 255
228 240 255
228 240 255
228 240 255
228 239 255
228 239 255
228 239 255
228 239 255
228 239 255
228 239 255
228 239 255
228 239 255
228 239 255
228 239 255
228 239 255
228 239 255
228 239 255
228 239 255
228 239 255
228 239 255
228 239 255
228 239 255
228 239 255
228 239 255
228 239 255
228 239 255
228 239 255
228 239 255
228 239 255
228 239 255
227 239 255
227 239 255
227 239 255
227 239 255
227 239 255
227 239 255
227 239 255
227 239 255
227 239 255
227 239 255
227 239 255
227 239 255
227 239 255
227 239 255
227 239 255
227 239 255
227 239 255
227 239 255
227 239 255
227 239 255
227 239 255
227 239 255
227 239 255
227 239 255
227 239 255
227 239 255
227 239 255
227 239 255
227 239 255
227 239 255
227 239 255
227 239 255
227 239 255
227 239 255
227 239 255
227 239 255
227 239 255
227 239 255
227 239 255
227 239 255
227 239 255
227 239 255
227 239 255
227 239 255
227 239 255
226 239 255
226 239 255
226 238 255
226 238 255
226 238 255
227 239 255
227 239 255
227 239 255
227 239 255
227 239 255
227 239 255
227 239 255
227 239 255
227 239 255
227 239 255
227 239 255
227 239 255
227 239 255
227 239 255
227 239 255
227 239 255
227 239 255
227 239 255
227 239 255
227 239 255
227 239 255
227 239 255
227 239 255
227 239 255
227 239 255
227 239 255
227 239 255
227 239 255
227 239 255
227 239 255
227 239 255
227 239 255
227 239 255
227 239 255
227 239 255
227 239 255
227 239 255
227 239 255
227 239 255
227 239 255
227 239 255
227 239 255
227 239 255
227 239 255
228 239 255
228 239 255
228 239 255
228 239 255
228 239 255
228 239 255
228 239 255
228 239 255
228 239 255
228 239 255
228 239 255
228 239 255
228 239 255
228 239 255
228 239 255
228 239 255
228 239 255
228 239 255
228 239 255
228 239 255
228 239 255
228 239 255
228 239 255
228 239 255
228 239 255
228 239 255
228 240 255
228 240 255
228 240 255
228 240 255
228 240 255
228 240 255
228 240 255
228 240 255
228 240 255
225 237 245
219 232 228
206 222 189
199 216 163
183 204 95
177 200 51
173 197 0
174 198 0
174 198 0
176 198 0
175 198 0
174 198 0
175 198 0
175 198 0
174 197 0
176 198 0
175 198 0
174 198 0
175 198 0
173 197 0
175 198 0
176 198 0
173 197 0
173 197 0
176 198 0
174 198 0
174 197 0
174 198 0
175 198 0
175 198 0
175 198 0
176 199 0
175 198 0
175 198 0
174 198 0
174 198 0
174 198 0
173 197 0
175 198 0
175 198 0
175 198 0
174 197 0
174 198 0
175 198 0
174 198 0
174 198 0
174 198 0
175 198 0
174 197 0
174 198 0
174 198 0
174 198 0
175 198 0
175 198 0
175 198 0
174 198 0
175 198 0
175 198 0
175 198 0
175 198 0
174 198 0
175 198 0
174 198 0
175 198 0
174 198 0
174 198 0
174 198 0
175 198 0
174 198 0
173 197 0
175 198 0
174 198 0
175 198 0
175 198 0
174 198 0
174 198 0
175 198 0
175 198 0
173 197 0
175 198 0
175 198 0
174 198 0
174 197 0
174 197 0
175 198 0
176 198 0
175 198 0
174 198 0
174 198 0
175 198 0
174 198 0
174 197 0
175 198 0
174 197 0
174 198 0
174 197 0
173 197 0
174 198 0
173 197 0
176 199 0
176 199 0
174 197 0
174 198 0
173 197 0
174 198 0
176 198 0
173 197 0
175 198 0
175 198 0
173 197 0
173 197 0
176 198 0
175 198 0
175 198 0
174 198 0
175 198 0
175 198 0
176 198 0
175 198 0
175 198 0
175 198 0
175 198 0
174 197 0
174 198 0
174 198 0
176 199 0
174 197 0
174 198 0
175 198 0
174 198 0
173 197 0
174 198 0
175 198 0
176 199 0
174 198 0
174 197 0
174 198 0
175 198 0
173 197 0
176 199 0
175 198 0
175 198 0
175 198 0
174 197 0
175 198 0
175 198 0
174 197 0
175 198 0
175 198 0
175 198 0
174 198 0
174 197 0
175 198 0
174 198 0
174 197 0
175 198 0
176 198 0
177 199 0
173 197 0
175 198 0
175 198 0
175 198 0
176 198 0
175 198 0
176 199 0
175 198 0
175 198 0
174 198 0
174 198 0
176 199 0
174 198 0
174 198 0
174 197 0
175 198 0
174 197 0
174 198 0
174 198 0
175 198 0
176 199 0
175 198 0
175 198 0
175 198 0
175 198 0
175 198 0
176 199 0
175 198 0
175 198 0
176 198 0
175 198 0
175 198 0
175 198 0
173 197 0
174 198 0
176 199 0
173 197 0
176 199 0
175 198 0
174 198 0
175 198 0
175 198 0
174 198 0
175 198 0
176 199 0
174 198 0
175 198 0
175 198 0
175 198 0
174 197 0
175 198 0
175 198 0
173 197 0
173 197 0
174 198 0
175 198 0
174 197 0
173 197 0
176 199 0
173 197 0
175 198 0
175 198 0
175 198 0
174 198 0
175 198 0
176 199 0
175 198 0
176 199 0
175 198 0
175 198 0
174 198 0
176 199 0
175 198 0
174 198 0
174 198 0
176 199 0
176 198 0
174 198 0
176 199 36
188 208 122
196 214 151
203 220 182
213 227 212
224 236 242
228 240 255
228 240 255
228 240 255
228 240 255
228 240 255
228 240 255
228 240 255
228 240 255
228 240 255
228 239 255
228 239 255
228 239 255
228 239 255
228 239 255
228 239 255
228 239 255
228 239 255
228 239 255
228 239 255
228 239 255
228 239 255
228 239 255
228 239 255
228 239 255
228 239 255
228 239 255
228 239 255
228 239 255
228 239 255
228 239 255
228 239 255
228 239 255
228 239 255
228 239 255
228 239 255
227 239 255
227 239 255
227 239 255
227 239 255
227 239 255
227 239 255
227 239 255
227 239 255
227 239 255
227 239 255
227 239 255
227 239 255
227 239 255
227 239 255
227 239 255
227 239 255
227 239 255
227 239 255
227 239 255
227 239 255
227 239 255
227 239 255
227 239 255
227 239 255
227 239 255
227 239 255
227 239 255
227 239 255
227 239 255
227 239 255
227 239 255
227 239 255
227 239 255
227 239 255
227 239 255
227 239 255
227 239 255
227 239 255
227 239 255
227 239 255
227 239 255
227 239 255
227 239 255
227 239 255
227 239 255
227 239 255
227 239 255
227 239 255
227 239 255
227 239 255
227 239 255
227 239 255
227 239 255
227 239 255
227 239 255
227 239 255
227 239 255
227 239 255
227 239 255
227 239 255
227 239 255
227 239 255
227 239 255
227 239 255
227 239 255
227 239 255
227 239 255
227 239 255
227 239 255
227 239 255
227 239 255
227 239 255
227 239 255
227 239 255
227 239 255
227 239 255
227 239 255
227 239 255
227 239 255
227 239 255
227 239 255
228 239 255
228 239 255
228 239 255
228 239 255
228 239 255
228 239 255
228 239 255
228 239 255
228 239 255
228 239 255
228 239 255
228 239 255
228 239 255
228 239 255
228 239 255
228 239 255
228 239 255
228 239 255
228 239 255
228 239 255
228 239 255
228 239 255
228 239 255
228 239 255
228 239 255
228 239 255
228 239 255
228 240 255
228 240 255
228 240 255
228 240 255
228 240 255
228 240 255
228 240 255
228 240 255
228 240 255
228 240 255
223 235 240
211 226 209
205 221 186
192 212 142
180 202 76
176 198 0
175 198 0
176 199 0
176 198 0
175 198 0
174 198 0
176 198 0
175 198 0
175 198 0
174 198 0
174 198 0
175 198 0
176 198 0
174 198 0
174 198 0
174 198 0
176 198 0
174 198 0
174 198 0
174 197 0
174 198 0
176 199 0
174 198 0
175 198 0
176 198 0
174 198 0
173 197 0
174 198 0
172 197 0
174 197 0
175 198 0
173 197 0
176 198 0
176 199 0
173 197 0
175 198 0
175 198 0
175 198 0
175 198 0
175 198 0
174 197 0
174 198 0
175 198 0
176 199 0
175 198 0
173 197 0
174 198 0
175 198 0
174 198 0
176 199 0
172 197 0
173 197 0
175 198 0
176 198 0
175 198 0
173 197 0
174 198 0
175 198 0
176 198 0
174 198 0
174 198 0
176 198 0
175 198 0
176 198 0
175 198 0
175 198 0
177 199 0
174 197 0
173 197 0
173 197 0
173 197 0
176 199 0
175 198 0
175 198 0
175 198 0
174 198 0
174 198 0
175 198 0
174 198 0
174 197 0
174 198 0
176 199 0
175 198 0
174 198 0
174 198 0
174 198 0
174 198 0
174 198 0
174 198 0
174 198 0
175 198 0
174 198 0
174 198 0
173 197 0
174 197 0
174 198 0
174 198 0
173 197 0
174 197 0
173 197 0
174 197 0
175 198 0
174 198 0
174 198 0
176 199 0
175 198 0
174 198 0
175 198 0
174 198 0
176 199 0
174 197 0
174 198 0
175 198 0
174 198 0
175 198 0
174 198 0
173 197 0
174 198 0
174 198 0
174 197 0
173 197 0
173 197 0
175 198 0
176 199 0
174 198 0
173 197 0
177 199 0
175 198 0
176 198 0
176 199 0
174 198 0
175 198 0
174 198 0
173 197 0
174 197 0
174 198 0
174 198 0
175 198 0
175 198 0
173 197 0
174 198 0
176 199 0
175 198 0
176 199 0
176 198 0
175 198 0
173 197 0
173 197 0
175 198 0
174 198 0
174 197 0
174 198 0
175 198 0
175 198 0
175 198 0
175 198 0
175 198 0
174 198 0
175 198 0
174 198 0
175 198 0
175 198 0
175 198 0
175 198 0
174 198 0
175 198 0
175 198 0
173 197 0
175 198 0
174 198 0
174 198 0
174 198 0
174 198 0
175 198 0
174 198 0
174 198 0
176 199 0
174 198 0
175 198 0
173 197 0
173 197 0
174 198 0
175 198 0
174 198 0
174 197 0
174 198 0
175 198 0
174 198 0
174 198 0
174 197 0
176 199 0
175 198 0
175 198 0
174 198 0
173 197 0
174 198 0
175 198 0
175 198 0
174 198 0
175 198 0
175 198 0
175 198 0
175 198 0
175 198 0
176 199 0
172 197 0
175 198 0
174 197 0
176 199 0
175 198 0
175 198 0
174 198 0
174 198 0
175 198 0
175 198 0
176 199 0
174 198 0
175 198 0
174 198 0
175 198 0
174 198 0
174 198 0
176 199 0
176 199 0
176 199 0
173 197 0
176 198 0
175 198 0
175 198 0
176 199 0
174 198 0
174 197 0
174 198 0
175 198 0
175 198 0
176 198 0
175 198 0
175 198 0
174 198 0
174 198 0
175 198 0
175 198 0
185 205 99
189 208 120
209 224 199
211 226 207
224 236 245
228 239 254
228 240 255
228 240 255
228 240 255
228 240 255
228 240 255
228 240 255
228 240 255
228 240 255
228 240 255
228 239 255
228 239 255
228 239 255
228 239 255
228 239 255
228 239 255
228 239 255
228 239 255
228 239 255
228 239 255
228 239 255
228 239 255
228 239 255
228 239 255
228 239 255
228 239 255
228 239 255
228 239 255
228 239 255
228 239 255
228 239 255
228 239 255
228 239 255
228 239 255
228 239 255
228 239 255
228 239 255
227 239 255
227 239 255
227 239 255
227 239 255
227 239 255
227 239 255
227 239 255
227 239 255
227 239 255
227 239 255
227 239 255
227 239 255
227 239 255
227 239 255
227 239 255
227 239 255
227 239 255
227 239 255
227 239 255
227 239 255
227 239 255
227 239 255
227 239 255
227 239 255
227 239 255
227 239 255
227 239 255
227 239 255
227 239 255
227 239 255
227 239 255
227 239 255
227 239 255
227 239 255
227 239 255
227 239 255
227 239 255
227 239 255
227 239 255
227 239 255
227 239 255
227 239 255
227 239 255
227 239 255
227 239 255
227 239 255
227 239 255
227 239 255
227 239 255
227 239 255
227 239 255
227 239 255
227 239 255
227 239 255
227 239 255
227 239 255
227 239 255
227 239 255
227 239 255
227 239 255
227 239 255
227 239 255
227 239 255
227 239 255
227 239 255
227 239 255
227 239 255
227 239 255
227 239 255
228 239 255
228 239 255
228 239 255
228 239 255
228 239 255
228 239 255
228 239 255
228 239 255
228 239 255
228 239 255
228 239 255
228 239 255
228 239 255
228 239 255
228 239 255
228 239 255
228 239 255
228 239 255
228 239 255
228 239 255
228 239 255
228 239 255
228 239 255
228 239 255
228 239 255
228 239 255
228 240 255
228 240 255
228 240 255
228 240 255
228 240 255
228 240 255
228 240 255
228 240 255
228 240 255
228 240 255
227 239 253
219 232 231
208 223 194
202 218 175
187 207 117
176 199 51
174 197 0
174 198 0
176 198 0
175 198 0
175 198 0
175 198 0
173 197 0
175 198 0
176 199 0
174 198 0
176 198 0
176 199 0
174 198 0
175 198 0
172 197 0
175 198 0
175 198 0
174 198 0
174 198 0
174 198 0
174 198 0
175 198 0
174 198 0
174 197 0
175 198 0
175 198 0
174 198 0
174 198 0
176 199 0
174 198 0
174 198 0
174 198 0
173 197 0
175 198 0
176 198 0
174 198 0
175 198 0
173 197 0
175 198 0
175 198 0
174 197 0
174 197 0
175 198 0
174 197 0
175 198 0
174 197 0
176 198 0
176 199 0
175 198 0
175 198 0
174 197 0
174 198 0
175 198 0
175 198 0
173 197 0
173 197 0
173 197 0
173 197 0
175 198 0
175 198 0
174 197 0
174 197 0
175 198 0
175 198 0
173 197 0
174 197 0
174 198 0
176 199 0
175 198 0
175 198 0
175 198 0
177 199 0
175 198 0
175 198 0
174 197 0
174 198 0
175 198 0
174 198 0
176 199 0
176 198 0
175 198 0
175 198 0
174 198 0
173 197 0
175 198 0
175 198 0
173 197 0
174 198 0
175 198 0
175 198 0
175 198 0
174 198 0
175 198 0
173 197 0
173 197 0
174 198 0
176 198 0
174 198 0
175 198 0
174 198 0
174 198 0
174 198 0
173 197 0
176 199 0
173 197 0
174 198 0
175 198 0
173 197 0
174 198 0
175 198 0
176 198 0
175 198 0
175 198 0
174 197 0
175 198 0
176 199 0
172 197 0
176 199 0
174 197 0
173 196 0
175 198 0
174 198 0
173 197 0
175 198 0
175 198 0
174 198 0
174 198 0
174 197 0
176 199 0
174 197 0
175 198 0
174 197 0
175 198 0
176 198 0
175 198 0
173 197 0
174 198 0
175 198 0
174 198 0
175 198 0
173 197 0
175 198 0
173 197 0
173 197 0
175 198 0
175 198 0
174 197 0
176 199 0
174 198 0
174 197 0
176 198 0
174 198 0
175 198 0
174 198 0
174 197 0
176 199 0
174 198 0
173 197 0
173 197 0
174 197 0
174 198 0
174 198 0
175 198 0
174 198 0
174 198 0
172 196 0
175 198 0
175 198 0
174 198 0
174 198 0
176 199 0
175 198 0
174 198 0
175 198 0
174 198 0
174 197 0
175 198 0
174 197 0
175 198 0
174 197 0
174 198 0
176 199 0
175 198 0
173 197 0
174 197 0
175 198 0
175 198 0
173 197 0
176 199 0
174 198 0
176 199 0
175 198 0
175 198 0
176 199 0
175 198 0
175 198 0
174 198 0
176 198 0
174 198 0
175 198 0
174 198 0
173 197 0
176 198 0
176 198 0
175 198 0
174 198 0
175 198 0
175 198 0
176 198 0
175 198 0
175 198 0
176 199 0
175 198 0
173 197 0
173 197 0
175 198 0
174 198 0
175 198 0
173 197 0
176 199 0
175 198 0
175 198 0
174 198 0
175 198 0
175 198 0
174 198 0
174 198 0
174 198 0
173 197 0
174 198 0
175 198 0
175 198 0
174 198 0
175 198 0
174 198 0
175 198 0
173 197 0
175 198 0
175 198 0
174 197 0
175 198 0
174 198 0
176 199 0
172 197 0
173 197 0
174 198 0
176 198 0
175 198 0
174 198 0
173 197 0
174 198 0
175 198 0
174 198 25
193 212 142
199 216 163
212 227 209
224 236 242
228 239 254
228 240 255
228 240 255
228 240 255
228 240 255
228 240 255
228 240 255
228 240 255
228 240 255
228 240 255
228 240 255
228 239 255
228 239 255
228 239 255
228 239 255
228 239 255
228 239 255
228 239 255
228 239 255
228 239 255
228 239 255
228 239 255
228 239 255
228 239 255
228 239 255
228 239 255
228 239 255
228 239 255
228 239 255
228 239 255
228 239 255
228 239 255
228 239 255
228 239 255
228 239 255
228 239 255
228 239 255
228 239 255
227 239 255
227 239 255
227 239 255
227 239 255
227 239 255
227 239 255
227 239 255
227 239 255
227 239 255
227 239 255
227 239 255
227 239 255
227 239 255
227 239 255
227 239 255
227 239 255
227 239 255
227 239 255
227 239 255
227 239 255
227 239 255
227 239 255
227 239 255
227 239 255
227 239 255
227 239 255
227 239 255
227 239 255
227 239 255
227 239 255
227 239 255
227 239 255
227 239 255
227 239 255
227 239 255
227 239 255
227 239 255
227 239 255
227 239 255
227 239 255
227 239 255
227 239 255
227 239 255
227 239 255
227 239 255
227 239 255
227 239 255
227 239 255
227 239 255
227 239 255
227 239 255
227 239 255
227 239 255
227 239 255
227 239 255
227 239 255
228 239 255
228 239 255
228 239 255
228 239 255
228 239 255
228 239 255
228 239 255
228 239 255
228 239 255
228 239 255
228 239 255
228 239 255
228 239 255
228 239 255
228 239 255
228 239 255
228 239 255
228 239 255
228 239 255
228 239 255
228 239 255
228 239 255
228 239 255
228 239 255
228 239 255
228 239 255
228 239 255
228 240 255
228 240 255
228 240 255
228 240 255
228 240 255
228 240 255
228 240 255
228 240 255
228 240 255
228 240 255
229 240 255
228 239 254
221 234 234
210 225 201
203 220 181
187 207 111
180 201 51
175 198 0
175 198 0
176 199 0
175 198 0
176 199 0
174 198 0
173 197 0
174 197 0
174 197 0
176 199 0
175 198 0
175 198 0
174 198 0
175 198 0
175 198 0
175 198 0
175 198 0
175 198 0
175 198 0
174 197 0
175 198 0
176 199 0
172 197 0
174 198 0
174 198 0
174 198 0
175 198 0
175 198 0
174 198 0
174 198 0
174 198 0
175 198 0
174 197 0
174 198 0
177 199 0
176 198 0
173 197 0
175 198 0
176 199 0
175 198 0
172 197 0
176 199 0
175 198 0
175 198 0
175 198 0
173 197 0
174 198 0
176 198 0
175 198 0
173 197 0
174 198 0
174 198 0
175 198 0
174 198 0
174 198 0
173 197 0
175 198 0
173 197 0
174 197 0
175 198 0
173 197 0
174 197 0
174 198 0
174 198 0
176 198 0
174 198 0
174 198 0
174 198 0
173 197 0
175 198 0
174 197 0
174 198 0
173 197 0
174 198 0
175 198 0
174 197 0
174 198 0
173 196 0
175 198 0
177 199 0
174 198 0
175 198 0
173 197 0
175 198 0
175 198 0
173 197 0
175 198 0
174 198 0
175 198 0
175 198 0
173 197 0
175 198 0
174 198 0
174 198 0
174 198 0
176 199 0
175 198 0
173 197 0
175 198 0
174 197 0
175 198 0
175 198 0
174 198 0
175 198 0
175 198 0
173 197 0
175 198 0
175 198 0
176 199 0
176 199 0
174 198 0
173 197 0
175 197 0
174 198 0
175 198 0
174 198 0
175 198 0
174 198 0
176 199 0
174 198 0
175 198 0
175 198 0
174 198 0
173 197 0
172 196 0
175 198 0
175 198 0
175 198 0
175 198 0
175 198 0
174 197 0
175 198 0
174 198 0
173 197 0
174 198 0
174 198 0
174 198 0
174 198 0
173 197 0
173 197 0
174 198 0
175 198 0
175 198 0
173 197 0
174 198 0
174 197 0
175 198 0
174 198 0
172 197 0
176 199 0
177 199 0
175 198 0
175 198 0
175 198 0
176 199 0
173 197 0
175 198 0
175 198 0
176 199 0
174 198 0
176 199 0
174 197 0
175 198 0
173 197 0
175 198 0
174 198 0
173 197 0
173 197 0
173 197 0
175 198 0
175 198 0
176 199 0
175 198 0
174 198 0
175 198 0
175 198 0
175 198 0
174 198 0
176 199 0
174 198 0
173 197 0
174 198 0
174 198 0
174 198 0
172 197 0
175 198 0
176 199 0
174 197 0
175 198 0
173 197 0
176 199 0
175 198 0
174 198 0
174 198 0
174 198 0
174 198 0
176 198 0
174 198 0
173 197 0
174 198 0
173 197 0
176 199 0
174 198 0
175 198 0
174 198 0
174 198 0
176 199 0
174 197 0
174 198 0
174 198 0
173 197 0
174 198 0
174 198 0
175 198 0
175 198 0
175 198 0
174 197 0
176 199 0
176 198 0
175 198 0
175 198 0
174 198 0
175 198 0
174 197 0
175 198 0
175 198 0
174 198 0
175 198 0
174 198 0
173 197 0
175 198 0
174 198 0
175 198 0
173 197 0
175 198 0
174 197 0
175 198 0
175 198 0
174 198 0
174 198 0
175 198 0
174 197 0
175 198 0
174 198 0
175 198 0
175 198 0
174 198 0
173 197 0
173 197 0
174 198 0
176 199 0
176 199 0
174 198 0
176 199 0
175 198 0
173 197 0
174 198 0
175 198 0
175 198 0
173 197 0
175 198 0
176 199 0
175 198 36
184 205 105
203 219 179
211 225 201
219 232 228
227 238 252
229 240 255
228 240 255
228 240 255
228 240 255
228 240 255
228 240 255
228 240 255
228 240 255
228 240 255
228 240 255
228 240 255
228 239 255
228 239 255
228 239 255
228 239 255
228 239 255
228 239 255
228 239 255
228 239 255
228 239 255
228 239 255
228 239 255
228 239 255
228 239 255
228 239 255
228 239 255
228 239 255
228 239 255
228 239 255
228 239 255
228 239 255
228 239 255
228 239 255
228 239 255
228 239 255
228 239 255
228 239 255
228 239 255
227 239 255
227 239 255
227 239 255
227 239 255
227 239 255
227 239 255
227 239 255
227 239 255
227 239 255
227 239 255
227 239 255
227 239 255
227 239 255
227 239 255
227 239 255
227 239 255
227 239 255
227 239 255
227 239 255
227 239 255
227 239 255
227 239 255
227 239 255
227 239 255
227 239 255
227 239 255
227 239 255
227 239 255
227 239 255
227 239 255
227 239 255
227 239 255
227 239 255
227 239 255
227 239 255
227 239 255
227 239 255
227 239 255
227 239 255
227 239 255
227 239 255
227 239 255
227 239 255
227 239 255
227 239 255
228 239 255
228 239 255
228 239 255
228 239 255
228 239 255
228 239 255
228 239 255
228 239 255
228 239 255
228 239 255
228 239 255
228 239 255
228 239 255
228 239 255
228 239 255
228 239 255
228 239 255
228 239 255
228 239 255
228 239 255
228 239 255
228 239 255
228 239 255
228 239 255
228 239 255
228 239 255
228 239 255
228 240 255
228 240 255
228 240 255
228 240 255
228 240 255
228 240 255
228 240 255
228 240 255
228 240 255
228 240 255
229 240 255
228 239 254
218 231 226
214 228 214
196 214 153
187 207 114
177 200 36
175 198 0
176 199 0
175 198 0
175 198 0
175 198 0
175 198 0
175 198 0
176 199 0
174 198 0
174 198 0
175 198 0
177 199 0
174 197 0
175 198 0
175 198 0
176 198 0
173 197 0
175 198 0
174 198 0
174 198 0
175 198 0
175 198 0
173 197 0
175 198 0
176 199 0
176 198 0
175 198 0
175 198 0
176 199 0
176 199 0
175 198 0
176 198 0
175 198 0
176 199 0
175 198 0
176 199 0
175 198 0
176 198 0
176 199 0
174 197 0
174 198 0
176 199 0
173 197 0
174 198 0
175 198 0
175 198 0
173 197 0
174 198 0
174 198 0
175 198 0
175 198 0
173 197 0
175 198 0
174 198 0
172 197 0
174 198 0
174 198 0
176 199 0
174 198 0
176 198 0
175 198 0
174 197 0
174 197 0
175 198 0
174 198 0
174 198 0
175 198 0
175 198 0
174 197 0
173 197 0
174 197 0
172 197 0
174 197 0
175 198 0
173 197 0
175 198 0
175 198 0
176 198 0
174 198 0
174 198 0
175 198 0
177 199 0
176 199 0
174 198 0
174 197 0
174 197 0
174 197 0
173 197 0
175 198 0
173 197 0
174 198 0
175 198 0
174 197 0
175 198 0
174 198 0
174 198 0
176 198 0
176 198 0
174 198 0
173 197 0
175 198 0
175 198 0
175 198 0
174 198 0
172 196 0
175 198 0
173 197 0
174 198 0
173 197 0
177 199 0
173 197 0
174 198 0
175 198 0
174 197 0
175 198 0
174 198 0
175 198 0
174 197 0
174 197 0
175 198 0
174 198 0
174 197 0
175 198 0
175 198 0
173 197 0
175 198 0
176 199 0
174 198 0
174 197 0
175 198 0
175 198 0
176 198 0
175 198 0
176 199 0
176 199 0
174 197 0
175 198 0
176 199 0
175 198 0
174 197 0
175 198 0
174 198 0
173 197 0
174 198 0
173 197 0
174 198 0
174 197 0
175 198 0
176 198 0
173 197 0
174 198 0
176 198 0
176 199 0
176 198 0
174 198 0
176 198 0
174 198 0
174 198 0
173 197 0
172 197 0
173 197 0
174 198 0
174 198 0
174 198 0
174 198 0
173 197 0
175 198 0
174 198 0
174 197 0
173 197 0
174 198 0
175 198 0
175 198 0
173 197 0
174 198 0
176 198 0
174 198 0
175 198 0
174 198 0
175 198 0
174 198 0
175 198 0
173 197 0
174 197 0
174 198 0
173 197 0
176 199 0
175 198 0
175 198 0
175 198 0
175 198 0
175 198 0
174 197 0
176 198 0
175 198 0
174 198 0
176 198 0
173 197 0
175 198 0
174 198 0
174 198 0
175 198 0
174 197 0
175 198 0
175 198 0
175 198 0
174 197 0
174 197 0
173 197 0
174 198 0
174 197 0
175 198 0
173 197 0
175 198 0
174 197 0
176 198 0
173 197 0
173 197 0
175 198 0
176 199 0
175 198 0
174 198 0
174 197 0
176 199 0
174 198 0
173 197 0
175 198 0
175 198 0
176 199 0
174 198 0
175 198 0
174 198 0
173 197 0
174 197 0
175 198 0
174 198 0
176 199 0
174 198 0
175 198 0
176 198 0
175 198 0
176 199 0
175 198 0
174 197 0
175 198 0
175 198 0
173 197 0
174 198 0
175 198 0
175 198 0
174 197 0
174 198 0
175 198 0
173 197 0
175 198 0
173 197 0
174 197 0
174 198 0
176 199 0
176 198 0
175 198 0
174 198 0
175 198 0
176 198 0
176 199 0
175 198 0
175 198 0
175 198 0
175 198 0
176 198 0
174 198 0
174 197 0
176 199 25
188 208 125
195 214 153
206 222 193
218 231 224
227 239 253
229 240 255
228 240 255
228 240 255
228 240 255
228 240 255
228 240 255
228 240 255
228 240 255
228 240 255
228 240 255
228 240 255
228 239 255
228 239 255
228 239 255
228 239 255
228 239 255
228 239 255
228 239 255
228 239 255
228 239 255
228 239 255
228 239 255
228 239 255
228 239 255
228 239 255
228 239 255
228 239 255
228 239 255
228 239 255
228 239 255
228 239 255
228 239 255
228 239 255
228 239 255
228 239 255
228 239 255
228 239 255
228 239 255
227 239 255
227 239 255
227 239 255
227 239 255
227 239 255
227 239 255
227 239 255
227 239 255
227 239 255
227 239 255
227 239 255
227 239 255
227 239 255
227 239 255
227 239 255
227 239 255
227 239 255
227 239 255
227 239 255
227 239 255
227 239 255
227 239 255
227 239 255
227 239 255
227 239 255
227 239 255
227 239 255
227 239 255
227 239 255
227 239 255
227 239 255
227 239 255
227 239 255
227 239 255
228 239 255
228 239 255
228 239 255
228 239 255
228 239 255
228 239 255
228 239 255
228 239 255
228 239 255
228 239 255
228 239 255
228 239 255
228 239 255
228 239 255
228 239 255
228 239 255
228 239 255
228 239 255
228 239 255
228 239 255
228 239 255
228 239 255
228 239 255
228 239 255
228 239 255
228 239 255
228 239 255
228 240 255
228 240 255
228 240 255
228 240 255
228 240 255
228 240 255
228 240 255
228 240 255
228 240 255
228 240 255
228 240 255
229 240 255
229 240 255
222 234 236
211 226 206
198 215 159
188 208 120
178 200 57
175 198 0
176 199 0
174 198 0
174 198 0
172 197 0
173 197 0
175 198 0
175 198 0
174 198 0
174 198 0
175 198 0
176 199 0
176 199 0
174 198 0
175 198 0
174 198 0
174 198 0
173 197 0
174 198 0
174 197 0
174 197 0
174 197 0
176 198 0
174 198 0
174 198 0
174 198 0
175 198 0
175 198 0
175 198 0
174 197 0
173 197 0
174 198 0
173 197 0
173 197 0
176 198 0
174 198 0
174 198 0
173 197 0
174 198 0
176 198 0
174 198 0
175 198 0
173 197 0
174 198 0
175 198 0
176 198 0
174 198 0
174 198 0
174 198 0
173 197 0
173 197 0
175 198 0
175 198 0
173 197 0
173 197 0
176 198 0
174 197 0
174 198 0
175 198 0
174 198 0
174 198 0
173 197 0
174 198 0
174 198 0
175 198 0
174 198 0
174 197 0
177 199 0
174 198 0
173 197 0
174 198 0
176 199 0
174 197 0
173 197 0
173 197 0
175 198 0
174 197 0
175 198 0
176 199 0
174 197 0
174 198 0
175 198 0
173 197 0
175 198 0
174 197 0
175 198 0
175 198 0
175 198 0
173 197 0
174 198 0
175 198 0
174 197 0
175 198 0
176 198 0
174 198 0
174 198 0
174 198 0
175 198 0
174 197 0
174 197 0
175 198 0
175 198 0
174 198 0
175 198 0
175 198 0
175 198 0
175 198 0
174 198 0
173 197 0
173 197 0
174 197 0
174 197 0
173 197 0
174 198 0
174 197 0
174 197 0
174 197 0
175 198 0
175 198 0
176 198 0
174 197 0
175 198 0
176 198 0
173 197 0
174 198 0
174 198 0
173 197 0
173 197 0
176 199 0
172 196 0
175 198 0
174 198 0
177 199 0
175 198 0
173 197 0
175 198 0
173 197 0
175 198 0
174 198 0
174 198 0
175 198 0
175 198 0
174 198 0
175 198 0
175 198 0
177 199 0
176 198 0
173 197 0
174 197 0
174 198 0
175 198 0
174 198 0
174 198 0
174 198 0
174 198 0
175 198 0
177 199 0
173 196 0
174 198 0
175 198 0
175 198 0
175 198 0
174 198 0
173 197 0
173 197 0
175 198 0
172 197 0
172 197 0
173 197 0
175 198 0
175 198 0
175 198 0
175 198 0
174 197 0
176 198 0
176 199 0
175 198 0
175 198 0
174 198 0
175 198 0
175 198 0
173 197 0
175 198 0
175 198 0
175 198 0
174 198 0
174 198 0
174 198 0
175 198 0
175 198 0
175 198 0
174 198 0
174 197 0
175 198 0
176 199 0
175 198 0
174 198 0
176 199 0
174 198 0
174 198 0
175 198 0
173 197 0
175 198 0
173 197 0
175 198 0
176 198 0
174 197 0
175 198 0
175 198 0
174 198 0
174 198 0
175 198 0
175 198 0
175 198 0
174 198 0
174 198 0
177 199 0
175 198 0
174 197 0
174 197 0
176 199 0
174 198 0
174 198 0
177 199 0
177 199 0
175 198 0
176 199 0
175 198 0
175 198 0
174 197 0
175 198 0
175 198 0
175 198 0
176 199 0
174 198 0
174 197 0
174 197 0
173 197 0
175 198 0
174 198 0
174 198 0
175 198 0
174 198 0
174 198 0
174 198 0
175 198 0
175 198 0
174 198 0
176 198 0
174 198 0
175 198 0
175 198 0
175 198 0
174 198 0
173 197 0
173 197 0
177 199 0
172 197 0
174 198 0
175 198 0
174 198 0
175 198 0
177 199 0
174 197 0
175 198 0
176 199 0
175 198 0
176 199 0
173 197 0
174 198 0
172 196 0
176 199 0
174 198 0
176 199 0
174 197 0
175 198 0
174 198 0
176 199 0
175 198 0
175 198 0
176 199 0
175 198 0
177 199 44
186 207 111
201 218 173
210 225 201
220 233 233
228 239 254
229 240 255
229 240 255
228 240 255
228 240 255
228 240 255
228 240 255
228 240 255
228 240 255
228 240 255
228 240 255
228 240 255
228 240 255
228 239 255
228 239 255
228 239 255
228 239 255
228 239 255
228 239 255
228 239 255
228 239 255
228 239 255
228 239 255
228 239 255
228 239 255
228 239 255
228 239 255
228 239 255
228 239 255
228 239 255
228 239 255
228 239 255
228 239 255
228 239 255
228 239 255
228 239 255
228 239 255
228 239 255
228 239 255
228 239 255
227 239 255
227 239 255
227 239 255
227 239 255
227 239 255
227 239 255
227 239 255
227 239 255
227 239 255
227 239 255
227 239 255
227 239 255
227 239 255
227 239 255
227 239 255
227 239 255
227 239 255
227 239 255
227 239 255
227 239 255
227 239 255
227 239 255
228 239 255
228 239 255
228 239 255
228 239 255
228 239 255
228 239 255
228 239 255
228 239 255
228 239 255
228 239 255
228 239 255
228 239 255
228 239 255
228 239 255
228 239 255
228 239 255
228 239 255
228 239 255
228 239 255
228 239 255
228 239 255
228 239 255
228 239 255
228 239 255
228 239 255
228 239 255
228 239 255
228 239 255
228 240 255
228 240 255
228 240 255
228 240 255
228 240 255
228 240 255
228 240 255
228 240 255
228 240 255
228 240 255
229 240 255
229 240 255
228 239 254
222 234 236
212 226 207
196 214 157
191 210 135
178 200 57
173 197 0
175 198 0
175 198 0
176 199 0
175 198 0
176 198 0
174 198 0
176 199 0
174 198 0
174 198 0
174 197 0
173 197 0
174 198 0
176 198 0
174 198 0
174 198 0
175 198 0
175 198 0
174 197 0
175 198 0
175 198 0
175 198 0
174 197 0
175 198 0
176 199 0
175 198 0
174 198 0
174 198 0
175 198 0
174 198 0
174 198 0
174 197 0
174 198 0
173 197 0
175 198 0
174 198 0
174 197 0
173 197 0
176 198 0
175 198 0
176 199 0
175 198 0
175 198 0
175 198 0
174 198 0
175 198 0
175 198 0
173 197 0
175 198 0
174 198 0
174 198 0
174 197 0
175 198 0
175 198 0
175 198 0
175 198 0
173 197 0
173 197 0
174 198 0
174 198 0
175 198 0
174 198 0
174 198 0
173 197 0
174 197 0
176 199 0
174 198 0
174 198 0
175 198 0
175 198 0
174 198 0
176 198 0
175 198 0
175 198 0
175 198 0
174 198 0
174 198 0
175 198 0
175 198 0
174 198 0
175 198 0
176 199 0
174 198 0
174 198 0
175 198 0
174 198 0
176 198 0
174 198 0
174 198 0
172 197 0
174 197 0
174 197 0
174 198 0
174 197 0
174 197 0
174 198 0
174 198 0
175 198 0
175 198 0
174 198 0
174 198 0
173 197 0
176 199 0
173 197 0
175 198 0
175 198 0
174 197 0
173 197 0
173 197 0
176 199 0
174 197 0
175 198 0
175 198 0
174 198 0
174 198 0
176 199 0
174 198 0
173 197 0
175 198 0
173 197 0
174 198 0
175 198 0
175 198 0
175 198 0
173 197 0
174 198 0
174 197 0
174 198 0
176 198 0
175 198 0
176 199 0
175 198 0
175 198 0
173 197 0
175 198 0
174 197 0
172 196 0
174 198 0
174 197 0
174 198 0
177 199 0
173 196 0
174 197 0
174 198 0
175 198 0
175 197 0
172 197 0
175 198 0
174 197 0
175 198 0
175 198 0
174 197 0
175 198 0
174 198 0
174 198 0
173 197 0
175 198 0
175 198 0
174 198 0
175 198 0
173 197 0
175 198 0
174 197 0
174 198 0
175 198 0
174 198 0
175 198 0
175 198 0
175 198 0
175 198 0
174 198 0
175 198 0
175 198 0
174 198 0
173 197 0
175 198 0
174 198 0
175 198 0
176 199 0
174 197 0
174 198 0
176 199 0
175 198 0
174 197 0
174 198 0
174 198 0
173 197 0
175 198 0
173 197 0
175 198 0
175 198 0
174 198 0
173 197 0
175 198 0
174 197 0
173 197 0
175 198 0
174 198 0
175 198 0
174 198 0
174 198 0
175 198 0
174 198 0
174 197 0
175 198 0
175 198 0
174 197 0
174 198 0
175 198 0
176 199 0
173 197 0
175 198 0
175 198 0
175 198 0
175 198 0
174 197 0
174 198 0
174 197 0
174 197 0
175 198 0
175 198 0
174 197 0
175 198 0
176 199 0
174 197 0
174 197 0
174 197 0
174 197 0
176 198 0
176 199 0
174 198 0
174 198 0
175 198 0
174 198 0
174 197 0
174 197 0
174 198 0
175 198 0
175 198 0
175 198 0
174 198 0
174 198 0
174 198 0
176 198 0
173 197 0
176 198 0
174 198 0
175 198 0
175 198 0
174 198 0
174 197 0
175 198 0
177 199 0
173 197 0
174 197 0
176 199 0
174 198 0
174 198 0
172 197 0
175 198 0
173 197 0
175 198 0
175 198 0
174 197 0
173 197 0
176 199 0
175 198 0
175 198 0
174 198 0
175 198 0
173 197 0
176 199 0
173 197 0
175 198 0
175 198 0
175 198 0
172 197 0
176 199 0
174 198 0
175 198 0
175 198 0
175 198 0
175 198 0
175 198 0
173 197 0
176 198 0
173 197 0
176 198 0
173 197 0
175 198 0
174 198 0
175 198 0
178 200 44
187 207 108
200 217 165
210 225 199
221 234 236
228 239 254
229 240 255
229 240 255
228 240 255
228 240 255
228 240 255
228 240 255
228 240 255
228 240 255
228 240 255
228 240 255
228 240 255
228 240 255
228 239 255
228 239 255
228 239 255
228 239 255
228 239 255
228 239 255
228 239 255
228 239 255
228 239 255
228 239 255
228 239 255
228 239 255
228 239 255
228 239 255
228 239 255
228 239 255
228 239 255
228 239 255
228 239 255
228 239 255
228 239 255
228 239 255
228 239 255
228 239 255
228 239 255
228 239 255
228 239 255
228 239 255
227 239 255
227 239 255
227 239 255
227 239 255
227 239 255
227 239 255
227 239 255
227 239 255
227 239 255
227 239 255
227 239 255
228 239 255
228 239 255
228 239 255
228 239 255
228 239 255
228 239 255
228 239 255
228 239 255
228 239 255
228 239 255
228 239 255
228 239 255
228 239 255
228 239 255
228 239 255
228 239 255
228 239 255
228 239 255
228 239 255
228 239 255
228 239 255
228 239 255
228 239 255
228 239 255
228 239 255
228 239 255
228 239 255
228 239 255
228 240 255
228 240 255
228 240 255
228 240 255
228 240 255
228 240 255
228 240 255
228 240 255
228 240 255
229 240 255
229 240 255
229 240 255
229 240 255
226 237 248
218 231 226
205 221 186
190 209 130
178 200 57
175 198 0
175 198 0
175 198 0
175 198 0
174 198 0
175 198 0
174 198 0
175 198 0
174 198 0
176 198 0
175 198 0
173 197 0
176 199 0
174 198 0
174 197 0
174 198 0
173 197 0
173 197 0
176 199 0
176 199 0
175 198 0
176 198 0
176 198 0
175 198 0
176 199 0
175 198 0
174 198 0
175 198 0
174 198 0
174 197 0
174 198 0
174 198 0
174 197 0
175 198 0
175 198 0
172 197 0
175 198 0
175 198 0
175 198 0
173 197 0
175 198 0
173 197 0
175 198 0
174 197 0
174 197 0
175 198 0
174 198 0
174 198 0
174 198 0
176 199 0
174 198 0
174 198 0
175 198 0
175 198 0
173 197 0
174 198 0
177 199 0
174 197 0
175 198 0
174 198 0
175 198 0
172 197 0
174 198 0
174 198 0
174 198 0
175 198 0
173 197 0
174 198 0
175 198 0
173 197 0
175 198 0
174 198 0
173 197 0
174 198 0
176 198 0
174 198 0
176 199 0
174 198 0
175 198 0
173 197 0
174 198 0
174 198 0
175 198 0
174 198 0
176 198 0
173 197 0
175 198 0
176 199 0
175 198 0
175 198 0
176 199 0
172 196 0
174 197 0
176 199 0
174 197 0
176 199 0
175 198 0
175 198 0
176 198 0
176 199 0
175 198 0
176 199 0
173 197 0
173 197 0
173 197 0
176 198 0
175 198 0
175 198 0
173 197 0
174 198 0
174 198 0
175 198 0
175 198 0
174 197 0
175 198 0
174 198 0
173 197 0
176 198 0
174 198 0
174 198 0
174 197 0
174 198 0
175 198 0
174 197 0
174 198 0
174 198 0
174 198 0
175 198 0
175 198 0
175 198 0
174 197 0
174 197 0
173 197 0
175 198 0
174 197 0
174 197 0
175 198 0
174 198 0
174 197 0
174 198 0
174 198 0
173 197 0
176 198 0
174 197 0
174 197 0
174 198 0
174 198 0
175 198 0
175 198 0
176 199 0
175 198 0
173 197 0
173 197 0
173 197 0
172 197 0
173 197 0
175 198 0
176 199 0
175 198 0
174 198 0
173 197 0
173 197 0
173 197 0
173 197 0
174 198 0
173 197 0
175 198 0
174 197 0
174 198 0
174 197 0
173 197 0
176 199 0
176 198 0
175 198 0
174 198 0
174 197 0
174 198 0
174 198 0
173 197 0
175 198 0
175 198 0
175 198 0
173 197 0
175 198 0
174 197 0
176 198 0
174 198 0
174 197 0
175 198 0
173 197 0
175 198 0
174 198 0
174 197 0
176 199 0
173 197 0
174 198 0
174 198 0
174 198 0
174 197 0
175 198 0
174 197 0
174 197 0
174 198 0
175 198 0
174 198 0
175 198 0
175 198 0
174 197 0
173 197 0
177 199 0
174 197 0
174 197 0
175 198 0
174 198 0
174 198 0
176 199 0
174 198 0
175 198 0
172 196 0
174 198 0
174 198 0
176 198 0
176 198 0
175 198 0
174 198 0
175 198 0
174 198 0
175 198 0
174 198 0
175 198 0
174 198 0
174 198 0
174 197 0
175 198 0
174 198 0
175 198 0
176 198 0
175 198 0
174 198 0
175 198 0
174 198 0
174 198 0
174 197 0
174 198 0
172 197 0
176 199 0
175 198 0
173 197 0
176 199 0
174 197 0
174 198 0
175 198 0
175 198 0
174 198 0
174 198 0
176 199 0
173 197 0
174 197 0
174 198 0
172 196 0
176 198 0
175 198 0
172 197 0
174 198 0
174 197 0
175 198 0
175 198 0
176 199 0
174 197 0
176 199 0
175 198 0
174 197 0
175 198 0
175 198 0
175 198 0
175 198 0
175 198 0
174 197 0
174 198 0
173 197 0
174 198 0
175 198 0
175 198 0
174 198 0
174 197 0
176 199 0
173 197 0
178 200 0
175 198 0
175 198 0
174 198 0
173 197 0
175 198 0
176 199 0
174 198 0
176 199 0
174 197 0
174 197 0
174 198 0
175 198 0
176 198 0
174 198 0
182 203 88
192 211 133
198 216 165
214 228 214
225 236 244
229 240 255
229 240 255
229 240 255
228 240 255
228 240 255
228 240 255
228 240 255
228 240 255
228 240 255
228 240 255
228 240 255
228 240 255
228 240 255
228 239 255
228 239 255
228 239 255
228 239 255
228 239 255
228 239 255
228 239 255
228 239 255
228 239 255
228 239 255
228 239 255
228 239 255
228 239 255
228 239 255
228 239 255
228 239 255
228 239 255
228 239 255
228 239 255
228 239 255
228 239 255
228 239 255
228 239 255
228 239 255
228 239 255
228 239 255
228 239 255
228 239 255
227 239 255
227 239 255
227 239 255
228 239 255
228 239 255
228 239 255
228 239 255
228 239 255
228 239 255
228 239 255
228 239 255
228 239 255
228 239 255
228 239 255
228 239 255
228 239 255
228 239 255
228 239 255
228 239 255
228 239 255
228 239 255
228 239 255
228 239 255
228 239 255
228 239 255
228 239 255
228 239 255
228 239 255
228 239 255
228 240 255
228 240 255
228 240 255
228 240 255
228 240 255
228 240 255
228 240 255
228 240 255
228 240 255
228 240 255
229 240 255
229 240 255
229 240 255
227 238 250
216 230 218
207 223 191
188 208 117
180 202 80
175 198 25
173 197 0
173 197 0
176 199 0
175 198 0
174 198 0
175 198 0
175 198 0
177 199 0
175 198 0
176 199 0
174 198 0
174 198 0
174 198 0
174 198 0
175 198 0
175 198 0
175 198 0
174 198 0
175 198 0
175 198 0
175 198 0
174 198 0
174 198 0
176 199 0
175 198 0
174 198 0
174 198 0
175 198 0
173 197 0
174 198 0
175 198 0
175 198 0
174 198 0
175 198 0
174 198 0
173 197 0
174 198 0
176 199 0
173 197 0
177 199 0
173 197 0
176 198 0
173 197 0
173 197 0
174 198 0
176 199 0
175 198 0
175 198 0
175 198 0
175 198 0
174 198 0
177 199 0
176 198 0
175 198 0
173 197 0
173 197 0
175 198 0
173 197 0
175 198 0
174 198 0
174 197 0
175 198 0
174 198 0
175 198 0
176 198 0
174 198 0
174 197 0
175 198 0
172 197 0
177 199 0
175 198 0
173 197 0
175 198 0
174 197 0
174 198 0
174 197 0
174 197 0
176 198 0
175 198 0
175 198 0
174 198 0
173 197 0
174 198 0
174 198 0
174 198 0
175 198 0
174 198 0
175 198 0
174 198 0
176 199 0
175 198 0
173 197 0
174 198 0
174 198 0
174 198 0
173 197 0
174 197 0
175 198 0
175 198 0
174 198 0
175 198 0
175 198 0
174 198 0
176 199 0
174 198 0
174 198 0
174 198 0
175 198 0
175 198 0
174 197 0
173 196 0
174 197 0
174 197 0
174 197 0
175 198 0
174 197 0
173 197 0
173 197 0
174 197 0
174 197 0
175 198 0
174 197 0
174 197 0
174 197 0
173 197 0
175 198 0
172 197 0
175 198 0
174 197 0
175 198 0
174 198 0
175 198 0
174 198 0
174 197 0
172 196 0
176 199 0
172 196 0
174 197 0
173 196 0
173 197 0
175 198 0
174 198 0
174 197 0
175 198 0
173 197 0
175 198 0
174 197 0
174 197 0
175 198 0
173 197 0
173 197 0
174 198 0
175 198 0
173 197 0
176 198 0
175 198 0
176 199 0
174 198 0
176 198 0
174 197 0
175 198 0
174 197 0
173 197 0
176 198 0
175 198 0
174 197 0
174 197 0
174 198 0
174 198 0
174 197 0
174 198 0
174 198 0
175 198 0
175 198 0
174 198 0
173 197 0
174 197 0
173 197 0
176 199 0
173 197 0
175 198 0
174 198 0
174 197 0
175 198 0
173 197 0
175 198 0
175 198 0
174 198 0
175 198 0
174 198 0
174 197 0
174 198 0
174 198 0
174 198 0
174 198 0
175 198 0
173 197 0
174 197 0
174 198 0
174 197 0
174 197 0
174 198 0
175 198 0
174 198 0
177 199 0
176 199 0
175 198 0
175 198 0
173 197 0
173 197 0
175 198 0
173 197 0
175 198 0
174 197 0
175 198 0
174 197 0
175 198 0
177 199 0
172 197 0
174 197 0
173 197 0
174 198 0
174 197 0
173 197 0
176 199 0
175 198 0
174 198 0
174 198 0
175 198 0
175 198 0
176 199 0
175 198 0
173 197 0
173 197 0
172 196 0
176 199 0
175 198 0
175 198 0
175 198 0
174 198 0
176 198 0
175 198 0
174 197 0
175 198 0
176 198 0
174 198 0
174 198 0
175 198 0
176 199 0
174 197 0
175 198 0
174 198 0
173 197 0
174 198 0
176 198 0
174 198 0
172 197 0
174 198 0
175 198 0
175 198 0
173 197 0
174 197 0
175 198 0
174 198 0
173 197 0
174 198 0
173 197 0
175 198 0
175 198 0
174 198 0
174 198 0
175 198 0
174 198 0
174 197 0
173 197 0
174 198 0
175 198 0
173 197 0
174 198 0
174 197 0
175 198 0
175 198 0
176 199 0
174 198 0
175 198 0
176 199 0
174 198 0
175 198 0
175 198 0
174 197 0
175 198 0
176 199 0
174 198 0
174 198 0
175 198 0
176 198 0
175 198 0
175 198 0
176 199 0
174 198 0
174 198 0
176 199 0
175 198 0
175 198 0
174 197 0
176 199 0
175 198 0
174 197 0
175 198 0
175 198 0
176 199 0
183 205 105
194 213 144
202 219 177
220 232 230
227 238 250
229 240 255
229 240 255
229 240 255
228 240 255
228 240 255
228 240 255
228 240 255
228 240 255
228 240 255
228 240 255
228 240 255
228 240 255
228 240 255
228 240 255
228 239 255
228 239 255
228 239 255
228 239 255
228 239 255
228 239 255
228 239 255
228 239 255
228 239 255
228 239 255
228 239 255
228 239 255
228 239 255
228 239 255
228 239 255
228 239 255
228 239 255
228 239 255
228 239 255
228 239 255
228 239 255
228 239 255
228 239 255
228 239 255
228 239 255
228 239 255
228 239 255
228 239 255
228 239 255
228 239 255
228 239 255
228 239 255
228 239 255
228 239 255
228 239 255
228 239 255
228 239 255
228 239 255
228 239 255
228 239 255
228 239 255
228 239 255
228 239 255
228 239 255
228 239 255
228 240 255
228 240 255
228 240 255
228 240 255
228 240 255
228 240 255
228 240 255
228 240 255
228 240 255
228 240 255
228 240 255
229 240 255
229 240 255
229 240 255
229 240 255
224 236 244
212 227 207
201 218 177
186 207 114
178 200 57
176 199 0
175 198 0
174 198 0
175 198 0
175 198 0
176 199 0
175 198 0
176 199 0
174 198 0
174 198 0
174 198 0
175 198 0
174 198 0
176 199 0
175 198 0
174 198 0
173 197 0
175 198 0
176 198 0
175 198 0
174 198 0
175 198 0
175 198 0
174 198 0
176 198 0
175 198 0
173 197 0
173 197 0
174 198 0
174 197 0
175 198 0
175 198 0
174 198 0
175 198 0
174 198 0
176 199 0
175 198 0
176 199 0
175 198 0
175 198 0
175 198 0
174 198 0
176 198 0
176 198 0
175 198 0
175 198 0
175 198 0
175 198 0
173 197 0
175 198 0
173 197 0
174 198 0
174 198 0
176 198 0
173 197 0
174 198 0
174 198 0
175 198 0
174 198 0
174 197 0
174 198 0
175 198 0
177 199 0
174 197 0
174 197 0
177 199 0
176 198 0
175 198 0
174 198 0
174 198 0
174 198 0
174 198 0
175 198 0
175 198 0
175 198 0
176 199 0
172 196 0
176 199 0
173 197 0
176 199 0
175 198 0
176 198 0
174 198 0
174 198 0
174 198 0
174 198 0
175 198 0
175 198 0
174 198 0
175 198 0
174 198 0
174 198 0
175 198 0
175 198 0
176 199 0
174 198 0
174 197 0
174 198 0
174 197 0
173 196 0
174 198 0
176 198 0
174 197 0
172 197 0
175 198 0
174 198 0
175 198 0
175 198 0
174 198 0
175 198 0
175 198 0
174 197 0
175 198 0
175 198 0
175 198 0
174 197 0
175 198 0
175 198 0
174 198 0
175 198 0
172 197 0
175 198 0
175 198 0
174 197 0
176 198 0
175 198 0
174 198 0
174 197 0
174 197 0
174 197 0
175 198 0
175 198 0
174 198 0
175 198 0
175 198 0
174 198 0
174 198 0
175 198 0
174 198 0
172 197 0
174 197 0
176 198 0
174 198 0
175 198 0
174 197 0
174 198 0
173 197 0
175 198 0
175 198 0
175 198 0
173 197 0
174 197 0
175 198 0
174 197 0
173 197 0
173 197 0
173 197 0
176 198 0
174 198 0
175 198 0
174 197 0
175 198 0
175 198 0
174 197 0
176 199 0
176 198 0
174 197 0
176 199 0
174 198 0
174 197 0
172 196 0
174 197 0
173 197 0
172 196 0
174 198 0
174 197 0
173 197 0
173 197 0
174 197 0
174 197 0
172 196 0
174 197 0
173 197 0
175 198 0
174 197 0
174 198 0
173 197 0
174 197 0
173 197 0
174 198 0
175 198 0
176 198 0
176 199 0
176 199 0
175 198 0
175 198 0
175 198 0
174 197 0
175 198 0
173 197 0
176 199 0
171 195 0
174 198 0
175 198 0
174 198 0
175 198 0
174 198 0
175 198 0
174 198 0
175 198 0
174 197 0
175 198 0
174 198 0
175 198 0
173 197 0
174 197 0
174 198 0
175 198 0
176 199 0
175 198 0
174 198 0
173 197 0
176 198 0
174 198 0
175 198 0
173 197 0
175 198 0
173 197 0
174 197 0
174 198 0
175 198 0
174 198 0
174 198 0
176 199 0
174 197 0
174 198 0
173 197 0
174 198 0
174 198 0
175 198 0
174 197 0
174 198 0
176 198 0
174 197 0
174 197 0
175 198 0
173 197 0
173 197 0
175 198 0
175 198 0
175 198 0
174 198 0
175 198 0
174 197 0
174 198 0
174 198 0
174 198 0
175 198 0
174 198 0
174 197 0
175 198 0
175 198 0
172 197 0
175 198 0
175 198 0
174 198 0
174 198 0
175 198 0
174 198 0
174 198 0
174 198 0
175 198 0
176 199 0
174 198 0
174 198 0
171 196 0
174 197 0
175 198 0
173 197 0
174 198 0
175 198 0
174 198 0
175 198 0
175 198 0
174 198 0
175 198 0
176 199 0
174 198 0
175 198 0
174 198 0
173 197 0
173 197 0
175 198 0
174 198 0
174 198 0
175 198 0
175 198 0
175 198 0
174 198 0
174 197 0
175 198 0
173 197 0
175 198 0
177 199 0
174 198 0
174 198 0
176 199 0
174 198 0
175 198 0
175 198 0
174 198 0
175 198 0
175 198 0
174 197 0
174 198 0
175 198 0
174 198 0
173 197 0
174 198 0
175 198 0
173 197 25
182 203 88
197 215 159
211 225 199
223 235 240
229 240 255
229 240 255
229 240 255
229 240 255
229 240 255
228 240 255
228 240 255
228 240 255
228 240 255
228 240 255
228 240 255
228 240 255
228 240 255
228 240 255
228 240 255
228 239 255
228 239 255
228 239 255
228 239 255
228 239 255
228 239 255
228 239 255
228 239 255
228 239 255
228 239 255
228 239 255
228 239 255
228 239 255
228 239 255
228 239 255
228 239 255
228 239 255
228 239 255
228 239 255
228 239 255
228 239 255
228 239 255
228 239 255
228 239 255
228 239 255
228 239 255
228 239 255
228 239 255
228 239 255
228 239 255
228 239 255
228 239 255
228 239 255
228 239 255
228 239 255
228 240 255
228 240 255
228 240 255
228 240 255
228 240 255
228 240 255
228 240 255
228 240 255
228 240 255
228 240 255
229 240 255
229 240 255
229 240 255
229 240 255
229 240 255
225 237 245
217 231 224
204 220 181
190 209 130
179 201 72
174 198 0
175 198 0
174 197 0
174 198 0
174 198 0
176 198 0
174 198 0
175 198 0
176 198 0
174 198 0
173 197 0
175 198 0
174 198 0
177 199 0
173 197 0
172 197 0
176 199 0
174 198 0
174 198 0
174 198 0
176 198 0
176 198 0
175 198 0
174 198 0
175 198 0
175 198 0
175 198 0
174 198 0
175 198 0
173 197 0
174 198 0
173 197 0
175 198 0
175 198 0
175 198 0
175 198 0
176 198 0
176 198 0
173 197 0
175 198 0
176 198 0
175 198 0
172 197 0
174 197 0
173 197 0
175 198 0
175 198 0
174 198 0
175 198 0
174 198 0
175 198 0
174 198 0
174 198 0
175 198 0
174 198 0
175 198 0
173 197 0
175 198 0
176 199 0
176 199 0
175 198 0
175 198 0
175 198 0
174 197 0
174 197 0
174 198 0
174 198 0
175 198 0
174 197 0
174 198 0
175 198 0
174 198 0
175 198 0
175 198 0
173 197 0
175 198 0
174 197 0
175 198 0
173 197 0
173 197 0
174 197 0
173 197 0
174 197 0
174 197 0
176 198 0
174 197 0
175 198 0
175 198 0
174 198 0
174 198 0
175 198 0
176 199 0
174 198 0
176 199 0
173 197 0
176 199 0
175 198 0
175 198 0
174 198 0
174 197 0
173 197 0
176 199 0
175 198 0
174 198 0
173 197 0
174 198 0
174 198 0
173 197 0
173 197 0
175 198 0
174 197 0
176 198 0
173 197 0
174 198 0
174 197 0
175 198 0
174 198 0
174 197 0
174 198 0
175 198 0
175 198 0
176 198 0
174 197 0
173 197 0
175 198 0
173 197 0
174 197 0
172 197 0
175 198 0
176 199 0
174 198 0
175 198 0
174 197 0
173 196 0
173 197 0
174 197 0
173 197 0
175 198 0
173 197 0
173 197 0
174 198 0
175 198 0
173 197 0
176 198 0
174 198 0
175 197 0
173 197 0
174 198 0
176 199 0
175 198 0
175 198 0
172 196 0
174 198 0
174 198 0
174 198 0
173 197 0
173 196 0
173 197 0
175 198 0
174 198 0
173 197 0
174 198 0
174 198 0
174 197 0
173 196 0
176 198 0
174 197 0
174 198 0
174 198 0
175 198 0
174 198 0
174 198 0
174 198 0
174 197 0
172 197 0
174 198 0
175 198 0
175 198 0
174 198 0
174 197 0
175 198 0
172 196 0
175 197 0
174 197 0
174 198 0
174 198 0
173 197 0
175 198 0
174 198 0
173 197 0
175 198 0
174 197 0
174 198 0
173 197 0
175 198 0
174 198 0
174 197 0
174 198 0
173 197 0
174 198 0
174 197 0
174 198 0
174 197 0
174 198 0
175 198 0
175 198 0
172 197 0
176 199 0
175 198 0
176 199 0
176 198 0
174 197 0
175 198 0
175 198 0
174 197 0
175 198 0
172 197 0
173 197 0
175 198 0
174 198 0
173 197 0
174 198 0
177 199 0
175 198 0
175 198 0
175 198 0
176 198 0
173 197 0
172 197 0
174 198 0
175 198 0
174 198 0
177 199 0
175 198 0
175 198 0
174 198 0
175 198 0
175 198 0
175 198 0
175 198 0
174 198 0
174 198 0
174 198 0
173 197 0
175 198 0
173 197 0
174 198 0
173 197 0
174 198 0
174 198 0
174 198 0
176 198 0
175 198 0
174 198 0
175 198 0
175 198 0
172 196 0
173 197 0
173 197 0
174 198 0
174 198 0
175 198 0
172 197 0
173 197 0
175 198 0
175 198 0
175 198 0
174 198 0
174 198 0
175 198 0
174 197 0
174 198 0
175 198 0
175 198 0
174 198 0
176 199 0
173 197 0
174 198 0
176 199 0
174 198 0
175 198 0
175 198 0
175 198 0
173 197 0
175 198 0
176 198 0
174 198 0
174 197 0
173 197 0
173 197 0
175 198 0
174 197 0
174 198 0
175 198 0
176 199 0
174 198 0
174 197 0
175 198 0
174 198 0
175 198 0
174 198 0
177 199 0
175 198 0
175 198 0
174 198 0
176 198 0
174 198 0
174 198 0
175 198 0
175 198 0
176 198 0
175 198 0
174 198 0
173 197 0
175 198 0
174 198 0
174 198 0
175 198 0
174 198 0
174 198 0
174 197 0
175 198 0
175 198 0
174 198 0
173 197 0
174 198 0
175 198 0
174 198 0
175 198 0
175 198 0
177 200 51
192 211 142
207 222 191
216 230 220
226 237 248
229 240 255
229 240 255
229 240 255
229 240 255
229 240 255
228 240 255
228 240 255
228 240 255
228 240 255
228 240 255
228 240 255
228 240 255
228 240 255
228 240 255
228 240 255
228 239 255
228 239 255
228 239 255
228 239 255
228 239 255
228 239 255
228 239 255
228 239 255
228 239 255
228 239 255
228 239 255
228 239 255
228 239 255
228 239 255
228 239 255
228 239 255
228 239 255
228 239 255
228 239 255
228 239 255
228 239 255
228 239 255
228 239 255
228 239 255
228 239 255
228 240 255
228 240 255
228 240 255
228 240 255
228 240 255
228 240 255
228 240 255
228 240 255
228 240 255
228 240 255
229 240 255
229 240 255
229 240 255
229 240 255
229 240 255
228 239 253
222 235 238
211 225 203
199 216 163
185 206 105
177 199 0
175 198 0
175 198 0
175 198 0
174 198 0
175 198 0
175 198 0
175 198 0
176 198 0
175 198 0
176 199 0
175 198 0
175 198 0
174 198 0
175 198 0
174 198 0
174 198 0
175 198 0
175 198 0
173 197 0
176 199 0
174 198 0
173 197 0
175 198 0
176 199 0
174 198 0
176 199 0
175 198 0
175 198 0
174 198 0
174 198 0
174 198 0
174 198 0
173 197 0
174 198 0
175 198 0
175 198 0
175 198 0
173 197 0
174 198 0
173 197 0
174 197 0
175 198 0
173 197 0
174 198 0
174 198 0
176 198 0
174 198 0
174 198 0
175 198 0
175 198 0
175 198 0
175 198 0
175 198 0
175 198 0
173 197 0
175 198 0
174 198 0
173 197 0
174 198 0
175 198 0
175 198 0
174 198 0
175 198 0
176 198 0
175 198 0
174 197 0
175 198 0
175 198 0
176 198 0
174 198 0
174 198 0
173 197 0
176 198 0
176 199 0
174 197 0
174 197 0
175 198 0
176 198 0
175 198 0
173 197 0
175 198 0
175 198 0
174 198 0
175 198 0
175 198 0
175 198 0
173 197 0
175 198 0
174 198 0
174 198 0
175 198 0
175 198 0
174 197 0
175 198 0
174 198 0
175 198 0
175 198 0
174 198 0
175 198 0
174 198 0
175 198 0
175 198 0
174 198 0
175 198 0
174 198 0
174 198 0
175 198 0
174 198 0
174 197 0
176 198 0
173 197 0
175 198 0
173 197 0
174 197 0
174 198 0
174 198 0
174 198 0
173 197 0
172 196 0
174 197 0
174 198 0
174 198 0
175 198 0
173 197 0
174 197 0
174 198 0
174 197 0
173 197 0
173 197 0
175 198 0
176 198 0
175 198 0
175 198 0
175 198 0
175 198 0
174 198 0
173 197 0
174 197 0
174 197 0
174 198 0
172 196 0
176 199 0
174 198 0
175 198 0
173 197 0
174 197 0
174 197 0
172 196 0
173 196 0
174 198 0
174 198 0
174 197 0
175 198 0
175 198 0
174 197 0
174 197 0
174 198 0
174 197 0
172 196 0
175 198 0
175 198 0
174 197 0
174 197 0
172 197 0
173 197 0
175 198 0
174 197 0
175 197 0
173 196 0
175 198 0
174 197 0
172 196 0
175 198 0
175 198 0
173 197 0
175 198 0
174 198 0
174 197 0
173 197 0
173 196 0
174 197 0
174 198 0
174 198 0
173 197 0
174 198 0
174 198 0
173 197 0
174 197 0
174 198 0
174 197 0
176 198 0
174 197 0
175 197 0
172 196 0
174 198 0
174 198 0
174 198 0
173 197 0
176 198 0
174 197 0
174 198 0
175 198 0
174 198 0
172 197 0
174 198 0
174 197 0
174 198 0
173 197 0
174 198 0
175 198 0
174 198 0
174 198 0
174 198 0
174 198 0
174 197 0
174 198 0
175 198 0
174 198 0
175 198 0
173 197 0
175 198 0
174 197 0
174 197 0
174 198 0
174 198 0
174 198 0
174 198 0
174 197 0
174 198 0
174 198 0
175 198 0
175 198 0
174 197 0
175 198 0
174 198 0
174 198 0
174 198 0
175 198 0
175 198 0
174 197 0
174 198 0
175 198 0
174 198 0
175 198 0
175 198 0
176 199 0
172 196 0
174 198 0
174 198 0
176 198 0
175 198 0
175 198 0
175 198 0
175 198 0
175 198 0
175 198 0
173 197 0
174 198 0
176 199 0
175 198 0
173 197 0
173 197 0
175 198 0
173 197 0
173 197 0
173 197 0
175 198 0
175 198 0
175 198 0
174 198 0
176 198 0
174 198 0
174 197 0
174 198 0
175 198 0
174 197 0
176 199 0
174 198 0
174 198 0
174 198 0
174 198 0
176 199 0
174 198 0
174 198 0
175 198 0
174 198 0
176 199 0
174 198 0
174 197 0
174 198 0
176 198 0
175 198 0
174 198 0
174 197 0
175 198 0
174 198 0
174 197 0
176 198 0
175 198 0
173 197 0
175 198 0
176 199 0
175 198 0
174 198 0
174 198 0
177 199 0
175 198 0
173 197 0
174 197 0
174 198 0
177 199 0
173 197 0
174 198 0
173 197 0
175 198 0
175 198 0
174 198 0
176 199 0
173 197 0
175 198 0
175 198 0
175 198 0
176 198 0
175 198 0
174 198 0
174 197 0
174 197 0
174 198 0
176 198 0
174 198 0
174 198 0
173 197 0
174 198 0
173 197 0
176 199 0
174 198 0
175 198 0
174 198 0
176 199 0
179 202 76
197 215 159
211 225 201
218 232 227
229 240 255
229 240 255
229 240 255
229 240 255
229 240 255
229 240 255
228 240 255
228 240 255
228 240 255
228 240 255
228 240 255
228 240 255
228 240 255
228 240 255
228 240 255
228 240 255
228 239 255
228 239 255
228 239 255
228 239 255
228 239 255
228 239 255
228 239 255
228 239 255
228 239 255
228 239 255
228 239 255
228 239 255
228 239 255
228 239 255
228 239 255
228 240 255
228 240 255
228 240 255
228 240 255
228 240 255
228 240 255
228 240 255
228 240 255
228 240 255
228 240 255
229 240 255
229 240 255
229 240 255
229 240 255
229 240 255
229 240 255
226 238 248
215 229 217
204 221 184
187 207 117
180 202 76
175 198 0
175 198 0
174 198 0
177 199 0
175 198 0
173 197 0
174 198 0
175 198 0
175 198 0
177 199 0
175 198 0
174 197 0
174 197 0
175 198 0
175 198 0
174 197 0
175 198 0
173 197 0
176 199 0
175 198 0
174 198 0
174 198 0
175 198 0
174 198 0
174 198 0
174 198 0
173 197 0
176 199 0
173 197 0
174 198 0
174 198 0
175 198 0
174 198 0
173 197 0
174 198 0
174 198 0
175 198 0
174 198 0
174 197 0
174 198 0
174 197 0
175 198 0
174 198 0
174 198 0
174 197 0
174 198 0
174 197 0
174 197 0
175 198 0
173 197 0
172 197 0
175 198 0
174 198 0
174 198 0
173 197 0
173 197 0
176 198 0
172 197 0
176 199 0
173 197 0
176 198 0
174 198 0
175 198 0
175 198 0
175 198 0
176 199 0
173 197 0
175 198 0
174 197 0
175 198 0
173 197 0
176 199 0
175 198 0
176 199 0
175 198 0
175 198 0
174 198 0
174 198 0
174 198 0
175 198 0
174 198 0
173 197 0
176 199 0
173 197 0
174 198 0
174 198 0
174 197 0
173 197 0
175 198 0
176 199 0
175 198 0
174 198 0
174 198 0
174 197 0
174 198 0
176 199 0
175 198 0
175 198 0
174 197 0
174 197 0
173 197 0
175 198 0
175 198 0
175 198 0
175 198 0
174 198 0
175 198 0
176 198 0
174 198 0
174 197 0
175 198 0
176 199 0
173 197 0
176 199 0
175 198 0
174 198 0
175 198 0
175 198 0
175 198 0
176 199 0
174 197 0
173 197 0
175 198 0
175 198 0
174 197 0
174 197 0
176 198 0
173 197 0
174 198 0
175 198 0
175 198 0
174 197 0
174 197 0
174 197 0
174 198 0
174 198 0
174 197 0
174 198 0
173 197 0
175 198 0
174 197 0
173 197 0
174 197 0
172 196 0
175 198 0
174 197 0
175 198 0
175 198 0
174 198 0
175 198 0
174 197 0
173 197 0
174 197 0
175 198 0
175 198 0
173 197 0
173 197 0
175 198 0
173 197 0
173 197 0
174 198 0
172 197 0
174 197 0
174 198 0
173 197 0
173 197 0
172 196 0
176 199 0
172 196 0
173 196 0
174 196 0
174 197 0
176 199 0
173 197 0
173 197 0
175 198 0
175 198 0
174 197 0
175 198 0
174 197 0
174 197 0
174 198 0
174 197 0
173 197 0
173 197 0
175 198 0
174 198 0
174 197 0
174 197 0
174 197 0
172 197 0
172 196 0
173 195 0
173 193 19
174 195 16
174 196 0
175 198 0
176 199 0
173 197 0
172 196 0
173 197 0
174 197 0
174 198 0
175 198 0
172 196 0
174 198 0
174 197 0
174 198 0
174 198 0
175 198 0
176 199 0
173 197 0
175 198 0
174 197 0
174 198 0
174 198 0
174 198 0
173 197 0
174 197 0
175 198 0
172 196 0
175 198 0
173 197 0
175 198 0
175 198 0
175 198 0
175 198 0
175 198 0
174 198 0
176 199 0
172 197 0
173 197 0
174 197 0
175 198 0
174 198 0
174 197 0
173 197 0
174 198 0
173 197 0
175 198 0
176 199 0
174 198 0
175 198 0
174 198 0
175 198 0
174 198 0
175 198 0
174 197 0
175 198 0
173 197 0
172 196 0
174 197 0
175 198 0
175 198 0
176 199 0
176 199 0
173 197 0
174 197 0
174 197 0
173 197 0
176 199 0
175 198 0
174 198 0
175 198 0
175 198 0
174 198 0
174 197 0
175 198 0
174 198 0
177 199 0
174 198 0
174 197 0
174 197 0
175 198 0
174 198 0
173 197 0
175 198 0
176 198 0
174 197 0
175 198 0
174 198 0
175 198 0
175 198 0
176 199 0
175 198 0
176 199 0
175 198 0
174 197 0
175 198 0
176 198 0
174 198 0
173 197 0
174 198 0
174 198 0
175 198 0
174 198 0
174 198 0
174 198 0
174 198 0
174 198 0
174 198 0
173 197 0
175 198 0
174 197 0
174 197 0
174 198 0
172 196 0
174 198 0
175 198 0
177 199 0
173 197 0
174 198 0
174 198 0
175 198 0
174 198 0
175 198 0
177 199 0
173 197 0
175 198 0
175 198 0
175 198 0
175 198 0
174 198 0
173 197 0
174 197 0
174 198 0
177 199 0
174 198 0
174 197 0
174 198 0
174 198 0
176 198 0
173 197 0
175 198 0
174 198 0
176 199 0
174 198 0
175 198 0
173 197 0
174 198 0
174 197 0
174 198 0
175 198 0
175 198 0
175 198 0
174 197 0
174 198 0
175 198 0
178 200 57
193 211 140
204 221 186
215 229 218
225 237 246
229 240 255
229 240 255
229 240 255
229 240 255
229 240 255
229 240 255
228 240 255
228 240 255
228 240 255
228 240 255
228 240 255
228 240 255
228 240 255
228 240 255
228 240 255
228 240 255
228 239 255
228 239 255
228 239 255
228 239 255
228 239 255
228 240 255
228 240 255
228 240 255
228 240 255
228 240 255
228 240 255
228 240 255
228 240 255
228 240 255
228 240 255
229 240 255
229 240 255
229 240 255
229 240 255
229 240 255
229 240 255
228 239 254
219 232 227
210 225 199
195 213 151
187 207 111
176 199 0
176 199 0
175 198 0
175 198 0
175 198 0
174 197 0
175 198 0
176 199 0
173 197 0
174 198 0
174 198 0
176 199 0
174 198 0
173 197 0
174 198 0
174 197 0
174 197 0
174 197 0
174 198 0
175 198 0
174 197 0
177 199 0
174 198 0
175 198 0
174 198 0
175 198 0
175 198 0
175 198 0
174 197 0
175 198 0
174 198 0
175 198 0
176 199 0
174 198 0
174 198 0
175 198 0
174 198 0
175 198 0
174 198 0
175 198 0
176 198 0
175 198 0
174 198 0
175 198 0
175 198 0
174 198 0
175 198 0
174 198 0
174 198 0
173 197 0
174 198 0
174 198 0
175 198 0
175 198 0
173 197 0
175 198 0
175 198 0
176 199 0
174 198 0
175 198 0
175 198 0
174 197 0
173 197 0
173 197 0
175 198 0
174 198 0
175 198 0
175 198 0
175 198 0
174 198 0
175 198 0
174 197 0
175 198 0
174 198 0
175 198 0
174 198 0
176 198 0
175 198 0
176 198 0
175 198 0
174 198 0
175 198 0
175 198 0
175 198 0
174 198 0
174 197 0
175 198 0
174 198 0
174 198 0
174 197 0
174 198 0
176 198 0
173 197 0
175 198 0
173 197 0
174 198 0
174 197 0
174 197 0
174 197 0
173 197 0
175 198 0
174 198 0
173 197 0
174 198 0
176 198 0
174 198 0
174 197 0
173 197 0
172 196 0
173 197 0
173 197 0
174 198 0
175 198 0
175 198 0
174 198 0
173 197 0
175 198 0
175 198 0
175 198 0
176 199 0
175 198 0
174 198 0
174 198 0
174 198 0
173 197 0
174 198 0
174 198 0
174 198 0
174 198 0
175 198 0
174 197 0
174 197 0
175 198 0
175 198 0
174 198 0
175 198 0
173 197 0
174 197 0
174 198 0
174 197 0
174 198 0
175 198 0
174 198 0
176 199 0
173 197 0
175 198 0
173 197 0
174 198 0
176 198 0
173 196 0
175 197 0
172 196 0
173 196 0
175 198 0
173 197 0
173 197 0
174 197 0
174 198 0
174 197 0
172 196 0
175 198 0
171 196 0
173 197 0
174 197 0
171 195 0
175 198 0
173 197 0
175 198 0
172 196 0
175 198 0
175 198 0
173 197 0
174 197 0
172 195 0
175 198 0
174 197 0
174 198 0
175 198 0
174 198 0
173 197 0
174 197 0
173 197 0
174 198 0
174 197 0
174 197 0
174 198 0
174 197 0
173 197 0
172 197 0
173 197 0
175 198 0
175 198 0
175 198 0
174 196 0
179 189 56
184 183 82
187 179 99
192 179 110
192 180 114
191 179 114
192 179 113
190 179 107
186 183 89
181 186 70
174 193 28
175 198 0
175 198 0
175 198 0
173 197 0
174 198 0
175 198 0
174 197 0
175 198 0
174 198 0
174 198 0
173 197 0
174 197 0
174 197 0
174 198 0
175 198 0
173 197 0
174 197 0
174 198 0
174 198 0
173 197 0
174 198 0
174 198 0
175 198 0
174 198 0
174 198 0
173 197 0
174 198 0
173 197 0
174 198 0
176 198 0
175 198 0
175 198 0
175 198 0
173 197 0
176 198 0
176 199 0
173 197 0
173 197 0
175 198 0
174 198 0
175 198 0
174 198 0
175 198 0
174 197 0
174 197 0
174 197 0
173 197 0
174 198 0
174 198 0
175 198 0
174 198 0
173 197 0
174 198 0
174 198 0
177 199 0
173 197 0
174 198 0
174 198 0
175 198 0
173 197 0
173 197 0
175 198 0
174 198 0
175 198 0
176 199 0
174 198 0
176 199 0
175 198 0
176 199 0
176 199 0
173 197 0
175 198 0
173 197 0
175 198 0
175 198 0
176 199 0
173 197 0
175 198 0
175 198 0
174 197 0
173 197 0
176 198 0
174 198 0
175 198 0
173 197 0
175 198 0
173 197 0
176 199 0
173 197 0
174 197 0
175 198 0
175 198 0
175 198 0
173 197 0
174 198 0
174 198 0
175 198 0
174 197 0
177 199 0
175 198 0
174 197 0
175 198 0
175 198 0
174 198 0
176 198 0
175 198 0
175 198 0
173 197 0
176 199 0
173 197 0
174 198 0
173 197 0
173 197 0
176 198 0
175 198 0
174 198 0
175 198 0
176 199 0
173 197 0
174 198 0
176 199 0
174 198 0
174 198 0
174 198 0
174 198 0
174 197 0
174 198 0
174 197 0
174 197 0
175 198 0
175 198 0
173 197 0
176 199 0
174 197 0
176 199 0
174 198 0
176 198 0
174 198 0
175 198 0
175 198 0
174 197 0
173 197 0
176 198 0
176 199 0
176 198 0
176 198 0
174 198 0
174 197 0
175 198 0
174 198 0
174 198 0
174 198 0
175 198 0
182 204 92
192 211 142
205 221 184
220 232 230
229 240 255
229 240 255
229 240 255
229 240 255
229 240 255
229 240 255
229 240 255
228 240 255
228 240 255
228 240 255
228 240 255
228 240 255
228 240 255
228 240 255
228 240 255
228 240 255
228 240 255
228 240 255
228 240 255
228 240 255
228 240 255
228 240 255
228 240 255
229 240 255
229 240 255
229 240 255
229 240 255
229 240 255
229 240 255
227 238 250
216 230 221
205 221 188
192 211 140
181 203 80
175 198 0
174 197 0
174 198 0
175 198 0
174 198 0
175 198 0
176 199 0
174 198 0
173 197 0
175 198 0
177 199 0
174 197 0
173 197 0
173 197 0
175 198 0
175 198 0
173 197 0
175 198 0
175 198 0
174 197 0
175 198 0
175 198 0
175 198 0
173 197 0
174 198 0
175 198 0
174 197 0
173 197 0
174 198 0
174 198 0
174 198 0
172 197 0
174 198 0
173 197 0
175 198 0
174 198 0
174 198 0
176 198 0
175 198 0
174 197 0
175 198 0
175 198 0
175 198 0
174 198 0
175 198 0
174 198 0
174 198 0
172 197 0
173 197 0
176 199 0
175 198 0
174 198 0
174 198 0
174 198 0
173 197 0
176 198 0
174 198 0
175 198 0
175 198 0
175 198 0
174 198 0
175 198 0
174 198 0
176 198 0
175 198 0
173 197 0
176 199 0
175 198 0
174 198 0
174 198 0
174 198 0
175 198 0
175 198 0
175 198 0
172 197 0
175 198 0
174 198 0
174 198 0
176 199 0
175 198 0
173 197 0
175 198 0
175 198 0
174 198 0
173 197 0
174 198 0
174 198 0
174 198 0
174 198 0
176 198 0
176 199 0
174 198 0
175 198 0
174 198 0
175 198 0
175 198 0
175 198 0
174 198 0
176 199 0
175 198 0
174 198 0
173 197 0
175 198 0
174 198 0
174 197 0
174 198 0
172 197 0
174 198 0
174 197 0
174 198 0
176 199 0
175 198 0
175 198 0
174 197 0
174 197 0
174 197 0
175 198 0
176 198 0
174 197 0
174 198 0
174 197 0
175 198 0
175 198 0
173 197 0
176 199 0
173 197 0
174 198 0
172 196 0
174 198 0
173 196 0
174 197 0
174 197 0
174 197 0
175 198 0
175 198 0
173 197 0
174 198 0
174 197 0
175 198 0
174 197 0
174 197 0
172 196 0
174 198 0
175 198 0
174 198 0
174 196 0
174 197 0
173 197 0
175 198 0
172 196 0
174 198 0
173 197 0
174 197 0
175 197 0
174 197 0
175 198 0
173 196 0
175 198 0
173 197 0
174 197 0
174 197 0
175 198 0
175 198 0
173 197 0
175 198 0
173 196 0
176 199 0
173 196 0
175 198 0
176 198 0
174 197 0
174 197 0
175 198 0
174 198 0
172 195 0
174 197 0
173 196 0
173 197 0
171 195 0
174 197 0
174 197 0
174 197 0
173 197 0
175 198 0
174 197 0
175 198 0
174 196 0
176 199 0
173 196 0
175 197 0
172 196 0
173 196 0
174 198 0
173 197 0
172 195 0
174 197 0
179 187 62
192 181 104
191 179 114
186 177 114
183 175 114
181 174 114
180 174 114
180 174 114
180 174 114
182 175 114
184 176 114
188 177 114
192 179 112
184 185 80
176 194 28
174 198 0
174 198 0
173 197 0
173 197 0
174 197 0
174 198 0
173 197 0
174 197 0
174 198 0
174 197 0
174 197 0
174 198 0
175 198 0
174 197 0
174 197 0
173 197 0
175 198 0
175 198 0
173 197 0
175 198 0
174 198 0
173 197 0
173 197 0
175 198 0
174 198 0
175 198 0
174 198 0
176 199 0
173 197 0
174 197 0
175 198 0
174 197 0
176 199 0
175 198 0
174 197 0
174 198 0
174 197 0
175 198 0
173 197 0
173 197 0
174 198 0
174 197 0
176 199 0
174 198 0
176 199 0
175 198 0
175 198 0
174 198 0
176 199 0
175 198 0
174 198 0
175 198 0
174 198 0
175 198 0
173 197 0
175 198 0
174 198 0
174 198 0
174 197 0
174 197 0
175 198 0
175 198 0
175 198 0
175 198 0
174 198 0
173 197 0
175 198 0
174 198 0
175 198 0
172 197 0
174 198 0
175 198 0
174 198 0
175 198 0
175 198 0
174 198 0
175 198 0
175 198 0
175 198 0
176 199 0
175 198 0
173 197 0
175 198 0
174 198 0
174 198 0
174 197 0
174 197 0
174 198 0
174 197 0
175 198 0
175 198 0
174 198 0
173 197 0
173 197 0
174 198 0
174 198 0
175 198 0
174 197 0
174 197 0
174 197 0
173 197 0
173 197 0
173 197 0
175 198 0
174 197 0
176 199 0
174 197 0
174 198 0
177 199 0
173 197 0
174 198 0
173 197 0
174 197 0
175 198 0
176 199 0
175 198 0
176 198 0
174 198 0
175 198 0
174 198 0
176 199 0
175 198 0
174 198 0
173 197 0
175 198 0
174 198 0
174 198 0
175 198 0
175 198 0
175 198 0
175 198 0
174 198 0
174 197 0
175 198 0
174 198 0
174 198 0
175 198 0
175 198 0
174 198 0
174 198 0
175 198 0
175 198 0
176 199 0
174 197 0
174 198 0
175 198 0
175 198 0
176 199 0
176 199 0
174 197 0
174 198 0
175 198 0
174 198 0
174 198 0
176 198 0
178 200 51
194 212 140
201 218 173
215 229 215
226 238 249
229 240 255
229 240 255
229 240 255
229 240 255
229 240 255
229 240 255
229 240 255
228 240 255
228 240 255
228 240 255
228 240 255
228 240 255
228 240 255
229 240 255
229 240 255
229 240 255
229 240 255
229 240 255
229 240 255
229 240 255
223 236 241
212 227 209
202 219 177
187 207 117
175 198 36
174 198 0
174 198 0
175 198 0
174 198 0
176 199 0
174 197 0
175 198 0
174 197 0
175 198 0
175 198 0
175 198 0
175 198 0
173 197 0
174 198 0
174 198 0
177 199 0
174 197 0
175 198 0
175 198 0
174 198 0
173 197 0
175 198 0
175 198 0
172 197 0
175 198 0
174 198 0
174 197 0
173 197 0
174 197 0
174 197 0
175 198 0
174 198 0
174 198 0
175 198 0
176 199 0
175 198 0
174 198 0
175 198 0
174 197 0
175 198 0
175 198 0
174 198 0
174 198 0
177 199 0
174 197 0
177 199 0
176 198 0
175 198 0
175 198 0
176 198 0
174 198 0
174 198 0
174 198 0
173 197 0
175 198 0
175 198 0
174 198 0
175 198 0
175 198 0
174 198 0
175 198 0
174 197 0
174 197 0
174 197 0
176 199 0
174 198 0
175 198 0
174 197 0
174 198 0
174 198 0
174 198 0
173 197 0
175 198 0
174 198 0
176 198 0
173 197 0
175 198 0
174 198 0
174 197 0
175 198 0
175 198 0
174 198 0
175 198 0
173 197 0
173 197 0
175 198 0
174 198 0
175 198 0
175 198 0
174 198 0
175 198 0
173 197 0
174 197 0
174 197 0
174 198 0
174 198 0
174 197 0
173 197 0
173 197 0
176 199 0
172 197 0
175 198 0
174 198 0
174 198 0
176 198 0
174 197 0
174 197 0
175 198 0
174 198 0
175 198 0
173 197 0
172 196 0
175 198 0
174 198 0
176 199 0
176 199 0
173 197 0
174 198 0
174 197 0
175 198 0
174 198 0
174 198 0
176 199 0
174 197 0
174 198 0
174 198 0
174 197 0
174 198 0
175 198 0
173 197 0
175 198 0
175 198 0
173 197 0
176 198 0
176 198 0
174 198 0
175 198 0
175 198 0
174 197 0
174 198 0
174 198 0
174 198 0
174 198 0
174 198 0
173 197 0
174 197 0
174 198 0
174 197 0
174 198 0
175 198 0
175 198 0
176 198 0
172 196 0
172 196 0
176 198 0
174 198 0
174 197 0
174 197 0
174 197 0
175 198 0
174 197 0
173 196 0
173 197 0
175 198 0
172 196 0
175 198 0
173 197 0
172 195 0
174 197 0
174 198 0
173 196 0
173 196 0
173 196 0
171 195 0
175 198 0
173 197 0
175 197 0
172 196 0
175 197 0
174 197 0
173 197 0
174 197 0
173 196 0
174 197 0
174 197 0
172 195 0
174 197 0
173 197 0
175 198 0
175 198 0
174 197 0
174 198 0
174 197 0
172 196 0
176 198 0
175 198 0
173 197 0
174 197 0
175 192 34
188 178 96
191 179 114
186 177 114
181 174 114
178 173 114
175 172 114
174 171 114
173 170 114
172 170 114
173 171 114
174 171 114
176 172 114
179 173 114
183 175 114
189 178 114
192 179 109
179 187 61
173 197 0
174 197 0
173 197 0
175 198 0
174 197 0
175 198 0
174 198 0
174 197 0
173 196 0
174 197 0
175 198 0
174 198 0
174 198 0
175 198 0
174 197 0
173 197 0
174 197 0
174 197 0
175 198 0
173 197 0
175 198 0
173 197 0
176 199 0
174 198 0
174 197 0
173 197 0
174 197 0
174 197 0
175 198 0
174 198 0
175 198 0
174 198 0
174 197 0
174 197 0
176 199 0
174 197 0
175 198 0
174 198 0
173 197 0
173 197 0
174 198 0
175 198 0
175 198 0
173 197 0
175 198 0
176 198 0
175 198 0
175 198 0
175 198 0
175 198 0
175 198 0
175 198 0
172 197 0
174 198 0
174 198 0
174 198 0
173 197 0
174 197 0
173 197 0
176 198 0
175 198 0
174 198 0
175 198 0
173 197 0
174 198 0
174 198 0
175 198 0
176 199 0
174 198 0
175 198 0
175 198 0
174 197 0
174 198 0
175 198 0
173 197 0
174 197 0
175 198 0
174 198 0
175 198 0
174 198 0
172 197 0
175 198 0
174 198 0
175 198 0
174 198 0
175 198 0
173 197 0
175 198 0
176 198 0
175 198 0
175 198 0
175 198 0
174 198 0
175 198 0
174 198 0
174 198 0
176 199 0
175 198 0
175 198 0
174 197 0
174 198 0
174 198 0
173 197 0
176 199 0
175 198 0
175 198 0
173 197 0
177 199 0
175 198 0
175 198 0
174 198 0
175 198 0
174 198 0
173 197 0
173 197 0
173 197 0
174 197 0
176 199 0
174 198 0
174 198 0
174 198 0
175 198 0
175 198 0
174 198 0
173 197 0
175 198 0
174 198 0
175 198 0
174 197 0
174 198 0
174 198 0
174 198 0
175 198 0
175 198 0
175 198 0
173 197 0
175 198 0
175 198 0
175 198 0
173 197 0
175 198 0
173 197 0
176 199 0
176 198 0
174 198 0
173 197 0
175 198 0
176 198 0
176 199 0
173 197 0
173 197 0
174 198 0
173 197 0
174 198 0
176 199 0
175 198 0
175 198 0
174 198 0
177 200 44
191 210 130
200 217 165
209 224 199
225 237 246
229 240 255
229 240 255
229 240 255
229 240 255
229 240 255
229 240 255
229 240 255
229 240 255
229 240 255
229 240 255
229 240 255
228 239 253
221 233 233
209 224 198
198 215 161
181 203 88
175 198 0
176 199 0
175 198 0
174 198 0
176 198 0
174 198 0
176 199 0
175 198 0
175 198 0
176 199 0
175 198 0
174 198 0
177 199 0
175 198 0
175 198 0
175 198 0
175 198 0
175 198 0
174 197 0
174 197 0
174 198 0
174 198 0
173 197 0
173 197 0
174 198 0
174 197 0
175 198 0
174 198 0
175 198 0
176 198 0
175 198 0
175 198 0
175 198 0
174 198 0
174 198 0
175 198 0
175 198 0
174 197 0
175 198 0
174 198 0
172 197 0
174 198 0
173 197 0
174 198 0
174 197 0
175 198 0
175 198 0
174 198 0
175 198 0
175 198 0
175 198 0
173 197 0
175 198 0
174 198 0
175 198 0
173 197 0
174 198 0
175 198 0
176 198 0
175 198 0
174 198 0
176 199 0
175 198 0
174 198 0
176 199 0
175 198 0
174 197 0
174 198 0
176 198 0
175 198 0
175 198 0
175 198 0
175 198 0
175 198 0
176 198 0
175 198 0
175 198 0
175 198 0
174 198 0
176 198 0
174 198 0
175 198 0
175 198 0
174 197 0
175 198 0
175 198 0
174 198 0
175 198 0
175 198 0
174 198 0
175 198 0
175 198 0
174 197 0
175 198 0
174 198 0
177 199 0
175 198 0
173 197 0
174 197 0
176 199 0
175 198 0
173 197 0
174 198 0
174 198 0
173 197 0
174 197 0
175 198 0
174 197 0
175 198 0
175 198 0
174 198 0
175 198 0
174 198 0
175 198 0
176 199 0
173 197 0
174 198 0
175 198 0
173 197 0
175 198 0
175 198 0
173 197 0
174 198 0
172 197 0
175 198 0
173 197 0
175 198 0
176 199 0
174 197 0
174 197 0
174 198 0
173 197 0
176 198 0
173 197 0
173 197 0
176 199 0
173 197 0
173 196 0
175 198 0
175 198 0
174 198 0
174 198 0
173 196 0
176 199 0
174 198 0
174 197 0
175 198 0
174 198 0
173 197 0
175 198 0
173 197 0
172 197 0
174 197 0
175 198 0
174 197 0
175 198 0
174 197 0
173 197 0
173 197 0
175 198 0
175 198 0
173 197 0
175 198 0
174 197 0
171 195 0
174 198 0
174 198 0
174 197 0
174 197 0
174 198 0
172 196 0
173 197 0
173 197 0
175 198 0
175 198 0
174 197 0
174 198 0
173 196 0
175 198 0
175 198 0
172 196 0
173 197 0
174 197 0
174 197 0
173 197 0
175 198 0
173 196 0
172 196 0
173 195 0
175 198 0
175 197 0
174 197 0
174 197 0
175 197 0
173 197 0
172 195 0
172 196 0
172 196 0
172 196 0
174 197 0
171 196 0
174 197 0
173 185 41
193 179 109
189 178 114
184 176 114
179 173 114
175 172 114
172 170 114
170 169 114
168 169 114
167 168 114
167 168 114
167 168 114
168 169 114
171 169 114
173 171 114
176 172 114
181 174 114
185 176 114
193 180 114
183 182 78
174 196 0
174 198 0
174 197 0
173 196 0
174 198 0
176 199 0
174 198 0
173 196 0
173 197 0
174 197 0
174 197 0
175 198 0
175 198 0
172 196 0
174 197 0
173 197 0
175 198 0
176 199 0
173 197 0
174 197 0
175 198 0
174 198 0
176 199 0
175 198 0
174 197 0
174 198 0
175 198 0
174 197 0
174 198 0
173 197 0
176 199 0
174 197 0
175 198 0
175 198 0
173 197 0
174 198 0
174 198 0
175 198 0
175 198 0
174 198 0
176 198 0
174 198 0
173 197 0
174 198 0
175 198 0
173 197 0
174 198 0
174 198 0
176 199 0
176 198 0
175 198 0
176 198 0
173 197 0
174 198 0
175 198 0
174 198 0
173 197 0
175 198 0
175 198 0
175 198 0
176 199 0
176 199 0
175 198 0
173 197 0
175 198 0
174 197 0
175 198 0
174 198 0
175 198 0
176 199 0
173 197 0
177 199 0
174 198 0
175 198 0
174 198 0
175 198 0
174 198 0
173 197 0
174 197 0
175 198 0
175 198 0
173 197 0
175 198 0
174 198 0
175 198 0
174 198 0
175 198 0
174 198 0
175 198 0
173 197 0
175 198 0
175 198 0
174 197 0
172 197 0
173 197 0
175 198 0
174 197 0
174 198 0
175 198 0
174 198 0
176 199 0
175 198 0
176 199 0
175 198 0
175 198 0
176 198 0
175 198 0
173 197 0
175 198 0
175 198 0
175 198 0
177 199 0
175 198 0
175 198 0
175 198 0
173 197 0
175 198 0
175 198 0
175 198 0
175 198 0
173 197 0
175 198 0
174 198 0
174 197 0
175 198 0
175 198 0
175 198 0
176 199 0
174 197 0
175 198 0
175 198 0
176 199 0
174 198 0
175 198 0
176 198 0
174 198 0
175 198 0
175 198 0
175 198 0
175 198 0
175 198 0
174 198 0
173 197 0
175 198 0
174 197 0
174 197 0
174 198 0
175 198 0
175 198 0
177 199 0
174 197 0
175 198 0
175 198 0
175 198 0
175 198 0
174 198 0
174 197 0
174 198 0
175 198 0
174 198 0
176 199 0
175 198 0
187 207 108
191 210 133
205 221 186
220 233 230
229 240 255
229 240 255
229 240 255
229 240 255
218 231 226
205 221 186
196 214 153
178 200 51
176 198 0
175 198 0
174 198 0
174 198 0
175 198 0
175 198 0
173 197 0
174 197 0
175 198 0
175 198 0
174 198 0
174 197 0
174 198 0
175 198 0
174 198 0
175 198 0
175 198 0
175 198 0
174 197 0
175 198 0
176 198 0
174 198 0
174 198 0
175 198 0
174 198 0
173 197 0
174 198 0
173 197 0
175 198 0
174 197 0
175 198 0
174 198 0
174 198 0
175 198 0
175 198 0
174 198 0
174 197 0
175 198 0
175 198 0
175 198 0
175 198 0
174 198 0
173 197 0
175 198 0
175 198 0
172 197 0
176 199 0
175 198 0
175 198 0
176 199 0
175 198 0
175 198 0
174 198 0
177 199 0
175 198 0
175 198 0
174 198 0
175 198 0
174 197 0
175 198 0
173 197 0
173 197 0
174 198 0
175 198 0
174 198 0
174 197 0
173 197 0
175 198 0
175 198 0
174 198 0
175 198 0
174 198 0
174 198 0
175 198 0
175 198 0
174 198 0
172 196 0
175 198 0
173 197 0
174 198 0
173 197 0
174 198 0
176 198 0
175 198 0
173 197 0
175 198 0
176 198 0
175 198 0
176 198 0
173 197 0
174 198 0
175 198 0
174 198 0
173 197 0
175 198 0
174 198 0
173 197 0
175 198 0
174 198 0
174 198 0
174 198 0
175 198 0
173 197 0
176 198 0
177 199 0
174 197 0
174 197 0
175 198 0
174 197 0
174 197 0
174 198 0
175 198 0
175 198 0
175 198 0
173 197 0
173 197 0
176 199 0
174 198 0
175 198 0
174 198 0
174 198 0
175 198 0
175 198 0
175 198 0
174 197 0
175 198 0
175 198 0
175 198 0
177 199 0
174 198 0
175 198 0
174 198 0
176 198 0
175 198 0
174 198 0
174 197 0
173 197 0
174 197 0
173 197 0
175 198 0
173 197 0
173 197 0
174 197 0
174 198 0
176 198 0
174 198 0
174 198 0
174 197 0
173 197 0
174 198 0
174 197 0
174 197 0
174 198 0
175 197 0
175 198 0
173 197 0
174 198 0
172 196 0
174 197 0
174 197 0
174 197 0
174 197 0
174 197 0
175 198 0
174 198 0
175 198 0
173 196 0
176 199 0
173 197 0
174 197 0
174 198 0
175 198 0
173 196 0
171 195 0
173 197 0
174 197 0
174 198 0
176 199 0
173 197 0
174 197 0
174 197 0
174 197 0
172 195 0
172 196 0
173 196 0
172 196 0
173 196 0
172 196 0
175 197 0
173 197 0
175 198 0
173 197 0
172 196 0
175 198 0
172 196 0
173 197 0
173 196 0
172 195 0
173 196 0
172 196 0
173 196 0
174 197 0
174 197 0
174 197 0
174 197 0
173 183 42
192 178 106
190 179 114
184 176 114
179 173 114
175 171 114
172 170 114
169 169 114
167 168 114
165 167 114
164 167 114
164 167 114
164 167 114
165 167 114
167 168 114
169 169 114
172 170 114
176 172 114
181 174 114
186 176 114
194 180 114
182 181 76
176 198 0
175 198 0
173 197 0
174 197 0
173 196 0
174 198 0
175 198 0
175 198 0
173 196 0
176 198 0
174 197 0
175 198 0
175 198 0
174 197 0
174 197 0
174 197 0
173 197 0
175 198 0
176 199 0
175 198 0
173 197 0
173 197 0
173 197 0
173 196 0
173 196 0
173 197 0
173 197 0
175 198 0
174 198 0
173 197 0
173 197 0
174 198 0
176 199 0
174 198 0
174 197 0
173 197 0
174 198 0
175 198 0
175 198 0
176 198 0
174 198 0
174 197 0
175 198 0
174 198 0
176 199 0
176 199 0
174 197 0
174 198 0
174 198 0
175 198 0
174 198 0
174 197 0
174 198 0
174 197 0
174 198 0
173 197 0
173 197 0
174 198 0
173 197 0
174 198 0
174 198 0
174 197 0
176 199 0
174 198 0
175 198 0
174 197 0
176 198 0
174 198 0
174 197 0
175 198 0
173 197 0
173 197 0
175 198 0
175 198 0
175 198 0
177 199 0
176 199 0
175 198 0
173 197 0
176 199 0
172 197 0
174 198 0
175 198 0
175 198 0
175 198 0
175 198 0
174 198 0
174 198 0
176 199 0
174 198 0
175 198 0
175 198 0
176 198 0
176 199 0
174 198 0
175 198 0
174 198 0
175 198 0
175 198 0
175 198 0
173 197 0
176 199 0
175 198 0
174 197 0
175 198 0
173 197 0
174 197 0
174 197 0
176 198 0
174 198 0
175 198 0
176 199 0
174 197 0
173 197 0
175 198 0
173 197 0
175 198 0
174 198 0
175 198 0
174 198 0
174 198 0
175 198 0
175 198 0
176 198 0
175 198 0
174 198 0
174 198 0
175 198 0
174 198 0
174 198 0
174 198 0
175 198 0
175 198 0
173 197 0
176 199 0
174 197 0
174 198 0
175 198 0
176 199 0
173 197 0
176 199 0
176 199 0
174 197 0
175 198 0
175 198 0
176 199 0
174 198 0
177 199 0
174 198 0
174 197 0
174 198 0
175 198 0
175 198 0
175 198 0
174 198 0
176 199 0
173 197 0
174 198 0
177 199 0
174 198 0
175 198 0
175 198 0
176 198 0
175 198 0
174 198 0
179 201 62
188 208 120
209 224 198
216 230 220
174 198 0
174 198 0
176 198 0
173 197 0
174 197 0
174 198 0
175 198 0
176 199 0
173 197 0
175 198 0
175 198 0
175 198 0
174 198 0
174 198 0
174 198 0
175 198 0
174 198 0
175 198 0
174 198 0
176 199 0
174 197 0
174 198 0
173 197 0
175 198 0
174 198 0
175 198 0
175 198 0
175 198 0
174 198 0
175 198 0
174 198 0
174 198 0
177 199 0
175 198 0
174 198 0
175 198 0
176 198 0
174 197 0
176 198 0
176 199 0
175 198 0
177 199 0
176 199 0
175 198 0
175 198 0
176 198 0
174 198 0
174 198 0
175 198 0
176 198 0
174 197 0
174 198 0
175 198 0
174 198 0
173 197 0
175 198 0
173 197 0
175 198 0
174 198 0
174 198 0
174 198 0
175 198 0
175 198 0
174 198 0
175 198 0
174 197 0
177 199 0
174 198 0
173 197 0
175 198 0
175 198 0
175 198 0
172 197 0
176 199 0
176 199 0
175 198 0
174 197 0
174 198 0
174 198 0
174 197 0
175 198 0
174 198 0
175 198 0
175 198 0
175 198 0
174 198 0
174 198 0
174 198 0
175 198 0
175 198 0
175 198 0
174 197 0
175 198 0
174 197 0
176 199 0
174 198 0
174 197 0
173 197 0
175 198 0
175 198 0
176 199 0
174 197 0
175 198 0
174 198 0
175 198 0
175 198 0
174 198 0
173 197 0
174 198 0
175 198 0
175 198 0
174 198 0
175 198 0
175 198 0
174 198 0
176 198 0
175 198 0
175 198 0
175 198 0
173 197 0
175 198 0
175 198 0
174 198 0
175 198 0
173 197 0
175 198 0
172 197 0
174 198 0
173 196 0
175 198 0
174 198 0
174 198 0
175 198 0
174 198 0
173 197 0
176 198 0
175 198 0
173 197 0
175 198 0
171 195 0
173 197 0
175 198 0
175 198 0
174 198 0
173 196 0
176 198 0
175 198 0
173 197 0
173 197 0
174 197 0
174 197 0
176 198 0
173 197 0
173 197 0
176 199 0
174 197 0
175 198 0
175 198 0
172 196 0
175 198 0
173 197 0
173 197 0
173 197 0
174 197 0
175 198 0
173 196 0
174 197 0
174 197 0
174 197 0
174 198 0
173 197 0
173 197 0
174 198 0
172 196 0
174 198 0
174 197 0
174 197 0
173 196 0
173 196 0
173 197 0
173 197 0
173 196 0
174 197 0
174 197 0
174 198 0
173 196 0
175 198 0
174 197 0
174 197 0
174 197 0
174 198 0
172 196 0
175 198 0
173 197 0
175 197 0
174 197 0
173 196 0
171 195 0
175 198 0
173 196 0
173 197 0
173 196 0
173 195 0
174 197 0
172 195 0
172 196 0
173 196 0
173 197 0
170 188 0
189 177 99
192 179 114
186 177 114
180 174 114
176 172 114
172 170 114
169 169 114
167 168 114
165 167 114
163 166 114
162 166 114
162 166 114
162 166 114
163 166 114
165 167 114
167 168 114
170 169 114
173 171 114
177 172 114
181 175 114
188 178 114
193 180 112
175 182 51
173 197 0
172 196 0
174 197 0
173 197 0
174 197 0
173 197 0
174 198 0
174 197 0
175 198 0
174 198 0
173 197 0
175 198 0
174 197 0
174 197 0
176 198 0
174 197 0
172 196 0
173 197 0
175 198 0
175 197 0
175 198 0
174 198 0
174 198 0
173 197 0
173 197 0
173 197 0
175 198 0
174 198 0
174 198 0
175 198 0
173 197 0
173 197 0
173 197 0
173 197 0
175 198 0
174 198 0
175 198 0
176 199 0
174 198 0
175 198 0
174 198 0
174 197 0
174 198 0
174 198 0
174 198 0
174 198 0
174 197 0
175 198 0
172 196 0
174 198 0
176 198 0
174 197 0
174 197 0
174 198 0
175 198 0
175 198 0
172 197 0
174 198 0
175 198 0
174 198 0
175 198 0
174 198 0
174 198 0
174 198 0
174 198 0
174 198 0
174 198 0
174 197 0
173 197 0
175 198 0
174 197 0
174 198 0
175 198 0
174 197 0
175 198 0
174 197 0
175 198 0
176 199 0
175 198 0
174 198 0
174 198 0
175 198 0
175 198 0
174 198 0
176 199 0
175 198 0
176 199 0
175 198 0
175 198 0
175 198 0
173 197 0
173 197 0
174 197 0
174 198 0
175 198 0
175 198 0
174 198 0
176 198 0
174 198 0
174 198 0
175 198 0
174 198 0
174 198 0
175 198 0
174 198 0
175 198 0
174 198 0
174 198 0
176 198 0
175 198 0
175 198 0
175 198 0
173 197 0
176 199 0
174 197 0
174 197 0
175 198 0
175 198 0
175 198 0
174 198 0
173 197 0
175 198 0
173 197 0
175 198 0
174 197 0
174 197 0
175 198 0
173 197 0
174 198 0
174 198 0
175 198 0
174 198 0
177 199 0
174 198 0
175 198 0
174 198 0
174 198 0
175 198 0
174 198 0
175 198 0
174 197 0
173 197 0
174 198 0
174 198 0
175 198 0
175 198 0
174 198 0
175 198 0
174 198 0
176 199 0
174 198 0
173 197 0
176 198 0
176 199 0
173 197 0
176 199 0
174 197 0
173 197 0
174 198 0
172 197 0
175 198 0
175 198 0
174 198 0
174 198 0
174 198 0
175 198 0
174 197 0
175 198 0
174 198 0
174 198 0
173 197 0
174 198 0
175 198 0
174 198 0
175 198 0
174 198 0
174 198 0
175 198 0
174 198 0
176 199 0
175 198 0
174 197 0
174 198 0
175 198 0
175 198 0
175 198 0
175 198 0
174 198 0
175 198 0
174 198 0
174 198 0
174 198 0
174 197 0
174 198 0
176 199 0
173 197 0
175 198 0
173 197 0
175 198 0
175 198 0
174 197 0
175 198 0
174 197 0
174 198 0
176 198 0
173 197 0
174 198 0
175 198 0
175 198 0
174 198 0
175 198 0
175 198 0
174 198 0
175 198 0
174 198 0
175 198 0
173 197 0
174 197 0
175 198 0
174 198 0
175 198 0
173 197 0
174 198 0
174 198 0
173 197 0
175 198 0
174 198 0
173 197 0
175 198 0
174 197 0
174 198 0
175 198 0
175 198 0
175 198 0
174 198 0
174 197 0
174 198 0
178 200 0
177 199 0
175 198 0
174 197 0
174 198 0
175 198 0
176 199 0
173 197 0
176 199 0
173 197 0
174 198 0
174 198 0
173 197 0
175 198 0
174 198 0
175 198 0
176 199 0
174 198 0
175 198 0
174 198 0
175 198 0
176 199 0
173 197 0
174 197 0
174 198 0
176 199 0
174 198 0
174 198 0
173 197 0
176 199 0
176 199 0
174 198 0
174 198 0
175 198 0
174 198 0
175 198 0
173 197 0
173 197 0
174 198 0
174 198 0
175 198 0
175 198 0
175 198 0
173 197 0
175 198 0
176 198 0
173 197 0
174 197 0
173 197 0
173 197 0
174 198 0
174 198 0
176 198 0
175 198 0
175 198 0
174 197 0
174 197 0
176 198 0
175 198 0
175 198 0
174 198 0
176 199 0
174 198 0
176 199 0
173 197 0
174 198 0
173 197 0
174 198 0
175 198 0
176 199 0
174 197 0
175 198 0
175 198 0
174 197 0
175 198 0
175 198 0
174 197 0
175 198 0
175 198 0
174 197 0
175 198 0
172 197 0
175 198 0
173 197 0
176 198 0
173 197 0
175 198 0
175 198 0
174 197 0
174 197 0
174 197 0
174 198 0
175 198 0
173 197 0
174 197 0
175 198 0
172 196 0
175 198 0
173 197 0
174 197 0
173 197 0
173 197 0
174 197 0
173 197 0
175 198 0
175 198 0
173 196 0
169 193 0
174 198 0
173 196 0
175 198 0
173 197 0
173 196 0
173 196 0
172 196 0
173 197 0
173 197 0
175 198 0
175 198 0
172 196 0
174 197 0
174 197 0
174 197 0
173 197 0
175 198 0
176 198 0
172 195 0
173 197 0
173 196 0
174 197 0
172 196 0
171 194 0
174 197 0
172 195 0
174 197 0
172 195 0
173 196 0
172 196 0
170 192 0
180 172 78
195 181 114
189 178 114
183 175 114
179 173 114
175 171 114
171 170 114
168 168 114
166 167 114
164 167 114
163 166 114
162 166 114
161 165 114
162 166 114
162 166 114
164 166 114
166 167 114
168 168 114
171 170 114
175 171 114
179 173 114
184 176 114
191 179 114
193 179 106
170 188 16
175 198 0
174 197 0
173 197 0
175 198 0
175 198 0
174 198 0
173 197 0
174 197 0
175 198 0
175 197 0
175 198 0
173 197 0
174 197 0
174 198 0
175 198 0
173 197 0
175 198 0
174 198 0
175 198 0
173 196 0
174 198 0
174 197 0
174 197 0
173 197 0
174 197 0
175 198 0
174 198 0
174 198 0
174 197 0
176 199 0
174 197 0
175 198 0
174 198 0
174 198 0
175 198 0
175 198 0
173 197 0
173 197 0
174 198 0
174 198 0
173 197 0
175 198 0
174 198 0
174 197 0
174 197 0
176 198 0
173 197 0
174 197 0
175 198 0
175 198 0
174 197 0
174 198 0
174 198 0
173 197 0
175 198 0
173 197 0
174 198 0
174 197 0
173 197 0
173 197 0
174 197 0
174 198 0
175 198 0
174 198 0
177 199 0
174 198 0
174 197 0
174 198 0
174 198 0
176 199 0
175 198 0
175 198 0
174 198 0
174 198 0
173 197 0
173 197 0
175 198 0
174 198 0
175 198 0
175 198 0
175 198 0
175 198 0
175 198 0
174 198 0
174 197 0
173 197 0
174 198 0
175 198 0
174 197 0
174 198 0
174 197 0
173 197 0
175 198 0
175 198 0
174 197 0
173 197 0
173 197 0
175 198 0
175 198 0
174 198 0
175 198 0
175 198 0
175 198 0
173 197 0
174 197 0
173 197 0
176 199 0
176 198 0
175 198 0
175 198 0
174 198 0
174 198 0
175 198 0
175 198 0
175 198 0
174 197 0
175 198 0
175 198 0
175 198 0
175 198 0
175 198 0
175 198 0
175 198 0
175 198 0
175 198 0
175 198 0
174 198 0
173 197 0
174 198 0
175 198 0
174 198 0
175 198 0
176 199 0
175 198 0
175 198 0
174 198 0
175 198 0
176 198 0
173 197 0
175 198 0
174 198 0
176 199 0
173 197 0
171 196 0
175 198 0
175 198 0
175 198 0
174 198 0
175 198 0
174 197 0
173 197 0
176 199 0
175 198 0
175 198 0
175 198 0
174 198 0
176 199 0
175 198 0
175 198 0
176 199 0
175 198 0
173 197 0
175 198 0
175 198 0
175 198 0
176 199 0
175 198 0
174 198 0
174 198 0
173 197 0
175 198 0
175 198 0
173 197 0
174 198 0
173 197 0
174 198 0
172 197 0
175 198 0
175 198 0
175 198 0
173 197 0
173 197 0
174 198 0
176 199 0
173 197 0
173 197 0
176 199 0
175 198 0
172 197 0
176 198 0
175 198 0
175 198 0
175 198 0
174 198 0
172 196 0
175 198 0
175 198 0
175 198 0
175 198 0
175 198 0
173 197 0
175 198 0
174 198 0
173 197 0
174 198 0
175 198 0
174 198 0
174 198 0
175 198 0
173 197 0
173 197 0
174 198 0
174 198 0
174 198 0
175 198 0
175 198 0
175 198 0
176 199 0
176 199 0
176 199 0
175 198 0
174 198 0
176 198 0
174 198 0
174 198 0
176 198 0
176 199 0
174 198 0
174 198 0
175 198 0
174 198 0
175 198 0
173 197 0
175 198 0
176 199 0
174 198 0
175 198 0
174 198 0
174 198 0
174 198 0
174 198 0
175 198 0
175 198 0
175 198 0
175 198 0
174 198 0
175 198 0
174 198 0
175 198 0
175 198 0
175 198 0
175 198 0
174 198 0
175 198 0
176 199 0
174 198 0
174 198 0
174 198 0
173 197 0
176 198 0
175 198 0
175 198 0
175 198 0
174 198 0
175 198 0
175 198 0
173 197 0
174 198 0
174 198 0
176 198 0
174 198 0
175 198 0
173 197 0
174 197 0
174 198 0
174 198 0
176 198 0
176 199 0
174 197 0
175 198 0
174 198 0
174 198 0
175 198 0
174 198 0
174 198 0
173 197 0
176 199 0
175 198 0
174 197 0
174 198 0
174 198 0
173 197 0
174 197 0
174 198 0
174 197 0
175 198 0
175 198 0
174 198 0
175 198 0
174 198 0
175 198 0
174 197 0
174 197 0
172 196 0
173 196 0
173 197 0
175 198 0
174 198 0
175 198 0
174 198 0
175 198 0
174 197 0
173 196 0
175 198 0
173 197 0
173 196 0
172 196 0
174 197 0
173 197 0
174 198 0
174 198 0
174 197 0
173 197 0
174 197 0
174 198 0
174 197 0
174 197 0
173 197 0
174 198 0
175 198 0
173 197 0
174 198 0
174 197 0
174 197 0
173 197 0
173 197 0
174 197 0
175 198 0
173 196 0
173 196 0
174 197 0
173 197 0
175 198 0
176 199 0
176 199 0
173 197 0
173 197 0
173 196 0
174 197 0
172 194 0
173 197 0
171 194 0
173 196 0
174 197 0
174 197 0
172 195 0
171 195 0
156 180 76
134 159 118
110 137 148
81 113 170
69 104 178
66 102 179
71 106 175
78 111 171
118 144 143
135 159 120
166 189 57
173 195 0
173 197 0
171 195 0
173 196 0
175 197 0
171 194 0
162 171 0
192 178 103
192 180 114
187 177 114
182 175 114
178 173 114
174 171 114
171 170 114
168 168 114
166 167 114
164 167 114
163 166 114
162 166 114
162 166 114
162 166 114
163 166 114
164 167 114
166 167 114
168 168 114
171 170 114
174 171 114
178 173 114
183 175 114
188 178 114
195 181 114
172 174 58
175 198 0
175 198 0
173 197 0
174 196 0
173 197 0
172 196 0
173 197 0
175 198 0
176 198 0
175 198 0
174 197 0
174 197 0
175 198 0
174 197 0
175 198 0
173 197 0
174 197 0
172 197 0
175 198 0
175 198 0
174 197 0
175 198 0
175 198 0
176 198 0
173 197 0
175 198 0
174 198 0
174 197 0
173 197 0
175 198 0
174 198 0
174 197 0
174 198 0
174 197 0
175 198 0
175 198 0
175 198 0
176 198 0
174 198 0
174 197 0
174 198 0
173 197 0
175 198 0
176 198 0
175 198 0
173 197 0
174 198 0
176 199 0
174 198 0
174 198 0
174 198 0
174 198 0
173 197 0
175 198 0
174 198 0
173 197 0
175 198 0
175 198 0
174 197 0
174 197 0
173 197 0
175 198 0
174 198 0
174 198 0
174 198 0
174 198 0
175 198 0
174 198 0
175 198 0
174 198 0
174 198 0
172 197 0
174 198 0
173 197 0
174 198 0
174 198 0
175 198 0
174 198 0
176 199 0
176 199 0
175 198 0
173 197 0
175 198 0
175 198 0
175 198 0
174 197 0
174 197 0
174 198 0
175 198 0
174 197 0
175 198 0
174 198 0
174 198 0
175 198 0
176 199 0
176 198 0
175 198 0
173 197 0
175 198 0
175 198 0
174 197 0
175 198 0
174 197 0
176 199 0
176 198 0
175 198 0
174 197 0
173 197 0
175 198 0
173 197 0
176 198 0
174 198 0
174 198 0
174 198 0
175 198 0
175 198 0
174 198 0
174 197 0
175 198 0
174 198 0
173 197 0
176 198 0
175 198 0
174 198 0
175 198 0
174 198 0
174 198 0
175 198 0
175 198 0
173 197 0
173 197 0
174 198 0
174 198 0
174 198 0
173 197 0
174 197 0
176 199 0
173 197 0
175 198 0
175 198 0
174 198 0
175 198 0
173 197 0
174 198 0
175 198 0
175 198 0
175 198 0
176 199 0
175 198 0
174 197 0
176 199 0
176 199 0
175 198 0
175 198 0
175 198 0
176 198 0
176 199 0
175 198 0
174 198 0
176 198 0
175 198 0
174 197 0
175 198 0
175 198 0
174 198 0
173 197 0
175 198 0
175 198 0
175 198 0
175 198 0
176 198 0
176 199 0
174 198 0
175 198 0
174 198 0
174 198 0
176 198 0
175 198 0
175 198 0
174 198 0
176 198 0
173 197 0
174 197 0
175 198 0
175 198 0
174 198 0
174 197 0
174 198 0
175 198 0
175 198 0
174 197 0
175 198 0
174 198 0
174 198 0
176 198 0
176 198 0
176 199 0
175 198 0
175 198 0
173 197 0
174 198 0
176 199 0
174 197 0
174 198 0
174 198 0
174 198 0
174 197 0
176 198 0
175 198 0
174 198 0
174 198 0
175 198 0
175 198 0
174 198 0
175 198 0
173 197 0
174 198 0
173 197 0
174 198 0
175 198 0
175 198 0
174 198 0
176 199 0
175 198 0
177 199 0
174 197 0
175 198 0
174 197 0
175 198 0
175 198 0
174 198 0
175 198 0
175 198 0
175 198 0
174 198 0
177 199 0
173 197 0
174 198 0
175 198 0
173 197 0
175 198 0
176 199 0
174 197 0
175 198 0
175 198 0
175 198 0
175 198 0
173 197 0
172 197 0
174 198 0
175 198 0
175 198 0
174 198 0
172 196 0
174 198 0
174 197 0
174 198 0
175 198 0
176 198 0
174 198 0
174 198 0
176 199 0
174 198 0
173 197 0
173 197 0
174 198 0
175 198 0
175 198 0
175 198 0
173 197 0
175 198 0
174 197 0
176 199 0
173 197 0
174 198 0
173 197 0
175 198 0
174 197 0
174 197 0
176 199 0
174 197 0
173 197 0
176 199 0
174 198 0
175 198 0
175 198 0
173 197 0
174 197 0
175 198 0
174 198 0
174 198 0
174 198 0
175 198 0
175 198 0
175 198 0
174 197 0
173 197 0
175 198 0
173 197 0
175 198 0
174 198 0
174 198 0
173 197 0
173 197 0
174 198 0
175 198 0
175 198 0
174 198 0
174 198 0
176 198 0
175 198 0
172 197 0
175 198 0
176 198 0
174 197 0
174 198 0
175 198 0
174 197 0
172 197 0
174 197 0
175 198 0
173 196 0
175 198 0
174 198 0
176 198 0
173 197 0
174 197 0
173 197 0
174 197 0
175 198 0
175 198 0
176 198 0
173 197 0
174 198 0
173 196 0
172 195 0
174 198 0
175 198 0
174 198 0
173 197 0
172 195 0
171 195 0
173 197 0
174 197 0
172 196 0
175 198 0
172 195 0
171 194 0
172 195 0
173 197 0
173 196 0
171 195 0
173 196 0
174 198 0
172 195 0
142 167 107
84 116 168
61 99 180
62 99 180
61 98 181
62 99 181
61 99 181
61 99 181
62 99 181
61 99 181
62 99 181
62 99 180
62 99 178
97 125 157
147 171 99
175 197 0
170 194 0
173 196 0
173 196 0
169 163 58
198 182 114
192 179 114
187 177 114
182 175 114
178 173 114
175 171 114
172 170 114
169 169 114
167 168 114
165 167 114
164 167 114
163 166 114
163 166 114
163 166 114
164 166 114
165 167 114
167 168 114
169 169 114
171 170 114
174 171 114
178 173 114
182 175 114
187 177 114
193 180 114
189 176 99
171 190 0
174 197 0
173 196 0
173 196 0
174 197 0
173 197 0
173 195 0
175 198 0
175 198 0
174 197 0
174 197 0
174 198 0
175 198 0
172 196 0
173 197 0
174 198 0
174 198 0
175 198 0
174 198 0
175 198 0
176 198 0
174 197 0
175 198 0
176 198 0
174 198 0
174 198 0
174 198 0
174 198 0
175 198 0
175 198 0
174 198 0
175 198 0
175 198 0
174 198 0
175 198 0
176 198 0
174 197 0
174 197 0
173 197 0
175 198 0
176 198 0
175 198 0
173 197 0
175 197 0
174 198 0
176 199 0
175 198 0
174 198 0
177 199 0
173 197 0
175 198 0
175 198 0
175 198 0
176 199 0
172 196 0
173 197 0
176 199 0
173 197 0
174 197 0
173 197 0
174 198 0
175 198 0
174 197 0
174 198 0
174 197 0
174 198 0
174 198 0
175 198 0
174 198 0
175 198 0
175 198 0
175 198 0
174 197 0
175 198 0
174 198 0
176 199 0
174 198 0
174 197 0
174 198 0
173 197 0
174 197 0
174 198 0
175 198 0
173 197 0
175 198 0
174 198 0
175 198 0
174 198 0
174 197 0
174 198 0
174 198 0
174 198 0
175 198 0
175 198 0
173 197 0
174 198 0
175 198 0
176 199 0
174 197 0
175 198 0
175 198 0
175 198 0
175 198 0
175 198 0
174 198 0
175 198 0
175 198 0
175 198 0
175 198 0
174 197 0
174 198 0
175 198 0
174 198 0
176 199 0
174 198 0
176 199 0
174 198 0
173 197 0
174 198 0
175 198 0
175 198 0
173 197 0
175 198 0
174 198 0
173 197 0
173 197 0
174 198 0
176 198 0
174 198 0
174 198 0
175 198 0
175 198 0
175 198 0
174 198 0
174 197 0
175 198 0
173 197 0
174 198 0
174 197 0
174 198 0
175 198 0
174 198 0
175 198 0
174 198 0
176 198 0
175 198 0
173 197 0
173 197 0
173 197 0
176 198 0
175 198 0
174 198 0
175 198 0
174 198 0
173 197 0
174 198 0
177 199 0
176 198 0
174 198 0
176 199 0
174 198 0
176 198 0
173 197 0
174 197 0
176 198 0
174 197 0
176 199 0
176 198 0
175 198 0
176 199 0
174 198 0
175 198 0
175 198 0
174 198 0
174 197 0
176 199 0
175 198 0
174 198 0
175 198 0
173 197 0
175 198 0
173 197 0
173 197 0
175 198 0
174 198 0
174 197 0
176 199 0
175 198 0
174 198 0
175 198 0
176 199 0
173 197 0
175 198 0
176 199 0
174 198 0
173 197 0
175 198 0
175 198 0
175 198 0
173 197 0
174 198 0
175 198 0
173 197 0
175 198 0
175 198 0
174 197 0
174 198 0
173 197 0
174 198 0
173 197 0
175 198 0
174 198 0
174 198 0
174 198 0
174 198 0
174 198 0
175 198 0
175 198 0
176 199 0
174 197 0
176 199 0
175 198 0
174 198 0
173 197 0
175 198 0
176 199 0
177 199 0
176 198 0
174 198 0
174 198 0
174 198 0
175 198 0
174 197 0
175 198 0
176 199 0
175 198 0
175 198 0
173 197 0
176 198 0
175 198 0
174 198 0
175 198 0
174 197 0
175 198 0
174 198 0
175 198 0
174 198 0
174 198 0
175 198 0
175 198 0
173 197 0
174 198 0
172 196 0
174 198 0
173 197 0
174 198 0
176 198 0
175 198 0
174 197 0
173 197 0
174 198 0
172 197 0
173 197 0
174 198 0
172 197 0
173 197 0
174 198 0
174 198 0
175 198 0
173 197 0
172 196 0
175 198 0
174 197 0
174 198 0
176 198 0
173 197 0
175 198 0
176 198 0
174 198 0
173 197 0
175 198 0
174 197 0
176 198 0
175 198 0
173 197 0
174 198 0
175 198 0
174 198 0
174 197 0
175 198 0
173 197 0
174 198 0
175 198 0
173 197 0
174 197 0
176 198 0
173 197 0
174 198 0
175 198 0
174 198 0
173 197 0
175 198 0
173 197 0
173 196 0
173 197 0
174 198 0
174 198 0
173 197 0
174 197 0
175 198 0
173 197 0
174 197 0
174 198 0
175 198 0
175 198 0
173 197 0
172 197 0
173 196 0
174 198 0
176 198 0
175 198 0
173 197 0
174 198 0
174 198 0
175 198 0
174 197 0
174 197 0
173 197 0
175 198 0
174 198 0
174 197 0
173 196 0
175 198 0
173 196 0
171 195 0
173 197 0
172 196 0
175 198 0
176 198 0
172 196 0
174 197 0
174 198 0
172 196 0
172 196 0
174 196 0
175 197 0
174 197 0
173 197 0
173 197 0
171 194 0
173 197 0
172 195 0
173 197 0
156 180 82
88 119 164
62 99 180
62 99 180
61 99 181
62 99 181
61 98 181
61 99 181
61 99 181
62 99 181
62 99 181
62 99 181
61 99 181
61 99 181
62 99 180
61 98 179
61 98 179
91 121 162
157 180 75
172 195 0
166 177 0
169 162 59
197 182 114
192 180 114
187 177 114
183 175 114
179 174 114
176 172 114
173 171 114
171 170 114
169 169 114
167 168 114
166 168 114
165 167 114
165 167 114
165 167 114
166 167 114
167 168 114
168 168 114
170 169 114
173 170 114
175 172 114
179 173 114
183 175 114
187 177 114
192 180 114
196 181 109
165 176 0
173 196 0
172 195 0
173 197 0
174 197 0
174 197 0
174 198 0
174 197 0
175 198 0
173 197 0
175 198 0
174 197 0
174 197 0
173 197 0
172 196 0
175 198 0
173 197 0
176 198 0
174 197 0
174 198 0
173 197 0
175 198 0
174 198 0
176 198 0
172 195 0
174 197 0
174 197 0
176 198 0
173 197 0
173 197 0
174 197 0
174 197 0
172 196 0
175 198 0
174 197 0
173 197 0
174 198 0
175 198 0
173 197 0
175 198 0
174 197 0
172 197 0
175 198 0
175 198 0
176 198 0
176 199 0
175 198 0
175 198 0
176 199 0
173 197 0
174 197 0
175 198 0
176 198 0
175 198 0
174 197 0
175 198 0
174 197 0
173 197 0
174 197 0
175 198 0
175 198 0
175 198 0
176 198 0
176 199 0
175 198 0
176 199 0
176 199 0
173 197 0
174 198 0
174 198 0
176 198 0
174 197 0
173 197 0
175 198 0
176 199 0
174 198 0
175 198 0
175 198 0
174 197 0
174 197 0
176 199 0
175 198 0
175 198 0
174 197 0
174 198 0
175 198 0
173 197 0
175 198 0
174 198 0
175 198 0
175 198 0
173 197 0
175 198 0
174 197 0
175 198 0
175 198 0
175 198 0
173 197 0
175 198 0
174 198 0
176 199 0
175 198 0
175 198 0
174 198 0
175 198 0
174 198 0
175 198 0
176 198 0
176 199 0
174 198 0
175 198 0
174 198 0
175 198 0
174 198 0
176 199 0
176 198 0
174 198 0
175 198 0
174 197 0
174 197 0
173 197 0
175 198 0
173 197 0
175 198 0
176 199 0
176 199 0
174 197 0
176 199 0
174 198 0
175 198 0
174 198 0
174 198 0
175 198 0
174 198 0
175 198 0
174 198 0
175 198 0
175 198 0
174 197 0
173 197 0
174 198 0
173 197 0
174 198 0
174 198 0
174 198 0
174 197 0
175 198 0
174 198 0
176 199 0
175 198 0
174 198 0
176 199 0
174 198 0
175 198 0
174 198 0
174 198 0
175 198 0
174 197 0
175 198 0
175 198 0
174 198 0
176 199 0
175 198 0
174 198 0
173 197 0
174 198 0
176 199 0
173 197 0
175 198 0
173 197 0
176 199 0
176 199 0
175 198 0
174 198 0
174 198 0
173 197 0
174 198 0
174 198 0
175 198 0
176 199 0
175 198 0
175 198 0
174 197 0
175 198 0
173 197 0
175 198 0
175 198 0
173 197 0
174 197 0
176 199 0
176 198 0
174 198 0
173 197 0
175 198 0
175 198 0
174 197 0
174 198 0
174 198 0
175 198 0
173 197 0
174 197 0
175 198 0
174 198 0
175 198 0
175 198 0
175 198 0
173 197 0
176 199 0
173 197 0
174 197 0
175 198 0
174 198 0
176 199 0
174 198 0
175 198 0
176 199 0
175 198 0
175 198 0
174 198 0
174 198 0
173 197 0
174 198 0
174 198 0
176 199 0
175 198 0
176 198 0
174 198 0
175 198 0
174 198 0
175 198 0
174 198 0
175 198 0
175 198 0
173 197 0
174 198 0
176 199 0
174 197 0
174 198 0
174 198 0
173 197 0
176 199 0
174 198 0
174 197 0
174 198 0
175 198 0
177 199 0
176 198 0
174 198 0
176 198 0
174 197 0
174 198 0
175 198 0
174 198 0
174 198 0
176 199 0
174 197 0
175 198 0
175 198 0
174 198 0
174 198 0
175 198 0
174 198 0
174 197 0
174 198 0
176 198 0
173 197 0
174 198 0
173 197 0
174 198 0
175 198 0
174 198 0
175 198 0
174 198 0
172 196 0
175 198 0
175 198 0
174 198 0
175 198 0
176 198 0
173 197 0
174 198 0
175 198 0
175 198 0
175 198 0
174 198 0
175 198 0
174 198 0
172 197 0
175 198 0
175 198 0
176 199 0
175 198 0
172 197 0
175 198 0
175 198 0
174 198 0
174 197 0
175 198 0
174 197 0
175 198 0
173 197 0
175 198 0
174 196 0
174 197 0
176 199 0
175 198 0
174 198 0
173 197 0
174 197 0
174 197 0
175 198 0
173 197 0
174 198 0
173 197 0
176 199 0
174 198 0
174 198 0
172 196 0
174 197 0
175 198 0
172 196 0
174 197 0
176 198 0
174 197 0
174 198 0
175 198 0
173 196 0
174 198 0
172 195 0
174 197 0
174 197 0
172 196 0
174 197 0
173 197 0
174 198 0
173 196 0
171 195 0
173 196 0
175 198 0
176 198 0
170 194 0
174 197 0
173 196 0
174 198 0
171 195 0
172 195 0
174 197 0
173 197 0
175 198 0
173 196 0
172 196 0
173 196 0
136 160 114
64 100 174
62 99 179
62 99 181
61 98 179
62 99 180
62 99 181
61 98 180
61 99 181
61 99 181
61 99 181
61 98 181
61 99 181
62 99 180
62 99 181
62 99 179
62 99 178
61 98 178
61 98 178
67 102 170
142 166 102
159 162 0
173 165 69
198 182 114
193 180 114
188 178 114
185 176 114
181 174 114
178 173 114
176 172 114
173 171 114
171 170 114
170 169 114
169 169 114
168 168 114
168 168 114
168 168 114
168 168 114
169 169 114
171 170 114
172 170 114
174 171 114
177 173 114
180 174 114
184 176 114
188 178 114
193 180 114
199 183 114
160 163 19
174 198 0
173 195 0
172 196 0
173 196 0
173 196 0
175 198 0
172 196 0
175 198 0
174 198 0
172 196 0
174 197 0
173 197 0
175 198 0
176 198 0
175 198 0
175 198 0
174 197 0
174 197 0
174 197 0
174 197 0
174 198 0
174 197 0
174 197 0
174 197 0
174 198 0
173 197 0
175 198 0
175 198 0
176 198 0
174 198 0
175 198 0
176 199 0
173 197 0
173 197 0
173 196 0
175 198 0
174 198 0
174 197 0
174 198 0
174 198 0
174 197 0
175 198 0
174 197 0
174 198 0
173 197 0
176 198 0
175 198 0
174 198 0
175 198 0
174 197 0
175 198 0
174 198 0
174 198 0
175 198 0
173 197 0
174 197 0
173 197 0
174 198 0
175 198 0
175 198 0
175 198 0
175 198 0
174 198 0
173 197 0
175 198 0
174 198 0
173 197 0
175 198 0
175 198 0
174 197 0
175 198 0
174 198 0
174 198 0
175 198 0
175 198 0
176 199 0
172 197 0
174 197 0
175 198 0
176 198 0
175 198 0
175 198 0
174 197 0
175 198 0
174 198 0
175 198 0
175 198 0
174 197 0
174 198 0
174 198 0
174 198 0
175 198 0
172 197 0
175 198 0
176 199 0
176 199 0
176 198 0
175 198 0
175 198 0
174 198 0
173 197 0
175 198 0
174 197 0
176 198 0
175 198 0
174 197 0
173 197 0
174 198 0
174 198 0
174 197 0
174 198 0
174 197 0
175 198 0
175 198 0
172 197 0
175 198 0
174 198 0
174 197 0
173 197 0
174 198 0
173 197 0
174 198 0
175 198 0
175 198 0
174 198 0
175 198 0
175 198 0
174 197 0
173 197 0
173 197 0
175 198 0
174 198 0
174 197 0
176 199 0
174 198 0
173 197 0
175 198 0
175 198 0
176 198 0
175 198 0
175 198 0
175 198 0
173 197 0
174 198 0
176 199 0
175 198 0
173 197 0
173 197 0
176 198 0
176 199 0
175 198 0
175 198 0
176 198 0
175 198 0
176 199 0
174 197 0
173 197 0
175 198 0
174 198 0
173 197 0
175 198 0
174 198 0
174 198 0
174 197 0
175 198 0
175 198 0
174 198 0
175 198 0
174 198 0
176 198 0
175 198 0
175 198 0
175 198 0
175 198 0
174 198 0
174 197 0
176 199 0
174 198 0
174 198 0
173 197 0
175 198 0
175 198 0
173 197 0
174 198 0
174 197 0
174 198 0
174 198 0
174 197 0
174 198 0
173 197 0
174 198 0
175 198 0
175 198 0
175 198 0
174 198 0
175 198 0
176 199 0
174 198 0
175 198 0
173 197 0
175 198 0
173 197 0
174 198 0
174 198 0
175 198 0
174 198 0
174 198 0
175 198 0
175 198 0
176 199 0
175 198 0
175 198 0
175 198 0
174 198 0
174 198 0
176 199 0
175 198 0
174 197 0
175 198 0
175 198 0
174 197 0
176 199 0
174 198 0
175 198 0
174 197 0
174 198 0
174 197 0
175 198 0
174 198 0
175 198 0
174 198 0
173 197 0
174 198 0
174 197 0
173 197 0
176 199 0
175 198 0
175 198 0
176 199 0
174 198 0
175 198 0
174 198 0
175 198 0
175 198 0
175 198 0
175 198 0
174 198 0
174 197 0
173 197 0
175 198 0
174 197 0
174 197 0
175 198 0
175 198 0
175 198 0
176 199 0
174 197 0
174 198 0
175 198 0
176 198 0
175 198 0
174 197 0
174 197 0
174 197 0
176 199 0
173 197 0
174 198 0
175 198 0
172 197 0
175 198 0
174 198 0
175 198 0
176 198 0
173 197 0
174 197 0
175 198 0
172 196 0
176 198 0
174 198 0
175 198 0
174 198 0
174 198 0
174 197 0
175 198 0
173 197 0
175 198 0
174 198 0
176 199 0
173 197 0
174 198 0
172 196 0
173 197 0
175 198 0
175 198 0
173 197 0
176 198 0
174 197 0
174 198 0
173 197 0
174 198 0
175 198 0
177 199 0
173 197 0
172 196 0
174 197 0
173 197 0
174 198 0
173 197 0
175 198 0
176 198 0
173 197 0
175 197 0
175 198 0
173 197 0
174 198 0
173 197 0
173 197 0
175 198 0
176 199 0
173 197 0
174 197 0
174 198 0
172 196 0
174 198 0
174 197 0
174 198 0
174 197 0
171 195 0
174 197 0
174 197 0
172 196 0
171 195 0
175 198 0
173 196 0
172 196 0
173 196 0
172 195 0
174 197 0
173 196 0
174 196 0
173 196 0
174 196 0
174 197 0
173 196 0
170 194 0
171 195 0
174 197 0
172 195 0
170 194 0
171 195 18
127 153 125
62 99 176
62 99 177
62 99 178
62 99 180
62 99 181
61 98 181
62 99 181
61 99 180
61 99 181
61 99 181
62 99 181
62 99 180
62 99 181
61 99 181
62 99 181
62 99 180
62 99 180
62 99 180
62 99 176
62 99 178
61 97 170
121 129 117
166 160 52
198 183 114
191 178 113
163 156 104
149 146 100
169 163 108
181 174 114
178 173 114
176 172 114
174 171 114
173 170 114
172 170 114
171 170 114
171 170 114
171 170 114
171 170 114
172 170 114
173 171 114
175 172 114
177 172 114
180 174 114
182 175 114
186 177 114
190 178 114
194 180 114
199 183 114
157 154 16
173 194 0
175 198 0
173 196 0
173 196 0
174 196 0
172 197 0
174 197 0
174 196 0
174 197 0
173 197 0
175 198 0
172 196 0
174 196 0
174 198 0
175 198 0
173 197 0
172 196 0
175 198 0
173 196 0
173 196 0
175 198 0
174 197 0
175 198 0
176 199 0
173 197 0
174 197 0
175 198 0
175 198 0
175 198 0
176 198 0
174 197 0
174 197 0
176 199 0
174 197 0
173 197 0
174 197 0
176 199 0
176 198 0
176 199 0
173 197 0
175 198 0
174 198 0
172 196 0
175 198 0
174 198 0
175 198 0
174 198 0
175 198 0
175 198 0
174 198 0
175 198 0
174 198 0
175 198 0
176 199 0
173 197 0
175 198 0
174 198 0
173 197 0
174 198 0
175 198 0
174 198 0
174 198 0
175 198 0
174 197 0
174 198 0
174 197 0
175 198 0
174 198 0
175 198 0
175 198 0
175 198 0
174 197 0
175 198 0
175 198 0
174 198 0
175 198 0
175 198 0
173 197 0
174 197 0
176 199 0
175 198 0
174 197 0
175 197 0
173 197 0
173 197 0
174 198 0
174 198 0
173 197 0
176 199 0
175 198 0
174 197 0
172 197 0
174 197 0
175 198 0
175 198 0
174 197 0
175 198 0
175 198 0
174 198 0
174 198 0
175 198 0
174 197 0
175 198 0
174 198 0
175 198 0
174 197 0
174 197 0
175 198 0
175 198 0
175 198 0
174 198 0
174 197 0
173 197 0
174 198 0
174 198 0
175 198 0
174 198 0
174 198 0
174 198 0
174 197 0
174 198 0
174 197 0
174 198 0
175 198 0
173 197 0
174 198 0
174 198 0
174 198 0
175 198 0
174 198 0
172 197 0
173 197 0
174 198 0
175 198 0
175 198 0
174 198 0
175 198 0
175 198 0
174 198 0
175 198 0
174 197 0
175 198 0
175 198 0
175 198 0
174 198 0
174 197 0
174 197 0
174 198 0
175 198 0
173 197 0
175 198 0
177 199 0
175 198 0
174 198 0
176 199 0
174 198 0
175 198 0
174 198 0
175 198 0
173 197 0
174 198 0
174 197 0
175 198 0
175 198 0
175 198 0
175 198 0
173 197 0
175 198 0
174 198 0
177 199 0
174 198 0
174 198 0
174 198 0
174 197 0
175 198 0
174 198 0
174 197 0
174 198 0
175 198 0
174 198 0
175 198 0
175 198 0
175 198 0
175 198 0
174 198 0
175 198 0
173 197 0
175 198 0
173 197 0
174 197 0
175 198 0
174 197 0
174 198 0
176 199 0
174 197 0
174 198 0
172 197 0
174 198 0
175 198 0
174 198 0
173 197 0
176 199 0
174 198 0
174 198 0
175 198 0
174 198 0
173 197 0
174 198 0
174 198 0
173 197 0
174 197 0
176 198 0
175 198 0
175 198 0
174 198 0
176 199 0
175 198 0
176 199 0
175 198 0
175 198 0
174 198 0
175 198 0
175 198 0
175 198 0
175 198 0
175 198 0
175 198 0
174 198 0
174 198 0
174 198 0
173 197 0
175 198 0
173 197 0
175 198 0
173 197 0
175 198 0
176 199 0
175 198 0
175 198 0
174 198 0
173 197 0
175 198 0
174 198 0
174 197 0
175 198 0
174 198 0
174 198 0
175 198 0
175 198 0
176 199 0
175 198 0
174 198 0
174 197 0
174 198 0
174 197 0
173 197 0
174 197 0
174 198 0
175 198 0
176 199 0
175 198 0
174 198 0
175 198 0
174 198 0
175 198 0
174 197 0
174 197 0
174 197 0
174 198 0
175 198 0
173 197 0
176 198 0
174 197 0
175 198 0
174 198 0
174 197 0
174 198 0
174 198 0
175 198 0
172 196 0
175 198 0
174 197 0
173 197 0
175 198 0
175 198 0
175 198 0
174 197 0
174 197 0
174 197 0
176 198 0
174 198 0
174 198 0
175 198 0
175 198 0
176 198 0
174 197 0
175 198 0
175 198 0
174 197 0
174 197 0
173 197 0
172 196 0
175 198 0
174 198 0
175 198 0
175 198 0
173 197 0
172 196 0
173 197 0
172 196 0
174 197 0
174 197 0
175 198 0
175 198 0
171 196 0
174 197 0
173 196 0
175 198 0
175 198 0
174 197 0
173 197 0
171 195 0
174 198 0
173 197 0
175 198 0
173 197 0
173 196 0
173 197 0
173 196 0
172 196 0
175 198 0
173 196 0
173 197 0
172 196 0
174 197 0
172 196 0
173 196 0
174 197 0
174 197 0
172 196 0
174 197 0
174 197 0
173 197 0
175 197 0
174 198 0
172 196 0
169 192 0
170 194 0
173 197 0
129 155 125
61 98 174
63 99 174
62 99 177
62 99 178
62 99 180
62 99 180
62 99 181
62 99 180
62 99 181
61 99 181
62 99 180
62 99 181
62 99 181
62 99 181
61 99 180
61 99 179
62 99 180
61 98 178
62 98 175
61 98 176
62 99 178
61 97 167
61 97 167
121 129 114
187 173 104
93 98 77
52 70 66
53 71 68
53 72 72
95 103 84
177 171 112
180 174 114
178 173 114
176 172 114
175 172 114
175 171 114
174 171 114
174 171 114
175 171 114
176 172 114
177 172 114
178 173 114
180 174 114
182 175 114
185 176 114
188 177 114
191 179 114
195 181 114
195 180 108
155 153 0
172 190 0
173 196 0
174 197 0
174 197 0
174 197 0
174 197 0
174 197 0
172 195 0
175 198 0
173 197 0
173 197 0
174 197 0
174 197 0
173 197 0
173 196 0
174 197 0
175 197 0
172 196 0
173 197 0
173 197 0
175 197 0
174 197 0
174 197 0
174 197 0
174 197 0
173 197 0
173 197 0
173 197 0
175 197 0
174 197 0
174 197 0
175 198 0
173 197 0
173 197 0
176 199 0
176 198 0
174 198 0
174 197 0
175 198 0
174 197 0
175 198 0
175 198 0
176 198 0
175 198 0
173 197 0
175 198 0
175 198 0
174 198 0
176 199 0
174 197 0
174 197 0
174 197 0
176 198 0
174 197 0
174 197 0
177 199 0
176 199 0
175 198 0
176 198 0
175 198 0
175 198 0
175 198 0
175 198 0
175 198 0
174 198 0
175 198 0
174 197 0
175 198 0
174 198 0
173 197 0
174 197 0
176 199 0
175 198 0
176 199 0
173 197 0
174 198 0
175 198 0
175 198 0
175 198 0
176 199 0
174 198 0
174 198 0
175 198 0
174 198 0
175 198 0
172 196 0
175 198 0
173 197 0
175 198 0
174 198 0
175 198 0
174 198 0
174 198 0
174 197 0
172 197 0
173 197 0
174 198 0
175 198 0
173 197 0
175 198 0
175 198 0
175 198 0
175 198 0
175 198 0
173 197 0
174 198 0
175 198 0
174 198 0
174 198 0
174 198 0
173 197 0
174 198 0
175 198 0
172 197 0
176 199 0
175 198 0
175 198 0
174 198 0
175 198 0
173 197 0
175 198 0
174 198 0
175 198 0
175 198 0
173 197 0
177 199 0
174 198 0
174 198 0
174 198 0
175 198 0
175 198 0
175 198 0
175 198 0
174 197 0
176 199 0
175 198 0
176 198 0
173 197 0
173 197 0
175 198 0
175 198 0
174 197 0
173 197 0
174 198 0
174 197 0
176 199 0
175 198 0
174 198 0
175 198 0
175 198 0
175 198 0
176 199 0
173 197 0
174 198 0
174 198 0
175 198 0
175 198 0
175 198 0
176 198 0
173 197 0
175 198 0
175 198 0
174 198 0
174 197 0
175 198 0
175 198 0
175 198 0
175 198 0
175 198 0
176 198 0
175 198 0
175 198 0
176 198 0
175 198 0
175 198 0
175 198 0
175 198 0
175 198 0
176 199 0
176 198 0
174 198 0
174 198 0
175 198 0
174 198 0
176 199 0
174 198 0
175 198 0
176 199 0
176 198 0
175 198 0
175 198 0
175 198 0
175 198 0
175 198 0
174 198 0
174 198 0
176 199 0
174 197 0
174 198 0
174 198 0
175 198 0
175 198 0
174 198 0
175 198 0
174 197 0
174 197 0
176 198 0
175 198 0
176 198 0
173 197 0
174 198 0
174 198 0
174 197 0
174 198 0
174 198 0
174 197 0
173 197 0
175 198 0
175 198 0
176 199 0
175 198 0
174 197 0
175 198 0
175 198 0
174 197 0
174 198 0
175 198 0
173 197 0
175 198 0
173 197 0
174 198 0
174 198 0
176 199 0
173 197 0
175 198 0
173 197 0
175 198 0
175 198 0
175 198 0
174 197 0
176 199 0
175 198 0
175 198 0
172 197 0
174 198 0
174 198 0
175 198 0
174 198 0
174 197 0
172 197 0
174 198 0
175 198 0
174 198 0
174 198 0
175 198 0
173 197 0
174 198 0
173 197 0
175 198 0
174 198 0
175 198 0
175 198 0
175 198 0
175 198 0
173 197 0
174 198 0
175 198 0
175 198 0
173 197 0
176 198 0
173 197 0
174 197 0
174 198 0
176 199 0
174 198 0
175 198 0
174 198 0
173 197 0
174 198 0
174 198 0
174 197 0
173 197 0
175 198 0
174 198 0
173 196 0
174 198 0
175 198 0
175 198 0
175 198 0
172 196 0
174 197 0
174 198 0
171 195 0
174 198 0
175 198 0
175 198 0
173 197 0
174 198 0
174 198 0
174 197 0
175 198 0
173 197 0
174 198 0
173 197 0
173 197 0
175 198 0
175 198 0
174 197 0
174 197 0
174 198 0
175 198 0
174 197 0
173 197 0
173 196 0
173 197 0
172 195 0
174 198 0
175 198 0
172 195 0
173 197 0
173 196 0
174 198 0
174 198 0
173 196 0
174 197 0
174 197 0
174 196 0
174 198 0
172 196 0
173 197 0
175 197 0
173 196 0
174 197 0
173 197 0
172 195 0
173 197 0
173 196 0
173 196 0
174 197 0
169 194 0
173 197 0
171 194 0
171 194 0
173 196 0
171 194 0
172 195 0
173 195 0
173 196 0
142 167 102
61 98 166
62 99 173
62 99 178
62 99 179
62 99 176
62 99 181
62 99 180
61 99 179
62 99 181
62 99 179
61 99 180
62 99 178
62 99 181
62 99 180
62 99 180
62 99 179
62 99 177
62 99 178
61 98 179
62 99 178
62 99 176
61 98 173
62 98 175
62 97 168
62 96 160
85 96 100
47 62 57
48 63 57
52 69 67
52 70 68
54 73 70
106 111 86
181 174 113
181 175 114
180 174 114
179 173 114
179 173 114
178 173 114
178 173 114
179 173 114
179 173 114
180 174 114
182 175 114
183 175 114
186 176 114
188 178 114
191 179 114
194 180 114
198 182 114
184 172 87
155 153 0
168 187 0
173 196 0
173 195 0
173 196 0
174 197 0
172 195 0
175 197 0
175 197 0
173 196 0
174 198 0
175 198 0
174 196 0
174 197 0
175 197 0
174 197 0
173 197 0
172 196 0
173 196 0
174 197 0
173 196 0
175 198 0
175 198 0
174 198 0
174 197 0
173 197 0
174 197 0
172 196 0
173 197 0
175 197 0
175 198 0
174 198 0
174 198 0
174 197 0
175 198 0
175 198 0
174 198 0
175 198 0
174 197 0
174 198 0
174 197 0
174 197 0
174 197 0
174 198 0
175 198 0
174 197 0
174 198 0
174 197 0
172 196 0
175 198 0
174 198 0
173 197 0
175 198 0
174 197 0
175 198 0
174 198 0
175 198 0
173 197 0
173 197 0
174 198 0
175 198 0
173 197 0
175 198 0
175 198 0
174 197 0
175 198 0
174 198 0
175 198 0
174 198 0
174 197 0
173 196 0
174 198 0
175 198 0
174 198 0
174 197 0
175 198 0
173 197 0
175 198 0
174 197 0
174 198 0
173 197 0
176 199 0
173 197 0
175 198 0
174 198 0
173 197 0
174 198 0
174 197 0
175 198 0
175 198 0
176 199 0
174 198 0
175 198 0
175 198 0
176 198 0
174 197 0
175 198 0
175 198 0
174 198 0
173 197 0
175 198 0
175 198 0
174 198 0
175 198 0
175 198 0
176 198 0
172 197 0
175 198 0
174 198 0
175 198 0
174 197 0
176 199 0
174 197 0
176 199 0
174 198 0
173 197 0
175 198 0
176 199 0
174 197 0
175 198 0
174 198 0
174 198 0
174 198 0
175 198 0
173 197 0
175 198 0
174 198 0
175 198 0
175 198 0
175 198 0
174 198 0
174 198 0
175 198 0
173 197 0
173 197 0
174 197 0
174 198 0
174 197 0
174 197 0
176 199 0
176 199 0
175 198 0
174 197 0
173 197 0
174 198 0
175 198 0
175 198 0
176 198 0
174 198 0
173 197 0
173 197 0
173 197 0
176 199 0
175 198 0
175 198 0
175 198 0
175 198 0
173 197 0
174 198 0
174 198 0
174 197 0
175 198 0
175 198 0
175 198 0
173 197 0
175 198 0
175 198 0
175 198 0
173 197 0
174 198 0
173 197 0
174 197 0
177 199 0
175 198 0
175 198 0
174 198 0
176 199 0
174 198 0
175 198 0
175 198 0
173 197 0
174 198 0
176 199 0
174 198 0
173 197 0
175 198 0
176 198 0
175 198 0
174 198 0
175 198 0
174 197 0
176 199 0
175 198 0
175 198 0
175 198 0
175 198 0
173 197 0
177 199 0
174 198 0
174 198 0
175 198 0
174 198 0
174 198 0
176 199 0
174 198 0
173 197 0
174 198 0
177 199 0
175 198 0
175 198 0
175 198 0
176 198 0
173 197 0
174 198 0
174 198 0
172 197 0
174 198 0
174 198 0
175 198 0
176 199 0
174 198 0
173 197 0
175 198 0
176 198 0
176 199 0
172 196 0
173 197 0
175 198 0
174 198 0
174 198 0
173 197 0
173 197 0
173 197 0
174 198 0
174 198 0
174 198 0
175 198 0
177 199 0
174 198 0
174 198 0
175 198 0
174 198 0
174 197 0
173 197 0
174 198 0
174 198 0
175 198 0
175 198 0
175 198 0
173 197 0
175 198 0
174 198 0
176 199 0
174 198 0
173 197 0
174 198 0
174 197 0
174 197 0
175 198 0
174 198 0
175 198 0
175 198 0
174 198 0
174 198 0
175 198 0
173 197 0
175 198 0
174 198 0
175 198 0
175 198 0
174 198 0
175 198 0
175 198 0
174 198 0
174 198 0
175 198 0
175 198 0
173 197 0
175 198 0
174 197 0
175 198 0
175 198 0
173 197 0
173 197 0
174 198 0
173 197 0
174 197 0
174 197 0
175 198 0
174 198 0
174 197 0
174 198 0
173 197 0
173 197 0
174 198 0
176 199 0
175 198 0
173 196 0
175 198 0
175 198 0
173 197 0
175 198 0
175 198 0
174 197 0
173 196 0
172 196 0
174 198 0
176 199 0
175 198 0
176 198 0
174 197 0
173 197 0
173 196 0
175 198 0
173 197 0
173 197 0
174 197 0
175 198 0
173 197 0
174 197 0
172 196 0
172 196 0
174 197 0
173 197 0
174 196 0
172 196 0
172 195 0
174 197 0
173 196 0
173 197 0
174 197 0
173 196 0
174 197 0
173 196 0
171 195 0
171 194 0
171 195 0
174 197 0
173 197 0
172 195 0
173 196 0
172 195 0
174 197 0
172 196 0
174 196 0
174 197 0
171 194 0
170 194 0
158 182 62
75 108 161
62 99 173
62 99 172
62 99 177
61 98 174
62 99 179
62 99 178
62 99 177
62 99 179
62 99 179
62 99 181
63 100 181
62 99 179
63 100 181
63 100 181
62 99 176
62 99 176
61 98 177
62 99 177
62 99 174
62 99 177
62 99 177
62 98 172
63 99 175
62 98 170
62 98 174
59 91 151
45 60 64
45 60 52
47 64 62
52 69 64
51 68 63
53 72 69
151 147 100
185 176 114
184 176 114
183 175 114
183 175 114
182 175 114
182 175 114
183 175 114
184 175 114
184 176 114
185 176 114
187 177 114
189 178 114
191 179 114
194 180 114
197 182 114
198 182 112
160 156 32
155 152 0
167 183 0
173 194 0
171 195 0
174 196 0
174 197 0
173 196 0
173 196 0
172 195 0
174 197 0
173 197 0
173 196 0
174 197 0
174 197 0
175 197 0
175 197 0
173 196 0
174 198 0
173 197 0
173 197 0
175 197 0
174 197 0
175 197 0
173 196 0
174 198 0
173 197 0
174 197 0
175 198 0
173 197 0
174 197 0
174 197 0
175 198 0
173 197 0
174 198 0
172 197 0
176 199 0
172 197 0
174 198 0
174 197 0
174 197 0
175 198 0
176 199 0
173 197 0
174 197 0
176 198 0
173 197 0
174 198 0
173 197 0
174 197 0
174 198 0
175 197 0
174 198 0
174 198 0
174 198 0
173 197 0
174 197 0
173 197 0
175 198 0
175 198 0
173 197 0
174 197 0
174 198 0
175 198 0
175 198 0
173 197 0
176 199 0
175 198 0
175 198 0
175 198 0
174 198 0
174 198 0
174 198 0
173 197 0
173 197 0
175 198 0
174 198 0
175 198 0
173 197 0
173 197 0
175 198 0
174 198 0
175 198 0
174 198 0
175 198 0
173 197 0
175 198 0
175 198 0
175 198 0
174 197 0
175 198 0
175 198 0
176 199 0
173 197 0
175 198 0
175 198 0
175 198 0
175 198 0
175 198 0
174 198 0
176 198 0
173 197 0
174 197 0
174 197 0
175 198 0
174 198 0
173 197 0
174 198 0
175 198 0
174 197 0
175 198 0
173 197 0
174 198 0
174 198 0
174 198 0
175 198 0
173 197 0
176 199 0
174 198 0
173 197 0
175 198 0
176 199 0
175 198 0
175 198 0
173 197 0
176 199 0
174 197 0
176 199 0
175 198 0
174 198 0
176 198 0
174 197 0
175 198 0
174 198 0
174 198 0
175 198 0
174 198 0
175 198 0
174 198 0
176 199 0
174 198 0
175 198 0
173 197 0
175 198 0
173 197 0
174 197 0
174 198 0
175 198 0
174 198 0
175 198 0
175 198 0
174 198 0
173 197 0
175 198 0
175 198 0
176 198 0
174 198 0
174 198 0
175 198 0
174 198 0
176 198 0
175 198 0
175 198 0
175 198 0
173 197 0
176 198 0
173 197 0
175 198 0
175 198 0
173 197 0
174 198 0
175 198 0
174 198 0
173 197 0
175 198 0
173 197 0
175 198 0
176 199 0
174 198 0
176 199 0
174 197 0
174 198 0
174 197 0
176 198 0
175 198 0
173 197 0
174 197 0
175 198 0
174 197 0
174 198 0
175 198 0
175 198 0
173 197 0
173 197 0
175 198 0
175 198 0
173 197 0
175 198 0
175 198 0
173 197 0
175 198 0
174 198 0
174 198 0
174 197 0
174 198 0
174 198 0
175 198 0
174 198 0
175 198 0
174 198 0
175 198 0
174 198 0
175 198 0
174 198 0
175 198 0
175 198 0
175 198 0
175 198 0
173 197 0
176 198 0
175 198 0
175 198 0
174 198 0
175 198 0
176 199 0
177 199 0
174 198 0
174 197 0
174 198 0
174 197 0
175 198 0
175 198 0
175 198 0
175 198 0
176 199 0
173 197 0
174 198 0
174 197 0
174 198 0
175 198 0
175 198 0
175 198 0
175 198 0
175 198 0
176 198 0
176 199 0
175 198 0
175 198 0
174 197 0
175 198 0
174 198 0
174 198 0
173 197 0
171 195 0
175 198 0
175 198 0
176 199 0
174 198 0
173 197 0
175 198 0
175 198 0
173 197 0
173 197 0
174 198 0
174 198 0
175 198 0
173 197 0
175 198 0
173 197 0
176 198 0
174 197 0
176 199 0
174 198 0
173 197 0
173 197 0
174 197 0
175 198 0
174 198 0
175 198 0
175 198 0
174 197 0
175 198 0
174 197 0
175 198 0
175 198 0
173 197 0
174 197 0
173 196 0
174 197 0
175 198 0
175 198 0
175 198 0
174 197 0
173 197 0
174 198 0
174 198 0
176 198 0
175 198 0
175 198 0
176 198 0
172 196 0
174 198 0
176 198 0
175 198 0
173 196 0
172 196 0
176 199 0
176 199 0
174 197 0
174 197 0
174 197 0
173 196 0
173 197 0
172 196 0
175 197 0
176 199 0
173 197 0
173 197 0
173 197 0
175 198 0
173 196 0
174 197 0
174 197 0
174 197 0
172 196 0
173 197 0
173 197 0
174 197 0
171 195 0
172 196 0
174 197 0
173 196 0
170 194 0
172 196 0
173 196 0
171 194 0
171 195 0
174 197 0
172 195 0
173 196 0
174 196 0
171 195 0
169 192 0
170 194 0
174 197 0
172 195 0
173 197 0
169 192 0
169 193 0
112 138 139
62 98 170
62 99 172
61 98 174
62 98 173
62 99 177
63 99 176
62 99 176
62 99 177
62 99 181
63 99 177
62 99 179
62 99 179
62 99 180
62 99 180
62 99 178
62 99 180
62 99 174
62 99 175
62 99 178
62 99 175
62 99 174
62 99 174
62 99 175
63 99 173
61 97 169
62 99 173
61 97 165
51 77 119
42 56 49
45 60 55
46 62 56
49 66 61
54 72 69
89 96 77
190 178 114
188 178 114
188 177 114
187 177 114
187 177 114
186 177 114
187 177 114
188 177 114
188 178 114
190 178 114
191 179 114
193 180 114
195 181 114
197 182 114
197 181 110
173 165 66
155 152 0
155 152 0
170 188 0
173 195 0
174 196 0
174 198 0
174 197 0
174 195 0
172 194 0
171 195 0
176 198 0
172 196 0
173 195 0
175 198 0
175 197 0
173 197 0
171 195 0
175 197 0
173 196 0
174 197 0
173 196 0
174 196 0
175 198 0
175 197 0
175 197 0
175 198 0
172 196 0
174 197 0
173 196 0
173 197 0
173 197 0
174 197 0
174 198 0
173 197 0
176 199 0
175 198 0
175 197 0
174 197 0
175 198 0
174 197 0
174 196 0
173 197 0
174 198 0
173 197 0
174 198 0
175 198 0
175 198 0
175 197 0
175 198 0
175 198 0
174 198 0
174 197 0
175 198 0
174 198 0
174 197 0
176 199 0
174 197 0
175 198 0
176 198 0
175 198 0
173 197 0
174 198 0
173 197 0
177 199 0
174 197 0
174 198 0
173 197 0
174 198 0
174 197 0
174 197 0
175 198 0
177 199 0
172 197 0
174 197 0
174 198 0
174 198 0
176 199 0
175 198 0
175 198 0
175 198 0
173 197 0
175 198 0
174 198 0
175 198 0
173 197 0
174 198 0
176 198 0
174 198 0
174 198 0
175 198 0
173 197 0
174 198 0
175 198 0
174 198 0
174 197 0
174 198 0
175 198 0
174 198 0
174 198 0
173 197 0
176 199 0
175 198 0
174 198 0
174 198 0
175 198 0
174 198 0
174 198 0
175 198 0
175 198 0
176 198 0
175 198 0
175 198 0
174 198 0
177 199 0
174 197 0
175 198 0
175 198 0
174 198 0
174 197 0
174 198 0
174 198 0
175 198 0
176 199 0
175 198 0
174 198 0
173 197 0
173 197 0
174 197 0
175 198 0
173 197 0
172 197 0
176 198 0
174 197 0
175 198 0
174 198 0
176 199 0
174 197 0
174 198 0
175 198 0
174 198 0
175 198 0
174 197 0
174 198 0
174 197 0
174 197 0
175 198 0
176 199 0
175 198 0
173 197 0
175 198 0
173 197 0
174 198 0
174 198 0
174 197 0
174 198 0
175 198 0
175 198 0
176 199 0
175 198 0
175 198 0
175 198 0
176 199 0
175 198 0
173 197 0
174 197 0
175 198 0
175 198 0
175 198 0
173 197 0
174 198 0
174 197 0
175 198 0
176 199 0
175 198 0
174 198 0
175 198 0
175 198 0
172 197 0
176 199 0
173 197 0
175 198 0
175 198 0
175 198 0
174 198 0
174 198 0
175 198 0
173 197 0
176 198 0
175 198 0
175 198 0
174 198 0
175 198 0
174 198 0
175 198 0
174 198 0
173 197 0
174 197 0
174 198 0
174 198 0
176 199 0
175 198 0
173 197 0
175 198 0
175 198 0
174 198 0
177 199 0
173 197 0
174 198 0
175 198 0
174 198 0
173 197 0
174 198 0
174 198 0
173 197 0
175 198 0
174 197 0
175 198 0
176 199 0
175 198 0
174 198 0
173 197 0
175 198 0
174 198 0
174 198 0
174 198 0
175 198 0
176 199 0
173 197 0
173 197 0
175 198 0
175 198 0
175 198 0
175 198 0
175 198 0
175 198 0
174 197 0
175 198 0
173 197 0
174 198 0
175 198 0
174 198 0
175 198 0
174 198 0
175 198 0
173 197 0
174 197 0
174 198 0
174 197 0
174 198 0
175 198 0
176 199 0
175 198 0
174 198 0
174 197 0
176 199 0
173 197 0
175 198 0
174 197 0
174 198 0
173 197 0
174 197 0
173 197 0
173 197 0
175 198 0
174 198 0
175 198 0
175 198 0
175 198 0
176 198 0
173 197 0
174 198 0
175 198 0
174 198 0
174 198 0
175 198 0
174 198 0
175 198 0
176 199 0
174 197 0
174 198 0
174 197 0
173 196 0
174 198 0
174 198 0
176 199 0
172 196 0
173 197 0
174 198 0
175 198 0
174 198 0
175 198 0
175 198 0
174 197 0
173 197 0
173 197 0
175 198 0
174 198 0
172 196 0
172 195 0
173 197 0
173 196 0
173 196 0
174 197 0
173 197 0
174 198 0
175 198 0
173 196 0
174 197 0
173 196 0
172 195 0
175 198 0
173 197 0
173 197 0
174 197 0
174 198 0
172 196 0
173 197 0
172 195 0
175 198 0
174 198 0
173 197 0
171 195 0
173 197 0
171 195 0
172 196 0
173 196 0
170 193 0
174 197 0
174 197 0
173 197 0
174 198 0
173 196 0
172 196 0
169 192 0
171 195 0
173 196 0
169 192 0
171 195 0
172 195 0
171 194 0
173 196 0
171 195 0
171 194 0
172 195 0
169 192 0
169 192 0
172 195 0
167 191 0
160 182 57
62 98 163
62 98 166
62 98 170
62 99 174
62 99 174
62 99 175
61 98 175
62 99 177
62 99 180
63 100 177
62 99 176
63 100 179
62 99 177
62 98 176
61 98 176
62 99 177
62 99 175
62 99 177
62 99 177
62 99 175
62 99 173
61 98 167
62 98 173
63 99 174
62 98 173
62 98 170
62 98 169
61 96 160
60 93 152
38 51 47
42 55 43
47 62 51
50 66 56
53 70 62
54 73 67
178 167 108
193 180 114
192 180 114
192 179 114
191 179 114
191 179 114
191 179 114
192 180 114
193 180 114
194 180 114
195 181 114
197 182 114
198 183 114
192 178 103
170 163 61
154 152 0
155 153 0
155 153 0
173 195 0
171 195 0
173 194 0
173 196 0
172 195 0
172 194 0
172 196 0
174 196 0
173 196 0
173 194 0
172 195 0
174 197 0
175 198 0
172 195 0
174 197 0
174 197 0
171 195 0
173 197 0
173 196 0
174 197 0
173 197 0
173 197 0
172 196 0
174 198 0
174 198 0
174 196 0
174 197 0
173 196 0
174 198 0
175 198 0
174 197 0
173 197 0
174 197 0
174 197 0
174 198 0
173 196 0
173 197 0
174 197 0
176 199 0
174 197 0
173 197 0
173 197 0
174 198 0
174 197 0
173 197 0
175 198 0
175 198 0
174 197 0
175 198 0
175 198 0
174 197 0
175 198 0
176 198 0
175 198 0
175 198 0
175 198 0
172 197 0
175 198 0
174 198 0
173 197 0
175 198 0
176 199 0
174 197 0
175 198 0
174 198 0
173 196 0
174 197 0
174 197 0
173 197 0
175 198 0
174 198 0
175 198 0
173 197 0
173 197 0
176 198 0
174 198 0
175 198 0
174 198 0
176 199 0
173 197 0
174 197 0
174 198 0
175 198 0
172 197 0
175 198 0
174 198 0
174 198 0
175 198 0
176 198 0
175 198 0
175 198 0
174 198 0
174 198 0
172 197 0
176 199 0
175 198 0
173 197 0
174 197 0
174 198 0
175 198 0
175 198 0
175 198 0
174 197 0
176 199 0
173 197 0
176 199 0
176 199 0
175 198 0
175 198 0
174 198 0
175 198 0
173 197 0
174 197 0
174 198 0
174 198 0
175 198 0
175 198 0
173 197 0
174 197 0
175 198 0
173 197 0
175 198 0
175 198 0
177 199 0
175 198 0
176 199 0
176 199 0
177 199 0
174 198 0
175 198 0
175 198 0
173 197 0
175 198 0
175 198 0
175 198 0
174 198 0
175 198 0
175 198 0
175 198 0
174 198 0
175 198 0
175 198 0
176 199 0
176 199 0
175 198 0
175 198 0
174 198 0
175 198 0
175 198 0
176 199 0
175 198 0
176 198 0
175 198 0
174 198 0
175 198 0
176 199 0
174 197 0
176 199 0
174 198 0
174 198 0
174 198 0
175 198 0
174 198 0
175 198 0
174 198 0
175 198 0
174 198 0
174 198 0
175 198 0
173 197 0
174 197 0
176 199 0
176 199 0
174 198 0
174 198 0
174 197 0
173 197 0
174 197 0
174 198 0
175 198 0
175 198 0
174 198 0
174 198 0
174 198 0
174 197 0
174 198 0
175 198 0
175 198 0
175 198 0
175 198 0
174 198 0
172 197 0
173 197 0
175 198 0
175 198 0
175 198 0
174 198 0
173 197 0
174 198 0
174 198 0
175 198 0
173 197 0
176 199 0
175 198 0
174 198 0
175 198 0
174 198 0
175 198 0
172 197 0
175 198 0
175 198 0
174 198 0
174 197 0
174 198 0
176 199 0
174 198 0
173 197 0
174 198 0
175 198 0
175 198 0
177 199 0
174 198 0
174 198 0
173 197 0
173 197 0
174 197 0
173 197 0
175 198 0
175 198 0
174 198 0
174 198 0
174 197 0
174 198 0
174 198 0
174 197 0
176 199 0
175 198 0
175 198 0
175 198 0
174 198 0
173 197 0
174 198 0
175 198 0
175 198 0
174 198 0
175 198 0
174 198 0
175 198 0
174 197 0
175 198 0
174 198 0
174 198 0
176 198 0
175 198 0
174 197 0
175 198 0
174 197 0
175 198 0
173 197 0
174 198 0
172 197 0
175 198 0
175 198 0
176 198 0
175 198 0
174 198 0
175 198 0
175 198 0
175 198 0
173 197 0
175 198 0
175 198 0
173 197 0
174 198 0
174 198 0
173 197 0
175 198 0
176 198 0
177 199 0
174 198 0
174 198 0
174 197 0
173 197 0
174 197 0
175 198 0
173 197 0
174 198 0
175 198 0
175 198 0
174 197 0
175 198 0
173 196 0
174 198 0
175 198 0
173 197 0
176 199 0
174 197 0
172 196 0
173 197 0
174 197 0
174 198 0
175 198 0
174 197 0
173 197 0
173 196 0
174 197 0
174 198 0
174 197 0
174 197 0
174 198 0
172 195 0
173 197 0
172 196 0
173 197 0
174 198 0
172 195 0
173 196 0
174 197 0
174 197 0
174 197 0
172 195 0
173 196 0
172 196 0
173 197 0
174 197 0
172 195 0
173 196 0
172 196 0
174 197 0
173 196 0
170 194 0
170 194 0
170 193 0
173 196 0
168 191 0
171 195 0
172 196 0
171 194 0
171 194 0
173 197 0
171 193 0
173 196 0
171 194 0
168 190 0
170 193 0
170 194 0
123 149 121
63 99 170
61 98 173
62 98 170
62 98 174
62 99 179
62 98 170
63 100 178
62 99 176
62 99 176
62 99 176
62 98 172
63 100 180
62 99 176
62 99 178
62 99 175
62 99 174
62 99 176
63 99 177
62 99 170
62 99 178
62 99 173
62 99 178
63 99 176
62 98 170
63 99 166
62 98 166
62 98 167
62 98 166
63 98 165
48 72 111
39 50 37
44 58 46
48 63 51
52 69 62
53 71 60
173 162 103
197 182 114
197 182 114
196 182 114
196 181 114
196 181 114
196 181 114
196 182 114
197 182 114
198 182 114
199 183 113
192 178 102
177 168 77
157 154 11
155 153 0
155 152 0
156 152 0
159 163 0
174 194 0
171 195 0
172 195 0
172 193 0
172 194 0
173 195 0
174 195 0
173 196 0
173 196 0
173 197 0
174 196 0
173 195 0
174 196 0
174 197 0
173 197 0
174 198 0
174 197 0
174 197 0
176 198 0
174 197 0
173 197 0
173 197 0
175 198 0
174 197 0
173 196 0
174 197 0
174 197 0
174 198 0
173 197 0
174 197 0
175 197 0
174 198 0
173 197 0
174 197 0
174 197 0
173 197 0
173 196 0
176 198 0
174 198 0
174 197 0
173 196 0
174 198 0
173 196 0
174 198 0
175 198 0
175 198 0
175 198 0
173 197 0
173 196 0
175 197 0
175 198 0
173 197 0
176 199 0
174 197 0
174 197 0
174 198 0
172 197 0
176 198 0
175 198 0
173 197 0
174 198 0
175 198 0
175 198 0
173 197 0
176 198 0
173 197 0
173 197 0
174 197 0
175 198 0
174 197 0
173 197 0
174 197 0
175 198 0
175 198 0
175 198 0
174 198 0
174 198 0
172 197 0
175 198 0
174 197 0
174 198 0
174 198 0
174 197 0
174 197 0
176 198 0
176 199 0
175 198 0
176 198 0
174 198 0
175 198 0
175 198 0
175 198 0
175 198 0
174 198 0
174 198 0
176 198 0
174 198 0
174 198 0
174 198 0
175 198 0
174 198 0
174 197 0
174 198 0
174 198 0
174 197 0
174 197 0
174 198 0
175 198 0
176 199 0
173 197 0
174 198 0
175 198 0
174 198 0
174 197 0
175 198 0
176 198 0
173 197 0
174 198 0
174 198 0
174 197 0
174 198 0
174 198 0
175 198 0
175 198 0
175 198 0
175 198 0
175 198 0
174 197 0
175 198 0
176 199 0
173 197 0
175 198 0
174 198 0
174 197 0
174 197 0
174 197 0
175 198 0
175 198 0
175 198 0
173 197 0
175 198 0
174 198 0
174 198 0
174 197 0
176 199 0
176 199 0
176 198 0
175 198 0
175 198 0
175 198 0
175 198 0
174 198 0
175 198 0
175 198 0
175 198 0
174 198 0
174 198 0
174 198 0
172 197 0
175 198 0
176 199 0
174 198 0
175 198 0
174 198 0
173 197 0
173 197 0
173 197 0
173 197 0
174 198 0
174 198 0
174 197 0
174 198 0
175 198 0
173 197 0
175 198 0
175 198 0
174 197 0
175 198 0
174 198 0
172 196 0
175 198 0
173 197 0
176 199 0
175 198 0
174 198 0
175 198 0
175 198 0
176 198 0
175 198 0
174 198 0
175 198 0
174 198 0
175 198 0
175 198 0
175 198 0
175 198 0
175 198 0
175 198 0
174 198 0
174 198 0
174 198 0
173 197 0
174 198 0
173 197 0
174 198 0
175 198 0
175 198 0
175 198 0
174 197 0
173 197 0
176 199 0
175 198 0
175 198 0
175 198 0
176 199 0
174 198 0
174 198 0
175 198 0
175 198 0
174 198 0
175 198 0
175 198 0
175 198 0
174 197 0
174 197 0
174 198 0
175 198 0
175 198 0
174 198 0
175 198 0
173 197 0
174 198 0
175 198 0
175 198 0
175 198 0
175 198 0
174 198 0
175 198 0
175 198 0
174 198 0
174 197 0
174 197 0
174 198 0
175 198 0
174 197 0
175 198 0
173 197 0
173 197 0
174 198 0
173 196 0
174 197 0
175 198 0
173 197 0
174 198 0
174 198 0
175 198 0
174 198 0
174 198 0
174 197 0
173 196 0
175 198 0
174 198 0
175 198 0
175 198 0
175 198 0
176 198 0
176 199 0
175 198 0
174 198 0
175 198 0
174 198 0
175 198 0
175 198 0
175 198 0
173 197 0
174 197 0
175 198 0
174 198 0
176 198 0
174 197 0
173 197 0
173 197 0
175 198 0
174 198 0
173 197 0
174 198 0
177 199 0
174 198 0
174 197 0
173 197 0
175 198 0
175 198 0
172 196 0
175 198 0
173 197 0
173 196 0
173 197 0
175 198 0
174 197 0
174 197 0
173 197 0
174 197 0
175 198 0
173 196 0
174 197 0
173 197 0
175 198 0
174 198 0
173 197 0
173 197 0
174 197 0
171 195 0
174 198 0
174 197 0
175 197 0
174 197 0
174 197 0
173 197 0
173 196 0
174 197 0
174 197 0
171 195 0
173 196 0
172 196 0
171 195 0
172 195 0
173 196 0
173 196 0
173 197 0
174 197 0
173 195 0
172 196 0
172 195 0
171 195 0
172 195 0
172 196 0
174 197 0
173 197 0
171 195 0
169 193 0
171 195 0
168 191 0
170 193 0
169 192 0
172 195 0
171 194 0
90 121 151
62 98 165
62 98 168
62 99 173
62 98 169
61 98 169
62 98 174
63 99 172
62 99 175
62 99 179
63 100 180
62 99 176
62 99 174
62 99 172
62 99 176
63 99 177
63 99 172
62 99 175
62 99 173
63 99 174
62 99 170
63 99 176
61 98 169
62 98 165
63 99 167
62 99 171
62 99 172
62 98 167
62 98 165
62 97 161
56 86 139
37 49 34
47 61 47
49 65 53
49 65 53
52 70 55
142 140 50
169 162 62
182 171 85
179 169 80
186 174 93
186 174 92
188 175 96
184 172 89
184 172 89
172 164 64
162 157 39
156 153 0
156 153 0
156 153 0
155 152 0
156 152 0
155 151 0
165 176 0
172 193 0
173 194 0
173 194 0
173 195 0
171 191 0
173 195 0
173 196 0
171 194 0
172 196 0
173 195 0
174 197 0
173 195 0
173 196 0
174 196 0
173 196 0
174 195 0
174 197 0
174 197 0
174 197 0
173 197 0
173 196 0
172 197 0
174 197 0
173 197 0
175 197 0
175 198 0
174 197 0
174 198 0
175 198 0
175 198 0
173 197 0
173 197 0
175 198 0
175 198 0
175 198 0
175 198 0
174 197 0
174 198 0
175 198 0
175 198 0
174 197 0
175 198 0
176 199 0
172 197 0
173 197 0
174 198 0
173 197 0
174 197 0
173 197 0
175 198 0
173 197 0
175 198 0
174 198 0
175 198 0
174 198 0
173 197 0
174 198 0
174 197 0
175 198 0
174 198 0
174 198 0
173 197 0
175 197 0
175 198 0
173 197 0
173 197 0
172 196 0
174 197 0
175 198 0
174 198 0
174 198 0
175 198 0
174 198 0
173 197 0
175 198 0
173 197 0
174 198 0
175 198 0
175 198 0
176 199 0
175 198 0
174 197 0
174 198 0
176 198 0
176 198 0
173 197 0
175 198 0
175 198 0
175 198 0
173 197 0
175 198 0
175 198 0
173 197 0
175 198 0
173 197 0
173 197 0
175 198 0
174 197 0
175 198 0
173 197 0
174 197 0
174 198 0
175 198 0
176 198 0
174 198 0
174 197 0
174 197 0
173 197 0
175 198 0
176 199 0
172 197 0
174 197 0
176 198 0
173 197 0
173 197 0
174 198 0
176 198 0
175 198 0
175 198 0
174 198 0
173 197 0
174 198 0
174 197 0
175 198 0
174 197 0
174 197 0
176 199 0
176 198 0
175 198 0
176 198 0
174 198 0
173 197 0
175 198 0
173 197 0
175 198 0
174 198 0
175 198 0
174 197 0
175 198 0
174 197 0
173 197 0
174 198 0
173 197 0
174 198 0
174 198 0
174 198 0
174 198 0
173 197 0
174 198 0
174 198 0
175 198 0
173 197 0
175 198 0
174 198 0
176 199 0
175 198 0
175 198 0
173 197 0
176 199 0
174 198 0
175 198 0
175 198 0
175 198 0
176 199 0
173 197 0
175 198 0
175 198 0
174 198 0
174 198 0
174 198 0
175 198 0
176 199 0
176 199 0
174 198 0
175 198 0
175 198 0
175 198 0
174 198 0
174 198 0
174 198 0
175 198 0
174 198 0
175 198 0
174 198 0
176 198 0
174 197 0
174 198 0
174 197 0
174 198 0
175 198 0
174 198 0
176 199 0
175 198 0
175 198 0
175 198 0
175 198 0
176 198 0
176 198 0
174 197 0
174 198 0
176 198 0
174 197 0
174 197 0
173 197 0
174 198 0
176 199 0
174 198 0
176 198 0
173 197 0
175 198 0
175 198 0
174 198 0
174 198 0
175 198 0
174 198 0
176 199 0
174 197 0
174 198 0
174 198 0
175 198 0
176 198 0
174 198 0
174 198 0
175 198 0
174 198 0
174 197 0
175 198 0
175 198 0
174 198 0
173 197 0
175 198 0
173 197 0
174 197 0
174 198 0
173 196 0
175 198 0
174 198 0
174 197 0
174 198 0
175 198 0
176 198 0
175 198 0
174 198 0
174 198 0
175 198 0
174 198 0
173 197 0
174 198 0
175 198 0
174 198 0
174 198 0
173 197 0
175 198 0
174 198 0
175 198 0
174 197 0
173 197 0
173 197 0
175 198 0
175 198 0
176 199 0
175 198 0
174 198 0
174 198 0
174 198 0
174 197 0
173 197 0
173 197 0
174 197 0
174 198 0
174 198 0
175 198 0
173 197 0
174 198 0
175 198 0
175 198 0
174 198 0
174 198 0
173 197 0
174 198 0
174 198 0
173 197 0
175 198 0
174 197 0
173 197 0
174 197 0
172 196 0
175 198 0
175 198 0
175 198 0
174 197 0
174 197 0
174 197 0
172 196 0
174 198 0
172 196 0
175 198 0
174 197 0
175 198 0
174 197 0
173 197 0
174 198 0
172 196 0
174 198 0
175 198 0
172 195 0
172 195 0
171 195 0
174 197 0
175 198 0
173 196 0
174 198 0
172 195 0
173 196 0
175 198 0
173 197 0
173 196 0
174 197 0
173 197 0
174 197 0
174 198 0
168 192 0
171 194 0
173 197 0
172 196 0
171 195 0
173 196 0
174 197 0
171 194 0
170 194 0
174 197 0
172 195 0
174 196 0
170 193 0
172 195 0
172 195 0
172 195 0
168 191 0
170 194 0
171 195 0
168 191 0
169 193 0
171 194 0
171 194 0
165 188 0
164 187 25
66 101 169
61 97 159
61 97 159
62 98 167
62 99 171
62 99 174
62 99 173
63 99 174
62 99 173
61 97 169
62 99 171
63 99 175
63 99 175
62 99 175
62 99 176
62 99 175
62 98 170
62 98 171
62 98 171
62 99 172
63 99 172
62 99 171
62 98 170
62 98 167
62 98 165
62 99 173
62 98 165
62 98 168
61 97 159
60 96 155
60 95 149
38 50 36
44 57 42
45 59 40
49 65 50
53 70 53
152 150 18
153 151 0
154 151 0
155 152 0
157 153 0
156 152 0
155 152 0
154 152 0
156 152 0
154 151 0
156 153 0
154 152 0
157 153 0
156 152 0
155 151 0
153 151 0
154 150 0
171 192 0
172 194 0
171 192 0
173 195 0
172 193 0
174 196 0
173 196 0
171 193 0
172 195 0
175 197 0
173 196 0
173 196 0
172 195 0
174 197 0
172 194 0
172 196 0
174 197 0
174 197 0
173 197 0
171 194 0
175 197 0
174 197 0
173 197 0
173 197 0
173 196 0
172 196 0
174 197 0
174 198 0
173 196 0
173 196 0
174 197 0
174 196 0
174 198 0
176 199 0
174 197 0
174 197 0
173 196 0
175 198 0
174 197 0
175 197 0
174 198 0
173 196 0
173 197 0
173 197 0
173 197 0
172 196 0
175 198 0
173 196 0
176 198 0
173 197 0
175 198 0
175 198 0
174 198 0
173 197 0
174 197 0
175 198 0
174 198 0
176 198 0
175 198 0
175 198 0
175 198 0
174 198 0
174 198 0
173 197 0
174 198 0
176 199 0
173 197 0
173 197 0
175 198 0
174 198 0
173 197 0
176 199 0
174 197 0
174 197 0
173 197 0
176 199 0
174 197 0
175 198 0
173 197 0
175 198 0
173 197 0
175 198 0
173 197 0
174 197 0
174 198 0
174 198 0
174 197 0
175 198 0
175 198 0
173 197 0
172 196 0
174 197 0
175 198 0
174 198 0
176 199 0
173 197 0
175 198 0
174 198 0
175 198 0
174 198 0
174 198 0
174 198 0
175 198 0
175 198 0
174 197 0
174 198 0
175 198 0
174 198 0
175 198 0
176 198 0
174 198 0
174 198 0
175 198 0
175 198 0
174 197 0
174 198 0
173 197 0
174 197 0
176 198 0
175 198 0
175 198 0
175 198 0
175 198 0
173 197 0
174 198 0
176 198 0
174 198 0
174 197 0
175 198 0
174 198 0
176 198 0
175 198 0
174 198 0
175 198 0
173 197 0
176 198 0
175 198 0
175 198 0
175 198 0
174 197 0
173 197 0
174 198 0
172 197 0
173 197 0
175 198 0
174 197 0
174 198 0
175 198 0
174 197 0
174 198 0
174 198 0
174 198 0
175 198 0
174 198 0
175 198 0
175 198 0
175 198 0
175 198 0
175 198 0
175 198 0
174 198 0
173 197 0
173 197 0
175 198 0
175 198 0
174 198 0
173 197 0
175 198 0
175 198 0
175 198 0
175 198 0
176 199 0
175 198 0
174 198 0
174 198 0
174 198 0
173 197 0
175 198 0
174 198 0
174 198 0
175 198 0
175 198 0
176 199 0
174 198 0
173 197 0
174 198 0
175 198 0
175 198 0
173 197 0
173 197 0
176 199 0
174 198 0
174 198 0
175 198 0
175 198 0
173 197 0
173 197 0
174 197 0
175 198 0
174 198 0
174 198 0
176 198 0
175 198 0
176 199 0
175 198 0
175 198 0
174 198 0
174 198 0
175 198 0
174 197 0
174 198 0
174 198 0
173 197 0
175 198 0
175 198 0
174 198 0
174 198 0
175 198 0
173 197 0
173 197 0
175 198 0
174 198 0
173 197 0
173 197 0
174 198 0
174 198 0
174 197 0
173 197 0
175 198 0
175 198 0
175 198 0
173 197 0
173 197 0
173 197 0
173 197 0
174 197 0
174 197 0
174 198 0
175 198 0
175 198 0
175 198 0
172 197 0
173 197 0
174 198 0
174 198 0
174 198 0
173 197 0
174 198 0
176 199 0
174 197 0
175 198 0
174 197 0
174 197 0
172 196 0
173 197 0
175 198 0
173 197 0
175 198 0
174 198 0
174 198 0
172 197 0
174 198 0
174 198 0
173 197 0
175 198 0
174 197 0
174 197 0
174 197 0
173 197 0
175 198 0
175 198 0
173 197 0
175 198 0
175 198 0
175 198 0
174 198 0
174 198 0
173 196 0
174 198 0
175 198 0
173 197 0
175 198 0
173 197 0
174 198 0
174 197 0
174 198 0
174 198 0
172 196 0
175 198 0
171 196 0
175 198 0
173 196 0
175 198 0
174 198 0
175 198 0
174 197 0
172 196 0
175 198 0
173 197 0
174 197 0
174 198 0
173 196 0
173 197 0
174 197 0
172 196 0
173 197 0
174 198 0
174 197 0
173 197 0
172 196 0
174 197 0
172 196 0
174 197 0
173 197 0
175 198 0
174 197 0
173 196 0
171 195 0
176 199 0
174 198 0
176 198 0
176 198 0
173 196 0
176 198 0
172 196 0
172 195 0
172 196 0
171 194 0
172 196 0
172 195 0
171 194 0
173 196 0
169 192 0
170 194 0
171 195 0
172 196 0
172 196 0
172 196 0
168 191 0
170 193 0
170 194 0
171 195 0
174 197 0
166 189 0
168 190 0
169 190 0
145 170 82
62 98 159
63 99 162
61 97 159
62 98 164
62 98 167
63 99 175
63 99 171
62 98 165
63 99 173
62 99 172
62 99 172
62 99 171
62 98 167
63 100 176
61 98 170
62 98 173
61 98 167
63 100 177
62 99 175
62 99 172
64 100 174
63 99 173
62 99 172
62 98 167
61 98 165
62 98 167
62 98 164
62 98 165
62 97 156
62 97 154
60 95 153
42 57 60
40 53 32
43 57 38
49 64 46
85 92 40
147 145 0
150 148 0
150 148 0
152 149 0
154 151 0
154 152 0
158 154 0
155 152 0
153 150 0
154 152 0
154 152 0
155 152 0
155 152 0
155 151 0
155 151 0
154 149 0
160 167 0
171 189 0
173 194 0
171 193 0
171 192 0
172 193 0
172 194 0
172 194 0
172 194 0
173 195 0
174 195 0
173 195 0
173 196 0
172 194 0
172 196 0
174 196 0
174 197 0
173 195 0
174 197 0
173 196 0
173 197 0
174 197 0
174 197 0
174 197 0
174 197 0
174 197 0
173 197 0
173 195 0
173 197 0
175 197 0
174 198 0
174 197 0
175 198 0
175 198 0
173 196 0
174 197 0
175 198 0
173 197 0
174 197 0
172 196 0
173 197 0
174 197 0
175 198 0
174 197 0
175 198 0
174 198 0
175 198 0
176 199 0
174 197 0
174 198 0
174 197 0
174 197 0
174 197 0
174 197 0
175 198 0
174 198 0
175 198 0
174 198 0
175 198 0
173 197 0
174 198 0
173 197 0
173 197 0
175 198 0
173 197 0
173 197 0
175 198 0
175 198 0
174 198 0
174 197 0
175 198 0
173 197 0
174 197 0
174 197 0
175 198 0
174 197 0
173 197 0
174 197 0
175 198 0
174 197 0
175 198 0
173 197 0
175 198 0
174 198 0
175 198 0
174 198 0
175 198 0
175 198 0
175 198 0
173 197 0
175 198 0
173 197 0
174 198 0
173 197 0
175 197 0
175 198 0
174 198 0
173 197 0
175 198 0
176 199 0
175 198 0
174 198 0
174 198 0
175 198 0
174 198 0
175 198 0
174 197 0
176 199 0
175 198 0
175 198 0
174 198 0
172 197 0
177 199 0
174 197 0
175 198 0
175 198 0
175 198 0
174 197 0
173 197 0
174 198 0
174 197 0
172 197 0
173 197 0
175 198 0
174 198 0
174 197 0
175 198 0
176 199 0
174 198 0
174 197 0
174 198 0
175 198 0
174 198 0
174 197 0
173 197 0
173 197 0
174 197 0
175 198 0
175 198 0
175 198 0
174 197 0
174 198 0
174 198 0
174 198 0
175 198 0
174 198 0
173 197 0
174 198 0
174 198 0
174 197 0
175 198 0
175 198 0
174 198 0
176 199 0
176 199 0
175 198 0
174 197 0
174 198 0
174 198 0
175 198 0
175 198 0
175 198 0
175 198 0
174 197 0
175 198 0
174 198 0
175 198 0
174 198 0
176 199 0
174 198 0
174 197 0
175 198 0
174 198 0
175 198 0
175 198 0
174 198 0
175 198 0
175 198 0
173 197 0
175 198 0
175 198 0
175 198 0
174 198 0
174 198 0
174 198 0
173 197 0
175 198 0
174 198 0
175 198 0
175 198 0
175 198 0
173 197 0
175 198 0
174 197 0
174 198 0
176 198 0
172 197 0
173 197 0
173 197 0
176 199 0
175 198 0
174 197 0
176 199 0
175 198 0
175 198 0
173 197 0
173 197 0
175 198 0
174 198 0
175 198 0
175 198 0
173 197 0
174 198 0
174 198 0
175 198 0
172 197 0
174 198 0
174 197 0
176 199 0
174 198 0
174 198 0
173 197 0
174 197 0
175 198 0
173 197 0
174 197 0
174 198 0
174 198 0
174 197 0
173 197 0
175 198 0
175 198 0
174 198 0
175 198 0
175 198 0
174 197 0
174 198 0
176 198 0
175 198 0
175 198 0
176 199 0
174 197 0
174 197 0
174 197 0
174 198 0
175 198 0
175 198 0
175 198 0
175 198 0
175 198 0
173 197 0
176 199 0
175 198 0
173 197 0
174 198 0
173 197 0
174 197 0
174 198 0
176 198 0
173 197 0
174 198 0
174 198 0
173 197 0
174 198 0
175 198 0
174 198 0
174 198 0
173 197 0
175 198 0
174 197 0
174 197 0
175 198 0
174 197 0
176 198 0
175 198 0
174 197 0
172 196 0
174 197 0
175 198 0
174 197 0
174 198 0
173 197 0
174 197 0
172 196 0
172 195 0
172 196 0
174 197 0
173 197 0
172 196 0
173 197 0
175 198 0
173 197 0
175 198 0
174 197 0
175 198 0
175 198 0
175 198 0
174 197 0
175 198 0
174 197 0
173 197 0
173 197 0
174 198 0
172 196 0
173 196 0
174 197 0
172 196 0
173 197 0
172 196 0
173 197 0
174 197 0
172 196 0
173 196 0
173 196 0
175 198 0
172 196 0
175 197 0
174 197 0
173 197 0
174 197 0
171 196 0
173 196 0
172 196 0
174 197 0
173 196 0
173 196 0
171 195 0
170 195 0
169 194 0
173 196 0
173 196 0
174 197 0
169 193 0
171 195 0
169 193 0
175 197 0
173 196 0
170 194 0
170 194 0
169 193 0
168 191 0
172 196 0
168 191 0
171 194 0
167 190 0
169 192 0
168 192 0
126 151 99
61 96 152
62 98 158
62 98 159
62 99 168
61 97 162
62 98 165
61 98 168
62 98 170
62 98 173
62 99 167
62 98 168
63 99 174
61 98 166
61 98 165
62 99 173
62 99 169
63 99 169
62 99 169
62 99 168
61 98 166
63 99 167
62 98 164
62 98 161
61 98 167
63 99 167
62 98 162
63 99 162
62 98 168
62 98 161
61 96 154
61 95 150
48 71 94
40 51 27
44 57 35
59 68 29
127 127 8
133 132 0
137 137 0
146 143 0
147 145 0
149 148 0
150 148 0
152 149 0
151 148 0
153 151 0
154 151 0
152 150 0
151 148 0
154 151 0
150 146 0
151 147 0
154 152 0
168 185 0
167 184 0
169 189 0
170 191 0
170 192 0
172 192 0
171 192 0
172 194 0
172 194 0
172 194 0
172 196 0
174 196 0
171 194 0
174 196 0
172 195 0
170 193 0
172 195 0
174 197 0
174 196 0
173 196 0
171 194 0
175 198 0
175 198 0
173 197 0
174 197 0
174 197 0
174 196 0
173 197 0
173 196 0
176 198 0
173 197 0
172 196 0
173 196 0
175 198 0
174 197 0
174 197 0
174 197 0
174 197 0
175 198 0
174 197 0
173 196 0
174 197 0
172 196 0
174 198 0
175 198 0
175 198 0
174 198 0
174 197 0
174 198 0
174 198 0
175 198 0
173 197 0
175 198 0
175 198 0
174 198 0
174 197 0
173 197 0
173 197 0
174 197 0
176 199 0
175 198 0
175 198 0
174 198 0
175 198 0
175 198 0
174 197 0
174 198 0
174 198 0
174 198 0
175 198 0
174 198 0
174 197 0
174 198 0
173 197 0
176 199 0
174 197 0
174 198 0
174 198 0
175 198 0
175 198 0
174 198 0
174 198 0
174 198 0
175 198 0
175 198 0
175 198 0
174 197 0
175 198 0
172 196 0
173 197 0
175 198 0
175 198 0
175 198 0
175 198 0
174 198 0
175 198 0
174 198 0
177 199 0
174 198 0
176 199 0
176 198 0
173 197 0
175 198 0
173 197 0
175 198 0
176 199 0
177 199 0
173 197 0
176 199 0
176 199 0
174 197 0
176 198 0
175 198 0
176 198 0
174 198 0
175 198 0
176 199 0
174 197 0
175 198 0
175 198 0
176 198 0
173 197 0
173 197 0
175 198 0
174 198 0
175 198 0
176 199 0
172 197 0
175 198 0
175 198 0
175 198 0
174 198 0
175 198 0
173 197 0
174 197 0
173 197 0
175 198 0
174 198 0
175 198 0
174 198 0
175 198 0
176 198 0
173 197 0
173 197 0
174 198 0
175 198 0
174 198 0
175 198 0
175 198 0
174 198 0
173 197 0
175 198 0
174 197 0
174 198 0
177 199 0
174 197 0
174 198 0
175 198 0
176 199 0
173 197 0
175 198 0
174 198 0
174 198 0
175 198 0
174 198 0
174 198 0
174 198 0
173 197 0
175 198 0
176 198 0
177 199 0
175 198 0
175 198 0
174 198 0
174 197 0
176 199 0
176 199 0
174 197 0
176 199 0
175 198 0
175 198 0
173 197 0
173 197 0
176 198 0
175 198 0
173 197 0
174 198 0
175 198 0
174 198 0
175 198 0
173 197 0
175 198 0
175 198 0
175 198 0
173 197 0
174 197 0
174 198 0
174 197 0
174 197 0
174 198 0
175 198 0
174 198 0
173 197 0
175 198 0
173 197 0
175 198 0
176 198 0
175 198 0
174 198 0
175 198 0
175 198 0
175 198 0
174 197 0
173 197 0
175 198 0
175 198 0
174 198 0
174 198 0
175 198 0
175 198 0
175 198 0
173 197 0
174 198 0
176 198 0
174 197 0
174 198 0
176 199 0
175 198 0
174 198 0
175 198 0
175 198 0
175 198 0
175 198 0
173 197 0
174 198 0
176 198 0
174 197 0
174 198 0
174 198 0
172 197 0
176 199 0
174 198 0
175 198 0
173 197 0
176 199 0
176 199 0
174 197 0
174 198 0
173 197 0
173 197 0
175 198 0
174 198 0
174 197 0
174 197 0
174 198 0
173 197 0
175 198 0
175 198 0
174 198 0
175 198 0
175 198 0
174 198 0
174 197 0
174 198 0
175 198 0
175 198 0
175 198 0
173 197 0
174 198 0
175 198 0
174 198 0
173 197 0
175 198 0
173 197 0
173 197 0
174 197 0
173 197 0
175 198 0
175 198 0
173 197 0
174 198 0
173 197 0
175 198 0
173 196 0
173 197 0
173 197 0
175 198 0
174 198 0
174 197 0
172 196 0
175 198 0
175 198 0
173 197 0
172 197 0
173 197 0
174 197 0
174 197 0
173 197 0
173 197 0
174 197 0
175 198 0
175 198 0
172 196 0
174 197 0
173 197 0
174 197 0
174 198 0
175 198 0
173 197 0
173 196 0
173 197 0
173 197 0
174 197 0
174 197 0
176 198 0
172 196 0
171 195 0
173 197 0
174 198 0
173 197 0
175 198 0
173 197 0
172 195 0
171 194 0
173 196 0
173 197 0
170 194 0
175 198 0
171 193 0
174 197 0
174 197 0
167 191 0
168 192 0
169 192 0
170 194 0
174 197 44
168 190 57
175 197 80
176 198 62
174 196 76
178 201 88
175 196 84
176 198 92
178 200 76
169 193 44
169 191 0
161 185 0
129 154 99
62 97 151
61 97 153
61 97 157
60 96 163
61 97 165
61 98 170
62 97 160
62 98 165
62 98 171
62 98 166
62 99 168
62 99 170
62 98 163
62 98 165
62 98 165
62 98 164
62 99 164
62 98 166
62 99 167
62 98 168
62 98 166
62 98 166
62 98 165
62 99 166
62 98 164
62 98 162
62 98 157
62 98 160
61 96 153
61 96 150
62 97 160
77 86 85
71 71 16
79 80 14
95 96 0
116 113 0
131 129 0
134 132 0
134 133 0
150 148 0
146 144 0
145 142 0
150 147 0
151 148 0
149 146 0
154 150 0
151 148 0
147 143 0
151 147 0
148 144 0
152 149 0
166 178 0
170 187 0
169 187 0
170 188 0
172 191 0
171 191 0
170 190 0
169 189 0
171 191 0
173 194 0
171 193 0
172 194 0
172 192 0
173 194 0
175 197 0
171 194 0
172 195 0
173 196 0
173 196 0
173 196 0
174 197 0
173 195 0
174 197 0
173 196 0
174 196 0
172 195 0
174 196 0
172 195 0
174 198 0
173 197 0
175 198 0
174 198 0
172 197 0
175 197 0
174 197 0
176 199 0
176 198 0
173 196 0
174 197 0
174 197 0
175 198 0
175 197 0
174 197 0
175 197 0
174 197 0
175 197 0
175 198 0
173 197 0
175 197 0
175 198 0
173 197 0
174 197 0
173 197 0
174 198 0
173 197 0
175 198 0
174 197 0
174 198 0
174 198 0
176 198 0
174 198 0
174 197 0
174 197 0
173 197 0
175 198 0
175 198 0
174 197 0
175 198 0
174 198 0
173 197 0
176 198 0
174 197 0
175 198 0
173 197 0
176 199 0
176 198 0
175 198 0
173 197 0
176 199 0
174 198 0
175 198 0
175 198 0
175 198 0
175 197 0
174 198 0
174 197 0
174 198 0
172 196 0
174 197 0
173 197 0
175 198 0
172 197 0
174 198 0
175 198 0
176 199 0
174 198 0
174 197 0
176 198 0
175 198 0
175 198 0
174 198 0
175 198 0
173 197 0
174 197 0
175 198 0
174 198 0
175 198 0
175 198 0
175 198 0
175 198 0
173 197 0
174 197 0
174 198 0
175 198 0
174 198 0
175 198 0
176 199 0
174 198 0
175 198 0
175 198 0
174 198 0
174 197 0
173 197 0
174 198 0
173 197 0
176 198 0
174 198 0
173 197 0
175 198 0
175 198 0
175 198 0
175 198 0
176 199 0
176 198 0
174 198 0
175 198 0
175 198 0
174 198 0
176 199 0
175 198 0
176 199 0
173 197 0
174 198 0
174 198 0
175 198 0
174 198 0
174 197 0
174 198 0
173 197 0
174 198 0
174 198 0
173 197 0
174 198 0
174 197 0
174 198 0
175 198 0
175 198 0
175 198 0
174 198 0
176 198 0
175 198 0
174 197 0
173 197 0
175 198 0
174 197 0
175 198 0
174 197 0
174 198 0
173 197 0
174 197 0
175 198 0
174 198 0
175 198 0
174 197 0
176 199 0
173 197 0
175 198 0
175 198 0
173 197 0
173 197 0
174 198 0
174 197 0
175 198 0
174 198 0
176 199 0
176 199 0
175 198 0
176 198 0
173 197 0
175 198 0
173 197 0
175 198 0
174 198 0
173 197 0
175 198 0
174 198 0
174 198 0
174 198 0
175 198 0
175 198 0
175 198 0
174 197 0
174 197 0
174 198 0
174 198 0
172 197 0
173 197 0
175 198 0
174 197 0
174 198 0
174 198 0
173 197 0
175 198 0
175 198 0
175 198 0
173 197 0
174 198 0
175 198 0
174 197 0
174 197 0
175 198 0
175 198 0
175 198 0
174 198 0
172 197 0
175 198 0
174 198 0
175 198 0
173 197 0
174 197 0
175 198 0
176 199 0
175 198 0
175 198 0
175 198 0
175 198 0
173 197 0
174 198 0
175 198 0
174 198 0
175 198 0
174 198 0
174 198 0
174 198 0
173 197 0
175 198 0
174 198 0
174 197 0
173 197 0
174 198 0
174 198 0
173 197 0
174 198 0
175 198 0
174 198 0
175 198 0
175 198 0
174 198 0
173 197 0
174 197 0
173 197 0
175 198 0
173 197 0
175 198 0
175 198 0
175 198 0
175 198 0
175 198 0
176 199 0
174 197 0
175 198 0
174 197 0
175 198 0
172 197 0
176 199 0
176 198 0
174 198 0
174 197 0
173 196 0
175 198 0
173 197 0
173 196 0
171 196 0
174 197 0
176 199 0
172 197 0
173 197 0
175 198 0
174 198 0
175 197 0
173 197 0
173 196 0
174 197 0
175 198 0
173 196 0
173 197 0
175 197 0
175 198 0
173 197 0
173 196 0
173 197 0
173 196 0
173 196 0
174 197 0
174 197 0
175 197 0
175 198 0
173 196 0
173 197 0
175 198 0
175 197 0
173 196 0
172 195 0
173 197 0
172 196 0
174 197 0
171 194 0
171 195 0
175 197 0
173 195 0
172 195 0
172 195 0
173 197 0
174 197 0
172 195 0
174 197 0
173 196 0
173 196 0
171 194 0
171 195 0
170 194 0
173 197 0
175 198 0
173 196 44
175 197 67
178 200 99
179 201 92
183 204 105
186 207 122
188 209 133
197 215 165
193 212 157
192 212 157
185 206 125
177 199 76
181 203 95
179 200 105
165 187 108
116 141 121
86 116 125
62 98 161
63 98 164
61 97 164
61 97 158
62 98 165
61 97 162
62 99 170
62 98 166
61 98 163
62 99 167
62 98 169
62 98 169
62 98 164
62 98 163
63 99 170
62 98 164
62 99 168
61 97 156
62 98 164
62 99 166
62 98 168
62 98 162
62 98 163
62 98 161
62 98 162
62 97 155
62 97 158
62 97 149
60 96 147
60 93 146
87 92 80
105 101 0
99 96 0
100 97 0
120 116 0
126 123 0
135 131 0
133 131 0
144 141 0
145 142 0
139 135 0
145 141 0
145 142 0
151 146 0
147 142 0
150 145 0
151 146 0
151 146 0
152 144 0
160 168 0
166 181 0
168 185 0
167 186 0
169 186 0
169 187 0
172 192 0
174 193 0
171 193 0
171 192 0
172 194 0
173 194 0
172 193 0
172 195 0
172 194 0
172 194 0
171 193 0
171 193 0
172 194 0
172 194 0
172 194 0
173 196 0
173 196 0
175 197 0
172 196 0
173 197 0
174 197 0
173 196 0
175 198 0
174 197 0
175 198 0
172 196 0
173 197 0
176 198 0
173 197 0
173 195 0
172 196 0
174 196 0
174 198 0
174 197 0
174 197 0
173 197 0
174 197 0
174 197 0
175 198 0
174 197 0
174 197 0
175 198 0
175 198 0
175 198 0
174 198 0
172 196 0
175 198 0
174 197 0
174 198 0
173 196 0
173 196 0
173 197 0
174 198 0
174 197 0
175 198 0
175 198 0
173 197 0
173 197 0
175 198 0
173 197 0
174 198 0
176 198 0
173 197 0
176 199 0
172 196 0
174 198 0
175 198 0
173 197 0
173 197 0
175 198 0
175 198 0
175 198 0
173 197 0
173 197 0
174 198 0
174 198 0
174 198 0
174 198 0
175 198 0
174 197 0
174 198 0
176 198 0
174 198 0
176 199 0
174 198 0
173 197 0
174 197 0
175 198 0
174 198 0
176 198 0
175 198 0
174 198 0
174 198 0
176 198 0
174 198 0
173 197 0
175 198 0
175 198 0
172 197 0
176 198 0
175 198 0
174 198 0
175 198 0
174 198 0
175 198 0
175 198 0
175 198 0
176 199 0
176 199 0
173 197 0
174 198 0
173 197 0
176 199 0
176 198 0
175 198 0
173 197 0
174 198 0
175 198 0
173 197 0
175 198 0
174 198 0
174 198 0
174 198 0
176 199 0
175 198 0
174 197 0
175 198 0
174 198 0
174 198 0
175 198 0
176 199 0
177 199 0
174 198 0
175 198 0
176 199 0
174 198 0
172 196 0
175 198 0
174 198 0
174 198 0
173 197 0
174 198 0
174 198 0
173 197 0
175 198 0
176 199 0
175 198 0
175 198 0
173 197 0
173 197 0
173 197 0
173 197 0
174 197 0
174 198 0
176 198 0
174 197 0
175 198 0
176 199 0
175 198 0
175 198 0
175 198 0
175 198 0
174 198 0
173 197 0
175 198 0
175 198 0
174 198 0
175 198 0
175 198 0
176 198 0
175 198 0
174 198 0
175 198 0
173 197 0
175 198 0
174 197 0
177 199 0
173 197 0
174 197 0
176 199 0
175 198 0
175 198 0
174 198 0
174 198 0
175 198 0
174 198 0
173 197 0
175 198 0
175 198 0
175 198 0
174 197 0
174 198 0
173 197 0
175 198 0
172 197 0
175 198 0
175 198 0
174 198 0
175 198 0
173 197 0
174 198 0
174 197 0
174 198 0
174 197 0
175 198 0
174 198 0
175 198 0
173 197 0
174 197 0
175 198 0
173 197 0
176 199 0
173 197 0
174 198 0
174 198 0
174 198 0
173 197 0
173 197 0
173 197 0
172 197 0
174 198 0
175 198 0
175 198 0
175 198 0
174 198 0
173 197 0
175 198 0
174 198 0
174 197 0
174 198 0
176 199 0
176 199 0
172 197 0
175 198 0
173 197 0
173 197 0
174 198 0
175 198 0
174 198 0
173 197 0
173 197 0
174 197 0
174 198 0
174 197 0
174 198 0
175 198 0
176 199 0
175 198 0
174 198 0
176 198 0
175 198 0
174 197 0
174 197 0
176 199 0
173 197 0
176 198 0
174 198 0
174 198 0
174 198 0
174 197 0
174 197 0
174 198 0
175 198 0
175 198 0
173 197 0
176 198 0
173 197 0
173 197 0
173 197 0
173 197 0
173 197 0
173 197 0
175 198 0
173 197 0
175 198 0
174 198 0
176 198 0
174 197 0
173 197 0
175 198 0
174 198 0
173 197 0
174 198 0
175 198 0
176 198 0
174 197 0
175 198 0
175 198 0
174 198 0
175 198 0
174 198 0
173 196 0
173 197 0
174 197 0
174 197 0
175 198 0
172 197 0
174 197 0
175 198 0
174 197 0
174 198 0
174 197 0
173 197 0
175 198 0
174 197 0
174 197 0
173 196 0
174 197 0
171 194 0
173 195 0
173 196 0
170 195 0
171 195 0
175 198 0
173 196 0
171 195 0
173 197 0
173 196 0
175 198 0
169 192 0
174 197 0
172 195 0
173 196 0
169 193 0
172 196 0
172 196 0
173 196 44
179 200 88
184 205 125
181 204 102
197 215 167
209 226 221
214 229 234
217 232 246
216 232 246
217 233 250
215 232 249
216 232 248
217 233 250
218 233 248
206 223 209
190 209 142
136 159 151
97 124 172
80 111 164
78 110 145
67 101 153
60 95 157
61 97 156
61 97 160
62 98 161
61 97 162
61 97 164
62 98 165
61 97 162
61 97 161
62 98 163
62 98 164
62 98 163
62 98 169
62 99 162
62 98 163
61 97 157
61 96 155
62 98 164
63 99 166
62 98 162
61 97 151
62 97 158
62 97 155
61 97 155
61 96 152
62 98 157
60 95 142
60 95 141
106 105 66
107 100 0
109 104 0
119 116 0
107 101 0
117 114 0
126 122 0
135 131 0
139 134 0
137 131 0
142 135 0
142 136 0
143 139 0
146 141 0
150 144 0
147 141 0
146 138 0
147 139 0
161 165 0
165 179 0
167 183 0
168 186 0
171 190 0
170 189 0
170 190 0
169 186 0
173 192 0
172 191 0
170 190 0
171 193 0
174 195 0
174 195 0
172 193 0
172 194 0
172 195 0
172 194 0
173 197 0
173 197 0
173 196 0
173 195 0
172 195 0
174 194 0
173 195 0
175 197 0
174 197 0
175 197 0
174 197 0
176 198 0
173 197 0
173 197 0
173 196 0
174 197 0
175 198 0
174 197 0
173 197 0
174 198 0
175 198 0
174 197 0
174 197 0
175 198 0
174 197 0
173 196 0
172 196 0
174 197 0
176 198 0
173 197 0
173 197 0
175 198 0
175 198 0
174 198 0
175 198 0
174 198 0
175 198 0
175 198 0
172 196 0
174 198 0
176 199 0
173 197 0
174 197 0
175 198 0
176 198 0
174 198 0
174 197 0
173 197 0
176 198 0
174 197 0
174 198 0
175 198 0
175 198 0
174 198 0
174 198 0
174 197 0
175 198 0
174 198 0
173 197 0
176 199 0
174 198 0
174 198 0
174 198 0
174 198 0
175 198 0
173 197 0
174 197 0
175 198 0
174 198 0
174 197 0
175 198 0
173 197 0
175 198 0
175 198 0
173 197 0
175 198 0
176 199 0
174 198 0
174 198 0
174 198 0
175 198 0
176 198 0
173 197 0
176 199 0
175 198 0
175 198 0
176 199 0
174 197 0
174 198 0
172 197 0
176 199 0
175 198 0
174 198 0
176 199 0
176 198 0
174 198 0
176 198 0
174 198 0
174 198 0
174 198 0
175 198 0
175 198 0
175 198 0
173 197 0
174 197 0
174 197 0
175 198 0
174 198 0
174 197 0
174 198 0
175 198 0
173 197 0
174 197 0
175 198 0
175 198 0
175 198 0
174 198 0
175 198 0
175 198 0
173 197 0
174 197 0
174 198 0
175 198 0
175 198 0
174 197 0
175 198 0
175 198 0
175 198 0
173 197 0
175 198 0
174 197 0
174 198 0
174 198 0
174 198 0
175 198 0
174 198 0
175 198 0
174 198 0
174 198 0
174 198 0
175 198 0
174 197 0
174 198 0
174 198 0
175 198 0
175 198 0
174 198 0
174 198 0
175 198 0
175 198 0
175 198 0
172 197 0
176 199 0
174 197 0
174 198 0
174 198 0
174 198 0
172 197 0
175 198 0
176 199 0
173 197 0
176 198 0
175 198 0
174 197 0
174 198 0
174 197 0
174 198 0
173 197 0
174 198 0
176 199 0
174 198 0
174 198 0
174 197 0
174 198 0
174 197 0
175 198 0
174 197 0
174 198 0
175 198 0
173 197 0
174 197 0
174 198 0
175 198 0
175 198 0
175 198 0
175 198 0
174 197 0
174 198 0
173 197 0
174 198 0
175 198 0
174 198 0
174 198 0
175 198 0
174 198 0
175 198 0
172 197 0
174 198 0
174 197 0
174 198 0
173 197 0
173 197 0
172 197 0
174 197 0
173 197 0
175 198 0
176 198 0
173 197 0
174 198 0
174 197 0
174 198 0
174 198 0
175 198 0
174 198 0
175 198 0
174 197 0
176 199 0
173 197 0
174 198 0
173 197 0
175 198 0
174 197 0
176 198 0
175 198 0
175 198 0
175 198 0
173 196 0
175 198 0
174 198 0
174 198 0
174 198 0
174 198 0
175 198 0
173 197 0
174 197 0
174 197 0
174 198 0
174 197 0
175 198 0
174 197 0
174 198 0
174 197 0
175 198 0
176 199 0
175 198 0
174 197 0
173 197 0
174 198 0
175 198 0
175 198 0
174 198 0
174 197 0
174 197 0
175 198 0
174 198 0
174 197 0
173 197 0
175 198 0
175 198 0
174 198 0
174 198 0
174 198 0
174 198 0
174 198 0
175 198 0
173 197 0
174 197 0
174 198 0
174 197 0
174 197 0
174 198 0
175 198 0
173 197 0
172 196 0
173 197 0
174 197 0
173 197 0
174 197 0
175 198 0
174 198 0
171 196 0
173 197 0
174 198 0
174 197 0
174 197 0
172 196 0
174 197 0
174 197 0
175 198 0
173 196 0
173 197 0
175 198 0
174 197 0
175 198 0
173 197 0
174 197 0
172 195 0
174 198 0
172 195 0
174 196 0
173 197 0
174 197 0
173 197 0
175 197 0
171 195 0
174 198 0
174 197 0
174 197 0
173 197 0
174 197 0
173 196 0
172 197 0
172 195 0
170 194 0
174 197 57
185 206 122
184 205 114
202 220 193
216 232 242
217 233 255
214 231 253
213 230 252
212 230 254
210 229 250
209 228 246
208 227 241
208 226 241
211 230 253
212 230 252
214 231 250
216 232 252
184 201 231
89 118 179
84 115 179
66 101 162
60 96 156
65 99 149
63 98 158
61 97 162
61 97 159
61 98 163
62 98 164
60 96 154
63 99 166
61 97 162
62 98 164
61 97 155
62 98 162
61 97 156
62 98 163
62 98 161
61 97 158
61 97 155
62 98 159
62 98 160
62 98 158
60 95 145
62 97 150
62 97 148
61 96 145
61 96 139
59 94 143
60 95 141
60 93 135
109 107 31
118 109 0
114 106 0
108 103 0
123 116 0
120 114 0
133 126 0
131 125 0
127 120 0
138 133 0
137 130 0
139 134 0
145 138 0
142 136 0
145 136 0
142 133 0
152 145 0
159 164 0
161 172 0
164 179 0
169 187 0
167 180 0
170 187 0
170 191 0
169 189 0
170 189 0
173 192 0
169 188 0
169 188 0
172 193 0
171 193 0
171 192 0
172 192 0
174 195 0
172 194 0
174 196 0
172 193 0
173 195 0
171 194 0
173 196 0
175 197 0
172 195 0
174 195 0
175 197 0
171 194 0
174 196 0
175 197 0
174 197 0
174 195 0
173 195 0
173 197 0
174 197 0
173 196 0
174 197 0
172 196 0
172 196 0
172 196 0
174 198 0
174 198 0
175 198 0
173 197 0
175 198 0
175 198 0
175 198 0
176 198 0
174 197 0
173 197 0
174 198 0
175 198 0
173 197 0
175 197 0
173 197 0
173 196 0
172 196 0
174 198 0
174 198 0
174 198 0
173 196 0
174 197 0
176 198 0
174 198 0
175 198 0
173 197 0
175 198 0
173 197 0
174 197 0
176 198 0
175 198 0
175 198 0
173 197 0
176 199 0
173 197 0
173 197 0
175 198 0
172 197 0
174 198 0
173 197 0
175 197 0
173 197 0
175 198 0
175 198 0
174 198 0
175 198 0
173 197 0
174 198 0
175 198 0
176 199 0
174 197 0
175 198 0
173 196 0
174 198 0
175 198 0
174 198 0
174 197 0
173 197 0
175 198 0
176 199 0
174 198 0
174 197 0
174 198 0
173 197 0
175 198 0
173 197 0
175 198 0
175 198 0
175 198 0
173 197 0
175 198 0
174 198 0
173 197 0
175 198 0
175 198 0
174 198 0
174 198 0
175 198 0
175 198 0
175 198 0
174 198 0
173 197 0
174 198 0
175 198 0
174 198 0
175 198 0
174 197 0
174 198 0
175 198 0
175 198 0
174 197 0
174 198 0
174 198 0
175 198 0
176 198 0
177 199 0
174 198 0
175 198 0
174 198 0
174 198 0
175 198 0
175 198 0
174 198 0
174 198 0
174 198 0
174 198 0
176 199 0
173 197 0
175 198 0
174 198 0
175 198 0
174 198 0
176 198 0
174 198 0
175 198 0
177 199 0
174 198 0
173 197 0
175 198 0
174 198 0
173 197 0
175 198 0
175 198 0
175 198 0
174 197 0
175 198 0
173 197 0
174 198 0
173 197 0
174 198 0
175 198 0
174 198 0
176 199 0
173 197 0
173 197 0
174 198 0
177 199 0
174 197 0
174 198 0
175 198 0
176 198 0
175 198 0
174 198 0
174 198 0
175 198 0
175 198 0
175 198 0
175 198 0
174 198 0
174 198 0
174 198 0
176 199 0
176 199 0
173 197 0
175 198 0
173 197 0
175 198 0
175 198 0
175 198 0
175 198 0
175 198 0
174 198 0
174 197 0
173 197 0
174 197 0
174 197 0
175 198 0
174 198 0
175 198 0
174 197 0
175 198 0
174 198 0
174 198 0
174 198 0
173 197 0
175 198 0
174 198 0
175 198 0
177 199 0
174 198 0
175 198 0
175 198 0
174 198 0
175 198 0
174 198 0
175 198 0
173 197 0
176 198 0
174 198 0
173 197 0
174 198 0
174 197 0
175 198 0
175 198 0
175 198 0
175 198 0
174 198 0
174 198 0
174 198 0
174 197 0
173 197 0
174 198 0
175 198 0
174 198 0
174 197 0
175 198 0
176 198 0
175 198 0
175 198 0
176 198 0
176 199 0
175 198 0
174 198 0
173 197 0
174 198 0
173 197 0
175 198 0
173 197 0
171 196 0
174 197 0
174 198 0
173 197 0
175 198 0
174 198 0
175 198 0
175 198 0
176 199 0
173 197 0
175 198 0
174 198 0
172 196 0
174 198 0
173 197 0
174 198 0
175 198 0
176 198 0
175 198 0
177 199 0
174 197 0
174 197 0
174 197 0
173 197 0
176 198 0
173 197 0
174 198 0
175 198 0
174 197 0
174 198 0
174 197 0
175 198 0
174 198 0
175 198 0
174 197 0
174 197 0
174 198 0
175 198 0
175 198 0
174 198 0
175 198 0
174 197 0
175 198 0
174 197 0
174 197 0
175 198 0
174 197 0
175 198 0
174 198 0
173 197 0
172 196 0
173 197 0
175 198 0
175 198 0
171 195 0
173 196 0
174 197 0
175 198 0
171 194 0
173 197 0
172 196 0
175 198 0
173 196 0
172 196 0
170 194 0
171 194 0
172 196 0
173 197 0
173 197 0
173 197 0
171 195 0
168 191 0
172 195 0
174 197 36
184 205 108
178 200 88
201 218 186
216 231 240
216 233 254
213 231 253
211 229 250
206 225 238
208 226 233
202 220 204
197 216 184
198 217 189
190 210 153
191 211 171
193 212 177
192 212 165
202 219 212
206 224 235
211 229 252
163 182 220
74 107 176
85 116 181
70 104 168
61 97 159
66 101 156
63 98 155
60 95 157
61 97 156
61 97 151
60 96 159
60 96 156
61 97 156
62 98 164
61 97 153
61 97 151
62 98 163
61 97 163
61 98 159
61 97 155
61 97 154
62 98 161
61 97 159
61 97 150
62 97 159
61 97 150
62 97 155
63 99 161
61 96 143
61 97 154
61 96 146
66 94 117
126 127 18
117 116 0
105 96 0
89 82 0
107 98 0
115 105 0
124 117 0
133 124 0
127 118 0
132 123 0
133 124 0
135 127 0
137 128 0
147 136 0
144 134 0
146 145 0
157 163 0
162 171 0
162 173 0
166 179 0
171 186 0
167 183 0
171 187 0
167 187 0
172 189 0
169 188 0
169 190 0
172 192 0
170 190 0
172 192 0
173 194 0
171 192 0
174 195 0
170 191 0
171 192 0
170 193 0
174 196 0
173 195 0
172 193 0
174 195 0
173 196 0
171 195 0
172 193 0
174 196 0
174 197 0
174 196 0
171 195 0
175 198 0
175 197 0
173 196 0
173 197 0
172 195 0
173 196 0
174 196 0
175 198 0
173 196 0
172 196 0
173 196 0
174 196 0
174 197 0
173 197 0
173 197 0
174 198 0
173 197 0
173 197 0
175 198 0
174 197 0
173 197 0
173 197 0
176 199 0
174 198 0
175 198 0
174 197 0
173 197 0
175 198 0
175 197 0
175 198 0
175 198 0
175 198 0
175 198 0
174 198 0
176 198 0
173 197 0
174 197 0
173 197 0
172 197 0
174 197 0
174 198 0
173 197 0
174 197 0
174 197 0
174 198 0
173 196 0
174 198 0
174 198 0
177 199 0
175 198 0
174 197 0
174 198 0
175 198 0
175 198 0
175 198 0
173 197 0
174 197 0
173 197 0
175 198 0
175 198 0
175 198 0
174 198 0
174 197 0
174 197 0
172 197 0
176 198 0
174 197 0
175 198 0
174 197 0
175 198 0
174 198 0
175 198 0
175 198 0
174 198 0
175 198 0
173 197 0
176 198 0
175 198 0
174 198 0
174 198 0
174 197 0
174 198 0
172 197 0
175 198 0
173 197 0
175 198 0
174 197 0
175 198 0
175 198 0
175 198 0
174 197 0
174 197 0
175 198 0
174 198 0
175 198 0
174 198 0
174 198 0
174 198 0
174 197 0
174 198 0
173 197 0
174 198 0
174 197 0
174 198 0
175 198 0
176 198 0
177 199 0
174 198 0
174 198 0
174 198 0
174 198 0
174 198 0
174 198 0
177 199 0
174 198 0
173 197 0
174 198 0
173 197 0
174 198 0
174 197 0
175 198 0
176 198 0
175 198 0
176 198 0
173 197 0
175 198 0
175 198 0
173 197 0
174 198 0
175 198 0
175 198 0
175 198 0
173 197 0
175 198 0
174 198 0
173 197 0
173 197 0
175 198 0
174 197 0
174 198 0
174 198 0
174 198 0
176 198 0
175 198 0
174 198 0
175 198 0
175 198 0
176 199 0
175 198 0
175 198 0
174 197 0
175 198 0
176 199 0
174 198 0
174 198 0
175 198 0
174 198 0
174 197 0
174 198 0
174 198 0
174 198 0
174 197 0
176 199 0
174 198 0
174 198 0
175 198 0
174 198 0
174 198 0
174 198 0
173 197 0
175 198 0
176 199 0
174 198 0
175 198 0
174 197 0
175 198 0
176 198 0
174 198 0
173 197 0
177 199 0
173 197 0
172 197 0
173 197 0
174 197 0
174 198 0
174 198 0
175 198 0
174 198 0
175 198 0
175 198 0
176 199 0
173 197 0
174 197 0
175 198 0
172 197 0
175 198 0
174 197 0
174 198 0
175 198 0
176 199 0
174 198 0
173 197 0
174 198 0
175 198 0
175 198 0
175 198 0
173 197 0
174 197 0
176 199 0
174 198 0
175 198 0
175 198 0
173 197 0
174 198 0
174 197 0
173 197 0
175 198 0
174 198 0
176 199 0
176 199 0
175 198 0
177 199 0
173 197 0
174 197 0
174 197 0
174 198 0
174 198 0
175 198 0
175 198 0
176 199 0
173 197 0
174 198 0
174 197 0
175 198 0
174 198 0
174 198 0
173 197 0
173 197 0
174 198 0
175 198 0
173 197 0
174 197 0
174 198 0
174 198 0
173 197 0
175 198 0
174 198 0
175 198 0
173 197 0
174 198 0
174 198 0
174 197 0
174 198 0
174 197 0
172 196 0
174 198 0
173 197 0
172 196 0
173 197 0
175 198 0
174 198 0
174 197 0
175 198 0
175 198 0
175 198 0
174 198 0
173 197 0
175 198 0
174 197 0
174 197 0
174 197 0
173 197 0
174 197 0
172 196 0
172 195 0
171 196 0
173 196 0
174 197 0
174 198 0
175 198 0
172 196 0
171 195 0
172 196 0
175 198 0
173 197 0
174 197 0
172 196 0
172 196 0
172 196 0
173 196 0
173 197 0
171 195 0
171 194 0
173 197 0
170 194 0
172 196 0
173 196 0
172 196 0
172 197 0
173 196 0
174 196 57
183 205 105
183 204 111
209 225 217
215 232 248
213 230 249
210 229 249
206 224 223
196 215 188
192 212 157
174 198 92
175 198 67
174 196 36
172 195 51
173 197 84
174 198 84
175 197 67
173 197 84
171 195 72
138 161 149
132 155 170
157 178 208
129 153 199
68 103 176
79 111 174
64 99 164
62 98 157
67 101 152
60 96 161
60 96 158
62 98 158
60 96 150
62 98 156
61 97 153
61 97 149
60 95 154
61 96 154
61 96 151
61 97 153
61 97 155
62 98 158
61 97 153
62 98 159
60 96 144
61 96 150
61 96 152
62 98 159
62 97 154
61 97 155
62 97 145
61 96 146
60 94 138
91 111 87
124 129 0
116 119 0
113 112 0
107 102 0
109 102 0
109 97 0
108 97 0
127 113 0
128 116 0
129 116 0
132 120 0
128 118 0
134 123 0
149 146 0
150 153 0
159 166 0
160 168 0
158 167 0
162 172 0
162 175 0
164 179 0
169 184 0
164 179 0
170 185 0
169 188 0
169 188 0
170 190 0
170 191 0
169 190 0
169 188 0
170 189 0
172 194 0
171 192 0
172 194 0
173 194 0
172 191 0
174 196 0
173 195 0
171 193 0
173 195 0
174 195 0
171 194 0
173 197 0
173 196 0
173 196 0
172 195 0
173 197 0
173 195 0
174 197 0
173 197 0
175 197 0
175 197 0
174 196 0
172 195 0
174 197 0
173 196 0
176 198 0
175 197 0
175 198 0
175 197 0
172 196 0
174 197 0
173 197 0
172 195 0
175 198 0
174 197 0
176 198 0
174 197 0
174 197 0
174 197 0
175 198 0
173 197 0
175 198 0
173 197 0
174 198 0
175 198 0
174 197 0
176 199 0
174 198 0
173 197 0
173 197 0
174 197 0
175 198 0
175 198 0
173 197 0
173 197 0
175 198 0
173 197 0
175 198 0
173 197 0
175 198 0
173 197 0
175 198 0
174 197 0
174 198 0
173 197 0
174 197 0
176 199 0
174 197 0
173 197 0
175 198 0
173 197 0
174 197 0
175 198 0
173 197 0
174 197 0
175 198 0
174 198 0
175 198 0
174 198 0
175 198 0
176 199 0
175 198 0
174 198 0
172 197 0
173 197 0
175 198 0
175 198 0
174 198 0
176 199 0
176 198 0
174 197 0
175 198 0
173 197 0
174 198 0
175 198 0
172 196 0
174 198 0
175 198 0
174 198 0
174 198 0
174 198 0
175 198 0
172 196 0
175 198 0
173 197 0
177 199 0
175 198 0
174 197 0
174 198 0
174 197 0
175 198 0
175 198 0
174 197 0
175 198 0
174 197 0
174 197 0
175 198 0
175 198 0
174 198 0
174 198 0
173 197 0
175 198 0
173 197 0
172 197 0
175 198 0
176 198 0
175 198 0
176 199 0
175 198 0
175 198 0
175 198 0
174 197 0
175 198 0
175 198 0
175 198 0
175 198 0
175 198 0
175 198 0
174 198 0
172 197 0
174 198 0
176 198 0
172 197 0
173 197 0
176 198 0
174 197 0
176 199 0
176 198 0
175 198 0
174 198 0
174 198 0
174 198 0
173 197 0
175 198 0
175 198 0
174 198 0
174 197 0
173 197 0
175 198 0
174 198 0
174 198 0
176 199 0
172 197 0
175 198 0
175 198 0
176 199 0
174 198 0
174 198 0
173 197 0
174 197 0
173 197 0
175 198 0
173 197 0
175 198 0
176 198 0
175 198 0
174 198 0
174 198 0
175 198 0
175 198 0
173 197 0
175 198 0
176 198 0
174 198 0
173 197 0
175 198 0
175 198 0
174 198 0
173 197 0
174 198 0
174 197 0
174 198 0
174 198 0
175 198 0
174 198 0
175 198 0
176 199 0
174 197 0
175 198 0
174 198 0
174 197 0
173 197 0
174 198 0
173 197 0
174 197 0
176 198 0
174 198 0
175 198 0
175 198 0
174 198 0
174 198 0
173 197 0
175 198 0
175 198 0
176 199 0
173 197 0
174 197 0
174 197 0
173 197 0
175 198 0
174 198 0
175 198 0
174 198 0
174 198 0
173 197 0
175 198 0
175 198 0
175 198 0
174 198 0
173 197 0
175 198 0
175 198 0
175 198 0
174 197 0
175 198 0
173 197 0
174 198 0
173 197 0
173 197 0
174 197 0
174 197 0
174 198 0
175 198 0
173 197 0
176 199 0
175 198 0
174 198 0
174 198 0
174 198 0
173 197 0
175 198 0
174 197 0
173 197 0
174 198 0
174 198 0
174 198 0
174 197 0
175 198 0
175 197 0
174 198 0
174 197 0
175 198 0
173 197 0
174 198 0
175 198 0
176 198 0
174 198 0
174 198 0
174 197 0
175 198 0
174 197 0
173 197 0
173 196 0
173 197 0
174 198 0
173 197 0
175 198 0
175 198 0
174 197 0
175 198 0
174 197 0
174 198 0
173 197 0
175 198 0
174 198 0
176 198 0
175 198 0
172 196 0
173 197 0
173 197 0
173 197 0
173 197 0
172 196 0
174 197 0
172 196 0
173 197 0
171 195 0
173 197 0
174 197 0
173 196 0
172 196 0
174 197 0
174 197 0
171 195 0
175 198 0
172 196 0
173 196 0
172 196 0
173 196 0
171 195 0
170 194 0
170 193 0
171 194 0
169 193 0
171 194 0
175 197 57
184 206 111
185 206 122
214 229 228
217 233 253
212 230 253
203 221 211
191 210 173
180 202 108
172 195 57
175 198 62
172 196 51
173 196 36
172 195 57
172 196 72
171 194 72
172 195 76
172 196 76
173 195 67
170 192 62
118 143 140
98 127 159
104 131 157
112 137 173
85 116 177
71 105 174
84 114 167
62 98 167
65 100 159
65 99 154
62 97 151
59 95 153
60 95 153
60 95 152
61 97 155
60 95 150
61 96 150
62 97 151
61 97 160
62 98 158
62 98 154
62 97 148
62 97 155
61 97 152
61 96 152
62 97 151
61 96 150
62 98 150
60 95 135
61 96 145
61 96 148
61 96 142
59 92 125
104 118 72
114 121 0
118 119 0
110 112 0
117 116 0
116 114 0
120 120 0
122 120 0
122 116 0
124 120 0
130 130 0
139 137 0
143 143 0
149 152 0
153 156 0
153 158 0
158 166 0
160 168 0
156 164 0
164 175 0
162 176 0
166 178 0
166 181 0
167 185 0
168 188 0
170 188 0
168 188 0
169 189 0
170 189 0
171 192 0
170 191 0
169 189 0
170 193 0
168 189 0
172 194 0
169 191 0
172 194 0
170 191 0
173 195 0
173 195 0
172 194 0
171 194 0
175 197 0
172 194 0
172 194 0
172 195 0
174 198 0
171 194 0
171 195 0
173 196 0
173 196 0
174 196 0
174 196 0
174 197 0
173 197 0
174 197 0
172 195 0
173 197 0
174 198 0
174 197 0
174 198 0
175 198 0
173 196 0
174 198 0
172 196 0
174 198 0
174 196 0
174 197 0
172 196 0
173 197 0
174 197 0
174 197 0
174 198 0
175 198 0
175 198 0
174 197 0
177 199 0
175 198 0
175 198 0
174 198 0
173 196 0
175 198 0
175 198 0
175 198 0
175 198 0
174 197 0
175 198 0
174 197 0
175 198 0
174 197 0
175 198 0
173 197 0
175 198 0
175 198 0
175 198 0
177 199 0
174 198 0
173 197 0
174 197 0
174 198 0
176 198 0
173 197 0
173 197 0
174 197 0
174 197 0
174 197 0
175 198 0
174 198 0
173 197 0
174 198 0
174 197 0
174 198 0
174 198 0
174 198 0
175 198 0
174 198 0
175 198 0
175 198 0
172 197 0
176 198 0
175 198 0
174 197 0
174 198 0
173 197 0
175 198 0
173 197 0
175 198 0
176 198 0
175 198 0
175 198 0
175 198 0
175 198 0
174 198 0
175 198 0
175 198 0
174 198 0
175 198 0
174 197 0
174 198 0
175 198 0
174 197 0
174 198 0
176 199 0
174 198 0
175 198 0
175 198 0
174 198 0
176 199 0
174 197 0
176 199 0
174 197 0
176 199 0
174 198 0
174 198 0
175 198 0
174 198 0
174 198 0
174 197 0
175 198 0
175 198 0
175 198 0
174 198 0
176 198 0
175 198 0
175 198 0
172 196 0
175 198 0
173 197 0
176 198 0
174 198 0
175 198 0
175 198 0
174 197 0
175 198 0
175 198 0
174 198 0
175 198 0
174 197 0
174 198 0
176 198 0
174 198 0
175 198 0
174 198 0
174 197 0
175 198 0
174 197 0
177 199 0
175 198 0
175 198 0
172 197 0
175 198 0
176 199 0
175 198 0
176 199 0
174 198 0
175 198 0
173 197 0
174 198 0
175 198 0
175 198 0
173 197 0
175 198 0
175 198 0
175 198 0
174 197 0
174 197 0
175 198 0
174 198 0
176 199 0
174 198 0
174 198 0
174 198 0
174 198 0
176 198 0
172 197 0
174 198 0
173 197 0
175 198 0
175 198 0
175 198 0
174 197 0
175 198 0
175 198 0
176 199 0
174 197 0
175 198 0
174 197 0
173 197 0
176 199 0
173 197 0
174 197 0
173 197 0
173 197 0
174 198 0
173 197 0
175 198 0
174 198 0
174 198 0
176 199 0
174 198 0
175 198 0
174 198 0
174 198 0
175 198 0
174 197 0
175 198 0
174 198 0
176 198 0
175 198 0
174 198 0
174 198 0
174 197 0
175 198 0
174 197 0
176 198 0
175 198 0
175 198 0
174 198 0
175 198 0
174 198 0
175 198 0
175 198 0
175 198 0
175 198 0
173 197 0
175 198 0
173 197 0
174 198 0
176 199 0
175 198 0
174 198 0
175 198 0
173 197 0
174 198 0
174 197 0
174 198 0
174 198 0
174 197 0
174 198 0
174 198 0
174 198 0
175 198 0
175 198 0
173 197 0
174 197 0
174 198 0
174 198 0
174 197 0
173 197 0
173 197 0
171 196 0
175 198 0
175 198 0
173 197 0
174 198 0
174 197 0
175 198 0
174 197 0
175 198 0
174 197 0
174 198 0
174 197 0
175 198 0
174 198 0
175 198 0
174 197 0
173 197 0
172 197 0
176 198 0
175 198 0
174 197 0
174 198 0
172 196 0
174 198 0
175 198 0
175 198 0
175 198 0
175 198 0
174 197 0
173 196 0
175 198 0
174 197 0
172 196 0
172 196 0
174 197 0
173 197 0
173 197 0
173 196 0
172 196 0
172 196 0
169 193 0
171 194 0
174 197 0
173 197 0
172 196 0
174 197 0
172 196 0
171 194 0
173 197 0
171 195 0
172 196 0
172 196 0
170 194 0
169 193 0
172 196 0
166 190 0
172 196 44
183 205 102
182 204 95
214 230 233
216 233 252
213 231 252
207 224 217
183 204 120
176 199 88
174 198 84
174 197 62
171 195 62
173 197 67
171 195 57
170 195 76
168 191 57
171 195 84
170 195 84
171 195 72
170 193 76
170 193 62
154 178 94
100 128 155
95 123 156
109 135 161
106 132 153
97 125 172
79 111 177
74 106 165
62 98 167
61 97 154
64 98 153
60 95 149
60 96 150
61 97 156
60 96 151
61 97 156
60 95 145
60 96 147
62 97 156
60 96 155
61 96 152
61 97 149
61 97 152
62 97 153
60 95 143
62 97 143
59 94 133
61 96 147
61 97 147
60 95 139
61 96 143
59 93 133
66 95 114
130 140 0
132 140 0
121 125 0
130 135 0
131 134 0
120 126 0
111 112 0
123 120 0
136 140 0
132 131 0
137 140 0
142 146 0
147 151 0
145 148 0
154 160 0
154 160 0
156 168 0
159 169 0
162 174 0
163 175 0
164 177 0
166 181 0
165 180 0
167 184 0
168 185 0
168 186 0
168 188 0
167 187 0
168 189 0
171 191 0
173 194 0
168 189 0
170 191 0
172 193 0
171 192 0
170 191 0
173 196 0
172 194 0
172 194 0
169 191 0
172 193 0
172 195 0
174 196 0
172 195 0
174 196 0
172 195 0
172 195 0
174 196 0
171 195 0
172 196 0
172 197 0
172 195 0
175 198 0
173 196 0
174 197 0
173 197 0
174 198 0
173 196 0
174 197 0
174 198 0
174 197 0
174 196 0
174 198 0
174 197 0
176 197 0
174 197 0
174 197 0
173 196 0
174 198 0
174 197 0
173 196 0
174 197 0
175 198 0
174 197 0
174 197 0
174 197 0
174 197 0
173 197 0
172 196 0
172 196 0
174 197 0
173 196 0
176 198 0
172 196 0
173 197 0
174 197 0
174 198 0
174 197 0
174 197 0
174 197 0
173 197 0
174 198 0
173 197 0
174 198 0
175 198 0
175 198 0
174 197 0
175 198 0
175 198 0
174 198 0
175 198 0
175 198 0
173 197 0
176 199 0
174 197 0
176 199 0
173 197 0
174 197 0
173 197 0
173 197 0
173 197 0
175 198 0
174 197 0
174 198 0
175 198 0
175 198 0
173 197 0
172 197 0
174 198 0
175 198 0
174 197 0
173 197 0
173 197 0
173 197 0
175 198 0
175 198 0
175 197 0
173 197 0
174 198 0
175 198 0
173 197 0
173 197 0
176 199 0
172 197 0
175 198 0
175 198 0
173 197 0
174 197 0
173 197 0
176 198 0
174 198 0
174 197 0
174 197 0
174 198 0
171 196 0
173 197 0
176 199 0
174 198 0
174 198 0
175 198 0
174 198 0
173 197 0
174 198 0
174 198 0
175 198 0
176 198 0
174 197 0
174 198 0
174 198 0
175 198 0
173 197 0
173 197 0
174 198 0
174 198 0
175 198 0
175 198 0
175 198 0
175 198 0
175 198 0
174 198 0
174 198 0
174 198 0
177 199 0
173 197 0
176 199 0
174 198 0
173 197 0
177 199 0
173 197 0
175 198 0
175 198 0
175 198 0
175 198 0
172 197 0
174 197 0
174 197 0
175 198 0
174 198 0
172 197 0
175 198 0
177 199 0
175 198 0
175 198 0
175 198 0
175 198 0
174 197 0
175 198 0
175 198 0
174 198 0
174 198 0
174 198 0
174 198 0
173 197 0
174 198 0
174 198 0
175 198 0
175 198 0
175 198 0
175 198 0
175 198 0
173 197 0
174 198 0
175 198 0
177 199 0
173 197 0
176 198 0
175 198 0
174 198 0
174 198 0
175 198 0
174 197 0
175 198 0
176 199 0
176 198 0
176 198 0
175 198 0
176 198 0
174 198 0
174 197 0
174 198 0
175 198 0
175 198 0
173 197 0
175 198 0
175 198 0
175 198 0
173 197 0
176 199 0
174 198 0
173 197 0
175 198 0
174 198 0
174 198 0
174 198 0
174 197 0
175 198 0
175 198 0
173 197 0
175 198 0
174 198 0
175 198 0
174 197 0
175 198 0
173 197 0
174 198 0
174 197 0
174 198 0
174 197 0
175 198 0
175 198 0
176 199 0
173 197 0
175 198 0
174 198 0
173 197 0
174 198 0
176 199 0
177 199 0
174 197 0
174 197 0
175 198 0
176 199 0
174 197 0
174 198 0
175 198 0
174 197 0
174 198 0
175 198 0
174 197 0
174 198 0
175 198 0
174 197 0
174 197 0
176 199 0
174 198 0
175 198 0
175 197 0
175 198 0
175 198 0
172 195 0
174 198 0
174 197 0
173 197 0
174 198 0
175 198 0
174 198 0
175 198 0
173 197 0
174 197 0
174 197 0
174 197 0
173 197 0
173 197 0
174 197 0
173 197 0
175 198 0
177 199 0
173 197 0
174 197 0
174 197 0
172 196 0
175 198 0
172 196 0
174 197 0
173 196 0
173 197 0
175 198 0
175 198 0
175 198 0
172 196 0
173 197 0
174 197 0
173 196 0
174 198 0
174 197 0
174 197 0
174 197 0
172 195 0
172 196 0
174 197 0
173 196 0
173 196 0
174 196 0
174 198 0
173 196 0
170 194 0
173 196 0
173 197 0
172 196 0
170 193 0
173 196 0
171 195 0
171 193 0
170 194 0
172 196 0
168 192 0
178 200 84
179 201 80
208 225 211
216 232 249
211 228 241
192 212 159
173 196 62
176 199 76
175 198 72
173 197 62
170 192 57
171 195 67
171 196 80
170 194 57
171 196 84
174 196 80
170 195 84
171 196 105
170 193 51
169 192 76
171 194 62
162 184 72
104 132 142
97 124 149
99 126 153
85 115 156
110 136 145
76 107 160
79 111 175
74 105 164
61 97 155
63 98 157
60 95 147
60 95 149
60 95 147
60 96 144
61 96 142
60 96 148
60 96 140
60 95 140
61 96 139
62 97 153
60 95 145
62 97 147
60 96 143
62 97 144
61 96 144
61 97 143
60 94 131
61 96 144
60 94 131
60 94 128
59 92 128
106 125 74
129 141 0
122 131 0
128 137 0
118 126 0
123 129 0
130 139 0
133 136 0
130 134 0
139 145 0
144 148 0
144 147 0
148 155 0
142 149 0
149 159 0
152 157 0
154 162 0
155 162 0
161 171 0
160 173 0
160 174 0
163 175 0
168 183 0
168 184 0
167 183 0
166 182 0
167 185 0
169 187 0
168 187 0
171 191 0
171 192 0
170 190 0
171 192 0
171 192 0
170 192 0
169 190 0
171 193 0
170 191 0
170 190 0
170 191 0
173 195 0
173 195 0
174 196 0
172 193 0
172 195 0
171 194 0
174 197 0
172 196 0
171 193 0
173 196 0
174 197 0
173 196 0
174 196 0
174 197 0
174 196 0
174 197 0
173 197 0
172 195 0
175 198 0
172 196 0
174 198 0
174 197 0
172 195 0
174 197 0
172 195 0
174 197 0
176 198 0
173 196 0
174 197 0
174 197 0
173 197 0
173 197 0
174 197 0
173 197 0
172 196 0
173 197 0
173 196 0
173 197 0
174 197 0
175 198 0
175 198 0
175 198 0
173 197 0
175 198 0
175 197 0
175 198 0
173 197 0
174 197 0
173 196 0
176 199 0
174 197 0
173 197 0
174 197 0
175 198 0
175 198 0
174 198 0
174 198 0
173 197 0
173 197 0
175 198 0
172 196 0
175 198 0
175 198 0
173 197 0
173 197 0
174 198 0
175 198 0
175 198 0
174 198 0
174 197 0
174 198 0
174 198 0
175 198 0
175 198 0
173 197 0
175 198 0
175 198 0
175 198 0
173 197 0
173 197 0
175 198 0
175 198 0
175 198 0
176 198 0
174 198 0
176 199 0
174 198 0
175 198 0
174 197 0
174 198 0
173 197 0
174 197 0
174 197 0
173 197 0
174 198 0
174 198 0
175 198 0
173 197 0
175 198 0
176 199 0
174 197 0
175 198 0
173 197 0
174 198 0
174 198 0
173 197 0
173 197 0
174 198 0
175 198 0
174 198 0
174 198 0
174 198 0
175 198 0
175 198 0
173 197 0
175 198 0
175 198 0
174 198 0
173 197 0
176 198 0
174 198 0
175 198 0
177 199 0
175 198 0
175 198 0
174 198 0
173 197 0
174 198 0
173 197 0
174 197 0
174 198 0
175 198 0
175 198 0
175 198 0
175 198 0
173 197 0
175 198 0
176 199 0
175 198 0
176 198 0
174 198 0
174 197 0
174 198 0
175 198 0
174 198 0
173 197 0
174 198 0
173 197 0
175 198 0
175 198 0
175 198 0
173 197 0
175 198 0
175 198 0
174 198 0
176 199 0
173 197 0
175 198 0
176 199 0
175 198 0
176 198 0
173 197 0
173 197 0
175 198 0
175 198 0
173 197 0
174 198 0
174 198 0
174 198 0
175 198 0
175 198 0
174 198 0
176 199 0
175 198 0
175 198 0
173 197 0
175 198 0
174 198 0
174 198 0
176 199 0
175 198 0
174 197 0
174 198 0
176 198 0
176 199 0
174 198 0
175 198 0
175 198 0
175 198 0
175 198 0
175 198 0
175 198 0
174 198 0
175 198 0
177 199 0
174 198 0
176 199 0
175 198 0
176 198 0
174 197 0
174 198 0
175 198 0
174 198 0
174 197 0
174 197 0
173 197 0
174 198 0
173 197 0
173 197 0
175 198 0
173 197 0
175 198 0
175 198 0
174 198 0
177 199 0
174 198 0
174 197 0
174 198 0
175 198 0
173 197 0
175 198 0
174 198 0
175 198 0
175 198 0
174 197 0
173 197 0
174 198 0
173 197 0
175 198 0
174 197 0
175 198 0
174 197 0
176 199 0
176 199 0
173 197 0
174 198 0
175 198 0
174 198 0
173 197 0
176 199 0
174 198 0
175 198 0
173 197 0
174 197 0
173 197 0
175 198 0
174 198 0
174 198 0
175 198 0
173 197 0
174 197 0
176 198 0
173 197 0
173 197 0
175 198 0
175 198 0
173 197 0
174 197 0
175 198 0
174 198 0
176 198 0
171 196 0
174 198 0
174 197 0
172 196 0
175 198 0
176 198 0
174 198 0
175 198 0
174 197 0
172 196 0
174 197 0
173 196 0
175 198 0
174 197 0
174 197 0
174 197 0
174 197 0
173 196 0
172 196 0
173 197 0
174 198 0
171 195 0
174 198 0
173 197 0
172 196 0
173 196 0
173 197 0
171 195 0
169 193 0
173 197 0
172 195 0
174 197 0
173 195 0
170 194 0
171 195 0
173 196 0
173 196 0
171 195 0
171 195 0
174 197 0
169 193 0
171 194 0
170 193 0
174 197 0
172 196 0
177 200 72
181 203 92
194 213 155
218 233 248
213 229 244
187 207 157
176 199 67
174 197 84
174 198 72
174 198 76
173 198 92
173 196 80
169 192 76
169 192 67
167 192 76
174 199 76
173 197 80
166 189 76
165 190 80
165 189 102
165 189 67
168 191 88
164 187 67
136 160 115
86 115 139
106 132 146
80 109 136
91 120 139
95 122 151
89 118 157
77 108 169
65 99 156
61 97 157
62 97 152
60 95 143
60 94 138
60 96 144
60 94 136
61 96 141
60 95 135
61 95 143
60 94 140
60 95 144
61 96 139
59 94 144
60 95 136
60 95 143
60 95 134
59 93 121
60 94 133
60 94 133
59 93 132
59 93 125
66 94 110
119 130 0
130 140 0
137 150 0
131 144 0
117 124 0
147 159 0
139 149 0
143 154 0
132 137 0
131 136 0
142 148 0
150 158 0
146 154 0
152 161 0
160 171 0
154 165 0
159 172 0
162 172 0
157 166 0
158 170 0
160 173 0
162 176 0
169 187 0
167 184 0
167 185 0
168 184 0
167 186 0
168 187 0
167 187 0
169 189 0
167 186 0
170 191 0
170 190 0
171 193 0
171 191 0
168 190 0
171 192 0
170 192 0
171 192 0
172 194 0
172 195 0
172 193 0
174 196 0
172 196 0
173 196 0
174 196 0
172 195 0
171 194 0
173 196 0
172 195 0
173 197 0
173 196 0
173 196 0
174 197 0
174 195 0
172 196 0
173 196 0
174 197 0
173 196 0
170 194 0
176 199 0
174 197 0
175 198 0
174 197 0
174 197 0
173 197 0
174 197 0
173 195 0
175 198 0
174 197 0
174 198 0
173 196 0
173 196 0
175 198 0
175 198 0
174 197 0
175 198 0
176 198 0
175 198 0
176 199 0
174 197 0
172 196 0
174 197 0
173 197 0
175 198 0
174 197 0
176 198 0
173 197 0
173 197 0
173 197 0
173 197 0
175 198 0
174 198 0
174 197 0
175 198 0
174 196 0
175 198 0
174 197 0
175 198 0
174 197 0
175 198 0
172 196 0
176 198 0
175 198 0
175 198 0
173 197 0
173 197 0
176 199 0
174 197 0
174 198 0
174 198 0
174 197 0
176 199 0
173 197 0
175 198 0
175 198 0
174 198 0
173 197 0
174 197 0
174 198 0
175 198 0
176 199 0
175 198 0
175 198 0
174 197 0
174 198 0
174 198 0
176 199 0
175 198 0
175 198 0
173 197 0
174 198 0
175 198 0
175 198 0
175 198 0
173 197 0
175 198 0
173 197 0
173 197 0
175 198 0
175 198 0
175 198 0
173 197 0
174 197 0
176 199 0
176 199 0
174 198 0
174 198 0
174 198 0
173 197 0
175 198 0
175 198 0
176 198 0
174 197 0
174 198 0
176 199 0
177 199 0
174 198 0
173 197 0
174 197 0
174 197 0
175 198 0
174 198 0
174 197 0
174 198 0
174 197 0
176 198 0
175 198 0
174 198 0
175 198 0
174 198 0
175 198 0
174 198 0
174 198 0
173 197 0
175 198 0
172 197 0
174 197 0
174 198 0
175 198 0
173 197 0
173 197 0
175 198 0
174 198 0
174 198 0
174 198 0
175 198 0
174 197 0
174 197 0
176 199 0
174 197 0
174 198 0
176 199 0
177 199 0
173 197 0
175 198 0
175 198 0
174 198 0
174 198 0
176 198 0
174 197 0
178 200 0
174 198 0
174 198 0
174 197 0
176 199 0
174 197 0
175 198 0
175 198 0
174 198 0
173 197 0
173 197 0
175 198 0
174 198 0
174 198 0
175 198 0
175 198 0
175 198 0
174 197 0
173 197 0
175 198 0
175 198 0
174 198 0
172 197 0
176 198 0
175 198 0
174 197 0
175 198 0
172 197 0
176 199 0
175 198 0
175 198 0
174 198 0
173 197 0
174 198 0
175 198 0
175 198 0
174 197 0
174 197 0
175 198 0
174 198 0
175 198 0
176 199 0
175 198 0
173 196 0
175 198 0
176 198 0
174 197 0
174 198 0
176 199 0
174 197 0
173 197 0
176 198 0
175 198 0
173 197 0
174 198 0
174 197 0
174 198 0
175 198 0
173 197 0
173 197 0
175 198 0
172 196 0
172 196 0
174 198 0
173 197 0
173 197 0
175 198 0
174 198 0
175 198 0
175 198 0
175 198 0
174 198 0
174 197 0
174 198 0
176 198 0
175 198 0
174 198 0
175 198 0
174 197 0
174 198 0
174 197 0
173 197 0
173 197 0
176 198 0
174 198 0
174 197 0
174 198 0
174 198 0
175 198 0
174 198 0
173 197 0
175 198 0
175 198 0
175 198 0
173 197 0
175 198 0
174 197 0
174 198 0
175 198 0
174 197 0
177 199 0
174 198 0
173 197 0
174 197 0
174 198 0
173 197 0
173 197 0
175 198 0
174 197 0
174 198 0
172 196 0
173 197 0
172 196 0
173 196 0
173 196 0
172 196 0
173 196 0
173 197 0
175 198 0
173 197 0
174 197 0
173 197 0
174 198 0
174 198 0
175 198 0
172 196 0
175 198 0
173 197 0
171 195 0
174 198 0
175 197 0
172 196 0
173 196 0
173 196 0
174 197 0
172 195 0
171 194 0
173 197 0
170 194 0
170 194 0
172 195 0
170 195 0
173 196 0
170 194 0
172 196 0
175 198 62
177 200 67
217 232 242
216 232 250
188 209 144
177 200 80
173 196 62
171 195 57
171 195 76
172 195 80
169 193 57
165 189 76
172 197 80
169 192 72
171 196 84
168 192 88
169 193 67
167 191 51
162 186 76
158 182 72
164 187 80
164 187 80
166 189 92
157 181 84
115 140 118
96 123 144
94 122 150
101 126 143
103 129 140
87 115 148
90 118 161
77 106 157
66 100 156
62 97 145
62 96 139
58 92 124
58 92 134
58 93 140
60 95 138
62 97 145
61 95 137
60 95 142
60 95 141
60 94 130
59 93 133
60 94 133
59 93 126
60 95 134
60 95 135
60 94 134
59 92 126
58 91 115
59 92 113
121 133 18
115 126 0
118 131 0
124 138 0
134 147 0
137 151 0
139 152 0
145 158 0
150 162 0
140 150 0
135 146 0
143 152 0
151 161 0
152 163 0
146 157 0
156 168 0
153 162 0
160 174 0
157 169 0
163 178 0
156 167 0
158 173 0
162 179 0
166 182 0
164 182 0
166 185 0
168 185 0
162 180 0
169 188 0
167 186 0
171 192 0
170 190 0
171 191 0
168 188 0
171 192 0
172 191 0
171 190 0
171 194 0
172 195 0
168 188 0
173 193 0
172 194 0
171 194 0
173 195 0
171 194 0
172 196 0
172 194 0
173 195 0
174 195 0
172 195 0
173 195 0
171 194 0
175 197 0
174 196 0
171 195 0
172 195 0
174 197 0
171 194 0
171 194 0
173 197 0
175 197 0
175 198 0
172 196 0
173 197 0
174 197 0
173 197 0
173 195 0
174 197 0
174 197 0
173 197 0
174 196 0
173 197 0
173 196 0
174 197 0
174 197 0
174 197 0
174 198 0
174 197 0
173 197 0
175 198 0
174 197 0
175 198 0
174 198 0
173 197 0
174 198 0
172 196 0
174 197 0
175 198 0
176 198 0
173 197 0
172 196 0
174 197 0
175 198 0
175 198 0
173 197 0
176 198 0
174 198 0
174 197 0
173 197 0
174 198 0
173 197 0
173 197 0
173 196 0
175 198 0
175 198 0
175 198 0
174 197 0
173 197 0
174 198 0
175 198 0
175 198 0
173 197 0
173 197 0
173 197 0
175 197 0
174 197 0
175 198 0
176 199 0
176 199 0
173 197 0
175 198 0
175 198 0
174 198 0
175 198 0
173 197 0
174 197 0
172 197 0
176 198 0
174 197 0
176 199 0
174 198 0
173 197 0
174 198 0
175 198 0
172 196 0
175 198 0
173 197 0
174 197 0
174 198 0
176 198 0
173 197 0
174 198 0
175 198 0
174 198 0
174 198 0
174 197 0
175 198 0
175 198 0
175 198 0
173 197 0
174 198 0
174 197 0
175 198 0
174 198 0
176 199 0
174 197 0
173 197 0
174 198 0
175 198 0
174 197 0
175 198 0
174 198 0
175 198 0
173 197 0
174 198 0
175 198 0
174 197 0
175 198 0
174 198 0
173 197 0
177 199 0
174 197 0
174 197 0
176 199 0
175 198 0
174 198 0
175 198 0
174 197 0
174 198 0
174 198 0
174 198 0
174 198 0
175 198 0
174 198 0
176 199 0
176 199 0
175 198 0
174 198 0
174 197 0
174 197 0
173 197 0
174 198 0
174 197 0
176 198 0
174 198 0
175 198 0
175 198 0
174 197 0
174 198 0
174 197 0
174 198 0
176 199 0
174 198 0
174 198 0
174 198 0
175 198 0
174 198 0
175 198 0
174 198 0
175 198 0
174 198 0
175 198 0
176 199 0
175 198 0
174 198 0
173 197 0
174 198 0
176 198 0
175 198 0
174 197 0
173 197 0
174 198 0
173 197 0
174 197 0
173 197 0
173 196 0
175 198 0
175 198 0
173 197 0
174 198 0
173 197 0
175 198 0
174 197 0
174 198 0
176 199 0
175 198 0
174 198 0
174 198 0
175 198 0
175 198 0
175 198 0
176 199 0
175 198 0
174 198 0
175 198 0
175 198 0
174 198 0
173 197 0
173 197 0
177 199 0
175 198 0
174 198 0
175 198 0
176 199 0
174 198 0
174 197 0
175 198 0
174 198 0
174 198 0
175 198 0
174 198 0
175 198 0
174 198 0
176 199 0
174 198 0
174 198 0
175 198 0
173 197 0
175 198 0
175 198 0
176 198 0
175 198 0
174 197 0
173 197 0
175 198 0
175 198 0
175 198 0
176 199 0
175 198 0
174 198 0
174 197 0
175 198 0
174 198 0
174 198 0
175 198 0
175 198 0
175 198 0
175 198 0
175 198 0
173 197 0
175 198 0
173 197 0
175 198 0
176 199 0
174 197 0
173 197 0
174 198 0
173 197 0
173 197 0
174 198 0
174 198 0
175 198 0
174 198 0
173 197 0
174 197 0
174 197 0
173 196 0
173 197 0
173 197 0
175 198 0
174 197 0
174 197 0
175 198 0
175 197 0
175 198 0
173 197 0
171 195 0
175 198 0
174 197 0
176 199 0
174 197 0
172 195 0
174 197 0
172 196 0
173 197 0
173 197 0
173 196 0
173 197 0
173 196 0
172 195 0
172 195 0
170 194 0
174 197 0
173 196 0
173 197 0
172 195 0
175 198 0
173 196 0
173 197 0
172 195 0
173 197 0
172 196 0
173 197 0
174 197 0
173 196 0
170 193 0
175 197 57
177 200 84
197 215 171
218 234 252
196 216 188
177 200 76
174 197 80
174 198 80
172 195 72
173 196 62
172 196 84
168 192 72
169 193 62
166 191 67
170 194 62
169 192 80
169 193 80
169 193 88
163 187 57
166 190 72
166 190 76
163 186 62
163 187 72
158 181 72
163 187 74
155 178 70
92 119 129
87 114 133
95 121 138
101 126 132
97 123 134
98 124 150
74 105 158
71 101 146
61 96 151
58 93 135
69 100 135
60 94 140
58 92 121
58 93 125
58 92 126
59 93 131
59 94 140
59 94 134
58 92 117
59 93 129
58 93 124
60 94 130
60 95 131
61 95 128
60 93 124
58 91 121
61 93 107
99 117 65
124 138 0
116 129 0
128 142 0
123 138 0
131 144 0
135 152 0
142 156 0
142 157 0
144 156 0
135 148 0
147 159 0
149 160 0
151 166 0
150 163 0
152 169 0
158 171 0
159 174 0
153 166 0
161 176 0
160 175 0
160 177 0
164 179 0
164 179 0
166 184 0
166 182 0
167 185 0
166 184 0
167 186 0
167 184 0
167 187 0
173 193 0
168 189 0
166 188 0
170 190 0
166 187 0
168 189 0
171 193 0
171 192 0
167 190 0
171 193 0
171 192 0
174 197 0
172 194 0
169 193 0
171 194 0
171 193 0
172 195 0
170 192 0
172 195 0
172 195 0
171 194 0
172 195 0
173 196 0
174 197 0
173 196 0
175 198 0
172 195 0
174 197 0
175 197 0
174 197 0
174 197 0
172 197 0
173 195 0
175 198 0
175 198 0
174 197 0
176 198 0
172 196 0
173 196 0
175 198 0
174 197 0
175 198 0
173 196 0
174 197 0
175 198 0
176 198 0
174 198 0
173 196 0
175 198 0
174 197 0
175 198 0
173 196 0
175 198 0
176 198 0
174 197 0
174 197 0
173 197 0
172 196 0
174 197 0
174 197 0
174 197 0
175 198 0
174 197 0
173 197 0
176 198 0
173 197 0
174 197 0
173 196 0
176 198 0
174 197 0
174 198 0
174 198 0
174 198 0
176 199 0
172 197 0
173 197 0
174 197 0
173 197 0
174 197 0
174 197 0
175 198 0
174 198 0
174 198 0
174 198 0
173 197 0
175 198 0
175 198 0
176 198 0
175 198 0
174 197 0
175 198 0
174 198 0
175 198 0
175 198 0
175 198 0
173 197 0
175 198 0
175 198 0
175 198 0
174 198 0
174 198 0
174 198 0
175 198 0
175 198 0
174 197 0
174 197 0
174 197 0
175 198 0
175 198 0
174 198 0
173 197 0
174 198 0
174 197 0
175 198 0
174 198 0
174 198 0
176 199 0
176 199 0
174 197 0
174 197 0
174 198 0
174 197 0
174 197 0
173 197 0
175 198 0
175 198 0
175 198 0
173 197 0
174 198 0
175 198 0
174 198 0
175 198 0
175 198 0
175 198 0
173 197 0
175 198 0
174 198 0
173 197 0
174 198 0
174 198 0
174 197 0
175 198 0
175 198 0
174 198 0
174 198 0
174 198 0
174 198 0
175 198 0
175 198 0
175 198 0
174 198 0
173 197 0
175 198 0
174 198 0
174 198 0
176 198 0
175 198 0
175 198 0
176 199 0
174 198 0
174 198 0
173 197 0
175 198 0
175 198 0
175 198 0
173 197 0
172 197 0
174 197 0
174 197 0
174 198 0
174 198 0
177 199 0
173 197 0
175 198 0
174 198 0
174 198 0
174 198 0
173 197 0
176 198 0
175 198 0
176 199 0
176 199 0
173 197 0
175 198 0
174 198 0
175 198 0
175 198 0
175 198 0
175 198 0
176 198 0
174 198 0
175 198 0
174 198 0
173 197 0
175 198 0
175 198 0
175 198 0
174 197 0
176 199 0
174 197 0
174 198 0
173 197 0
174 198 0
176 198 0
175 198 0
174 198 0
172 197 0
175 198 0
174 198 0
175 198 0
174 197 0
173 197 0
176 198 0
173 196 0
175 198 0
175 198 0
175 198 0
174 198 0
175 198 0
173 197 0
175 198 0
173 197 0
175 198 0
175 198 0
174 198 0
175 198 0
175 198 0
174 198 0
176 199 0
174 197 0
175 198 0
175 198 0
176 199 0
174 198 0
175 198 0
174 197 0
174 197 0
174 198 0
174 198 0
175 198 0
176 199 0
174 198 0
174 198 0
174 197 0
172 197 0
173 197 0
175 198 0
176 199 0
174 197 0
175 198 0
176 199 0
173 197 0
175 198 0
175 198 0
176 198 0
174 198 0
174 198 0
175 198 0
175 198 0
174 197 0
173 197 0
175 198 0
174 197 0
174 197 0
174 197 0
175 198 0
175 198 0
175 198 0
174 197 0
176 198 0
173 197 0
174 198 0
174 197 0
174 196 0
175 198 0
174 197 0
175 198 0
173 196 0
174 197 0
175 198 0
175 198 0
175 198 0
173 197 0
174 198 0
171 195 0
174 198 0
175 198 0
176 198 0
175 198 0
172 196 0
174 197 0
174 197 0
172 196 0
172 196 0
173 197 0
172 196 0
173 196 0
173 197 0
174 198 0
173 197 0
173 197 0
172 196 0
174 197 0
171 195 0
174 197 0
170 194 0
173 197 0
172 196 0
173 197 0
172 196 0
170 193 0
170 194 0
173 196 0
172 196 0
174 197 0
170 194 0
175 198 51
176 199 67
213 228 221
209 226 227
179 202 92
177 199 80
175 198 51
171 195 76
172 196 67
173 197 92
170 194 62
171 195 84
169 193 57
167 191 76
167 190 76
168 192 76
169 193 72
167 192 72
164 188 72
167 190 80
165 189 84
165 189 62
161 185 72
156 179 57
155 178 76
148 171 80
134 157 90
91 116 121
95 120 131
100 125 136
89 116 146
94 118 132
96 123 152
73 104 148
75 102 140
59 94 130
66 98 129
57 90 108
59 93 118
58 92 129
60 94 130
58 92 125
60 94 130
58 92 114
61 96 137
58 92 114
57 90 111
59 93 125
58 91 118
55 87 107
56 89 113
57 90 111
86 105 60
119 132 0
118 133 0
124 137 0
126 140 0
139 153 0
137 152 0
138 152 0
141 157 0
133 148 0
143 159 0
145 161 0
145 160 0
150 164 0
150 164 0
157 172 0
145 160 0
152 168 0
155 173 0
163 177 0
157 173 0
162 177 0
159 173 0
164 182 0
164 180 0
162 181 0
164 184 0
165 184 0
166 184 0
162 180 0
170 190 0
171 190 0
169 189 0
169 188 0
168 189 0
172 195 0
166 186 0
170 191 0
172 194 0
169 191 0
172 194 0
172 192 0
172 193 0
172 194 0
173 194 0
173 195 0
171 193 0
173 195 0
173 195 0
172 194 0
169 193 0
174 196 0
172 195 0
172 194 0
174 196 0
172 195 0
173 195 0
174 197 0
174 196 0
171 194 0
172 194 0
172 195 0
173 196 0
175 198 0
173 197 0
174 197 0
174 198 0
174 198 0
173 196 0
173 197 0
173 197 0
173 197 0
175 197 0
174 197 0
175 198 0
176 199 0
173 197 0
173 196 0
174 197 0
174 197 0
174 198 0
173 197 0
175 198 0
173 197 0
174 197 0
174 197 0
174 197 0
175 198 0
173 197 0
175 198 0
172 196 0
175 198 0
173 197 0
173 197 0
175 198 0
173 197 0
177 199 0
174 198 0
174 198 0
173 197 0
175 198 0
175 198 0
174 197 0
175 198 0
173 197 0
175 198 0
174 197 0
175 198 0
174 197 0
173 197 0
175 198 0
173 197 0
176 199 0
174 197 0
175 198 0
173 197 0
174 198 0
175 198 0
173 197 0
171 196 0
175 198 0
176 198 0
174 198 0
175 198 0
173 197 0
173 197 0
175 198 0
175 198 0
176 199 0
175 198 0
174 197 0
175 198 0
176 198 0
174 198 0
174 198 0
175 198 0
175 198 0
174 197 0
173 197 0
174 198 0
174 198 0
177 199 0
174 198 0
174 198 0
176 199 0
175 198 0
174 198 0
175 198 0
174 197 0
177 199 0
175 198 0
175 198 0
173 197 0
174 197 0
175 198 0
175 198 0
175 198 0
174 198 0
175 198 0
174 198 0
175 198 0
176 198 0
174 198 0
175 198 0
177 199 0
175 198 0
175 198 0
174 197 0
174 198 0
175 198 0
174 198 0
175 198 0
175 198 0
176 199 0
174 197 0
175 198 0
174 198 0
175 198 0
175 198 0
176 198 0
173 197 0
175 198 0
175 198 0
175 198 0
176 198 0
174 197 0
175 198 0
175 198 0
175 198 0
174 198 0
175 198 0
176 199 0
174 198 0
173 197 0
173 197 0
173 197 0
175 198 0
175 198 0
174 198 0
175 198 0
174 197 0
174 198 0
173 197 0
174 198 0
175 198 0
176 198 0
175 198 0
175 198 0
173 197 0
173 197 0
173 197 0
173 197 0
175 198 0
174 198 0
175 198 0
176 198 0
175 198 0
175 198 0
174 198 0
174 198 0
174 197 0
174 198 0
175 198 0
175 198 0
174 198 0
175 198 0
175 198 0
175 198 0
175 198 0
174 197 0
174 198 0
174 198 0
174 197 0
174 198 0
174 197 0
172 197 0
175 198 0
175 198 0
175 198 0
176 198 0
175 198 0
175 198 0
175 198 0
176 198 0
174 198 0
174 198 0
174 197 0
173 197 0
175 198 0
175 198 0
175 198 0
175 198 0
174 198 0
174 197 0
174 198 0
174 198 0
175 198 0
175 198 0
175 198 0
174 197 0
175 198 0
173 196 0
174 198 0
174 198 0
174 198 0
174 197 0
174 198 0
175 198 0
174 198 0
175 198 0
175 198 0
176 198 0
175 198 0
174 198 0
173 197 0
175 198 0
175 198 0
175 198 0
174 197 0
176 199 0
173 197 0
172 196 0
174 198 0
173 197 0
172 196 0
176 198 0
176 198 0
174 197 0
174 198 0
172 197 0
174 198 0
174 197 0
174 198 0
175 198 0
173 196 0
174 197 0
175 198 0
175 198 0
174 198 0
175 198 0
175 198 0
175 198 0
175 198 0
173 196 0
173 197 0
174 198 0
174 198 0
174 198 0
174 197 0
173 197 0
172 196 0
174 197 0
173 197 0
175 198 0
172 196 0
174 197 0
175 198 0
173 197 0
175 198 0
172 196 0
173 196 0
176 199 0
174 198 0
173 197 0
172 195 0
171 195 0
175 198 0
173 197 0
171 195 0
175 198 0
174 197 0
171 195 0
170 194 0
172 196 0
171 195 0
173 197 0
173 197 0
173 196 0
171 195 0
172 195 0
173 196 0
174 197 0
174 197 0
173 197 0
172 196 0
173 197 0
170 193 0
171 195 0
179 201 72
189 209 128
220 234 249
189 208 153
175 198 72
172 196 51
173 196 76
171 195 67
172 196 76
169 192 80
170 195 51
170 194 57
168 191 67
169 193 72
161 186 80
163 188 57
169 193 76
166 190 88
164 188 57
165 188 62
168 190 99
163 187 84
163 187 62
157 179 62
153 176 88
153 174 62
139 161 62
117 139 105
92 117 125
92 118 114
98 124 140
110 134 133
95 118 118
82 110 152
63 96 134
59 92 120
67 98 110
63 94 106
57 91 119
58 92 118
56 88 110
59 93 122
58 92 114
59 93 124
58 92 118
57 91 110
58 91 102
58 92 118
57 90 108
57 91 120
59 89 92
90 105 47
118 132 0
124 141 0
131 145 0
123 142 0
140 156 0
139 157 0
128 143 0
137 153 0
145 159 0
137 153 0
144 160 0
146 163 0
146 161 0
150 168 0
156 174 0
149 166 0
163 179 0
158 173 0
156 173 0
156 174 0
163 181 0
159 174 0
155 173 0
162 181 0
165 182 0
164 183 0
165 183 0
164 181 0
169 188 0
169 188 0
167 188 0
166 186 0
170 190 0
167 187 0
170 193 0
169 191 0
172 194 0
170 193 0
171 191 0
168 190 0
170 192 0
171 194 0
172 194 0
172 194 0
171 193 0
171 194 0
172 193 0
172 194 0
170 193 0
175 197 0
174 196 0
173 197 0
174 197 0
173 196 0
170 193 0
172 195 0
172 194 0
172 195 0
175 198 0
173 196 0
173 196 0
175 198 0
174 197 0
170 193 0
175 197 0
173 196 0
172 195 0
173 197 0
174 197 0
175 198 0
172 196 0
175 198 0
173 197 0
175 197 0
175 198 0
173 196 0
174 197 0
174 197 0
175 197 0
174 197 0
173 196 0
174 198 0
173 197 0
174 197 0
175 198 0
176 199 0
175 198 0
175 198 0
173 197 0
173 197 0
173 197 0
173 197 0
173 197 0
174 198 0
175 198 0
173 197 0
174 197 0
175 198 0
172 196 0
176 199 0
174 197 0
173 197 0
174 198 0
174 197 0
176 198 0
174 198 0
173 197 0
174 197 0
174 198 0
175 198 0
175 198 0
174 197 0
174 198 0
176 199 0
174 197 0
175 198 0
174 198 0
175 198 0
174 198 0
174 198 0
175 198 0
174 198 0
173 197 0
173 197 0
173 197 0
173 197 0
174 197 0
174 198 0
174 198 0
175 198 0
174 198 0
174 198 0
175 198 0
174 198 0
175 198 0
174 198 0
173 197 0
174 198 0
174 198 0
175 198 0
173 197 0
173 197 0
174 198 0
174 198 0
176 199 0
174 198 0
174 197 0
174 198 0
175 198 0
175 198 0
174 197 0
176 199 0
175 198 0
176 199 0
174 197 0
174 198 0
175 198 0
176 198 0
174 198 0
176 199 0
173 197 0
175 198 0
174 198 0
175 198 0
174 198 0
173 197 0
176 198 0
174 198 0
175 198 0
174 198 0
174 198 0
174 198 0
175 198 0
175 198 0
174 198 0
173 197 0
174 197 0
174 197 0
175 198 0
174 197 0
174 198 0
173 197 0
173 197 0
175 198 0
174 197 0
174 198 0
174 198 0
174 198 0
174 198 0
175 198 0
176 198 0
175 198 0
175 198 0
175 198 0
174 198 0
176 199 0
175 198 0
175 198 0
174 198 0
174 198 0
174 197 0
174 198 0
176 198 0
175 198 0
173 197 0
175 198 0
174 198 0
175 198 0
174 198 0
174 198 0
175 198 0
175 198 0
176 198 0
176 198 0
175 198 0
174 197 0
173 197 0
174 198 0
174 198 0
174 198 0
175 198 0
172 196 0
175 198 0
175 198 0
174 197 0
176 198 0
177 199 0
174 198 0
175 198 0
173 197 0
174 198 0
178 200 0
175 198 0
174 198 0
175 198 0
174 198 0
173 197 0
174 198 0
174 197 0
175 198 0
174 198 0
175 198 0
172 196 0
174 198 0
175 198 0
174 198 0
175 198 0
175 198 0
171 196 0
174 198 0
173 197 0
174 197 0
173 197 0
174 198 0
174 197 0
175 198 0
175 198 0
174 198 0
175 198 0
174 198 0
176 198 0
174 198 0
173 197 0
174 198 0
173 197 0
174 198 0
175 198 0
173 197 0
175 198 0
176 199 0
174 198 0
173 197 0
174 198 0
175 198 0
174 197 0
176 198 0
175 198 0
174 197 0
173 196 0
174 197 0
175 198 0
175 198 0
175 198 0
175 198 0
175 198 0
174 198 0
176 198 0
175 198 0
174 198 0
174 197 0
173 197 0
173 197 0
175 198 0
173 196 0
175 198 0
175 198 0
174 198 0
174 198 0
174 197 0
175 198 0
173 197 0
173 197 0
173 197 0
176 199 0
173 197 0
173 197 0
175 198 0
171 195 0
175 198 0
174 197 0
174 197 0
173 196 0
173 197 0
174 197 0
172 196 0
172 196 0
174 197 0
172 196 0
172 197 0
173 196 0
173 197 0
173 197 0
174 198 0
174 197 0
172 196 0
173 197 0
173 197 0
174 197 0
174 197 0
173 196 0
171 195 0
173 196 0
171 195 0
170 194 0
169 193 0
173 197 0
172 196 0
172 195 0
171 195 0
174 197 0
170 194 0
171 194 0
174 197 0
168 193 0
174 197 0
171 195 0
171 194 0
173 196 0
177 200 51
188 208 128
217 231 238
173 197 62
178 200 84
176 199 80
169 193 25
172 195 67
175 199 80
172 196 88
170 194 57
174 198 95
169 193 72
169 193 92
169 192 80
167 191 105
166 190 102
174 198 111
166 189 95
166 188 114
173 196 80
161 184 88
159 181 92
158 179 128
152 173 84
160 182 92
150 171 62
139 159 80
118 140 92
103 127 131
95 120 122
108 133 140
99 124 120
106 121 107
71 101 137
67 97 122
65 96 122
65 95 100
56 90 99
57 90 103
57 91 114
58 92 114
57 90 100
58 92 114
57 91 115
56 89 107
58 91 107
55 87 90
55 88 92
83 104 74
119 134 18
116 133 0
117 133 0
124 141 0
125 141 0
133 149 0
125 143 0
133 151 0
140 157 0
135 154 0
147 165 0
146 162 0
155 172 0
148 167 0
152 168 0
155 173 0
152 167 0
154 174 0
161 178 0
160 178 0
161 180 0
159 178 0
163 182 0
156 174 0
160 179 0
162 179 0
164 183 0
169 188 0
169 188 0
168 189 0
166 187 0
165 185 0
164 186 0
165 187 0
167 187 0
168 188 0
168 190 0
167 188 0
167 190 0
169 190 0
171 194 0
172 193 0
169 192 0
172 193 0
171 193 0
170 193 0
170 191 0
171 193 0
173 194 0
171 194 0
174 198 0
173 196 0
174 197 0
176 198 0
174 196 0
172 196 0
173 195 0
173 196 0
172 195 0
173 196 0
172 196 0
173 196 0
173 196 0
172 195 0
173 196 0
174 197 0
174 197 0
171 193 0
174 197 0
173 196 0
174 197 0
175 197 0
173 196 0
174 197 0
174 197 0
175 197 0
174 197 0
174 197 0
174 197 0
175 198 0
173 197 0
173 196 0
174 197 0
174 197 0
173 197 0
174 197 0
174 197 0
173 197 0
175 198 0
173 197 0
175 198 0
173 196 0
174 198 0
176 198 0
174 197 0
174 197 0
173 197 0
175 198 0
173 197 0
175 198 0
174 197 0
174 198 0
173 197 0
175 198 0
175 198 0
175 198 0
174 197 0
174 197 0
173 197 0
174 198 0
175 198 0
174 198 0
175 198 0
175 198 0
175 198 0
175 198 0
174 197 0
174 198 0
174 197 0
174 198 0
174 197 0
173 197 0
175 198 0
174 198 0
175 198 0
174 197 0
174 198 0
175 198 0
173 197 0
176 198 0
174 197 0
173 197 0
175 198 0
175 198 0
174 198 0
174 198 0
174 198 0
174 197 0
175 198 0
174 197 0
173 197 0
174 198 0
175 198 0
174 198 0
175 198 0
174 198 0
173 197 0
173 197 0
173 197 0
176 199 0
174 198 0
173 197 0
174 197 0
174 198 0
174 197 0
173 197 0
175 198 0
175 198 0
174 198 0
175 198 0
175 198 0
174 197 0
174 198 0
176 198 0
174 198 0
175 198 0
173 197 0
173 197 0
175 198 0
174 198 0
175 198 0
174 197 0
174 198 0
175 198 0
176 198 0
175 198 0
174 198 0
174 197 0
175 198 0
173 197 0
174 198 0
174 198 0
174 198 0
176 199 0
175 198 0
176 199 0
175 198 0
173 197 0
174 198 0
174 198 0
173 197 0
175 198 0
174 197 0
173 197 0
174 197 0
175 198 0
174 198 0
174 197 0
175 198 0
173 197 0
175 198 0
174 197 0
174 198 0
175 198 0
174 198 0
174 198 0
174 198 0
175 198 0
174 197 0
174 197 0
176 198 0
174 198 0
175 198 0
175 198 0
174 198 0
174 198 0
174 197 0
173 197 0
174 198 0
175 198 0
174 197 0
174 198 0
175 198 0
174 198 0
174 198 0
175 198 0
175 198 0
173 197 0
174 198 0
173 197 0
175 198 0
175 198 0
175 198 0
174 198 0
173 197 0
174 197 0
173 197 0
174 197 0
174 197 0
175 198 0
175 198 0
174 198 0
175 198 0
174 198 0
174 198 0
175 198 0
174 198 0
174 198 0
177 199 0
173 197 0
174 198 0
175 198 0
174 197 0
175 198 0
176 198 0
174 198 0
174 197 0
175 198 0
174 197 0
175 198 0
173 197 0
175 198 0
173 197 0
174 198 0
174 197 0
176 198 0
175 198 0
175 198 0
174 198 0
174 198 0
173 197 0
175 198 0
174 198 0
174 197 0
172 196 0
174 198 0
173 197 0
174 198 0
176 199 0
174 197 0
173 197 0
174 197 0
174 198 0
173 197 0
173 197 0
175 198 0
175 198 0
175 198 0
175 198 0
176 198 0
174 197 0
174 198 0
174 198 0
174 197 0
173 197 0
176 198 0
173 197 0
173 197 0
173 197 0
175 198 0
172 196 0
173 197 0
172 196 0
173 197 0
173 197 0
175 198 0
174 198 0
175 198 0
174 197 0
172 196 0
174 198 0
172 196 0
174 197 0
174 197 0
173 197 0
174 198 0
175 198 0
172 197 0
174 198 0
174 197 0
173 196 0
173 196 0
171 195 0
173 196 0
174 197 0
174 197 0
175 198 0
173 197 0
173 197 0
173 197 0
175 198 0
172 196 0
175 198 0
173 197 0
172 195 0
174 197 0
173 196 0
173 197 0
174 198 0
173 196 0
172 196 0
171 195 0
174 198 0
172 196 0
167 191 0
172 195 0
172 195 0
169 193 0
170 194 0
173 196 44
180 202 80
199 216 169
195 214 163
178 200 84
173 197 80
176 199 92
172 196 57
173 196 76
168 192 51
175 198 76
171 196 72
170 194 80
169 194 62
171 194 99
171 196 108
170 193 95
170 193 80
170 193 80
168 191 95
164 188 94
164 186 80
163 186 103
157 180 80
170 192 125
160 181 105
158 180 114
153 173 92
142 162 67
129 148 72
110 130 100
97 121 113
106 128 133
96 121 115
120 139 111
114 129 76
79 106 102
65 94 102
78 103 79
55 87 100
56 88 95
56 89 100
54 86 86
55 87 103
55 87 95
54 86 92
55 87 92
59 90 100
73 95 65
98 112 25
106 119 0
113 130 0
107 124 0
126 144 0
123 140 0
129 148 0
132 151 0
138 157 0
133 151 0
150 168 0
141 157 0
146 164 0
150 167 0
152 168 0
150 166 0
147 165 0
144 163 0
150 168 0
160 180 0
155 173 0
159 177 0
157 176 0
157 177 0
160 179 0
161 181 0
164 184 0
164 185 0
161 178 0
161 181 0
165 186 0
166 185 0
167 186 0
168 187 0
169 189 0
167 188 0
169 190 0
168 189 0
169 190 0
172 193 0
172 195 0
171 193 0
170 192 0
172 195 0
170 192 0
174 195 0
169 192 0
172 193 0
170 192 0
171 194 0
171 194 0
172 196 0
173 197 0
173 195 0
172 193 0
174 196 0
173 196 0
170 194 0
172 195 0
173 196 0
173 196 0
174 196 0
171 194 0
172 195 0
174 196 0
170 192 0
175 197 0
173 197 0
173 197 0
172 195 0
175 198 0
173 196 0
174 195 0
174 197 0
173 197 0
173 197 0
175 198 0
174 198 0
171 195 0
173 197 0
175 197 0
174 197 0
175 197 0
174 197 0
176 198 0
173 197 0
176 199 0
174 197 0
173 197 0
174 198 0
175 198 0
174 197 0
173 197 0
173 196 0
176 198 0
173 197 0
173 196 0
174 197 0
173 197 0
174 198 0
173 197 0
174 197 0
175 198 0
174 197 0
174 197 0
174 197 0
175 198 0
172 197 0
175 198 0
175 198 0
175 198 0
175 198 0
173 197 0
173 197 0
172 196 0
175 198 0
173 197 0
176 198 0
175 198 0
175 198 0
175 198 0
176 198 0
175 198 0
173 197 0
173 197 0
175 198 0
173 197 0
174 197 0
174 198 0
174 197 0
174 198 0
175 198 0
174 197 0
174 197 0
174 198 0
173 197 0
174 198 0
177 199 0
175 198 0
174 198 0
174 197 0
175 198 0
174 197 0
175 198 0
175 198 0
174 198 0
174 197 0
175 198 0
176 199 0
175 198 0
174 198 0
174 198 0
174 197 0
174 197 0
174 198 0
175 198 0
174 198 0
174 198 0
175 198 0
175 198 0
174 198 0
173 197 0
174 198 0
175 198 0
174 198 0
177 199 0
175 198 0
174 198 0
173 197 0
174 197 0
175 198 0
175 198 0
175 198 0
175 198 0
173 197 0
176 199 0
174 198 0
175 198 0
173 197 0
174 197 0
174 198 0
175 198 0
174 198 0
174 198 0
175 198 0
174 198 0
175 198 0
176 199 0
175 198 0
173 197 0
176 199 0
174 197 0
174 197 0
174 198 0
174 197 0
176 199 0
175 198 0
173 197 0
175 198 0
174 198 0
174 198 0
175 198 0
175 198 0
175 198 0
174 197 0
175 198 0
172 197 0
174 198 0
174 198 0
174 198 0
174 197 0
177 199 0
176 198 0
173 197 0
175 198 0
175 198 0
174 198 0
176 199 0
171 195 0
174 198 0
174 198 0
171 196 0
174 197 0
174 198 0
174 198 0
175 198 0
175 198 0
174 198 0
173 197 0
174 198 0
176 199 0
174 198 0
174 197 0
174 198 0
175 198 0
175 198 0
174 198 0
174 198 0
173 197 0
174 197 0
174 198 0
174 197 0
175 198 0
175 198 0
173 197 0
174 197 0
174 197 0
175 198 0
174 198 0
175 198 0
174 197 0
174 197 0
173 197 0
174 198 0
176 199 0
174 197 0
175 198 0
175 198 0
174 197 0
174 197 0
173 197 0
175 198 0
175 198 0
174 198 0
175 198 0
174 198 0
174 198 0
174 198 0
174 198 0
174 197 0
175 198 0
174 198 0
174 197 0
175 198 0
174 198 0
174 198 0
174 197 0
175 198 0
172 197 0
174 198 0
173 197 0
174 197 0
174 198 0
173 197 0
173 197 0
175 198 0
172 196 0
175 198 0
174 198 0
176 199 0
173 197 0
174 198 0
174 198 0
173 197 0
172 196 0
173 197 0
174 198 0
173 197 0
174 197 0
172 197 0
177 199 0
175 198 0
175 198 0
175 198 0
174 197 0
175 198 0
174 198 0
174 198 0
173 197 0
174 197 0
173 197 0
174 198 0
172 195 0
174 198 0
175 198 0
174 198 0
174 197 0
174 197 0
176 198 0
174 197 0
174 198 0
175 198 0
172 196 0
172 196 0
173 196 0
173 197 0
173 197 0
173 197 0
173 197 0
172 195 0
171 196 0
173 197 0
174 197 0
174 198 0
172 195 0
173 196 0
172 196 0
172 195 0
174 197 0
172 196 0
170 194 0
172 196 0
170 195 0
171 195 0
173 197 0
168 192 0
170 194 0
173 196 0
172 195 0
173 197 0
174 197 0
173 197 25
178 200 62
197 216 169
184 205 122
178 201 92
173 196 72
175 198 57
171 194 76
171 194 57
175 199 99
169 193 84
169 193 95
168 193 88
177 200 105
172 195 88
171 194 99
165 189 95
170 193 102
168 191 102
163 186 88
163 187 102
167 190 90
158 181 105
159 182 99
160 182 95
155 177 108
152 174 88
153 173 95
156 175 120
139 157 105
131 148 88
106 124 80
95 118 107
89 114 100
100 122 92
154 166 31
98 121 97
64 91 80
88 108 44
65 85 47
66 89 65
69 93 76
65 91 74
67 92 62
71 92 60
81 101 67
84 102 51
96 111 0
93 109 0
92 109 0
130 147 0
109 125 0
131 149 0
134 153 0
142 159 0
133 151 0
123 140 0
140 159 0
146 165 0
142 161 0
144 163 0
152 172 0
150 167 0
148 167 0
153 172 0
154 172 0
159 177 0
153 173 0
155 175 0
159 177 0
158 179 0
161 181 0
161 182 0
163 183 0
161 181 0
163 184 0
169 190 0
163 181 0
162 182 0
165 185 0
166 187 0
167 187 0
167 188 0
172 193 0
169 189 0
168 190 0
168 192 0
169 190 0
170 191 0
168 189 0
172 193 0
170 192 0
170 192 0
173 195 0
169 192 0
173 194 0
173 195 0
172 195 0
170 192 0
171 193 0
172 195 0
171 194 0
173 195 0
173 195 0
172 195 0
171 194 0
174 197 0
174 197 0
173 195 0
174 197 0
174 197 0
173 197 0
173 196 0
172 195 0
175 197 0
173 197 0
171 194 0
175 198 0
173 196 0
174 196 0
175 198 0
171 196 0
174 197 0
175 198 0
175 198 0
174 197 0
173 197 0
175 198 0
173 197 0
175 198 0
173 196 0
174 197 0
174 197 0
172 196 0
174 197 0
174 197 0
173 196 0
176 199 0
174 197 0
175 197 0
173 197 0
175 198 0
174 197 0
174 198 0
174 197 0
175 198 0
174 197 0
175 198 0
176 198 0
175 198 0
173 197 0
175 198 0
173 197 0
173 197 0
173 197 0
174 198 0
173 197 0
174 197 0
175 198 0
174 198 0
174 198 0
175 198 0
174 197 0
175 198 0
174 197 0
175 198 0
176 199 0
175 198 0
174 198 0
173 197 0
175 198 0
174 197 0
176 198 0
173 197 0
174 198 0
174 198 0
174 198 0
173 197 0
174 198 0
174 198 0
173 197 0
174 198 0
173 197 0
175 198 0
175 198 0
174 198 0
173 197 0
175 198 0
174 197 0
175 198 0
174 198 0
174 198 0
175 198 0
174 198 0
174 198 0
174 197 0
174 198 0
172 197 0
174 198 0
174 198 0
175 198 0
175 198 0
174 197 0
175 198 0
174 198 0
177 199 0
173 197 0
176 199 0
175 198 0
175 198 0
174 198 0
174 198 0
174 198 0
174 197 0
173 197 0
174 198 0
175 198 0
176 198 0
175 198 0
175 198 0
176 199 0
175 198 0
175 198 0
173 197 0
174 198 0
175 198 0
174 197 0
174 198 0
175 198 0
174 198 0
175 198 0
176 199 0
173 197 0
174 198 0
176 199 0
174 198 0
175 198 0
174 197 0
175 198 0
175 198 0
175 198 0
175 198 0
175 198 0
175 198 0
174 198 0
174 197 0
173 197 0
175 198 0
174 198 0
175 198 0
175 198 0
175 198 0
173 197 0
174 198 0
176 199 0
175 198 0
174 198 0
173 197 0
174 197 0
175 198 0
176 199 0
175 198 0
175 198 0
175 198 0
176 199 0
175 198 0
174 198 0
174 197 0
175 198 0
175 198 0
175 198 0
173 197 0
176 198 0
175 198 0
174 197 0
175 198 0
176 198 0
175 198 0
175 198 0
174 198 0
175 198 0
174 197 0
174 198 0
174 198 0
176 199 0
173 197 0
175 198 0
173 197 0
174 198 0
173 197 0
176 199 0
173 197 0
175 198 0
174 198 0
174 198 0
176 199 0
175 198 0
175 198 0
174 198 0
174 198 0
172 197 0
175 198 0
175 198 0
174 197 0
174 198 0
175 198 0
177 199 0
172 196 0
175 198 0
175 198 0
173 197 0
174 197 0
175 198 0
173 197 0
174 198 0
175 198 0
175 198 0
175 198 0
175 198 0
175 198 0
174 197 0
175 198 0
174 198 0
173 197 0
173 197 0
173 197 0
175 198 0
175 198 0
174 198 0
175 198 0
174 198 0
175 198 0
174 197 0
173 197 0
174 198 0
176 198 0
175 198 0
174 198 0
175 198 0
173 197 0
175 198 0
173 197 0
173 197 0
174 197 0
174 197 0
175 198 0
174 197 0
174 197 0
171 195 0
174 197 0
174 198 0
174 198 0
175 198 0
173 197 0
175 198 0
174 196 0
174 198 0
173 197 0
174 198 0
174 197 0
174 197 0
174 197 0
172 196 0
171 196 0
172 196 0
173 196 0
173 196 0
174 197 0
175 197 0
171 194 0
171 195 0
173 197 0
171 195 0
174 198 0
173 196 0
173 197 0
174 197 0
174 197 0
169 193 0
172 196 0
172 196 0
173 196 0
175 198 0
173 197 0
173 197 0
173 196 0
171 195 0
173 196 0
171 195 0
173 196 0
173 196 0
174 197 0
169 193 0
171 195 0
170 194 0
170 193 0
172 195 0
172 196 0
172 195 0
174 197 0
174 198 25
178 200 72
191 210 135
177 200 72
178 200 76
172 195 72
175 198 76
169 193 80
171 195 62
171 196 88
172 195 80
172 196 80
168 192 88
170 194 102
171 194 84
168 191 88
166 190 108
168 191 80
166 188 76
171 194 105
158 181 76
161 185 92
159 181 102
162 184 92
147 169 95
150 172 88
161 181 108
148 168 95
150 170 102
142 161 117
128 146 76
129 146 84
109 126 60
90 110 70
113 132 67
147 162 0
129 147 25
88 106 47
107 124 18
105 121 0
96 112 0
94 109 0
100 115 0
109 124 0
84 100 0
92 108 0
99 116 0
116 131 0
98 115 0
113 129 0
111 126 0
119 136 0
127 147 0
131 150 0
132 150 0
141 159 0
140 160 0
145 165 0
132 151 0
137 156 0
150 170 0
146 166 0
146 165 0
146 168 0
146 166 0
157 177 0
153 173 0
153 172 0
150 170 0
158 178 0
162 182 0
165 183 0
159 178 0
159 179 0
166 186 0
162 184 0
163 183 0
165 185 0
165 187 0
162 183 0
165 186 0
167 188 0
168 189 0
165 186 0
166 186 0
167 188 0
165 186 0
171 193 0
172 195 0
170 191 0
171 192 0
169 190 0
170 192 0
172 193 0
171 193 0
170 193 0
173 195 0
173 195 0
172 194 0
171 195 0
172 196 0
172 195 0
171 193 0
171 194 0
173 195 0
175 198 0
171 195 0
170 192 0
173 196 0
175 198 0
173 196 0
173 197 0
175 198 0
172 195 0
173 197 0
172 196 0
174 197 0
176 198 0
174 197 0
174 197 0
173 196 0
172 196 0
173 197 0
173 197 0
173 197 0
174 198 0
173 196 0
174 198 0
174 198 0
175 198 0
174 198 0
173 197 0
172 195 0
173 196 0
174 197 0
172 196 0
175 198 0
173 196 0
174 198 0
175 198 0
173 197 0
174 198 0
172 196 0
175 197 0
175 198 0
175 198 0
173 197 0
174 198 0
173 197 0
174 197 0
174 197 0
175 198 0
174 197 0
174 198 0
173 196 0
173 197 0
173 197 0
173 197 0
174 198 0
173 196 0
173 197 0
174 198 0
174 197 0
175 197 0
175 198 0
175 198 0
175 197 0
176 198 0
176 198 0
176 198 0
173 197 0
174 197 0
176 198 0
175 198 0
174 198 0
174 197 0
177 199 0
174 198 0
173 197 0
174 198 0
173 197 0
176 199 0
176 198 0
176 198 0
173 197 0
174 198 0
173 197 0
174 198 0
174 198 0
173 197 0
176 198 0
176 198 0
175 198 0
175 198 0
174 198 0
175 198 0
175 198 0
176 199 0
175 198 0
176 199 0
174 198 0
173 197 0
175 198 0
175 198 0
174 198 0
174 198 0
173 197 0
176 199 0
175 198 0
174 198 0
175 198 0
175 198 0
175 198 0
174 198 0
175 198 0
173 197 0
173 197 0
174 198 0
174 198 0
177 199 0
173 197 0
176 198 0
175 198 0
175 198 0
175 198 0
175 198 0
175 198 0
175 198 0
174 198 0
176 198 0
173 197 0
176 199 0
175 198 0
174 198 0
173 197 0
177 199 0
175 198 0
175 198 0
175 198 0
174 198 0
174 198 0
176 198 0
175 198 0
176 199 0
175 198 0
176 198 0
174 198 0
174 197 0
175 198 0
174 198 0
175 198 0
174 198 0
175 198 0
175 198 0
175 198 0
174 197 0
174 198 0
176 199 0
174 198 0
174 198 0
174 197 0
173 197 0
177 199 0
176 198 0
176 198 0
174 198 0
175 198 0
174 197 0
172 197 0
174 198 0
175 198 0
175 198 0
174 198 0
174 198 0
173 197 0
175 198 0
174 198 0
173 197 0
175 198 0
174 197 0
174 198 0
176 199 0
176 199 0
175 198 0
173 197 0
175 198 0
175 198 0
173 197 0
175 198 0
173 197 0
174 197 0
175 198 0
176 199 0
173 197 0
175 198 0
174 197 0
175 198 0
173 197 0
174 198 0
174 198 0
175 198 0
173 197 0
174 198 0
174 198 0
174 198 0
173 197 0
176 199 0
174 198 0
175 198 0
176 199 0
173 197 0
174 198 0
174 198 0
173 197 0
174 197 0
174 198 0
174 198 0
175 198 0
174 198 0
174 197 0
174 198 0
176 198 0
173 197 0
173 197 0
175 198 0
175 198 0
175 198 0
172 196 0
174 198 0
173 197 0
175 198 0
174 198 0
175 198 0
175 198 0
175 198 0
174 197 0
175 198 0
173 196 0
173 197 0
173 197 0
174 197 0
176 199 0
175 198 0
174 197 0
175 198 0
173 197 0
174 197 0
176 199 0
173 197 0
173 197 0
172 196 0
173 197 0
174 198 0
172 196 0
175 198 0
174 197 0
175 198 0
175 198 0
175 198 0
175 198 0
172 195 0
174 197 0
175 198 0
173 196 0
175 198 0
172 196 0
174 197 0
174 198 0
174 197 0
172 196 0
174 197 0
174 197 0
175 198 0
175 198 0
173 197 0
173 196 0
174 197 0
173 197 0
173 197 0
172 195 0
173 196 0
172 195 0
174 197 0
173 196 0
174 197 0
173 197 0
170 194 0
172 196 0
171 194 0
169 194 0
174 197 0
173 195 0
168 192 0
170 194 0
171 194 0
170 194 0
169 192 0
172 195 0
171 195 0
173 196 0
175 198 0
177 200 57
180 202 88
174 198 67
169 192 62
173 196 67
170 194 72
172 196 51
170 193 72
175 198 57
172 194 84
171 195 102
178 201 108
173 196 120
172 195 88
171 194 84
172 195 120
166 189 88
161 184 92
164 187 105
163 186 99
158 180 84
163 185 105
161 184 105
159 182 99
149 171 80
156 177 95
155 176 105
144 165 76
153 172 114
149 166 105
132 150 67
128 147 51
112 128 67
124 141 25
153 173 25
132 152 0
119 138 0
116 135 0
108 125 0
116 133 0
91 108 0
98 115 0
115 131 0
96 112 0
107 124 0
113 131 0
114 131 0
113 130 0
118 135 0
123 140 0
137 157 0
124 143 0
144 165 0
141 160 0
138 157 0
141 158 0
146 167 0
144 165 0
150 170 0
149 169 0
149 171 0
153 175 0
147 167 0
155 176 0
151 172 0
156 176 0
157 177 0
159 180 0
160 180 0
163 185 0
166 185 0
160 182 0
162 180 0
166 187 0
165 185 0
164 185 0
170 191 0
160 182 0
170 190 0
171 192 0
167 189 0
168 189 0
168 190 0
168 190 0
167 189 0
169 191 0
171 193 0
168 189 0
171 194 0
169 190 0
172 195 0
168 192 0
169 191 0
171 193 0
168 190 0
169 191 0
171 192 0
170 193 0
171 193 0
171 194 0
172 195 0
172 194 0
174 196 0
172 196 0
174 197 0
172 194 0
171 194 0
175 198 0
173 195 0
174 197 0
173 195 0
172 195 0
174 197 0
173 196 0
173 196 0
174 197 0
173 197 0
175 198 0
174 198 0
175 198 0
174 196 0
173 197 0
173 196 0
174 197 0
176 199 0
174 196 0
174 196 0
173 197 0
173 196 0
173 196 0
172 195 0
174 197 0
174 197 0
172 197 0
173 196 0
173 197 0
174 198 0
174 197 0
176 198 0
174 197 0
174 197 0
173 197 0
175 198 0
172 196 0
174 197 0
175 197 0
175 198 0
174 197 0
173 197 0
174 197 0
174 197 0
173 197 0
174 197 0
174 197 0
176 198 0
174 197 0
174 198 0
176 199 0
173 197 0
175 198 0
175 198 0
174 197 0
175 198 0
173 197 0
174 198 0
174 198 0
175 198 0
175 198 0
174 198 0
174 197 0
174 198 0
173 197 0
174 198 0
174 198 0
174 198 0
175 198 0
175 198 0
175 198 0
176 199 0
174 197 0
175 198 0
175 198 0
174 198 0
173 197 0
175 198 0
175 198 0
173 197 0
174 198 0
176 199 0
173 197 0
174 198 0
173 197 0
174 198 0
173 197 0
175 198 0
174 198 0
174 198 0
174 197 0
174 198 0
173 197 0
175 198 0
173 197 0
174 198 0
175 198 0
172 197 0
173 197 0
175 198 0
174 198 0
174 198 0
176 199 0
174 198 0
174 198 0
174 198 0
175 198 0
174 198 0
174 197 0
176 199 0
173 197 0
174 198 0
175 198 0
174 198 0
171 196 0
175 198 0
174 198 0
175 198 0
176 198 0
175 198 0
174 197 0
174 197 0
174 197 0
174 198 0
173 197 0
175 198 0
175 198 0
173 197 0
175 198 0
175 198 0
175 198 0
175 198 0
177 199 0
174 197 0
175 198 0
175 198 0
175 198 0
174 198 0
174 198 0
176 199 0
173 197 0
176 199 0
174 198 0
173 197 0
173 197 0
174 198 0
173 196 0
174 198 0
177 199 0
174 198 0
175 198 0
174 198 0
176 199 0
174 198 0
175 198 0
173 197 0
174 198 0
174 198 0
176 199 0
175 198 0
173 197 0
175 198 0
174 197 0
173 197 0
175 198 0
173 197 0
174 197 0
175 198 0
174 198 0
172 197 0
174 198 0
175 198 0
174 198 0
174 197 0
175 198 0
175 198 0
174 197 0
174 198 0
175 198 0
176 199 0
174 198 0
173 197 0
175 198 0
174 198 0
174 197 0
173 197 0
176 198 0
172 196 0
174 198 0
175 198 0
174 198 0
175 198 0
174 198 0
175 198 0
174 198 0
176 199 0
174 198 0
175 198 0
175 198 0
173 197 0
176 199 0
176 198 0
175 198 0
174 198 0
174 198 0
174 197 0
176 199 0
173 196 0
173 197 0
176 198 0
175 198 0
174 197 0
176 199 0
174 197 0
175 198 0
174 198 0
172 197 0
173 197 0
174 197 0
175 198 0
174 198 0
175 198 0
174 198 0
174 197 0
176 198 0
173 197 0
175 198 0
173 197 0
174 198 0
174 198 0
173 196 0
174 198 0
174 197 0
175 198 0
174 197 0
175 198 0
174 197 0
174 197 0
174 198 0
175 198 0
173 197 0
175 198 0
175 198 0
174 197 0
173 197 0
173 197 0
174 197 0
172 196 0
175 198 0
171 196 0
175 198 0
174 197 0
174 198 0
170 195 0
172 196 0
173 197 0
174 197 0
175 198 0
174 197 0
174 197 0
173 197 0
173 197 0
172 196 0
172 196 0
173 197 0
175 198 0
173 197 0
174 197 0
172 197 0
174 197 0
172 196 0
171 195 0
172 196 0
174 198 0
175 198 0
172 197 0
170 194 0
173 196 0
173 197 0
172 195 0
171 195 0
170 193 0
172 195 0
171 195 0
170 193 0
172 196 0
172 196 0
173 196 0
174 197 0
168 191 0
171 195 0
172 196 0
175 197 0
180 202 62
173 197 51
174 196 67
179 202 92
174 197 80
172 194 80
174 197 67
174 197 88
172 195 76
176 200 111
174 197 111
171 194 102
172 195 92
163 187 88
171 195 114
164 188 99
168 190 76
171 194 95
165 189 84
163 186 84
168 190 99
164 187 108
160 183 92
154 176 95
150 171 105
158 179 92
150 171 88
157 177 95
151 171 88
147 166 108
148 168 102
135 154 62
131 150 44
128 147 25
149 171 25
144 163 0
123 143 0
119 138 0
129 149 0
113 132 0
118 137 0
116 134 0
132 149 0
120 138 0
124 143 0
122 139 0
120 140 0
125 145 0
141 160 0
124 144 0
135 155 0
124 145 0
141 161 0
132 151 0
136 155 0
136 156 0
145 166 0
150 170 0
150 170 0
150 171 0
148 169 0
150 168 0
158 179 0
155 174 0
153 173 0
163 183 0
162 184 0
155 176 0
160 182 0
158 180 0
161 181 0
167 189 0
162 182 0
166 188 0
160 181 0
166 187 0
164 186 0
168 191 0
163 184 0
165 185 0
170 191 0
168 189 0
170 191 0
168 190 0
173 194 0
167 189 0
168 190 0
169 191 0
171 193 0
169 191 0
169 191 0
173 196 0
170 193 0
172 195 0
171 192 0
171 193 0
172 195 0
173 196 0
172 195 0
167 190 0
172 195 0
170 193 0
171 193 0
170 192 0
174 197 0
174 196 0
171 195 0
172 195 0
173 195 0
170 193 0
174 196 0
173 196 0
175 197 0
174 196 0
172 195 0
170 195 0
174 197 0
174 197 0
174 197 0
175 198 0
172 195 0
173 197 0
173 196 0
174 197 0
171 195 0
174 197 0
173 196 0
174 197 0
173 196 0
176 199 0
172 195 0
175 197 0
172 196 0
171 196 0
175 198 0
175 197 0
174 198 0
174 197 0
173 197 0
173 197 0
174 197 0
175 198 0
173 196 0
174 198 0
174 197 0
173 197 0
175 198 0
175 198 0
176 199 0
175 198 0
176 199 0
175 198 0
175 198 0
173 197 0
173 197 0
174 197 0
173 197 0
175 198 0
173 197 0
173 197 0
172 196 0
177 199 0
175 197 0
173 197 0
174 197 0
173 196 0
176 198 0
176 199 0
174 198 0
174 198 0
175 198 0
175 198 0
175 198 0
174 197 0
173 197 0
176 198 0
175 198 0
175 198 0
175 198 0
173 197 0
176 198 0
174 198 0
175 198 0
173 197 0
175 198 0
174 197 0
174 197 0
174 197 0
174 198 0
175 198 0
174 198 0
175 198 0
175 198 0
174 198 0
174 197 0
174 198 0
173 197 0
174 198 0
175 198 0
173 197 0
174 197 0
175 198 0
175 198 0
174 197 0
175 198 0
172 196 0
174 197 0
175 198 0
175 198 0
174 197 0
174 198 0
175 198 0
174 198 0
174 198 0
176 199 0
174 197 0
174 198 0
175 198 0
175 198 0
175 198 0
174 197 0
173 197 0
177 199 0
174 198 0
174 198 0
177 199 0
173 197 0
176 199 0
174 198 0
173 197 0
174 198 0
175 198 0
173 197 0
175 198 0
173 197 0
177 199 0
174 198 0
174 198 0
175 198 0
176 199 0
173 197 0
174 197 0
176 199 0
174 197 0
173 197 0
175 198 0
175 198 0
174 197 0
175 198 0
175 198 0
174 198 0
176 199 0
175 198 0
174 197 0
173 197 0
174 198 0
175 198 0
174 198 0
175 198 0
176 198 0
175 198 0
176 199 0
174 198 0
173 197 0
173 197 0
174 198 0
174 198 0
174 198 0
174 198 0
174 198 0
175 198 0
174 198 0
175 198 0
175 198 0
175 198 0
175 198 0
174 197 0
175 198 0
176 199 0
174 197 0
174 198 0
175 198 0
175 198 0
175 198 0
175 198 0
174 198 0
174 197 0
174 197 0
176 198 0
175 198 0
173 197 0
176 199 0
175 198 0
174 198 0
174 197 0
174 198 0
174 197 0
176 198 0
175 198 0
175 198 0
173 197 0
176 199 0
174 197 0
174 198 0
174 198 0
172 197 0
173 197 0
173 197 0
176 198 0
173 197 0
174 197 0
173 197 0
175 198 0
174 198 0
176 199 0
174 197 0
174 197 0
172 197 0
173 197 0
176 199 0
175 198 0
174 198 0
172 196 0
174 197 0
174 198 0
174 197 0
176 199 0
174 198 0
175 198 0
175 198 0
174 197 0
172 196 0
175 198 0
175 197 0
174 197 0
174 198 0
173 197 0
176 199 0
174 198 0
174 197 0
173 197 0
175 198 0
175 198 0
173 196 0
173 197 0
173 196 0
174 197 0
174 198 0
173 197 0
174 198 0
174 198 0
173 197 0
175 198 0
175 198 0
177 199 0
174 197 0
173 197 0
177 199 0
175 198 0
172 196 0
172 196 0
173 196 0
175 198 0
174 198 0
174 197 0
173 197 0
174 197 0
173 197 0
173 197 0
173 197 0
175 198 0
171 195 0
175 198 0
173 197 0
174 197 0
174 198 0
174 197 0
172 196 0
175 198 0
175 198 0
173 196 0
173 197 0
175 198 0
173 196 0
174 198 0
174 197 0
174 197 0
174 198 0
170 193 0
172 196 0
172 196 0
170 194 0
171 194 0
170 194 0
169 193 0
170 193 0
174 197 0
170 194 0
172 195 0
173 196 0
175 198 57
175 199 51
173 196 36
176 198 84
173 196 72
170 193 67
174 198 51
168 190 80
176 198 92
177 200 92
177 200 108
172 196 111
173 196 117
172 194 95
175 198 105
170 193 102
168 192 105
167 191 102
165 188 95
167 190 108
161 184 80
164 187 84
157 180 102
165 187 95
168 189 111
161 183 92
149 171 95
159 179 99
159 179 88
158 178 105
152 172 88
140 159 51
144 164 36
137 159 0
151 174 0
143 165 0
127 146 0
141 161 0
134 152 0
111 131 0
127 146 0
120 139 0
125 145 0
134 154 0
116 133 0
113 133 0
125 144 0
130 149 0
130 150 0
131 152 0
139 160 0
137 156 0
139 160 0
145 165 0
141 162 0
144 165 0
149 170 0
148 168 0
148 169 0
145 165 0
159 180 0
161 182 0
150 170 0
159 182 0
159 180 0
154 176 0
160 182 0
158 180 0
164 186 0
158 180 0
160 182 0
164 186 0
163 184 0
163 185 0
168 190 0
170 192 0
162 183 0
167 189 0
168 190 0
166 186 0
166 186 0
170 191 0
167 189 0
169 191 0
169 191 0
169 190 0
171 193 0
165 187 0
168 191 0
173 195 0
172 194 0
172 195 0
171 194 0
173 196 0
171 192 0
172 195 0
174 196 0
172 195 0
173 194 0
172 194 0
175 197 0
170 192 0
170 194 0
172 195 0
171 193 0
174 197 0
173 193 0
171 193 0
174 196 0
175 198 0
173 196 0
174 197 0
173 196 0
172 196 0
173 196 0
174 198 0
172 196 0
173 196 0
172 196 0
174 197 0
173 197 0
174 197 0
172 195 0
175 198 0
173 196 0
173 196 0
172 196 0
174 197 0
173 196 0
175 198 0
174 197 0
175 198 0
174 197 0
174 198 0
172 197 0
173 197 0
173 197 0
173 197 0
173 196 0
175 198 0
173 196 0
173 197 0
174 198 0
174 197 0
175 198 0
175 198 0
174 197 0
175 198 0
174 197 0
174 197 0
175 198 0
174 197 0
175 198 0
173 197 0
174 198 0
171 196 0
174 197 0
175 198 0
175 198 0
174 197 0
173 197 0
175 198 0
174 198 0
175 198 0
174 197 0
174 198 0
176 198 0
175 198 0
175 198 0
174 198 0
175 198 0
174 198 0
175 198 0
176 199 0
174 197 0
174 198 0
174 198 0
174 198 0
175 198 0
174 198 0
175 198 0
174 198 0
174 197 0
174 197 0
174 197 0
174 197 0
173 197 0
174 198 0
175 198 0
174 197 0
176 199 0
175 198 0
175 198 0
174 198 0
173 197 0
174 197 0
172 197 0
175 198 0
176 199 0
175 198 0
174 198 0
176 198 0
173 197 0
173 197 0
175 198 0
174 198 0
175 198 0
174 197 0
174 197 0
174 198 0
174 198 0
174 198 0
175 198 0
176 198 0
173 197 0
174 198 0
173 197 0
174 198 0
175 198 0
174 198 0
175 198 0
174 197 0
174 198 0
174 198 0
174 198 0
175 198 0
173 197 0
174 197 0
175 198 0
176 198 0
173 197 0
175 198 0
175 198 0
175 198 0
174 198 0
174 197 0
175 198 0
173 197 0
174 198 0
175 198 0
174 198 0
174 198 0
174 198 0
175 198 0
175 198 0
175 198 0
174 198 0
173 197 0
175 198 0
173 197 0
174 198 0
174 198 0
175 198 0
174 197 0
173 197 0
176 199 0
174 198 0
174 198 0
174 198 0
173 197 0
173 197 0
173 197 0
176 198 0
175 198 0
175 198 0
173 197 0
173 197 0
175 198 0
174 198 0
175 198 0
176 198 0
174 197 0
172 196 0
173 197 0
173 197 0
173 197 0
174 197 0
176 198 0
174 198 0
175 198 0
175 198 0
174 198 0
175 198 0
175 198 0
175 198 0
173 197 0
173 197 0
174 198 0
174 198 0
174 198 0
174 198 0
174 197 0
174 198 0
174 198 0
176 198 0
175 198 0
174 197 0
174 198 0
174 198 0
174 198 0
176 199 0
176 199 0
175 198 0
174 198 0
172 197 0
175 198 0
174 198 0
175 198 0
174 198 0
175 198 0
175 198 0
173 197 0
174 197 0
174 197 0
173 197 0
174 198 0
172 196 0
173 197 0
174 198 0
174 198 0
174 198 0
175 198 0
173 197 0
174 197 0
174 197 0
176 198 0
173 197 0
174 198 0
174 198 0
174 197 0
174 198 0
174 198 0
174 198 0
175 198 0
174 197 0
175 198 0
173 197 0
174 197 0
174 197 0
173 197 0
174 197 0
173 197 0
175 198 0
176 199 0
175 198 0
174 197 0
173 197 0
174 197 0
173 197 0
175 198 0
172 196 0
172 195 0
172 196 0
175 198 0
175 198 0
173 197 0
175 198 0
174 197 0
174 197 0
175 198 0
172 196 0
174 197 0
174 198 0
174 197 0
173 196 0
174 198 0
174 197 0
174 197 0
173 197 0
170 194 0
173 197 0
174 197 0
174 198 0
171 195 0
173 197 0
173 197 0
174 197 0
175 198 0
173 196 0
173 196 0
172 196 0
173 196 0
173 197 0
172 196 0
173 196 0
172 196 0
172 196 0
171 195 0
170 194 0
169 192 0
175 198 0
170 194 0
173 196 0
174 197 0
173 196 0
172 195 0
168 192 0
170 195 0
173 196 0
174 197 0
174 198 44
175 198 57
172 196 44
173 196 57
174 196 99
164 187 57
173 196 78
172 194 100
175 197 86
173 196 88
174 197 76
174 196 95
174 196 99
173 196 114
170 194 95
171 193 67
163 187 102
171 194 80
161 185 108
157 180 80
170 192 120
156 178 72
163 184 92
166 188 102
162 183 99
160 181 92
172 193 128
156 178 80
155 175 92
148 168 84
151 170 84
146 165 57
148 168 51
138 160 36
150 172 0
158 180 0
139 159 0
140 158 0
132 151 0
135 155 0
138 157 0
135 155 0
141 162 0
131 151 0
125 145 0
139 159 0
134 155 0
144 166 0
133 154 0
141 160 0
142 164 0
144 166 0
139 162 0
140 160 0
150 171 0
148 170 0
148 169 0
157 179 0
154 176 0
157 179 0
151 173 0
159 179 0
154 176 0
156 178 0
155 176 0
164 185 0
159 180 0
162 183 0
162 183 0
166 187 0
158 179 0
166 187 0
164 186 0
164 184 0
164 186 0
169 190 0
167 188 0
169 189 0
167 190 0
165 187 0
165 186 0
167 189 0
169 192 0
172 194 0
169 190 0
172 194 0
168 189 0
172 194 0
170 191 0
170 191 0
169 192 0
171 195 0
167 189 0
174 197 0
171 193 0
172 195 0
173 196 0
172 195 0
169 192 0
171 195 0
172 194 0
173 196 0
172 195 0
171 193 0
173 197 0
173 196 0
174 197 0
171 195 0
173 197 0
171 194 0
173 196 0
171 194 0
175 197 0
172 194 0
172 196 0
173 196 0
172 196 0
174 197 0
173 197 0
172 194 0
174 197 0
172 196 0
176 198 0
173 196 0
175 198 0
174 197 0
173 196 0
175 198 0
173 196 0
174 198 0
173 196 0
174 197 0
174 198 0
174 197 0
173 197 0
174 198 0
174 197 0
172 197 0
175 198 0
174 197 0
174 197 0
173 197 0
173 197 0
172 197 0
175 198 0
174 198 0
175 198 0
176 199 0
175 198 0
173 197 0
173 196 0
173 197 0
173 196 0
174 197 0
173 197 0
173 197 0
174 198 0
175 198 0
174 197 0
174 197 0
173 197 0
174 197 0
174 197 0
175 198 0
173 197 0
174 198 0
174 197 0
173 197 0
176 198 0
175 198 0
173 196 0
175 198 0
173 197 0
175 198 0
177 199 0
174 198 0
175 198 0
175 198 0
176 199 0
175 198 0
175 198 0
174 198 0
175 198 0
174 197 0
174 198 0
173 197 0
174 198 0
174 197 0
175 198 0
174 198 0
175 198 0
174 198 0
174 198 0
174 198 0
175 198 0
175 198 0
176 199 0
174 198 0
174 198 0
175 198 0
175 198 0
174 198 0
174 197 0
176 199 0
174 198 0
174 198 0
175 198 0
175 198 0
172 197 0
174 197 0
175 198 0
174 198 0
174 198 0
175 198 0
175 198 0
173 197 0
174 198 0
175 198 0
174 197 0
172 196 0
175 198 0
175 198 0
174 198 0
174 198 0
174 197 0
173 197 0
175 198 0
175 198 0
175 198 0
175 198 0
175 198 0
173 197 0
173 197 0
173 197 0
174 198 0
175 198 0
175 198 0
175 198 0
176 199 0
173 197 0
173 197 0
174 198 0
175 198 0
175 198 0
174 197 0
176 199 0
175 198 0
174 198 0
175 198 0
176 199 0
174 198 0
175 198 0
175 198 0
174 198 0
172 197 0
175 198 0
174 197 0
175 198 0
174 197 0
174 197 0
174 198 0
176 199 0
175 198 0
173 197 0
173 197 0
174 198 0
174 198 0
175 198 0
175 198 0
175 198 0
174 198 0
173 197 0
174 198 0
174 198 0
174 198 0
176 199 0
175 198 0
175 198 0
175 198 0
175 198 0
175 198 0
173 197 0
175 198 0
173 197 0
174 198 0
173 197 0
174 197 0
174 197 0
175 198 0
174 198 0
174 198 0
175 198 0
175 198 0
176 198 0
174 197 0
174 198 0
175 198 0
173 197 0
175 198 0
173 197 0
174 197 0
175 198 0
174 197 0
176 198 0
173 197 0
174 197 0
175 198 0
175 198 0
176 199 0
175 198 0
174 197 0
174 197 0
173 197 0
176 198 0
175 198 0
174 197 0
174 198 0
173 197 0
174 198 0
173 197 0
176 199 0
173 197 0
174 197 0
175 198 0
174 198 0
173 197 0
175 198 0
174 198 0
175 198 0
175 198 0
174 197 0
173 197 0
176 199 0
174 198 0
175 198 0
174 197 0
175 198 0
176 198 0
172 196 0
174 198 0
174 197 0
175 198 0
174 197 0
176 198 0
174 197 0
174 198 0
174 197 0
174 198 0
174 197 0
173 197 0
174 197 0
173 197 0
172 196 0
174 197 0
172 196 0
173 197 0
171 195 0
173 196 0
173 196 0
174 197 0
172 195 0
175 198 0
174 197 0
174 197 0
173 196 0
172 196 0
173 196 0
174 197 0
172 195 0
174 197 0
176 199 0
172 196 0
172 195 0
173 197 0
174 197 0
174 197 0
173 197 0
173 196 0
173 197 0
171 195 0
172 196 0
171 195 0
173 196 0
171 195 0
173 197 0
172 196 0
174 197 0
172 196 0
172 196 0
171 195 0
170 194 0
173 196 0
173 197 0
173 196 0
170 194 0
170 194 0
170 194 0
169 192 0
171 194 0
172 196 0
175 198 0
174 197 25
171 194 44
173 196 62
174 196 62
167 190 60
170 192 76
168 191 82
173 195 88
176 198 99
173 195 105
176 199 102
172 196 114
173 196 88
170 192 102
170 192 92
159 182 102
171 194 108
168 191 88
165 188 80
165 187 92
167 189 95
167 190 95
167 189 84
161 181 88
165 187 95
158 178 92
161 181 114
159 180 84
158 179 84
154 175 57
145 165 25
154 177 0
149 169 25
152 174 0
157 178 0
138 158 0
144 165 25
137 157 0
140 160 0
139 159 0
141 162 0
138 160 0
150 170 0
143 164 0
132 153 0
139 160 0
136 157 0
142 163 0
148 170 0
145 166 0
144 165 0
144 166 0
141 162 0
143 164 0
147 168 0
160 182 0
147 170 0
155 177 0
154 177 0
150 173 0
158 180 0
160 182 0
162 184 0
153 176 0
161 184 0
161 182 0
165 187 0
163 185 0
165 187 0
162 183 0
161 184 0
167 190 0
164 186 0
164 185 0
166 189 0
165 185 0
168 190 0
166 189 0
166 188 0
167 190 0
169 191 0
165 187 0
167 189 0
170 192 0
168 190 0
170 191 0
168 190 0
171 193 0
167 189 0
174 197 0
172 194 0
170 193 0
171 193 0
169 193 0
171 194 0
171 193 0
173 195 0
172 195 0
170 193 0
173 195 0
173 196 0
169 193 0
175 197 0
170 193 0
173 196 0
172 196 0
172 195 0
176 198 0
173 196 0
172 195 0
173 196 0
171 194 0
175 198 0
175 198 0
170 194 0
175 198 0
172 195 0
175 197 0
174 197 0
173 196 0
175 197 0
169 193 0
172 196 0
174 197 0
173 197 0
173 197 0
173 196 0
173 197 0
174 198 0
174 197 0
173 197 0
173 196 0
174 197 0
174 197 0
174 197 0
173 196 0
174 198 0
174 197 0
174 197 0
173 196 0
174 198 0
172 196 0
175 198 0
174 197 0
173 197 0
175 198 0
174 197 0
174 197 0
173 197 0
175 198 0
175 198 0
175 198 0
175 198 0
175 198 0
175 198 0
175 198 0
173 197 0
175 198 0
173 197 0
173 196 0
174 197 0
172 197 0
175 198 0
176 199 0
175 198 0
174 198 0
175 198 0
173 197 0
174 198 0
175 198 0
174 198 0
174 198 0
172 197 0
173 197 0
174 198 0
173 197 0
174 197 0
175 198 0
173 197 0
174 198 0
174 197 0
174 197 0
173 197 0
175 198 0
173 197 0
173 197 0
173 197 0
175 198 0
173 197 0
175 198 0
173 197 0
173 197 0
176 198 0
174 198 0
174 198 0
174 197 0
175 198 0
173 197 0
175 198 0
173 196 0
174 198 0
175 198 0
175 198 0
176 198 0
175 198 0
174 198 0
174 198 0
175 198 0
174 198 0
174 197 0
174 197 0
175 198 0
174 198 0
175 198 0
174 197 0
174 198 0
176 199 0
174 197 0
174 198 0
175 198 0
174 198 0
176 199 0
174 198 0
175 198 0
173 197 0
175 198 0
173 197 0
175 198 0
177 199 0
174 198 0
174 197 0
174 198 0
174 198 0
174 198 0
173 197 0
173 197 0
174 198 0
174 197 0
175 198 0
175 198 0
176 199 0
174 198 0
173 197 0
174 197 0
175 198 0
176 198 0
176 198 0
175 198 0
174 197 0
174 198 0
173 197 0
173 196 0
174 198 0
173 197 0
174 197 0
176 199 0
174 198 0
173 197 0
175 198 0
174 198 0
175 198 0
176 198 0
176 199 0
174 198 0
175 198 0
175 198 0
175 198 0
173 197 0
172 197 0
173 197 0
175 198 0
174 198 0
175 198 0
174 197 0
173 197 0
175 198 0
173 197 0
175 198 0
175 198 0
174 198 0
174 198 0
174 198 0
175 198 0
175 198 0
175 198 0
174 198 0
175 198 0
175 198 0
174 198 0
173 197 0
174 198 0
175 197 0
174 198 0
175 198 0
173 197 0
173 197 0
174 197 0
174 197 0
175 198 0
176 199 0
174 197 0
174 197 0
174 197 0
174 198 0
175 198 0
173 197 0
175 198 0
175 198 0
175 198 0
174 198 0
173 197 0
173 197 0
173 197 0
175 198 0
175 198 0
174 198 0
173 197 0
173 197 0
173 197 0
174 197 0
175 198 0
175 198 0
172 196 0
174 198 0
175 198 0
175 198 0
175 198 0
173 197 0
175 198 0
174 197 0
175 198 0
173 197 0
175 198 0
175 198 0
175 198 0
172 196 0
175 198 0
174 197 0
175 198 0
174 198 0
175 198 0
173 197 0
174 198 0
175 197 0
175 198 0
175 198 0
175 198 0
173 197 0
174 197 0
172 197 0
175 198 0
171 195 0
173 197 0
174 198 0
175 198 0
172 196 0
173 196 0
171 195 0
174 197 0
175 198 0
174 197 0
174 198 0
174 197 0
173 197 0
172 196 0
174 198 0
172 196 0
173 197 0
174 197 0
170 194 0
174 197 0
173 197 0
174 198 0
173 197 0
175 198 0
171 195 0
174 197 0
174 197 0
173 196 0
173 197 0
173 196 0
173 196 0
171 194 0
174 198 0
171 195 0
174 197 0
172 196 0
175 198 0
172 196 0
172 196 0
172 195 0
172 196 0
170 194 0
170 194 0
171 195 0
170 194 0
172 195 0
171 194 0
172 196 0
175 198 0
175 198 44
174 197 51
173 196 51
172 195 70
163 184 67
172 194 94
168 191 67
164 187 76
171 193 72
172 194 70
173 195 99
174 197 102
170 192 102
170 193 105
172 194 90
170 193 99
167 190 99
166 189 99
163 185 92
172 194 99
163 185 88
168 190 102
165 186 88
163 184 111
165 187 105
158 177 80
167 188 105
155 176 67
157 178 76
145 166 57
152 174 51
157 177 57
154 176 0
159 181 0
154 177 0
157 179 0
133 155 0
149 170 0
141 162 0
153 175 0
142 163 0
138 159 0
147 168 0
142 163 0
141 162 0
144 166 0
150 171 0
152 174 0
151 172 0
145 168 0
150 172 0
140 162 0
145 165 0
159 181 0
159 181 0
147 169 0
158 179 0
147 170 0
154 176 0
153 176 0
162 184 0
159 180 0
163 185 0
161 184 0
161 182 0
163 186 0
160 183 0
161 182 0
159 182 0
162 185 0
164 187 0
166 187 0
166 189 0
165 188 0
167 189 0
165 187 0
168 190 0
163 185 0
166 189 0
172 195 0
170 192 0
166 190 0
166 188 0
169 191 0
169 192 0
168 192 0
171 194 0
173 196 0
171 194 0
170 194 0
170 193 0
169 192 0
170 191 0
169 193 0
172 195 0
174 196 0
173 196 0
175 197 0
173 196 0
171 194 0
173 195 0
171 195 0
171 194 0
175 198 0
174 196 0
172 195 0
173 195 0
173 196 0
173 196 0
172 196 0
172 195 0
172 195 0
172 196 0
171 194 0
174 197 0
172 195 0
174 196 0
172 195 0
173 196 0
173 197 0
173 197 0
175 198 0
173 196 0
175 197 0
173 197 0
173 196 0
174 197 0
173 196 0
174 196 0
174 198 0
174 197 0
173 197 0
173 196 0
175 198 0
174 198 0
176 199 0
173 197 0
174 197 0
175 198 0
173 197 0
174 197 0
176 198 0
175 198 0
174 198 0
173 197 0
175 198 0
173 197 0
173 197 0
175 198 0
174 198 0
173 197 0
175 198 0
175 198 0
175 198 0
175 198 0
173 197 0
174 197 0
173 197 0
174 197 0
171 194 0
173 197 0
174 198 0
174 198 0
174 198 0
175 198 0
175 198 0
173 196 0
176 199 0
175 198 0
174 197 0
174 197 0
174 197 0
172 197 0
175 198 0
172 197 0
174 198 0
176 198 0
174 197 0
175 198 0
173 197 0
175 198 0
175 198 0
175 197 0
174 198 0
174 197 0
174 198 0
176 198 0
174 197 0
174 197 0
175 198 0
173 197 0
175 198 0
174 198 0
174 198 0
175 198 0
173 197 0
173 197 0
174 198 0
173 197 0
176 199 0
174 197 0
174 197 0
173 196 0
173 197 0
174 198 0
174 198 0
174 198 0
174 197 0
175 198 0
173 197 0
174 198 0
175 198 0
175 198 0
176 199 0
174 198 0
174 198 0
174 198 0
174 197 0
174 197 0
174 198 0
173 197 0
176 198 0
174 198 0
174 198 0
175 198 0
173 197 0
175 198 0
174 198 0
175 198 0
173 197 0
174 198 0
173 197 0
174 197 0
175 198 0
174 198 0
174 198 0
174 198 0
173 197 0
174 198 0
175 198 0
176 199 0
175 198 0
174 197 0
176 199 0
174 198 0
174 198 0
175 198 0
175 198 0
175 198 0
175 198 0
174 197 0
174 198 0
175 198 0
175 198 0
175 198 0
173 197 0
174 197 0
174 198 0
176 199 0
174 197 0
173 197 0
175 198 0
173 197 0
176 199 0
173 197 0
176 199 0
174 197 0
173 197 0
175 198 0
174 198 0
176 198 0
175 198 0
174 198 0
173 197 0
173 197 0
173 197 0
174 198 0
173 197 0
176 199 0
176 199 0
175 198 0
176 199 0
174 198 0
174 197 0
174 197 0
174 198 0
174 197 0
175 198 0
174 198 0
174 198 0
174 198 0
174 197 0
175 198 0
175 198 0
176 199 0
175 198 0
175 198 0
173 197 0
174 198 0
174 197 0
174 197 0
173 197 0
173 196 0
175 198 0
174 197 0
174 197 0
175 198 0
175 198 0
175 198 0
174 197 0
175 198 0
173 197 0
174 198 0
175 198 0
174 197 0
173 196 0
174 198 0
174 198 0
175 198 0
173 197 0
173 197 0
173 197 0
175 198 0
174 198 0
174 198 0
174 198 0
176 199 0
175 198 0
173 197 0
173 197 0
177 199 0
173 197 0
173 197 0
175 198 0
176 199 0
176 199 0
175 197 0
173 197 0
174 197 0
175 198 0
174 198 0
172 196 0
174 197 0
174 197 0
175 198 0
175 198 0
174 197 0
173 197 0
175 198 0
174 197 0
174 198 0
174 198 0
174 197 0
175 198 0
175 198 0
173 197 0
173 197 0
174 197 0
173 197 0
174 197 0
174 197 0
173 196 0
175 198 0
172 196 0
173 196 0
171 195 0
173 197 0
173 197 0
173 197 0
174 197 0
173 197 0
175 198 0
174 198 0
175 198 0
174 197 0
172 196 0
175 197 0
174 197 0
173 196 0
173 196 0
173 196 0
173 197 0
171 195 0
173 196 0
173 196 0
171 194 0
172 196 0
171 195 0
169 193 0
171 195 0
170 193 0
172 196 0
173 197 0
172 196 0
171 195 0
172 196 0
170 193 0
173 197 0
172 195 0
173 197 0
174 197 0
171 195 36
169 192 51
171 194 40
175 197 76
167 189 72
166 189 74
169 192 80
163 185 76
161 184 60
173 196 97
174 196 99
173 195 84
172 194 95
164 187 88
172 195 95
167 189 80
169 190 92
173 195 76
173 195 105
165 186 80
158 181 72
174 195 114
166 187 102
168 190 105
155 176 99
163 183 92
159 180 88
153 175 62
151 173 62
156 178 44
154 176 25
160 183 0
152 175 0
162 183 0
144 167 0
150 171 0
153 175 0
134 156 0
148 170 0
145 168 0
149 171 0
147 169 0
149 171 0
136 156 0
151 173 0
146 168 0
148 170 0
142 164 0
145 167 0
154 178 0
152 173 0
151 173 0
146 168 0
152 173 0
154 176 0
152 175 0
152 174 0
154 176 0
152 174 0
164 186 0
159 182 0
164 186 0
157 178 0
161 183 0
163 185 0
163 184 0
161 184 0
164 185 0
171 193 0
164 186 0
166 188 0
167 187 0
169 191 0
165 187 0
165 188 0
170 192 0
165 189 0
166 188 0
170 191 0
168 190 0
168 189 0
171 193 0
169 191 0
169 192 0
172 195 0
166 187 0
169 191 0
173 195 0
174 196 0
171 194 0
169 191 0
171 195 0
169 191 0
172 195 0
172 194 0
173 196 0
173 195 0
174 197 0
170 192 0
172 195 0
169 191 0
172 195 0
174 197 0
171 194 0
173 197 0
173 195 0
173 196 0
174 197 0
172 195 0
172 196 0
173 196 0
173 196 0
172 196 0
172 196 0
174 197 0
173 195 0
174 198 0
172 195 0
172 197 0
171 195 0
173 197 0
175 198 0
172 196 0
175 198 0
172 196 0
175 198 0
176 199 0
174 197 0
175 197 0
173 197 0
172 196 0
173 196 0
173 197 0
174 197 0
175 198 0
173 196 0
175 198 0
173 197 0
176 199 0
173 196 0
174 198 0
174 197 0
176 198 0
176 199 0
175 198 0
173 197 0
174 197 0
173 197 0
175 198 0
175 198 0
174 198 0
176 198 0
173 197 0
174 198 0
174 197 0
174 197 0
173 197 0
174 197 0
175 198 0
176 199 0
173 197 0
174 198 0
174 197 0
175 198 0
175 198 0
174 197 0
173 197 0
173 197 0
174 198 0
175 198 0
177 199 0
175 198 0
174 198 0
175 198 0
174 198 0
175 198 0
175 198 0
176 199 0
173 197 0
173 197 0
173 197 0
176 199 0
175 198 0
174 198 0
173 197 0
175 198 0
175 198 0
174 197 0
175 198 0
175 198 0
173 197 0
172 196 0
174 198 0
173 197 0
175 198 0
174 198 0
172 197 0
174 198 0
176 199 0
174 197 0
174 197 0
174 198 0
174 198 0
174 198 0
174 198 0
175 198 0
174 197 0
174 198 0
173 197 0
174 198 0
174 198 0
176 199 0
174 197 0
174 197 0
175 198 0
174 198 0
176 198 0
174 198 0
174 198 0
174 198 0
175 198 0
176 198 0
173 197 0
173 197 0
176 198 0
174 198 0
175 198 0
174 198 0
172 197 0
175 198 0
175 198 0
174 198 0
174 198 0
176 199 0
174 198 0
173 197 0
174 197 0
174 198 0
175 198 0
175 198 0
175 198 0
174 197 0
174 197 0
177 199 0
175 198 0
173 197 0
175 198 0
174 198 0
174 198 0
174 198 0
175 198 0
174 198 0
174 198 0
176 198 0
174 198 0
174 197 0
174 198 0
174 198 0
173 197 0
176 199 0
174 198 0
173 197 0
173 197 0
174 198 0
173 197 0
175 198 0
175 198 0
174 198 0
175 198 0
173 196 0
174 197 0
174 198 0
175 198 0
175 198 0
175 198 0
174 197 0
173 197 0
175 198 0
174 197 0
173 197 0
173 197 0
173 197 0
173 197 0
174 198 0
174 198 0
173 197 0
176 198 0
175 198 0
175 198 0
174 198 0
174 198 0
174 197 0
176 198 0
173 197 0
174 198 0
175 198 0
177 199 0
176 198 0
175 198 0
172 197 0
175 198 0
176 199 0
175 198 0
175 198 0
175 198 0
173 197 0
174 198 0
174 198 0
174 198 0
174 197 0
173 197 0
174 198 0
175 198 0
173 197 0
174 198 0
174 198 0
175 198 0
174 197 0
175 198 0
175 198 0
175 198 0
173 197 0
173 197 0
173 197 0
173 197 0
175 198 0
173 197 0
176 199 0
175 198 0
174 197 0
174 198 0
173 197 0
173 196 0
174 198 0
173 196 0
174 198 0
173 197 0
173 196 0
173 196 0
174 198 0
173 197 0
174 198 0
175 198 0
175 198 0
174 197 0
173 197 0
173 196 0
173 196 0
174 198 0
174 197 0
175 198 0
174 198 0
176 199 0
172 196 0
174 197 0
171 194 0
175 198 0
173 196 0
172 196 0
175 198 0
173 196 0
173 197 0
172 196 0
175 198 0
173 197 0
175 198 0
174 198 0
171 195 0
174 198 0
174 197 0
170 194 0
174 198 0
174 197 0
170 194 0
172 195 0
172 196 0
174 198 0
174 197 0
172 196 0
173 196 0
173 196 0
173 197 0
175 198 0
173 196 0
171 195 0
172 196 0
170 195 0
172 195 0
172 195 0
173 196 0
171 195 0
171 194 0
175 198 0
170 194 0
170 194 0
167 191 0
173 196 0
174 198 0
174 197 0
174 197 0
171 195 0
166 190 25
173 195 67
171 194 44
168 191 44
169 192 65
165 187 76
171 193 95
168 190 60
172 194 76
175 197 111
176 197 92
169 191 80
175 196 99
169 190 108
173 195 111
176 197 95
175 196 111
166 188 80
169 191 102
165 186 80
161 182 92
165 186 88
163 184 76
156 177 76
167 189 84
157 178 67
154 176 67
157 179 51
151 173 0
161 184 25
161 184 0
156 179 0
154 177 0
145 167 0
147 170 0
149 171 0
148 169 0
148 170 0
149 170 0
152 173 0
150 170 0
154 176 0
150 173 0
148 170 0
143 165 0
137 158 0
150 173 0
152 174 0
154 177 0
156 178 0
155 178 0
159 182 0
160 182 0
159 181 0
153 175 0
155 177 0
156 178 0
164 185 0
162 184 0
155 177 0
161 184 0
157 179 0
162 185 0
161 182 0
166 189 0
164 185 0
160 183 0
168 190 0
168 191 0
162 184 0
166 187 0
164 185 0
166 190 0
164 185 0
168 191 0
168 190 0
170 192 0
169 191 0
165 186 0
171 193 0
168 191 0
169 191 0
169 193 0
170 194 0
169 192 0
168 191 0
167 189 0
170 193 0
170 192 0
170 193 0
171 194 0
171 194 0
170 191 0
169 191 0
173 194 0
171 193 0
172 195 0
172 194 0
174 196 0
173 196 0
173 195 0
171 194 0
172 196 0
172 195 0
173 196 0
172 196 0
173 197 0
175 197 0
169 193 0
172 196 0
174 197 0
174 197 0
174 196 0
171 194 0
175 197 0
175 197 0
173 197 0
171 195 0
176 198 0
172 196 0
174 197 0
173 196 0
174 196 0
173 196 0
174 196 0
173 196 0
174 197 0
174 197 0
174 197 0
174 197 0
175 198 0
174 198 0
174 197 0
176 199 0
175 198 0
174 197 0
174 197 0
173 197 0
175 198 0
173 196 0
175 197 0
174 197 0
173 196 0
174 198 0
174 197 0
174 197 0
173 197 0
174 197 0
173 197 0
173 197 0
175 198 0
175 198 0
176 199 0
173 196 0
173 197 0
174 197 0
175 198 0
174 197 0
174 198 0
174 197 0
176 198 0
172 197 0
173 197 0
174 198 0
173 197 0
174 198 0
174 198 0
173 197 0
174 197 0
174 197 0
175 198 0
175 198 0
173 196 0
173 197 0
174 197 0
175 198 0
175 198 0
173 197 0
175 198 0
174 197 0
173 197 0
175 198 0
176 199 0
174 197 0
175 198 0
175 198 0
174 198 0
174 198 0
173 197 0
174 198 0
174 197 0
176 199 0
175 198 0
173 197 0
173 197 0
173 197 0
174 197 0
175 198 0
174 197 0
173 197 0
173 197 0
174 198 0
173 197 0
175 198 0
174 198 0
174 197 0
171 196 0
175 198 0
175 198 0
173 197 0
174 198 0
172 196 0
174 198 0
175 198 0
175 198 0
174 197 0
174 197 0
175 198 0
175 198 0
173 197 0
173 197 0
174 198 0
174 198 0
174 198 0
175 198 0
175 198 0
173 197 0
173 197 0
172 196 0
174 198 0
174 198 0
174 198 0
174 198 0
175 198 0
175 198 0
175 198 0
175 198 0
175 198 0
175 198 0
174 197 0
175 198 0
174 198 0
174 197 0
175 198 0
176 198 0
175 198 0
175 198 0
175 198 0
174 198 0
175 198 0
175 198 0
174 197 0
174 198 0
174 198 0
174 198 0
175 198 0
174 198 0
174 197 0
175 198 0
173 197 0
175 198 0
175 198 0
175 198 0
174 198 0
174 198 0
175 198 0
175 198 0
173 197 0
176 199 0
174 197 0
174 198 0
174 198 0
174 198 0
174 198 0
174 197 0
175 198 0
174 198 0
176 198 0
176 198 0
173 197 0
175 198 0
174 198 0
174 197 0
174 197 0
174 198 0
172 196 0
174 197 0
174 197 0
173 197 0
175 198 0
175 198 0
174 198 0
175 198 0
176 199 0
172 196 0
173 197 0
174 198 0
175 198 0
175 198 0
174 197 0
174 197 0
174 197 0
175 198 0
174 197 0
175 198 0
174 198 0
174 198 0
174 197 0
175 198 0
173 196 0
173 196 0
175 198 0
172 196 0
175 198 0
174 198 0
173 197 0
174 198 0
175 198 0
175 198 0
174 198 0
174 197 0
174 198 0
174 197 0
173 196 0
173 197 0
174 197 0
174 197 0
173 197 0
176 199 0
177 199 0
174 198 0
174 197 0
175 198 0
174 197 0
174 197 0
176 199 0
175 198 0
174 197 0
175 198 0
174 198 0
172 196 0
174 198 0
175 198 0
175 198 0
174 197 0
174 197 0
173 197 0
174 197 0
175 198 0
175 198 0
173 196 0
173 197 0
173 196 0
174 197 0
173 197 0
173 197 0
176 199 0
175 198 0
173 197 0
174 198 0
176 198 0
175 198 0
173 197 0
174 198 0
175 198 0
172 196 0
173 196 0
174 197 0
173 196 0
174 198 0
172 196 0
172 195 0
173 197 0
172 196 0
172 196 0
173 197 0
172 196 0
175 198 0
173 196 0
169 193 0
173 197 0
173 196 0
173 196 0
172 196 0
172 195 0
172 196 0
173 196 0
174 197 0
168 192 0
169 193 0
172 195 0
172 196 0
172 197 0
171 194 0
171 194 0
172 195 0
170 194 0
175 198 0
173 196 0
173 197 0
172 195 18
171 194 18
170 193 25
170 193 25
170 192 57
169 191 72
167 189 76
171 192 67
173 194 104
175 197 86
178 199 102
176 197 84
171 193 99
174 196 99
171 192 92
167 189 95
165 186 99
169 189 80
168 190 62
171 192 76
165 186 80
165 187 76
166 189 67
162 183 80
164 186 84
164 185 95
160 181 62
164 186 67
165 187 25
166 190 0
162 185 0
153 175 0
155 177 0
151 171 0
154 176 0
146 167 0
153 175 0
149 172 0
154 176 0
158 179 0
153 175 0
153 175 0
152 175 0
157 179 0
154 176 0
150 173 0
156 179 0
160 183 0
150 172 0
155 179 0
154 175 0
158 179 0
160 183 0
162 185 0
161 182 0
161 183 0
155 178 0
158 180 0
164 187 0
157 179 0
161 183 0
162 185 0
165 187 0
157 180 0
165 186 0
165 187 0
163 187 0
166 188 0
167 188 0
166 189 0
167 189 0
166 188 0
164 187 0
170 192 0
168 190 0
168 190 0
168 190 0
168 191 0
170 192 0
169 192 0
168 191 0
167 190 0
169 193 0
170 194 0
171 193 0
172 194 0
172 193 0
171 193 0
172 196 0
170 193 0
172 195 0
171 195 0
174 197 0
171 195 0
171 195 0
174 196 0
170 193 0
171 193 0
168 191 0
173 196 0
173 197 0
173 197 0
171 194 0
172 196 0
171 195 0
170 193 0
172 194 0
172 195 0
171 194 0
170 193 0
171 195 0
174 196 0
170 194 0
172 195 0
172 196 0
174 197 0
174 197 0
174 197 0
172 195 0
173 197 0
174 197 0
173 196 0
174 197 0
174 198 0
172 196 0
172 195 0
173 196 0
174 197 0
174 197 0
176 197 0
172 196 0
175 198 0
174 197 0
174 197 0
172 195 0
173 196 0
173 197 0
172 195 0
173 197 0
173 197 0
175 198 0
174 196 0
175 198 0
174 197 0
175 198 0
174 197 0
173 197 0
176 198 0
174 197 0
173 196 0
173 197 0
177 199 0
175 198 0
174 198 0
173 197 0
174 197 0
175 198 0
175 198 0
173 197 0
175 198 0
174 198 0
174 197 0
173 197 0
173 196 0
174 198 0
174 198 0
172 196 0
174 198 0
173 197 0
174 198 0
172 196 0
176 199 0
175 198 0
175 198 0
174 198 0
173 197 0
176 198 0
175 198 0
175 198 0
174 198 0
173 197 0
174 198 0
175 198 0
174 197 0
174 197 0
175 198 0
174 198 0
175 198 0
175 198 0
174 198 0
175 198 0
174 198 0
176 199 0
173 197 0
174 198 0
175 198 0
174 197 0
173 197 0
175 198 0
173 197 0
176 198 0
174 198 0
175 198 0
175 198 0
175 198 0
173 197 0
174 197 0
172 197 0
174 198 0
174 198 0
172 197 0
175 198 0
175 198 0
175 198 0
175 198 0
174 198 0
176 198 0
175 198 0
173 197 0
174 197 0
174 198 0
175 198 0
174 197 0
174 198 0
175 198 0
173 197 0
174 198 0
174 197 0
174 198 0
174 198 0
174 197 0
174 197 0
173 197 0
174 198 0
174 197 0
174 198 0
175 198 0
175 198 0
175 198 0
174 198 0
174 198 0
174 198 0
174 197 0
175 198 0
175 198 0
174 198 0
174 198 0
174 197 0
175 198 0
174 197 0
174 198 0
173 197 0
173 197 0
175 198 0
176 198 0
174 198 0
175 198 0
173 197 0
174 197 0
174 198 0
176 199 0
174 197 0
173 197 0
176 199 0
173 197 0
175 198 0
173 197 0
174 198 0
174 198 0
174 198 0
174 198 0
172 196 0
174 198 0
175 198 0
174 198 0
174 198 0
173 197 0
175 198 0
175 198 0
174 197 0
173 197 0
174 198 0
174 198 0
176 198 0
174 197 0
176 198 0
174 198 0
174 198 0
174 198 0
174 198 0
175 198 0
176 199 0
174 198 0
176 199 0
172 197 0
176 199 0
175 198 0
172 197 0
173 197 0
174 197 0
173 197 0
173 197 0
174 198 0
174 197 0
174 198 0
176 199 0
174 198 0
174 197 0
173 197 0
175 198 0
173 197 0
174 198 0
173 197 0
173 197 0
176 199 0
173 196 0
174 197 0
173 197 0
176 199 0
174 198 0
173 197 0
174 197 0
175 198 0
175 198 0
175 198 0
174 197 0
175 198 0
173 197 0
173 197 0
175 198 0
172 196 0
173 197 0
174 197 0
174 198 0
174 197 0
174 198 0
174 198 0
175 198 0
175 198 0
174 197 0
174 198 0
176 199 0
173 197 0
174 197 0
174 197 0
174 198 0
173 197 0
172 196 0
172 196 0
173 197 0
175 198 0
174 197 0
173 197 0
173 197 0
174 197 0
176 199 0
174 198 0
174 197 0
175 198 0
170 195 0
174 197 0
174 198 0
171 195 0
172 197 0
174 197 0
174 197 0
170 195 0
173 196 0
173 197 0
173 196 0
174 197 0
173 196 0
175 198 0
170 195 0
171 196 0
174 197 0
173 197 0
171 194 0
174 197 0
170 194 0
174 197 0
173 196 0
173 197 0
172 196 0
172 196 0
172 196 0
171 195 0
172 196 0
172 196 0
169 193 0
172 196 0
172 196 0
168 192 0
169 193 0
173 196 0
166 190 0
172 195 0
174 198 0
173 197 0
174 197 0
173 196 0
167 190 0
169 192 25
167 189 25
168 191 47
170 192 70
172 194 65
173 195 54
168 190 74
169 192 78
179 200 92
176 197 102
171 193 84
172 194 67
174 195 76
173 195 92
173 195 88
168 190 95
167 188 62
162 183 80
164 185 72
166 187 67
168 190 72
164 186 62
167 188 80
165 186 80
164 186 36
157 179 25
159 182 25
162 185 25
166 190 0
161 183 0
156 177 0
153 176 0
158 180 0
151 172 0
153 175 0
156 179 0
153 175 0
149 171 0
149 172 0
151 172 0
158 181 0
154 176 0
155 179 0
159 182 0
155 177 0
157 179 0
158 181 0
156 179 0
155 179 0
155 177 0
163 185 0
162 184 0
154 175 0
159 181 0
163 185 0
163 184 0
162 185 0
160 184 0
166 188 0
160 182 0
166 188 0
166 189 0
167 189 0
167 188 0
166 188 0
163 185 0
166 189 0
167 190 0
166 188 0
166 190 0
164 185 0
170 193 0
170 193 0
166 189 0
168 191 0
169 190 0
170 192 0
168 191 0
171 194 0
172 196 0
173 195 0
168 191 0
171 194 0
171 194 0
172 196 0
171 194 0
169 192 0
172 195 0
170 192 0
173 196 0
172 194 0
170 195 0
170 192 0
173 195 0
173 195 0
172 196 0
171 193 0
173 196 0
173 196 0
174 197 0
172 195 0
174 197 0
171 194 0
174 198 0
171 193 0
172 195 0
174 197 0
173 197 0
173 196 0
173 196 0
175 197 0
174 197 0
174 198 0
172 196 0
174 197 0
173 196 0
174 197 0
171 195 0
172 196 0
175 197 0
173 197 0
173 196 0
176 198 0
172 195 0
174 196 0
175 198 0
173 196 0
173 197 0
174 197 0
174 197 0
176 198 0
174 197 0
175 198 0
175 198 0
174 197 0
175 198 0
174 197 0
174 197 0
173 197 0
174 197 0
173 197 0
171 195 0
174 197 0
172 196 0
174 198 0
174 198 0
172 196 0
174 197 0
173 196 0
174 197 0
175 198 0
175 198 0
174 197 0
174 198 0
175 198 0
175 198 0
175 198 0
175 198 0
176 199 0
173 197 0
174 198 0
173 196 0
175 198 0
173 197 0
175 198 0
174 198 0
174 197 0
175 198 0
173 197 0
175 198 0
174 197 0
175 198 0
174 198 0
174 198 0
174 198 0
174 198 0
174 198 0
174 198 0
175 198 0
174 198 0
174 198 0
174 198 0
175 198 0
174 198 0
174 198 0
175 198 0
174 198 0
175 198 0
176 199 0
173 197 0
175 198 0
175 198 0
176 199 0
174 198 0
175 198 0
175 198 0
176 199 0
176 199 0
175 198 0
173 197 0
175 198 0
174 198 0
174 198 0
175 198 0
175 198 0
176 198 0
174 197 0
175 198 0
172 196 0
174 197 0
175 198 0
174 197 0
175 198 0
173 197 0
174 197 0
175 198 0
174 198 0
174 197 0
172 197 0
173 197 0
173 197 0
175 198 0
176 199 0
175 198 0
175 198 0
174 198 0
174 198 0
174 198 0
175 198 0
173 197 0
174 197 0
173 197 0
176 199 0
173 197 0
173 197 0
174 197 0
175 198 0
174 198 0
175 198 0
175 198 0
174 198 0
174 198 0
173 197 0
174 198 0
175 198 0
174 198 0
174 197 0
174 198 0
175 198 0
174 198 0
176 199 0
173 197 0
174 197 0
175 198 0
174 197 0
174 198 0
173 197 0
174 197 0
175 198 0
175 198 0
174 198 0
173 197 0
175 198 0
175 198 0
175 198 0
176 199 0
174 197 0
173 197 0
174 198 0
175 198 0
173 197 0
174 198 0
173 197 0
174 197 0
175 198 0
173 197 0
175 198 0
173 197 0
174 198 0
173 197 0
175 198 0
175 198 0
174 197 0
174 198 0
174 197 0
174 198 0
175 198 0
175 198 0
173 197 0
175 198 0
174 197 0
174 198 0
173 196 0
175 198 0
174 198 0
175 198 0
174 197 0
174 198 0
174 198 0
173 197 0
173 197 0
174 198 0
174 198 0
173 197 0
174 198 0
173 197 0
174 198 0
176 199 0
176 199 0
175 198 0
175 198 0
174 198 0
175 198 0
174 198 0
176 199 0
172 196 0
175 198 0
173 197 0
176 198 0
173 197 0
176 198 0
172 196 0
174 198 0
174 197 0
174 198 0
174 197 0
173 197 0
174 196 0
174 198 0
175 198 0
174 198 0
174 198 0
174 198 0
173 197 0
174 198 0
176 199 0
174 197 0
174 197 0
174 197 0
174 197 0
173 196 0
175 198 0
174 197 0
173 197 0
174 198 0
173 197 0
173 197 0
172 196 0
172 196 0
174 198 0
174 198 0
173 197 0
173 196 0
173 197 0
172 197 0
175 198 0
174 197 0
174 198 0
173 197 0
171 195 0
174 198 0
173 197 0
174 198 0
172 196 0
175 198 0
174 197 0
174 198 0
173 197 0
173 197 0
173 196 0
172 195 0
172 196 0
173 197 0
174 197 0
174 197 0
173 197 0
172 195 0
170 193 0
172 195 0
171 194 0
171 195 0
173 196 0
174 197 0
172 195 0
172 196 0
173 196 0
173 197 0
168 192 0
172 196 0
170 194 0
172 195 0
169 193 0
173 195 0
172 195 0
173 196 0
173 196 0
172 196 0
174 197 0
173 197 0
173 196 25
171 195 31
168 191 36
167 190 18
169 191 36
168 190 42
169 191 62
165 188 60
165 187 57
172 193 51
175 196 80
173 193 62
176 197 76
174 195 76
170 192 88
166 189 76
165 187 80
165 189 62
165 187 72
167 189 72
168 189 80
164 184 67
169 190 62
161 183 57
167 189 44
168 189 25
167 188 44
159 183 0
163 186 0
165 188 0
157 179 0
151 173 0
154 175 0
156 178 0
161 184 0
152 175 0
163 186 0
148 171 0
157 180 0
154 179 0
156 178 0
157 180 0
157 180 0
161 183 0
153 176 0
161 183 0
163 185 0
159 182 0
163 184 0
164 186 0
160 182 0
155 177 0
163 185 0
156 177 0
155 178 0
153 175 0
163 186 0
167 189 0
160 183 0
162 185 0
165 187 0
163 185 0
157 180 0
164 187 0
164 187 0
163 185 0
168 192 0
167 190 0
167 189 0
167 189 0
170 192 0
169 193 0
168 190 0
170 193 0
166 189 0
168 190 0
169 192 0
170 194 0
169 192 0
168 191 0
169 191 0
170 192 0
170 192 0
170 192 0
170 194 0
172 195 0
172 194 0
170 194 0
170 191 0
169 193 0
171 193 0
169 193 0
174 195 0
173 197 0
172 195 0
170 194 0
171 194 0
174 197 0
172 194 0
170 193 0
173 196 0
171 195 0
172 195 0
174 197 0
172 196 0
174 197 0
172 194 0
173 196 0
176 199 0
173 197 0
172 196 0
174 197 0
172 195 0
174 197 0
175 198 0
175 198 0
175 198 0
174 197 0
174 197 0
172 196 0
173 196 0
172 196 0
174 197 0
174 197 0
173 195 0
173 196 0
173 197 0
174 197 0
173 196 0
175 198 0
172 196 0
174 198 0
175 198 0
174 197 0
174 197 0
174 197 0
173 197 0
175 198 0
175 198 0
175 198 0
174 197 0
174 197 0
174 197 0
174 197 0
172 196 0
172 196 0
173 196 0
174 197 0
175 198 0
175 198 0
174 197 0
173 197 0
175 198 0
173 197 0
173 197 0
172 195 0
173 197 0
173 197 0
175 198 0
175 198 0
174 197 0
173 196 0
174 198 0
175 198 0
174 198 0
175 198 0
172 196 0
174 197 0
174 198 0
173 197 0
175 198 0
174 197 0
173 197 0
175 198 0
172 197 0
173 197 0
175 198 0
173 197 0
174 198 0
174 197 0
173 197 0
174 197 0
174 197 0
175 198 0
175 198 0
174 198 0
175 198 0
175 198 0
175 198 0
175 198 0
174 197 0
173 197 0
173 197 0
173 197 0
174 197 0
174 197 0
175 198 0
173 197 0
175 198 0
175 198 0
175 198 0
175 198 0
174 197 0
175 198 0
176 199 0
173 197 0
174 198 0
175 198 0
173 197 0
174 198 0
175 198 0
173 197 0
174 198 0
174 197 0
174 198 0
174 197 0
174 197 0
175 198 0
175 198 0
176 198 0
175 198 0
176 199 0
175 198 0
174 197 0
174 198 0
175 198 0
173 197 0
175 198 0
174 198 0
175 198 0
175 198 0
176 198 0
173 197 0
176 198 0
173 197 0
175 198 0
173 197 0
175 198 0
174 198 0
174 198 0
176 199 0
175 198 0
175 198 0
174 197 0
176 198 0
174 197 0
174 198 0
174 198 0
174 198 0
173 197 0
174 197 0
174 198 0
175 198 0
175 198 0
175 198 0
174 197 0
175 198 0
174 197 0
175 198 0
176 198 0
175 198 0
174 198 0
174 197 0
173 197 0
175 198 0
174 198 0
174 197 0
174 197 0
176 198 0
176 198 0
173 197 0
175 198 0
174 198 0
175 197 0
175 198 0
174 198 0
176 198 0
174 198 0
173 197 0
175 198 0
175 198 0
174 197 0
176 198 0
174 197 0
174 197 0
174 198 0
172 196 0
173 197 0
175 198 0
174 197 0
173 197 0
175 198 0
174 198 0
175 198 0
175 198 0
174 198 0
175 198 0
176 198 0
174 197 0
177 199 0
173 197 0
175 198 0
175 198 0
174 198 0
175 198 0
174 197 0
174 197 0
174 198 0
175 198 0
174 197 0
175 198 0
173 197 0
177 199 0
173 197 0
174 197 0
176 199 0
175 198 0
174 198 0
174 198 0
173 197 0
173 197 0
175 198 0
173 197 0
175 198 0
174 197 0
174 198 0
171 195 0
174 197 0
174 197 0
173 197 0
175 198 0
175 198 0
176 199 0
174 197 0
176 199 0
174 197 0
174 197 0
174 197 0
175 198 0
174 197 0
173 197 0
176 199 0
172 196 0
175 198 0
175 198 0
173 197 0
173 197 0
174 198 0
174 197 0
174 198 0
173 197 0
174 198 0
175 198 0
174 198 0
174 198 0
174 198 0
175 198 0
173 197 0
174 198 0
174 198 0
173 197 0
172 195 0
173 197 0
172 195 0
174 197 0
173 196 0
172 195 0
173 197 0
173 196 0
175 198 0
172 196 0
175 198 0
174 197 0
173 195 0
172 195 0
175 198 0
173 196 0
170 194 0
170 194 0
172 195 0
172 196 0
173 196 0
173 197 0
171 195 0
172 196 0
172 196 0
172 196 0
171 194 0
172 196 0
169 193 0
171 195 0
170 194 0
172 195 0
172 195 0
174 196 0
170 194 0
173 197 0
173 197 0
175 197 0
174 197 0
174 197 0
169 192 0
170 194 0
169 192 18
170 192 25
170 192 36
171 193 31
162 183 36
167 189 18
167 190 54
173 195 57
176 198 57
174 196 80
168 189 25
168 190 67
171 194 72
165 186 51
163 185 44
167 188 62
165 187 57
166 188 67
169 190 88
170 191 67
161 184 36
168 189 51
162 184 51
167 189 36
168 191 0
162 185 0
159 182 0
156 179 0
158 179 0
152 174 0
155 176 0
154 176 0
159 181 0
161 184 0
159 181 0
155 177 0
155 177 0
156 179 0
156 179 0
158 180 0
159 181 0
162 183 0
160 183 0
160 183 0
157 180 0
159 183 0
156 179 0
161 184 0
158 180 0
161 183 0
160 182 0
162 184 0
164 188 0
164 187 0
164 188 0
161 183 0
161 184 0
169 191 0
168 191 0
163 185 0
166 190 0
171 194 0
168 189 0
163 187 0
164 186 0
167 191 0
168 191 0
168 192 0
165 188 0
167 190 0
168 192 0
169 192 0
169 192 0
168 192 0
168 189 0
169 192 0
169 193 0
168 190 0
172 196 0
170 192 0
173 196 0
168 191 0
171 194 0
174 197 0
170 192 0
173 196 0
171 193 0
170 194 0
174 195 0
172 193 0
172 194 0
172 194 0
171 194 0
169 191 0
171 194 0
172 195 0
173 196 0
173 196 0
173 196 0
174 197 0
173 197 0
174 197 0
172 195 0
172 196 0
169 193 0
172 196 0
172 195 0
172 195 0
173 197 0
172 196 0
174 197 0
173 197 0
173 197 0
172 195 0
172 195 0
173 196 0
174 197 0
174 197 0
173 197 0
176 198 0
173 196 0
174 197 0
174 197 0
175 198 0
172 195 0
174 197 0
174 197 0
175 198 0
173 197 0
175 198 0
174 197 0
173 196 0
175 198 0
175 198 0
173 197 0
174 197 0
172 196 0
174 197 0
173 197 0
174 198 0
175 198 0
173 197 0
174 198 0
175 198 0
173 197 0
173 197 0
173 197 0
174 197 0
174 197 0
174 197 0
173 197 0
175 198 0
173 197 0
175 198 0
175 198 0
172 197 0
173 196 0
173 197 0
174 198 0
174 197 0
174 197 0
175 198 0
173 197 0
175 198 0
175 198 0
173 197 0
173 197 0
174 198 0
172 196 0
175 198 0
176 198 0
175 198 0
175 198 0
173 197 0
174 197 0
175 198 0
174 198 0
174 197 0
175 198 0
175 198 0
174 198 0
174 198 0
176 199 0
173 197 0
175 198 0
174 198 0
173 197 0
174 198 0
174 197 0
174 197 0
175 198 0
173 196 0
174 197 0
174 198 0
176 198 0
175 198 0
175 198 0
175 198 0
174 197 0
174 197 0
173 197 0
175 198 0
175 198 0
174 198 0
174 198 0
172 197 0
173 197 0
174 198 0
174 198 0
175 198 0
174 197 0
174 198 0
175 198 0
174 198 0
174 198 0
174 198 0
175 198 0
174 198 0
174 197 0
174 198 0
175 198 0
175 198 0
173 197 0
175 198 0
175 198 0
175 198 0
175 198 0
174 197 0
173 197 0
175 198 0
175 198 0
172 197 0
174 198 0
174 198 0
174 198 0
175 198 0
174 198 0
174 198 0
174 198 0
173 197 0
174 197 0
176 199 0
173 197 0
174 198 0
174 197 0
176 198 0
175 198 0
174 198 0
175 198 0
175 198 0
175 198 0
174 197 0
176 199 0
175 198 0
173 197 0
174 197 0
174 197 0
176 198 0
173 197 0
175 198 0
175 198 0
173 197 0
173 197 0
175 198 0
173 197 0
174 198 0
174 198 0
175 198 0
175 198 0
176 198 0
173 197 0
174 198 0
175 198 0
176 198 0
173 197 0
174 198 0
173 197 0
174 198 0
175 198 0
174 197 0
174 198 0
175 198 0
174 198 0
174 197 0
175 198 0
176 198 0
175 198 0
175 198 0
173 197 0
174 198 0
176 198 0
176 199 0
174 198 0
173 197 0
175 198 0
175 198 0
174 197 0
174 198 0
175 198 0
175 198 0
176 198 0
175 198 0
174 198 0
175 198 0
174 198 0
173 196 0
174 197 0
175 198 0
174 198 0
174 197 0
173 196 0
174 198 0
174 198 0
173 196 0
176 199 0
174 197 0
174 198 0
173 196 0
174 198 0
174 197 0
172 196 0
174 198 0
173 197 0
174 197 0
175 198 0
175 198 0
175 198 0
173 197 0
172 195 0
174 198 0
174 197 0
174 198 0
173 197 0
174 197 0
171 195 0
175 198 0
175 198 0
175 198 0
174 198 0
172 196 0
175 198 0
174 197 0
172 196 0
174 198 0
173 197 0
176 199 0
174 197 0
174 198 0
172 197 0
174 198 0
175 198 0
174 197 0
175 198 0
173 196 0
172 196 0
174 197 0
175 198 0
174 197 0
172 195 0
172 196 0
172 196 0
173 197 0
175 198 0
173 196 0
173 197 0
174 197 0
173 197 0
173 197 0
174 197 0
173 197 0
174 197 0
174 198 0
175 198 0
171 195 0
171 194 0
174 197 0
174 197 0
170 193 0
173 196 0
169 193 0
173 196 0
171 194 0
173 197 0
172 195 0
173 196 0
173 196 0
172 196 0
171 195 0
170 193 0
172 195 0
170 194 0
170 193 0
174 197 0
171 195 0
173 196 0
173 197 0
173 195 0
173 196 0
172 195 0
169 192 0
171 194 0
166 189 25
170 192 25
171 194 36
171 192 18
170 191 57
167 189 36
169 191 67
170 191 76
169 190 51
170 192 62
170 191 67
169 190 76
170 191 51
174 195 67
162 183 51
168 189 67
169 190 57
173 194 67
168 190 44
170 191 57
160 183 0
162 186 25
167 190 0
165 188 0
164 187 0
158 180 0
161 182 0
161 183 0
160 182 0
158 178 0
160 183 0
161 184 0
163 186 0
156 178 0
161 183 0
161 183 0
157 180 0
160 183 0
157 180 0
166 189 0
159 182 0
161 184 0
164 186 0
162 185 0
156 180 0
167 188 0
168 190 0
165 188 0
166 189 0
162 184 0
163 184 0
158 181 0
165 189 0
166 190 0
163 185 0
163 185 0
159 181 0
165 187 0
165 188 0
161 184 0
170 194 0
166 189 0
170 193 0
165 187 0
168 191 0
162 185 0
167 191 0
171 194 0
167 189 0
167 191 0
169 192 0
169 191 0
169 191 0
171 194 0
171 194 0
173 196 0
169 191 0
172 195 0
169 192 0
171 194 0
170 193 0
170 192 0
173 196 0
171 193 0
170 193 0
169 191 0
172 194 0
172 195 0
170 194 0
173 196 0
172 195 0
170 194 0
171 195 0
174 196 0
171 194 0
171 194 0
173 197 0
171 194 0
173 196 0
174 197 0
173 196 0
173 196 0
171 194 0
173 195 0
174 197 0
171 195 0
173 196 0
173 196 0
172 195 0
172 195 0
172 195 0
172 195 0
172 196 0
173 196 0
170 194 0
171 194 0
172 194 0
174 197 0
174 197 0
175 198 0
173 196 0
175 198 0
172 196 0
174 197 0
175 198 0
174 197 0
172 196 0
174 198 0
175 198 0
172 195 0
175 198 0
175 198 0
173 196 0
174 198 0
173 196 0
174 198 0
174 198 0
174 198 0
175 197 0
174 197 0
173 197 0
174 197 0
175 198 0
174 197 0
173 197 0
174 197 0
176 199 0
173 197 0
174 197 0
174 198 0
172 196 0
175 197 0
174 198 0
174 197 0
174 197 0
173 197 0
174 198 0
175 198 0
175 198 0
174 198 0
174 198 0
176 198 0
173 197 0
174 197 0
174 198 0
174 198 0
173 197 0
174 197 0
174 197 0
175 198 0
175 197 0
173 197 0
175 198 0
173 197 0
175 198 0
176 198 0
173 196 0
174 198 0
174 198 0
173 197 0
174 197 0
173 197 0
176 198 0
173 197 0
174 197 0
174 198 0
175 198 0
174 198 0
175 198 0
172 197 0
175 198 0
174 197 0
173 197 0
174 198 0
173 197 0
174 198 0
174 198 0
174 197 0
174 198 0
172 196 0
176 199 0
175 198 0
175 198 0
174 198 0
174 198 0
173 197 0
173 197 0
174 198 0
174 198 0
174 198 0
175 198 0
174 198 0
175 198 0
174 198 0
173 197 0
175 198 0
175 198 0
175 198 0
174 197 0
174 198 0
174 198 0
175 198 0
176 199 0
174 198 0
174 198 0
174 197 0
176 199 0
173 197 0
173 197 0
174 197 0
174 198 0
173 197 0
175 198 0
174 198 0
175 198 0
174 198 0
174 197 0
175 198 0
175 198 0
174 197 0
175 198 0
173 197 0
175 198 0
175 198 0
174 198 0
175 198 0
174 198 0
174 198 0
176 199 0
175 198 0
175 198 0
176 199 0
175 198 0
173 197 0
174 198 0
175 198 0
175 198 0
174 198 0
175 198 0
176 199 0
173 197 0
175 198 0
175 198 0
174 198 0
173 197 0
173 197 0
175 198 0
174 198 0
174 198 0
173 197 0
175 198 0
175 198 0
175 198 0
175 198 0
174 198 0
175 198 0
173 197 0
174 198 0
174 198 0
174 198 0
176 199 0
173 197 0
173 197 0
174 197 0
174 198 0
174 198 0
175 198 0
173 197 0
175 198 0
175 198 0
175 198 0
175 198 0
173 197 0
174 197 0
174 198 0
174 197 0
175 198 0
174 198 0
174 198 0
175 198 0
175 198 0
174 198 0
175 198 0
174 198 0
174 197 0
174 198 0
175 198 0
176 199 0
176 199 0
175 198 0
174 197 0
174 197 0
174 197 0
174 197 0
174 197 0
173 197 0
175 198 0
175 198 0
174 198 0
174 198 0
174 198 0
173 197 0
175 198 0
174 197 0
175 198 0
175 198 0
176 199 0
173 197 0
174 198 0
174 197 0
174 198 0
173 197 0
176 199 0
174 196 0
173 196 0
175 197 0
174 197 0
175 198 0
174 198 0
174 197 0
176 199 0
174 197 0
173 197 0
173 197 0
173 197 0
174 197 0
173 197 0
176 199 0
174 198 0
174 197 0
174 198 0
172 197 0
174 197 0
175 198 0
173 197 0
173 196 0
175 198 0
174 198 0
173 196 0
174 198 0
173 197 0
172 197 0
174 198 0
173 197 0
174 198 0
175 198 0
173 196 0
173 197 0
174 197 0
172 196 0
172 195 0
172 196 0
174 198 0
174 197 0
173 197 0
174 197 0
174 198 0
170 195 0
170 194 0
172 196 0
174 197 0
170 194 0
172 196 0
175 198 0
170 194 0
171 194 0
172 196 0
170 194 0
173 197 0
168 192 0
174 197 0
171 195 0
169 192 0
171 195 0
170 193 0
174 196 0
173 196 0
174 198 0
173 196 0
170 193 25
173 196 31
170 193 36
173 195 44
173 195 36
176 197 65
174 196 67
179 200 88
175 196 67
175 196 72
173 195 67
174 195 84
172 193 80
168 188 44
172 194 80
166 186 72
176 197 80
172 194 76
168 190 36
170 192 36
169 189 44
169 192 51
167 189 0
169 192 0
168 191 0
159 181 0
160 182 0
157 179 0
154 177 0
154 176 0
157 179 0
158 181 0
163 186 0
159 182 0
158 180 0
155 178 0
159 182 0
165 189 0
168 191 0
159 182 0
162 183 0
161 184 0
168 191 0
158 181 0
160 183 0
164 187 0
160 182 0
158 181 0
162 185 0
166 188 0
160 182 0
165 189 0
165 188 0
165 187 0
169 191 0
164 187 0
166 188 0
162 185 0
165 187 0
167 190 0
167 191 0
168 191 0
166 189 0
166 188 0
168 191 0
168 191 0
170 193 0
170 193 0
168 191 0
166 189 0
171 195 0
166 188 0
170 193 0
168 190 0
169 190 0
166 189 0
167 190 0
172 195 0
171 193 0
173 196 0
168 191 0
168 191 0
168 192 0
172 196 0
171 193 0
173 196 0
173 195 0
171 194 0
173 195 0
172 195 0
172 195 0
174 196 0
171 193 0
173 196 0
173 197 0
171 194 0
171 194 0
172 193 0
171 195 0
170 193 0
173 196 0
172 195 0
174 197 0
173 196 0
174 197 0
173 196 0
173 197 0
172 196 0
171 195 0
173 196 0
173 196 0
174 197 0
174 197 0
173 195 0
174 197 0
172 196 0
174 197 0
173 196 0
172 196 0
173 197 0
173 196 0
174 197 0
173 197 0
174 198 0
174 197 0
173 196 0
174 197 0
174 197 0
173 197 0
175 198 0
173 197 0
175 198 0
173 196 0
174 197 0
174 197 0
174 197 0
174 197 0
173 196 0
173 196 0
176 198 0
172 197 0
174 198 0
174 197 0
174 198 0
173 197 0
175 198 0
174 197 0
175 197 0
173 197 0
174 198 0
174 198 0
175 198 0
174 197 0
173 197 0
175 198 0
174 197 0
175 198 0
174 197 0
175 198 0
174 198 0
176 198 0
174 197 0
176 199 0
173 197 0
174 198 0
174 197 0
175 198 0
176 199 0
174 197 0
173 197 0
173 197 0
174 197 0
174 197 0
174 198 0
173 197 0
176 198 0
175 198 0
174 198 0
174 198 0
175 198 0
174 198 0
174 197 0
175 198 0
174 198 0
175 198 0
174 198 0
175 198 0
174 197 0
175 198 0
174 197 0
175 198 0
175 198 0
176 198 0
174 198 0
173 197 0
175 198 0
173 197 0
174 198 0
175 198 0
174 198 0
175 198 0
176 198 0
175 198 0
174 197 0
174 198 0
173 197 0
173 197 0
176 199 0
174 198 0
174 198 0
174 198 0
175 198 0
176 199 0
174 198 0
174 198 0
175 198 0
173 197 0
174 198 0
177 199 0
173 197 0
176 199 0
174 198 0
175 198 0
174 197 0
176 199 0
174 197 0
174 198 0
174 197 0
174 198 0
173 197 0
174 197 0
174 198 0
176 199 0
174 198 0
173 197 0
175 198 0
173 197 0
175 198 0
174 198 0
174 197 0
174 197 0
173 197 0
175 198 0
173 197 0
174 198 0
174 198 0
174 198 0
175 198 0
175 198 0
174 198 0
175 198 0
173 197 0
174 198 0
174 197 0
175 198 0
175 198 0
175 198 0
174 198 0
176 199 0
174 197 0
174 198 0
176 199 0
174 198 0
174 198 0
175 198 0
174 198 0
174 197 0
174 198 0
175 198 0
175 198 0
174 198 0
174 198 0
174 198 0
175 198 0
172 197 0
174 198 0
175 198 0
173 197 0
174 198 0
174 198 0
174 198 0
175 198 0
174 198 0
175 198 0
174 198 0
174 198 0
175 198 0
176 199 0
176 198 0
173 197 0
174 198 0
173 197 0
175 198 0
175 198 0
175 198 0
173 197 0
174 197 0
175 198 0
175 198 0
174 197 0
175 198 0
175 198 0
175 198 0
174 198 0
173 196 0
175 198 0
174 198 0
173 197 0
174 198 0
174 198 0
174 198 0
176 198 0
174 198 0
173 197 0
174 198 0
174 197 0
174 197 0
172 197 0
175 197 0
173 197 0
174 197 0
174 198 0
174 198 0
174 198 0
174 197 0
173 197 0
172 196 0
175 198 0
175 198 0
173 197 0
174 197 0
174 198 0
173 197 0
174 198 0
175 198 0
174 197 0
174 198 0
174 198 0
173 197 0
175 198 0
173 197 0
174 198 0
174 197 0
174 197 0
175 198 0
175 198 0
173 197 0
173 196 0
174 197 0
172 196 0
175 198 0
175 198 0
172 196 0
175 198 0
174 197 0
173 197 0
176 199 0
172 195 0
175 198 0
174 197 0
175 198 0
174 198 0
173 196 0
173 197 0
176 199 0
173 197 0
171 195 0
175 198 0
174 198 0
175 198 0
172 196 0
175 198 0
174 197 0
174 198 0
173 197 0
173 197 0
173 196 0
173 196 0
171 195 0
173 196 0
173 197 0
168 193 0
172 196 0
172 196 0
172 195 0
173 196 0
173 196 0
173 197 0
172 196 0
169 193 0
174 196 0
171 194 0
173 197 0
172 195 0
170 193 0
171 195 0
173 197 0
172 195 0
170 194 0
172 196 0
173 197 25
171 195 25
168 191 0
169 191 18
172 195 31
172 194 44
176 198 57
177 198 57
177 198 80
178 199 76
177 198 92
178 198 88
175 196 80
172 193 51
175 196 67
173 193 76
176 197 67
171 192 44
166 188 44
172 194 36
164 186 0
167 191 0
166 189 0
168 192 0
158 179 0
163 185 0
154 176 0
161 183 0
160 182 0
163 185 0
161 183 0
161 183 0
161 184 0
159 182 0
156 179 0
159 182 0
160 183 0
155 178 0
165 188 0
158 182 0
159 182 0
162 185 0
159 182 0
165 188 0
159 181 0
160 183 0
163 186 0
162 187 0
164 187 0
168 190 0
157 180 0
168 192 0
166 189 0
164 187 0
164 187 0
169 192 0
166 189 0
166 189 0
169 192 0
168 189 0
165 187 0
172 195 0
167 190 0
171 194 0
167 191 0
169 192 0
170 192 0
168 191 0
165 187 0
166 189 0
168 191 0
169 192 0
166 188 0
167 190 0
170 193 0
170 193 0
171 193 0
173 197 0
170 194 0
170 193 0
169 192 0
169 193 0
172 195 0
169 191 0
167 189 0
172 194 0
168 192 0
173 197 0
171 193 0
173 197 0
169 191 0
172 196 0
174 196 0
170 194 0
174 197 0
172 194 0
174 197 0
173 196 0
173 196 0
173 196 0
174 197 0
175 198 0
172 196 0
175 198 0
173 196 0
171 194 0
172 195 0
175 198 0
174 197 0
173 197 0
172 194 0
174 196 0
173 197 0
174 197 0
173 196 0
174 197 0
175 198 0
174 197 0
175 198 0
173 196 0
173 196 0
173 196 0
172 196 0
175 198 0
173 196 0
173 197 0
175 198 0
174 198 0
173 196 0
174 197 0
172 195 0
173 196 0
174 197 0
175 198 0
175 197 0
174 198 0
174 197 0
173 197 0
174 197 0
174 198 0
174 198 0
174 197 0
173 197 0
175 198 0
174 198 0
174 197 0
174 198 0
175 197 0
174 197 0
174 198 0
175 198 0
173 197 0
172 196 0
174 198 0
174 197 0
174 198 0
173 197 0
176 199 0
175 198 0
175 198 0
174 198 0
173 196 0
173 197 0
175 198 0
174 198 0
175 198 0
174 197 0
174 198 0
173 197 0
173 197 0
174 198 0
175 198 0
175 198 0
175 198 0
173 197 0
175 198 0
175 198 0
174 198 0
174 197 0
175 198 0
175 198 0
173 197 0
173 197 0
174 197 0
175 198 0
174 198 0
175 198 0
172 197 0
177 199 0
175 198 0
175 198 0
174 198 0
174 198 0
174 198 0
174 198 0
174 197 0
175 198 0
175 198 0
174 198 0
174 198 0
174 198 0
174 197 0
174 197 0
175 198 0
174 197 0
172 197 0
175 198 0
173 197 0
174 198 0
175 198 0
175 198 0
174 197 0
174 198 0
173 197 0
174 198 0
173 197 0
173 197 0
173 197 0
174 198 0
176 199 0
175 198 0
176 199 0
174 197 0
175 198 0
175 198 0
175 198 0
173 197 0
174 198 0
175 198 0
175 198 0
176 199 0
175 198 0
174 198 0
175 198 0
174 198 0
175 198 0
175 198 0
173 197 0
173 197 0
177 199 0
176 199 0
174 198 0
173 197 0
175 198 0
174 197 0
176 199 0
173 197 0
174 197 0
173 197 0
175 198 0
176 198 0
175 198 0
175 198 0
176 198 0
176 199 0
174 198 0
176 199 0
174 197 0
174 198 0
175 198 0
175 198 0
174 198 0
174 197 0
174 198 0
175 198 0
175 198 0
174 198 0
175 198 0
174 198 0
174 197 0
176 199 0
175 198 0
173 197 0
175 198 0
175 198 0
175 198 0
174 198 0
176 198 0
175 198 0
175 198 0
174 198 0
174 197 0
175 198 0
173 197 0
175 198 0
175 198 0
175 198 0
174 198 0
174 198 0
173 197 0
175 198 0
174 198 0
175 198 0
172 197 0
176 199 0
174 198 0
175 198 0
173 197 0
173 197 0
173 197 0
175 198 0
175 198 0
175 198 0
174 198 0
174 198 0
175 198 0
172 197 0
174 198 0
173 197 0
175 198 0
174 197 0
174 197 0
175 198 0
175 198 0
174 198 0
174 198 0
175 198 0
174 197 0
174 198 0
173 197 0
174 197 0
175 198 0
174 197 0
173 197 0
174 198 0
175 198 0
175 198 0
174 197 0
174 197 0
175 198 0
174 197 0
174 198 0
173 197 0
173 197 0
174 197 0
173 196 0
176 198 0
172 196 0
173 197 0
175 198 0
175 198 0
175 198 0
173 197 0
174 197 0
174 197 0
174 197 0
172 195 0
172 196 0
173 196 0
174 197 0
175 198 0
174 198 0
174 197 0
176 198 0
175 198 0
172 196 0
173 197 0
175 198 0
172 196 0
172 196 0
173 197 0
174 197 0
175 198 0
172 196 0
172 196 0
171 194 0
172 196 0
173 197 0
173 197 0
175 198 0
171 195 0
175 198 0
174 197 0
170 194 0
174 197 0
171 195 0
175 198 0
175 198 0
173 197 0
173 197 0
171 195 0
172 195 0
169 193 0
172 195 0
172 195 0
172 195 0
172 196 0
173 197 0
174 197 0
170 194 0
171 195 0
172 195 0
168 192 0
174 197 0
172 195 0
170 193 0
173 196 0
172 196 0
174 197 0
174 197 0
172 195 0
173 196 0
171 195 31
174 196 18
174 195 25
173 195 44
175 197 51
174 196 25
170 193 62
170 191 36
175 196 67
179 199 72
173 194 57
173 194 36
175 195 57
175 196 44
172 194 44
168 189 25
173 196 51
169 192 0
173 195 0
164 187 0
170 192 0
168 190 0
163 186 0
163 185 0
164 186 0
159 182 0
161 184 0
162 185 0
166 188 0
159 183 0
159 182 0
167 189 0
163 186 0
167 191 0
161 183 0
163 185 0
165 187 0
159 182 0
165 188 0
166 189 0
160 182 0
166 188 0
158 180 0
163 185 0
162 185 0
161 184 0
169 192 0
164 187 0
166 188 0
168 191 0
161 184 0
165 188 0
165 188 0
167 191 0
168 192 0
166 189 0
170 193 0
166 190 0
169 192 0
168 191 0
162 183 0
167 189 0
165 188 0
169 191 0
167 191 0
171 195 0
168 191 0
169 193 0
165 188 0
172 195 0
171 194 0
169 193 0
171 194 0
169 192 0
170 194 0
172 194 0
170 193 0
171 195 0
170 193 0
171 194 0
171 195 0
172 195 0
170 192 0
171 193 0
170 194 0
172 195 0
171 195 0
172 195 0
171 195 0
173 196 0
173 196 0
173 195 0
169 192 0
172 195 0
173 195 0
174 197 0
171 194 0
172 195 0
173 196 0
173 196 0
176 198 0
174 197 0
174 197 0
175 198 0
173 197 0
173 196 0
173 196 0
174 197 0
173 197 0
173 196 0
175 198 0
174 197 0
171 195 0
172 196 0
173 196 0
174 197 0
173 197 0
175 198 0
173 196 0
174 197 0
170 195 0
173 197 0
173 196 0
173 197 0
175 198 0
173 197 0
172 195 0
173 195 0
173 196 0
172 195 0
173 197 0
174 197 0
174 197 0
174 197 0
175 198 0
172 196 0
173 196 0
175 198 0
175 197 0
173 197 0
174 198 0
175 198 0
173 196 0
175 198 0
173 197 0
173 197 0
174 197 0
174 198 0
174 197 0
175 198 0
175 197 0
175 198 0
174 198 0
175 198 0
175 198 0
173 197 0
173 197 0
175 198 0
173 197 0
173 197 0
173 196 0
174 198 0
174 198 0
174 197 0
172 196 0
176 198 0
175 198 0
173 197 0
173 197 0
173 197 0
176 198 0
172 196 0
173 197 0
174 197 0
173 197 0
174 197 0
174 198 0
174 197 0
174 197 0
172 196 0
174 198 0
174 198 0
174 197 0
176 199 0
174 198 0
174 197 0
173 197 0
176 199 0
173 197 0
175 198 0
174 198 0
175 198 0
174 198 0
175 198 0
176 199 0
175 198 0
173 197 0
174 198 0
174 197 0
174 197 0
174 198 0
174 197 0
174 197 0
174 198 0
174 198 0
172 196 0
174 198 0
176 199 0
173 197 0
175 198 0
175 198 0
174 198 0
173 197 0
173 197 0
175 198 0
175 198 0
176 199 0
173 197 0
174 198 0
174 198 0
175 198 0
174 198 0
175 198 0
173 197 0
173 197 0
175 198 0
176 198 0
174 198 0
176 199 0
173 197 0
174 197 0
174 198 0
175 198 0
176 198 0
174 197 0
175 198 0
175 198 0
175 198 0
173 197 0
175 198 0
173 197 0
176 199 0
174 198 0
175 198 0
174 197 0
176 199 0
174 198 0
174 198 0
174 197 0
175 198 0
172 197 0
174 198 0
175 198 0
174 198 0
173 196 0
175 198 0
175 198 0
174 198 0
174 198 0
173 197 0
174 198 0
173 197 0
174 197 0
174 198 0
174 198 0
174 198 0
174 197 0
174 197 0
174 198 0
176 199 0
175 198 0
175 198 0
175 198 0
174 198 0
174 198 0
175 198 0
173 197 0
173 197 0
174 198 0
174 198 0
175 198 0
175 198 0
173 197 0
174 198 0
175 198 0
175 198 0
175 198 0
174 197 0
175 198 0
175 198 0
174 197 0
173 197 0
175 198 0
173 197 0
174 198 0
174 198 0
176 199 0
174 197 0
174 198 0
173 197 0
173 197 0
174 198 0
175 198 0
173 197 0
175 198 0
172 196 0
174 198 0
172 196 0
172 196 0
175 198 0
176 199 0
175 198 0
174 197 0
171 195 0
175 198 0
174 198 0
174 198 0
174 198 0
175 198 0
174 198 0
175 198 0
174 198 0
175 198 0
174 197 0
174 198 0
175 198 0
173 196 0
175 197 0
174 197 0
171 196 0
175 198 0
172 196 0
173 197 0
176 198 0
174 197 0
174 198 0
174 198 0
173 197 0
173 197 0
174 197 0
174 197 0
174 197 0
175 198 0
171 195 0
174 198 0
173 196 0
173 197 0
174 198 0
174 198 0
173 196 0
175 198 0
175 198 0
172 196 0
173 197 0
174 197 0
174 197 0
173 197 0
172 196 0
176 198 0
175 198 0
176 199 0
173 196 0
171 195 0
173 196 0
174 198 0
172 196 0
172 196 0
174 198 0
175 198 0
170 195 0
173 196 0
175 198 0
173 197 0
173 196 0
174 197 0
173 196 0
174 197 0
175 198 0
170 194 0
171 195 0
174 198 0
174 198 0
173 196 0
172 195 0
173 196 0
171 194 0
169 193 0
171 194 0
172 195 0
172 195 0
173 196 0
176 198 0
168 192 0
173 196 0
169 193 0
170 193 0
170 193 0
174 197 0
175 197 0
175 197 0
172 195 0
171 194 0
172 195 36
172 194 36
176 198 51
173 195 44
171 193 0
174 196 25
170 191 51
172 194 44
171 192 51
170 193 44
173 194 44
171 193 57
172 194 0
172 195 25
170 193 0
174 196 0
172 195 0
164 186 0
165 187 0
167 189 25
163 185 0
169 191 0
158 180 0
167 189 0
163 186 0
158 181 0
166 189 0
160 182 0
171 193 0
167 189 0
167 190 0
163 185 0
165 188 0
165 188 0
163 186 0
162 185 0
164 186 0
163 186 0
164 188 0
160 184 0
165 188 0
163 186 0
166 188 0
167 190 0
163 187 0
169 192 0
166 189 0
162 186 0
162 184 0
163 187 0
160 185 0
171 194 0
167 191 0
170 193 0
170 193 0
167 189 0
170 194 0
167 190 0
166 189 0
170 193 0
172 195 0
170 192 0
167 191 0
167 190 0
166 189 0
169 192 0
166 190 0
170 193 0
171 194 0
170 193 0
173 196 0
171 195 0
173 196 0
170 194 0
171 194 0
173 197 0
173 196 0
171 194 0
170 194 0
170 193 0
173 196 0
172 196 0
170 194 0
173 194 0
171 193 0
169 192 0
171 195 0
171 195 0
172 194 0
174 197 0
173 196 0
172 195 0
174 196 0
169 192 0
173 196 0
171 194 0
175 197 0
173 195 0
170 193 0
173 196 0
174 196 0
171 195 0
173 196 0
175 198 0
173 197 0
173 196 0
173 196 0
173 196 0
171 196 0
174 197 0
172 195 0
174 197 0
174 197 0
172 195 0
174 198 0
176 198 0
175 198 0
173 197 0
174 197 0
173 196 0
172 196 0
174 197 0
173 197 0
174 197 0
175 198 0
172 196 0
175 198 0
175 198 0
176 198 0
173 197 0
172 195 0
174 198 0
174 198 0
176 198 0
173 197 0
174 198 0
174 198 0
174 197 0
175 198 0
174 197 0
173 196 0
174 198 0
174 198 0
174 198 0
174 197 0
173 197 0
174 197 0
174 197 0
174 198 0
175 198 0
173 197 0
174 197 0
172 196 0
176 199 0
175 198 0
174 197 0
172 196 0
174 198 0
174 198 0
173 195 0
174 198 0
174 197 0
175 198 0
174 198 0
174 198 0
173 197 0
174 198 0
175 198 0
176 199 0
174 198 0
173 197 0
173 197 0
173 197 0
175 197 0
174 198 0
174 197 0
174 198 0
174 197 0
175 198 0
175 198 0
174 198 0
174 197 0
175 198 0
175 198 0
172 197 0
175 198 0
174 198 0
173 197 0
173 197 0
174 197 0
173 197 0
174 198 0
174 198 0
175 198 0
174 198 0
174 197 0
174 197 0
174 197 0
175 198 0
173 197 0
174 197 0
176 199 0
174 198 0
174 197 0
175 198 0
174 198 0
175 198 0
177 199 0
174 197 0
175 198 0
175 198 0
174 198 0
175 198 0
174 198 0
174 198 0
174 198 0
176 199 0
174 198 0
175 198 0
173 197 0
174 198 0
174 198 0
175 198 0
177 199 0
174 197 0
175 198 0
175 198 0
175 198 0
174 197 0
174 198 0
174 198 0
174 198 0
176 199 0
176 199 0
172 197 0
174 198 0
174 198 0
174 198 0
173 197 0
174 198 0
174 197 0
175 198 0
174 198 0
175 198 0
174 197 0
175 198 0
173 197 0
175 198 0
172 197 0
176 199 0
175 198 0
175 198 0
174 197 0
173 197 0
173 197 0
174 197 0
173 197 0
174 198 0
174 198 0
174 198 0
174 198 0
175 198 0
176 199 0
175 198 0
174 198 0
175 198 0
174 198 0
174 197 0
174 198 0
173 197 0
174 197 0
174 198 0
174 198 0
174 197 0
173 197 0
173 197 0
175 198 0
173 197 0
175 198 0
174 198 0
176 198 0
175 198 0
174 197 0
174 198 0
175 198 0
174 198 0
174 197 0
175 198 0
175 198 0
174 197 0
174 198 0
175 198 0
175 198 0
174 197 0
175 198 0
175 198 0
174 198 0
175 198 0
175 198 0
174 198 0
173 197 0
175 198 0
175 198 0
174 197 0
175 198 0
174 198 0
175 198 0
174 198 0
176 199 0
174 198 0
174 197 0
174 197 0
174 198 0
175 198 0
173 197 0
172 197 0
173 197 0
175 198 0
175 198 0
176 199 0
175 198 0
172 196 0
174 198 0
174 198 0
174 197 0
174 197 0
174 198 0
174 198 0
173 197 0
172 196 0
175 198 0
175 198 0
174 198 0
174 198 0
173 196 0
173 197 0
175 198 0
174 198 0
173 197 0
173 197 0
173 197 0
173 197 0
174 198 0
172 196 0
173 197 0
173 196 0
174 198 0
172 196 0
174 197 0
175 198 0
174 198 0
175 198 0
174 197 0
175 198 0
173 196 0
173 196 0
170 194 0
174 198 0
173 197 0
174 197 0
173 196 0
174 197 0
174 197 0
174 198 0
171 194 0
172 196 0
174 197 0
172 196 0
174 197 0
175 198 0
173 196 0
174 197 0
174 197 0
172 196 0
172 196 0
173 197 0
174 197 0
171 195 0
174 197 0
173 196 0
174 197 0
171 195 0
172 195 0
172 195 0
172 195 0
172 195 0
172 196 0
175 198 0
173 196 0
169 191 0
172 195 0
171 193 0
171 193 0
172 195 0
172 195 0
171 193 0
172 196 0
171 194 0
174 197 0
171 195 0
174 197 0
171 194 0
173 196 0
173 196 36
173 195 0
174 197 25
169 191 0
173 195 36
174 197 0
173 195 36
174 197 0
172 195 0
171 193 0
172 194 0
173 195 0
169 192 0
170 192 0
169 191 0
167 189 0
163 184 0
166 188 0
167 188 0
165 188 0
159 182 0
165 187 0
171 193 0
160 184 0
164 186 0
166 189 0
165 188 0
167 190 0
165 188 0
159 181 0
162 185 0
163 186 0
162 184 0
164 187 0
157 181 0
164 188 0
158 182 0
161 185 0
163 187 0
163 186 0
167 190 0
165 187 0
165 189 0
170 192 0
164 189 0
169 192 0
167 190 0
168 190 0
167 190 0
168 191 0
166 190 0
168 191 0
169 191 0
169 192 0
167 190 0
164 188 0
169 191 0
166 190 0
167 189 0
167 190 0
167 190 0
169 193 0
170 193 0
174 196 0
168 191 0
170 193 0
171 193 0
172 195 0
171 194 0
167 189 0
172 195 0
170 194 0
171 194 0
172 196 0
170 192 0
174 197 0
172 195 0
170 193 0
173 197 0
169 193 0
172 195 0
172 195 0
171 195 0
170 193 0
174 196 0
171 194 0
172 195 0
172 195 0
171 194 0
173 197 0
172 195 0
172 196 0
173 197 0
171 194 0
174 196 0
171 194 0
173 197 0
174 196 0
175 198 0
175 198 0
175 198 0
174 197 0
172 196 0
171 195 0
171 195 0
173 195 0
171 193 0
172 195 0
173 197 0
175 198 0
170 194 0
174 197 0
173 196 0
174 197 0
175 197 0
174 196 0
172 197 0
175 198 0
172 195 0
175 198 0
172 196 0
174 197 0
174 197 0
172 196 0
173 196 0
174 197 0
174 197 0
174 198 0
173 197 0
173 197 0
173 197 0
174 198 0
174 198 0
175 198 0
174 197 0
172 196 0
175 198 0
173 197 0
175 198 0
173 197 0
173 197 0
175 198 0
174 197 0
176 199 0
173 196 0
174 198 0
174 197 0
174 198 0
174 198 0
175 198 0
174 197 0
172 196 0
174 197 0
175 198 0
174 198 0
173 197 0
176 198 0
174 197 0
175 198 0
174 197 0
175 198 0
176 198 0
175 198 0
175 198 0
174 198 0
175 198 0
174 197 0
174 198 0
174 197 0
176 198 0
175 198 0
175 198 0
174 197 0
174 197 0
175 198 0
176 198 0
172 197 0
174 197 0
173 197 0
173 196 0
173 197 0
176 198 0
173 197 0
174 197 0
174 198 0
175 198 0
176 199 0
174 198 0
173 196 0
175 198 0
172 196 0
174 198 0
174 198 0
173 196 0
174 197 0
174 198 0
174 197 0
174 198 0
175 198 0
175 198 0
174 197 0
174 198 0
175 198 0
174 197 0
174 198 0
174 198 0
175 198 0
173 197 0
173 197 0
173 197 0
176 199 0
174 198 0
175 198 0
173 197 0
173 197 0
174 197 0
174 198 0
175 198 0
174 198 0
172 197 0
174 197 0
176 199 0
173 197 0
175 198 0
175 198 0
175 198 0
175 198 0
174 198 0
174 197 0
174 198 0
174 197 0
176 198 0
175 198 0
174 197 0
172 195 0
175 198 0
175 198 0
175 198 0
174 198 0
175 198 0
174 198 0
175 198 0
174 197 0
175 198 0
175 198 0
174 198 0
174 198 0
176 198 0
174 198 0
176 199 0
174 198 0
176 198 0
174 198 0
173 197 0
175 198 0
175 198 0
175 198 0
174 198 0
175 198 0
175 198 0
174 198 0
174 198 0
174 198 0
175 198 0
175 198 0
175 198 0
173 197 0
175 198 0
174 197 0
174 197 0
172 196 0
174 198 0
174 197 0
175 198 0
174 198 0
175 198 0
175 198 0
175 198 0
174 198 0
173 197 0
175 198 0
175 198 0
174 197 0
174 198 0
175 198 0
174 197 0
174 198 0
174 197 0
173 197 0
174 197 0
175 198 0
176 198 0
174 198 0
173 197 0
174 197 0
173 197 0
174 197 0
175 198 0
173 197 0
174 197 0
174 197 0
175 197 0
175 198 0
174 197 0
174 197 0
175 198 0
174 198 0
175 198 0
174 197 0
174 198 0
175 198 0
175 198 0
174 198 0
171 196 0
173 197 0
174 198 0
176 199 0
173 197 0
174 198 0
175 198 0
173 196 0
174 197 0
175 198 0
174 197 0
174 197 0
174 198 0
174 198 0
174 198 0
173 197 0
175 198 0
174 197 0
174 197 0
173 197 0
174 197 0
174 198 0
175 198 0
175 198 0
172 196 0
175 198 0
173 196 0
173 197 0
175 198 0
175 198 0
174 198 0
175 198 0
173 196 0
174 197 0
173 196 0
173 196 0
173 197 0
175 198 0
174 197 0
174 198 0
173 197 0
175 198 0
173 197 0
173 197 0
173 197 0
172 196 0
173 196 0
176 199 0
172 195 0
172 196 0
172 195 0
171 195 0
175 198 0
172 196 0
175 198 0
172 196 0
173 196 0
172 196 0
171 195 0
172 196 0
175 198 0
172 195 0
174 198 0
174 198 0
172 196 0
175 198 0
174 197 0
170 194 0
171 194 0
171 194 0
170 194 0
172 197 0
174 197 0
173 196 0
172 195 0
170 194 0
174 196 0
172 194 0
172 194 0
170 193 0
171 194 0
171 195 0
171 194 0
172 195 0
171 194 0
170 193 0
173 196 0
174 197 0
174 197 0
174 197 0
174 196 0
175 198 0
170 193 0
171 194 0
169 191 0
171 193 0
170 191 0
170 193 0
171 193 0
171 193 0
165 187 0
167 188 0
166 187 0
167 189 0
167 189 0
172 193 0
163 186 0
160 182 0
161 184 0
166 189 0
163 186 0
167 189 0
160 183 0
164 187 0
165 188 0
162 186 0
165 187 0
168 191 0
162 185 0
169 191 0
170 192 0
164 188 0
168 190 0
160 183 0
168 191 0
164 186 0
167 191 0
168 191 0
166 188 0
166 190 0
167 190 0
170 193 0
171 193 0
168 191 0
167 190 0
168 190 0
168 191 0
171 194 0
166 189 0
167 190 0
169 191 0
167 190 0
167 191 0
169 192 0
167 191 0
167 191 0
169 192 0
169 192 0
168 191 0
172 195 0
170 194 0
170 192 0
169 190 0
170 193 0
171 194 0
171 195 0
172 196 0
171 194 0
173 196 0
171 195 0
174 197 0
173 195 0
173 195 0
175 198 0
171 194 0
175 198 0
173 196 0
170 193 0
170 194 0
172 196 0
173 196 0
173 197 0
174 198 0
172 195 0
174 197 0
171 193 0
171 193 0
172 196 0
173 197 0
172 196 0
174 197 0
173 197 0
174 196 0
173 196 0
171 194 0
172 194 0
173 196 0
174 197 0
172 196 0
171 195 0
172 195 0
172 195 0
173 197 0
174 197 0
173 196 0
174 197 0
174 197 0
172 196 0
172 195 0
175 198 0
172 195 0
174 197 0
175 198 0
173 196 0
174 196 0
174 197 0
173 197 0
173 197 0
174 197 0
174 197 0
174 197 0
174 197 0
174 198 0
173 197 0
173 197 0
173 197 0
173 197 0
171 195 0
175 198 0
174 197 0
173 197 0
175 198 0
176 198 0
174 198 0
175 198 0
174 197 0
175 198 0
173 196 0
174 197 0
174 197 0
174 197 0
174 197 0
173 197 0
173 197 0
174 197 0
174 198 0
173 196 0
173 196 0
174 197 0
173 196 0
173 197 0
175 198 0
174 197 0
173 196 0
176 199 0
175 198 0
173 196 0
175 198 0
173 197 0
174 198 0
174 197 0
176 199 0
173 197 0
175 198 0
175 198 0
174 197 0
174 197 0
174 197 0
175 198 0
174 197 0
175 198 0
177 199 0
175 198 0
174 197 0
174 197 0
173 197 0
174 197 0
175 198 0
174 197 0
174 198 0
175 198 0
175 198 0
174 198 0
173 197 0
173 197 0
174 197 0
175 198 0
175 198 0
175 198 0
175 198 0
174 197 0
174 198 0
175 198 0
173 197 0
174 198 0
174 198 0
176 198 0
176 199 0
172 196 0
176 198 0
175 198 0
175 198 0
174 198 0
174 198 0
175 198 0
175 198 0
174 197 0
175 198 0
173 197 0
173 197 0
175 198 0
173 197 0
174 198 0
176 199 0
175 198 0
176 199 0
174 197 0
176 199 0
174 197 0
174 197 0
174 198 0
175 198 0
176 199 0
173 197 0
174 198 0
174 198 0
174 197 0
175 198 0
174 198 0
174 198 0
174 197 0
174 198 0
175 198 0
173 197 0
175 198 0
174 197 0
174 197 0
174 198 0
175 198 0
175 198 0
174 198 0
175 198 0
174 198 0
173 197 0
176 199 0
174 198 0
174 197 0
175 198 0
174 198 0
175 198 0
175 198 0
174 198 0
174 197 0
175 198 0
173 197 0
175 198 0
175 198 0
174 198 0
172 197 0
175 198 0
173 197 0
175 198 0
173 197 0
174 198 0
175 198 0
175 198 0
173 197 0
175 198 0
174 197 0
173 197 0
175 198 0
172 197 0
174 198 0
174 197 0
174 198 0
174 198 0
174 198 0
176 198 0
173 197 0
173 197 0
173 197 0
174 198 0
174 198 0
174 198 0
175 198 0
173 197 0
172 196 0
174 198 0
175 198 0
176 198 0
175 198 0
173 197 0
174 198 0
175 198 0
173 197 0
173 197 0
173 197 0
175 198 0
174 197 0
175 198 0
173 197 0
176 198 0
175 198 0
173 197 0
174 198 0
172 197 0
175 198 0
175 198 0
175 198 0
174 197 0
174 197 0
172 196 0
175 198 0
173 196 0
176 199 0
175 198 0
176 199 0
174 198 0
173 196 0
176 198 0
175 198 0
173 197 0
173 197 0
176 199 0
175 198 0
174 198 0
176 199 0
175 198 0
175 198 0
175 198 0
174 197 0
175 198 0
174 197 0
173 197 0
173 197 0
174 198 0
174 197 0
173 196 0
175 198 0
175 198 0
175 198 0
172 196 0
173 197 0
173 196 0
175 198 0
173 196 0
174 198 0
172 196 0
174 198 0
172 196 0
173 197 0
173 197 0
174 198 0
173 197 0
171 195 0
171 194 0
173 197 0
172 195 0
173 196 0
173 197 0
172 196 0
174 197 0
173 196 0
174 197 0
173 196 0
175 198 0
175 198 0
172 196 0
175 198 0
170 195 0
172 195 0
175 198 0
174 198 0
173 196 0
175 198 0
175 198 0
173 197 0
175 198 0
172 195 0
172 195 0
171 195 0
173 197 0
170 193 0
173 197 0
174 198 0
172 196 0
174 197 0
171 194 0
173 197 0
168 191 0
175 197 0
172 194 0
173 195 0
174 197 0
172 195 0
173 196 0
174 197 0
170 192 0
173 196 0
175 198 0
173 195 0
175 196 0
170 193 0
172 195 0
175 196 0
168 190 0
170 192 25
171 193 0
167 189 0
171 192 0
169 191 0
169 192 0
168 188 0
170 192 0
164 186 0
167 190 0
165 187 0
162 185 0
167 190 0
167 190 0
164 187 0
167 190 0
165 188 0
169 191 0
164 187 0
168 191 0
166 189 0
163 186 0
164 186 0
163 187 0
164 186 0
164 187 0
164 187 0
167 189 0
170 193 0
170 194 0
162 186 0
166 189 0
168 191 0
166 189 0
165 188 0
172 194 0
165 189 0
167 191 0
170 193 0
168 192 0
165 188 0
167 191 0
165 189 0
166 190 0
166 189 0
169 191 0
170 194 0
169 192 0
167 189 0
168 191 0
168 191 0
172 196 0
170 193 0
168 191 0
171 194 0
170 193 0
170 193 0
168 191 0
169 192 0
172 195 0
167 190 0
170 194 0
171 193 0
171 193 0
168 192 0
169 193 0
171 193 0
173 196 0
173 197 0
172 196 0
169 192 0
171 195 0
173 196 0
174 197 0
174 196 0
173 196 0
171 195 0
171 194 0
173 197 0
171 195 0
173 196 0
173 196 0
172 195 0
174 196 0
171 193 0
174 197 0
174 197 0
171 195 0
173 196 0
172 195 0
173 197 0
173 196 0
171 194 0
174 197 0
173 196 0
172 196 0
175 198 0
173 196 0
172 195 0
172 195 0
170 194 0
170 194 0
173 196 0
170 194 0
174 197 0
174 197 0
172 196 0
172 196 0
174 197 0
175 197 0
174 197 0
173 196 0
174 198 0
174 197 0
174 197 0
175 198 0
173 197 0
173 196 0
173 196 0
173 197 0
172 197 0
173 196 0
173 196 0
173 197 0
174 197 0
174 197 0
173 197 0
173 196 0
173 197 0
174 198 0
173 196 0
173 197 0
174 197 0
175 198 0
174 198 0
174 198 0
175 198 0
174 198 0
174 197 0
173 197 0
175 198 0
175 198 0
174 198 0
174 197 0
174 198 0
176 198 0
176 199 0
175 198 0
174 197 0
174 197 0
175 197 0
174 197 0
175 198 0
173 197 0
172 196 0
173 197 0
173 197 0
175 198 0
175 198 0
172 197 0
174 198 0
174 197 0
172 196 0
175 198 0
174 197 0
173 196 0
175 198 0
175 198 0
174 197 0
177 199 0
175 198 0
176 198 0
175 198 0
173 197 0
174 198 0
175 198 0
175 198 0
174 197 0
174 197 0
175 198 0
174 198 0
173 197 0
174 198 0
175 198 0
174 198 0
173 196 0
176 198 0
174 198 0
175 198 0
174 197 0
175 198 0
175 198 0
173 197 0
174 198 0
174 198 0
175 198 0
175 198 0
174 198 0
174 198 0
174 198 0
174 198 0
175 198 0
173 197 0
175 198 0
174 198 0
174 198 0
174 198 0
175 198 0
175 198 0
176 198 0
175 198 0
174 198 0
176 199 0
174 197 0
174 197 0
175 198 0
174 198 0
175 198 0
173 197 0
174 197 0
175 198 0
173 197 0
175 198 0
175 198 0
174 197 0
174 197 0
175 198 0
174 198 0
175 198 0
174 197 0
174 197 0
173 197 0
174 198 0
176 198 0
175 198 0
174 198 0
174 197 0
176 199 0
174 197 0
174 198 0
174 197 0
174 197 0
174 198 0
175 198 0
176 198 0
174 197 0
172 196 0
173 197 0
174 197 0
173 197 0
174 198 0
175 198 0
176 198 0
176 199 0
173 197 0
175 198 0
175 198 0
176 198 0
175 198 0
175 198 0
174 198 0
175 198 0
174 198 0
173 197 0
174 198 0
175 198 0
174 197 0
176 199 0
175 198 0
174 197 0
174 198 0
174 198 0
176 199 0
177 199 0
174 197 0
175 198 0
174 198 0
173 197 0
173 196 0
175 198 0
175 198 0
173 197 0
174 198 0
174 197 0
173 197 0
175 198 0
175 198 0
174 198 0
175 198 0
174 198 0
173 197 0
174 198 0
173 197 0
173 197 0
172 196 0
174 197 0
174 197 0
173 196 0
175 198 0
175 198 0
174 197 0
175 198 0
172 196 0
174 198 0
173 197 0
177 199 0
174 197 0
174 198 0
175 198 0
172 196 0
174 197 0
172 196 0
174 197 0
173 197 0
173 197 0
175 198 0
175 198 0
175 198 0
174 198 0
174 197 0
173 197 0
176 198 0
175 198 0
174 198 0
175 198 0
174 198 0
174 197 0
175 198 0
175 198 0
173 196 0
174 198 0
172 196 0
173 197 0
173 196 0
173 197 0
174 198 0
173 197 0
173 196 0
172 195 0
173 197 0
174 197 0
173 197 0
172 196 0
174 197 0
172 195 0
174 198 0
173 197 0
172 196 0
173 196 0
175 198 0
174 197 0
173 197 0
174 197 0
172 196 0
174 198 0
174 198 0
175 198 0
172 196 0
173 197 0
173 197 0
170 194 0
174 198 0
172 196 0
174 197 0
172 195 0
170 194 0
174 197 0
171 195 0
172 197 0
171 195 0
172 195 0
172 195 0
174 197 0
173 197 0
171 195 0
173 196 0
174 197 0
170 193 0
170 193 0
171 195 0
176 198 0
172 195 0
171 194 0
174 196 0
173 195 0
175 196 0
173 196 0
174 196 0
174 197 0
174 196 0
172 195 0
170 193 0
173 195 0
172 194 0
175 197 0
174 196 0
171 193 0
175 196 0
171 193 0
172 192 0
174 195 0
173 194 0
170 192 25
170 191 0
169 189 0
166 188 0
170 191 0
165 186 0
168 190 0
163 186 0
168 191 0
167 189 0
164 187 0
167 190 0
163 186 0
165 189 0
171 193 0
166 188 0
166 189 0
165 188 0
165 189 0
163 187 0
168 191 0
168 191 0
166 189 0
166 190 0
168 191 0
168 192 0
163 186 0
168 192 0
170 193 0
165 188 0
167 190 0
169 192 0
165 189 0
167 190 0
168 191 0
170 194 0
169 192 0
169 192 0
167 191 0
170 194 0
168 193 0
170 193 0
171 194 0
169 192 0
168 191 0
168 191 0
167 190 0
171 194 0
173 195 0
169 192 0
170 193 0
169 192 0
171 193 0
167 191 0
169 193 0
173 196 0
168 192 0
172 195 0
170 193 0
173 196 0
172 195 0
174 197 0
167 190 0
171 194 0
169 192 0
171 195 0
171 194 0
172 195 0
171 195 0
171 193 0
173 195 0
171 195 0
172 195 0
169 192 0
174 198 0
173 197 0
171 195 0
172 195 0
170 193 0
173 197 0
171 195 0
174 197 0
174 197 0
172 195 0
175 197 0
172 196 0
173 197 0
175 198 0
172 195 0
172 195 0
174 197 0
173 196 0
174 198 0
173 197 0
173 197 0
172 196 0
174 197 0
175 198 0
174 196 0
173 197 0
174 197 0
173 197 0
173 196 0
174 197 0
172 196 0
172 195 0
171 195 0
175 198 0
173 195 0
173 196 0
174 197 0
174 197 0
176 198 0
173 197 0
176 198 0
174 197 0
174 197 0
172 196 0
175 198 0
175 198 0
175 198 0
172 196 0
175 198 0
173 196 0
174 197 0
174 197 0
174 198 0
175 197 0
173 196 0
174 198 0
173 197 0
175 198 0
175 198 0
174 198 0
174 198 0
174 197 0
174 197 0
176 199 0
174 197 0
175 198 0
174 198 0
172 196 0
175 198 0
175 198 0
174 198 0
175 198 0
175 198 0
174 197 0
174 197 0
174 198 0
174 198 0
174 197 0
174 198 0
173 197 0
172 196 0
174 197 0
174 198 0
173 197 0
175 198 0
173 197 0
175 198 0
174 198 0
175 198 0
174 197 0
174 198 0
174 198 0
173 197 0
174 197 0
174 198 0
174 198 0
174 198 0
175 198 0
173 197 0
175 198 0
174 198 0
174 198 0
174 198 0
174 198 0
174 198 0
173 197 0
173 197 0
174 198 0
172 197 0
174 197 0
174 197 0
174 197 0
173 197 0
173 197 0
173 197 0
174 198 0
175 198 0
173 197 0
174 198 0
173 197 0
174 197 0
175 198 0
175 198 0
171 196 0
175 198 0
175 198 0
173 197 0
175 198 0
176 199 0
175 198 0
172 196 0
174 197 0
173 197 0
174 198 0
175 198 0
174 197 0
175 198 0
173 197 0
174 198 0
175 198 0
174 198 0
173 197 0
175 198 0
175 198 0
174 198 0
175 198 0
174 198 0
175 198 0
174 197 0
174 197 0
173 197 0
173 197 0
176 199 0
175 198 0
173 197 0
176 199 0
173 197 0
173 197 0
175 198 0
173 197 0
174 198 0
173 197 0
173 197 0
176 198 0
174 198 0
174 197 0
172 197 0
174 197 0
174 197 0
175 198 0
175 198 0
174 197 0
174 198 0
176 199 0
176 199 0
173 196 0
174 198 0
174 198 0
174 198 0
174 198 0
178 199 0
175 198 0
174 197 0
174 198 0
173 197 0
174 198 0
174 197 0
175 198 0
175 198 0
175 198 0
173 197 0
175 198 0
176 198 0
175 198 0
174 198 0
174 198 0
174 198 0
174 197 0
173 197 0
175 198 0
175 198 0
175 198 0
175 198 0
173 197 0
172 196 0
176 198 0
173 197 0
172 195 0
174 197 0
174 198 0
174 198 0
173 197 0
174 198 0
174 198 0
176 199 0
173 197 0
174 198 0
175 198 0
175 198 0
175 198 0
174 197 0
174 198 0
173 197 0
174 198 0
174 198 0
173 197 0
174 198 0
174 197 0
175 198 0
173 197 0
174 198 0
175 198 0
175 198 0
175 198 0
176 198 0
173 196 0
174 198 0
173 197 0
172 197 0
175 198 0
172 197 0
173 197 0
173 196 0
174 198 0
176 198 0
175 198 0
173 197 0
174 197 0
173 196 0
173 196 0
173 197 0
174 197 0
173 197 0
171 195 0
171 195 0
172 196 0
172 197 0
172 197 0
172 196 0
173 197 0
173 197 0
175 197 0
172 196 0
174 198 0
174 198 0
173 197 0
173 196 0
173 197 0
173 197 0
173 197 0
173 197 0
171 195 0
171 194 0
173 196 0
172 195 0
175 198 0
174 197 0
172 197 0
175 198 0
171 195 0
173 197 0
171 194 0
172 196 0
173 196 0
173 197 0
173 197 0
174 197 0
172 195 0
172 196 0
172 196 0
174 197 0
172 194 0
172 195 0
170 194 0
172 195 0
173 197 0
173 197 0
172 196 0
174 197 0
172 195 0
171 195 0
177 199 0
172 195 0
169 192 0
172 196 0
172 194 0
175 198 0
176 198 0
175 197 0
173 195 0
173 195 0
171 193 0
175 197 0
175 196 0
172 195 0
170 193 0
174 196 0
170 192 0
174 195 25
172 194 0
171 192 0
175 196 0
170 191 0
171 192 0
172 192 0
168 190 0
173 194 0
174 196 0
174 195 0
170 190 0
165 188 0
168 191 0
167 190 0
165 187 0
168 191 0
167 189 0
165 187 0
162 186 0
167 189 0
168 190 0
168 192 0
164 188 0
162 184 0
168 190 0
166 189 0
166 188 0
168 191 0
167 190 0
163 186 0
165 189 0
166 189 0
163 186 0
163 186 0
166 191 0
164 188 0
168 191 0
167 191 0
165 189 0
171 194 0
170 193 0
165 187 0
166 190 0
165 187 0
167 190 0
171 194 0
169 192 0
171 194 0
167 191 0
169 192 0
171 195 0
170 193 0
165 190 0
167 190 0
170 193 0
172 195 0
169 193 0
172 195 0
171 194 0
173 196 0
172 195 0
168 192 0
172 195 0
168 191 0
168 191 0
171 194 0
169 192 0
168 192 0
173 196 0
174 197 0
173 196 0
172 195 0
173 195 0
169 193 0
174 198 0
172 196 0
174 197 0
171 195 0
172 195 0
171 195 0
176 198 0
171 195 0
175 198 0
174 198 0
174 197 0
172 195 0
172 195 0
171 193 0
173 196 0
174 197 0
173 197 0
172 196 0
174 196 0
174 197 0
172 195 0
172 195 0
174 197 0
172 195 0
173 197 0
171 194 0
172 195 0
175 198 0
174 197 0
174 197 0
173 196 0
172 195 0
172 195 0
173 196 0
173 197 0
174 197 0
172 195 0
173 197 0
173 197 0
174 198 0
176 199 0
173 196 0
173 197 0
176 198 0
174 197 0
173 196 0
175 198 0
172 196 0
172 195 0
175 198 0
173 196 0
173 197 0
176 198 0
172 195 0
174 197 0
175 198 0
173 197 0
172 196 0
177 199 0
171 195 0
174 197 0
174 197 0
172 196 0
173 196 0
173 197 0
174 197 0
174 197 0
174 197 0
175 198 0
173 197 0
174 197 0
175 198 0
171 195 0
174 197 0
175 198 0
173 197 0
175 198 0
173 197 0
176 199 0
174 198 0
174 197 0
173 197 0
173 197 0
173 197 0
175 198 0
173 197 0
173 197 0
174 197 0
175 198 0
174 197 0
175 198 0
175 198 0
174 198 0
174 197 0
174 198 0
175 198 0
174 198 0
172 196 0
175 198 0
176 198 0
174 197 0
176 198 0
174 197 0
173 197 0
177 199 0
174 197 0
173 196 0
175 198 0
173 197 0
175 198 0
173 197 0
174 198 0
173 197 0
174 198 0
173 197 0
173 197 0
174 198 0
175 198 0
175 198 0
174 198 0
174 197 0
175 198 0
174 198 0
175 198 0
175 198 0
175 198 0
175 198 0
175 198 0
175 198 0
174 197 0
175 198 0
175 198 0
175 198 0
175 198 0
175 198 0
174 198 0
174 198 0
174 198 0
175 198 0
175 198 0
175 198 0
175 198 0
174 198 0
173 197 0
175 198 0
174 198 0
175 198 0
174 198 0
174 197 0
173 197 0
173 197 0
173 197 0
174 198 0
173 197 0
174 197 0
174 198 0
176 199 0
175 198 0
174 198 0
175 198 0
176 199 0
175 198 0
173 197 0
173 197 0
175 198 0
175 198 0
175 198 0
174 197 0
175 198 0
173 197 0
174 198 0
174 197 0
175 198 0
174 198 0
175 198 0
174 198 0
175 198 0
176 199 0
174 198 0
174 197 0
175 198 0
173 197 0
175 198 0
173 197 0
174 198 0
175 198 0
175 198 0
174 198 0
171 196 0
174 197 0
174 198 0
175 198 0
175 198 0
174 198 0
174 198 0
175 198 0
174 198 0
174 198 0
173 197 0
173 197 0
174 198 0
174 198 0
175 198 0
174 197 0
174 198 0
175 198 0
173 197 0
176 199 0
174 197 0
173 197 0
173 197 0
175 198 0
174 198 0
173 197 0
175 198 0
175 198 0
174 198 0
174 197 0
175 198 0
173 197 0
173 197 0
174 198 0
174 197 0
174 197 0
174 197 0
174 197 0
174 197 0
173 197 0
175 198 0
173 196 0
176 198 0
173 197 0
174 198 0
175 198 0
175 198 0
173 197 0
176 199 0
174 197 0
172 196 0
177 199 0
174 198 0
174 198 0
174 198 0
175 198 0
175 198 0
175 198 0
173 197 0
175 198 0
173 197 0
174 197 0
175 198 0
174 198 0
176 198 0
172 196 0
172 195 0
173 197 0
174 198 0
172 196 0
174 197 0
173 197 0
173 197 0
176 198 0
174 197 0
172 197 0
175 198 0
174 198 0
174 197 0
173 197 0
172 196 0
174 197 0
174 198 0
173 197 0
174 198 0
175 198 0
172 196 0
173 197 0
173 196 0
173 197 0
175 198 0
173 196 0
172 196 0
173 197 0
173 196 0
170 194 0
174 197 0
173 197 0
172 196 0
174 197 0
174 198 0
172 195 0
175 198 0
172 196 0
170 194 0
174 198 0
173 196 0
174 197 0
173 196 0
172 195 0
173 196 0
173 197 0
173 197 0
175 198 0
173 197 0
175 198 0
173 196 0
175 198 0
170 193 0
173 197 0
172 195 0
175 198 0
175 197 0
172 195 0
173 196 0
173 195 0
173 196 0
172 195 0
174 197 0
174 196 0
175 197 0
174 196 0
175 197 0
172 194 0
172 195 0
174 196 0
172 194 0
172 194 0
176 197 0
170 192 0
175 196 0
174 195 0
172 193 0
172 194 0
174 195 0
173 195 0
168 190 0
170 193 0
170 192 0
170 194 0
165 187 0
169 191 0
165 187 0
168 190 0
170 193 0
168 189 0
166 189 0
166 189 0
165 188 0
164 188 0
166 189 0
167 190 0
166 189 0
163 186 0
166 190 0
167 190 0
166 189 0
169 192 0
168 192 0
171 194 0
168 191 0
167 190 0
168 191 0
163 187 0
170 193 0
168 191 0
166 189 0
169 192 0
170 194 0
165 189 0
169 192 0
171 195 0
167 190 0
169 192 0
169 192 0
171 193 0
166 189 0
170 193 0
169 192 0
173 196 0
170 195 0
172 195 0
170 192 0
170 194 0
168 191 0
172 195 0
170 193 0
171 195 0
170 192 0
164 188 0
171 194 0
173 196 0
168 192 0
171 194 0
173 196 0
169 192 0
170 192 0
170 193 0
173 196 0
172 195 0
170 194 0
171 194 0
172 195 0
172 195 0
172 195 0
171 194 0
173 197 0
171 194 0
172 195 0
173 196 0
173 196 0
171 195 0
172 194 0
173 196 0
171 194 0
173 197 0
172 195 0
172 195 0
172 195 0
173 196 0
171 194 0
172 196 0
174 197 0
170 193 0
173 196 0
172 196 0
173 195 0
172 194 0
172 196 0
172 196 0
173 196 0
173 197 0
173 196 0
173 197 0
174 198 0
172 196 0
172 196 0
172 196 0
175 198 0
173 197 0
173 196 0
174 197 0
172 195 0
174 197 0
171 195 0
175 198 0
174 198 0
172 196 0
173 197 0
174 198 0
172 196 0
174 197 0
172 196 0
174 196 0
173 196 0
174 197 0
173 196 0
173 196 0
174 198 0
174 197 0
174 198 0
175 198 0
175 198 0
174 197 0
174 197 0
174 198 0
174 197 0
175 198 0
174 197 0
172 195 0
175 198 0
174 197 0
173 196 0
176 198 0
175 198 0
172 196 0
174 197 0
174 198 0
174 197 0
177 199 0
172 197 0
176 199 0
173 197 0
174 197 0
175 198 0
174 198 0
173 197 0
176 199 0
173 195 0
175 198 0
174 198 0
174 198 0
175 198 0
174 198 0
173 196 0
172 197 0
173 197 0
175 198 0
174 197 0
175 198 0
173 196 0
173 196 0
174 198 0
174 198 0
174 197 0
175 198 0
175 197 0
174 198 0
174 198 0
173 197 0
173 197 0
175 198 0
175 198 0
174 198 0
175 198 0
173 197 0
174 198 0
174 198 0
174 198 0
173 197 0
174 197 0
174 197 0
174 198 0
176 198 0
174 198 0
175 198 0
174 198 0
174 198 0
175 198 0
174 197 0
175 198 0
173 197 0
173 197 0
175 198 0
175 198 0
175 198 0
174 197 0
175 198 0
175 198 0
174 198 0
174 197 0
174 197 0
175 198 0
174 198 0
174 197 0
174 198 0
175 198 0
175 198 0
176 199 0
176 199 0
173 197 0
174 197 0
174 198 0
173 197 0
174 198 0
173 197 0
175 198 0
175 198 0
174 198 0
173 197 0
175 198 0
175 198 0
175 198 0
175 198 0
175 198 0
174 198 0
174 198 0
176 199 0
175 198 0
174 197 0
176 199 0
175 198 0
175 198 0
174 197 0
175 198 0
175 198 0
175 198 0
173 197 0
175 198 0
174 198 0
175 198 0
173 197 0
173 197 0
176 199 0
174 197 0
175 198 0
175 198 0
175 198 0
175 198 0
174 198 0
174 198 0
174 197 0
175 198 0
174 198 0
174 198 0
174 197 0
175 198 0
175 198 0
175 198 0
174 198 0
174 197 0
175 198 0
177 199 0
173 197 0
175 198 0
174 198 0
175 198 0
174 198 0
178 200 0
174 198 0
174 198 0
175 198 0
175 198 0
174 198 0
175 198 0
174 198 0
175 198 0
175 198 0
174 198 0
173 197 0
173 197 0
175 198 0
173 197 0
173 197 0
174 197 0
174 198 0
174 198 0
175 198 0
175 198 0
174 198 0
175 198 0
174 198 0
174 198 0
173 197 0
175 198 0
175 198 0
173 196 0
173 197 0
173 197 0
175 198 0
174 198 0
174 198 0
173 197 0
174 198 0
175 198 0
174 197 0
176 198 0
174 198 0
172 196 0
174 198 0
174 198 0
173 197 0
175 198 0
176 199 0
174 197 0
174 198 0
173 197 0
175 198 0
173 197 0
173 197 0
175 198 0
173 197 0
175 198 0
174 198 0
174 198 0
176 198 0
173 197 0
173 197 0
173 197 0
174 198 0
174 197 0
174 197 0
174 197 0
170 195 0
172 195 0
174 197 0
173 196 0
174 197 0
171 196 0
172 196 0
174 197 0
172 196 0
173 197 0
170 193 0
174 197 0
173 197 0
173 197 0
172 196 0
171 195 0
174 197 0
173 196 0
174 197 0
174 197 0
176 198 0
171 195 0
172 197 0
172 196 0
172 196 0
172 195 0
174 197 0
171 195 0
173 196 0
173 196 0
173 196 0
172 195 0
172 195 0
173 197 0
173 196 0
172 195 0
174 197 0
173 195 0
171 194 0
173 195 0
172 195 0
172 195 0
177 199 0
174 197 0
175 197 0
171 194 0
171 193 0
174 196 0
169 191 0
175 197 0
173 196 0
169 191 0
175 197 0
174 196 0
174 195 0
170 192 0
173 195 0
170 192 0
175 196 0
171 193 0
172 194 0
174 195 0
171 193 0
171 194 0
170 192 0
171 193 0
173 195 0
169 191 0
171 194 0
171 193 0
164 187 0
168 191 0
171 195 0
167 190 0
164 188 0
164 188 0
170 193 0
165 189 0
168 190 0
166 189 0
164 188 0
170 192 0
168 192 0
168 192 0
170 192 0
167 191 0
167 191 0
166 190 0
170 193 0
167 190 0
170 193 0
167 190 0
169 192 0
162 186 0
169 192 0
170 193 0
170 192 0
166 189 0
165 188 0
171 194 0
168 191 0
166 190 0
169 193 0
167 190 0
171 194 0
168 191 0
169 191 0
170 194 0
170 192 0
171 193 0
173 196 0
169 192 0
169 193 0
170 193 0
169 192 0
166 189 0
170 192 0
168 191 0
172 195 0
170 193 0
170 193 0
170 194 0
170 193 0
171 194 0
171 193 0
172 194 0
171 194 0
170 193 0
172 195 0
170 193 0
173 196 0
169 192 0
171 194 0
173 196 0
171 194 0
172 196 0
172 195 0
173 196 0
171 193 0
172 195 0
173 195 0
172 196 0
173 197 0
174 197 0
171 195 0
171 195 0
175 198 0
173 196 0
172 196 0
173 195 0
172 195 0
174 197 0
173 196 0
171 193 0
174 197 0
172 195 0
174 197 0
173 196 0
173 197 0
174 196 0
174 197 0
172 196 0
173 196 0
174 198 0
172 196 0
174 197 0
174 197 0
173 196 0
174 198 0
174 198 0
172 195 0
172 195 0
172 197 0
174 197 0
175 198 0
173 196 0
175 198 0
173 197 0
173 197 0
174 198 0
174 198 0
174 197 0
174 197 0
173 197 0
171 195 0
173 196 0
174 198 0
174 197 0
176 198 0
174 198 0
174 197 0
173 196 0
173 197 0
174 197 0
173 196 0
174 197 0
175 198 0
173 197 0
174 198 0
175 198 0
173 196 0
173 197 0
175 198 0
174 197 0
177 199 0
176 198 0
175 198 0
174 198 0
173 196 0
173 197 0
174 197 0
173 197 0
176 199 0
176 198 0
175 198 0
173 197 0
176 198 0
174 197 0
175 198 0
176 198 0
173 197 0
173 197 0
174 198 0
174 197 0
176 198 0
173 197 0
174 198 0
176 199 0
175 198 0
175 198 0
175 198 0
175 198 0
173 197 0
175 198 0
173 197 0
175 198 0
175 198 0
173 197 0
175 198 0
176 199 0
172 196 0
174 198 0
174 198 0
174 198 0
174 198 0
173 197 0
173 197 0
176 199 0
174 197 0
175 198 0
173 197 0
174 198 0
175 198 0
175 198 0
176 199 0
174 198 0
173 197 0
174 197 0
175 198 0
173 197 0
174 198 0
174 197 0
175 198 0
176 199 0
174 198 0
174 198 0
172 197 0
173 197 0
172 197 0
174 197 0
174 198 0
175 198 0
173 197 0
174 197 0
175 198 0
173 197 0
177 199 0
174 197 0
174 198 0
174 198 0
174 198 0
175 198 0
175 198 0
175 198 0
175 198 0
174 197 0
172 197 0
173 197 0
174 197 0
173 197 0
175 198 0
175 198 0
174 197 0
173 197 0
175 198 0
174 198 0
175 198 0
175 198 0
174 198 0
173 197 0
175 198 0
175 198 0
175 198 0
174 198 0
174 198 0
176 199 0
173 197 0
177 199 0
173 197 0
173 197 0
175 198 0
174 197 0
174 198 0
174 198 0
173 197 0
175 198 0
175 198 0
173 197 0
176 198 0
174 198 0
176 199 0
173 197 0
173 197 0
173 197 0
176 198 0
174 197 0
174 197 0
173 197 0
174 198 0
173 197 0
176 199 0
173 197 0
174 198 0
175 198 0
175 198 0
174 198 0
176 199 0
174 198 0
175 198 0
174 198 0
175 198 0
175 198 0
173 197 0
174 198 0
175 198 0
174 197 0
175 198 0
174 197 0
175 198 0
175 198 0
175 198 0
173 197 0
174 198 0
174 197 0
175 198 0
175 198 0
174 198 0
174 198 0
174 198 0
173 197 0
173 196 0
173 196 0
174 198 0
174 197 0
175 198 0
175 198 0
174 198 0
173 197 0
176 198 0
175 198 0
173 197 0
175 198 0
176 198 0
175 198 0
174 197 0
175 198 0
174 197 0
176 198 0
175 198 0
174 197 0
174 198 0
173 197 0
174 197 0
174 197 0
174 198 0
172 196 0
173 197 0
174 197 0
174 197 0
176 198 0
175 198 0
174 197 0
172 196 0
172 195 0
172 196 0
172 196 0
173 197 0
174 198 0
176 199 0
172 196 0
175 198 0
173 197 0
173 196 0
174 197 0
174 198 0
172 196 0
174 197 0
172 196 0
174 198 0
174 198 0
173 197 0
173 196 0
175 198 0
174 198 0
171 195 0
173 197 0
173 196 0
172 196 0
174 197 0
173 197 0
171 195 0
172 196 0
173 197 0
173 197 0
172 196 0
172 195 0
174 197 0
173 196 0
173 197 0
174 197 0
172 196 0
174 197 0
174 197 0
173 197 0
172 196 0
174 197 0
170 194 0
174 197 0
172 195 0
170 193 0
171 194 0
174 197 0
171 194 0
172 195 0
173 195 0
168 191 0
172 194 0
171 194 0
176 198 0
174 196 0
175 197 0
172 194 0
173 194 0
173 195 0
172 194 0
173 195 0
174 196 0
173 195 0
173 195 0
172 194 0
173 195 0
172 195 0
171 193 0
170 192 0
170 192 0
174 197 0
173 196 0
171 195 0
167 190 0
172 195 0
171 194 0
169 192 0
167 190 0
171 194 0
170 193 0
165 188 0
165 189 0
167 190 0
171 194 0
169 193 0
167 191 0
161 184 0
163 185 0
164 186 0
169 192 0
167 191 0
173 196 0
169 192 0
167 191 0
168 191 0
172 196 0
168 191 0
164 187 0
165 189 0
170 193 0
171 194 0
168 193 0
171 194 0
170 193 0
171 194 0
170 194 0
167 190 0
170 193 0
168 191 0
168 190 0
171 194 0
170 193 0
168 192 0
169 193 0
171 194 0
171 195 0
172 195 0
170 194 0
167 192 0
169 193 0
170 193 0
169 192 0
170 194 0
169 193 0
172 196 0
171 195 0
174 197 0
171 195 0
172 195 0
172 195 0
171 194 0
171 195 0
173 196 0
170 194 0
171 194 0
172 196 0
171 195 0
172 195 0
171 195 0
174 197 0
172 195 0
170 194 0
171 195 0
173 196 0
171 195 0
171 195 0
171 195 0
173 196 0
173 196 0
175 197 0
174 197 0
172 195 0
171 195 0
173 196 0
170 193 0
174 197 0
173 197 0
170 194 0
173 197 0
172 197 0
172 196 0
174 197 0
174 198 0
174 197 0
173 197 0
174 197 0
172 196 0
175 198 0
174 198 0
173 195 0
171 195 0
175 198 0
172 196 0
174 198 0
174 197 0
175 197 0
176 198 0
173 197 0
173 197 0
172 196 0
174 198 0
175 198 0
174 197 0
174 197 0
173 196 0
175 198 0
174 197 0
173 197 0
174 197 0
173 197 0
175 198 0
174 197 0
174 197 0
175 198 0
174 197 0
173 196 0
173 197 0
173 197 0
175 198 0
174 197 0
173 197 0
174 197 0
174 198 0
175 198 0
174 197 0
177 199 0
175 198 0
175 198 0
176 198 0
173 197 0
174 195 0
175 198 0
175 198 0
175 198 0
172 197 0
176 199 0
174 197 0
174 198 0
174 197 0
174 197 0
173 197 0
174 197 0
174 197 0
173 197 0
173 197 0
173 197 0
174 198 0
172 196 0
175 197 0
175 198 0
176 198 0
174 198 0
173 197 0
174 198 0
174 197 0
175 198 0
175 198 0
175 198 0
175 198 0
174 198 0
176 198 0
174 198 0
175 198 0
175 198 0
175 198 0
176 199 0
174 197 0
174 198 0
176 198 0
175 198 0
174 198 0
173 197 0
175 198 0
174 198 0
173 197 0
175 198 0
173 197 0
175 198 0
173 197 0
174 197 0
176 199 0
175 198 0
174 198 0
175 198 0
174 197 0
173 197 0
175 198 0
175 198 0
174 198 0
175 198 0
172 196 0
175 198 0
175 197 0
174 198 0
173 197 0
174 198 0
173 197 0
175 198 0
175 198 0
174 197 0
174 198 0
175 198 0
173 197 0
174 197 0
174 198 0
173 197 0
173 197 0
175 198 0
174 198 0
176 199 0
172 196 0
174 198 0
174 197 0
175 198 0
176 198 0
174 197 0
173 197 0
175 198 0
174 197 0
175 198 0
174 198 0
175 198 0
174 198 0
174 198 0
173 197 0
175 198 0
175 198 0
175 198 0
174 197 0
173 197 0
174 198 0
175 198 0
174 197 0
175 198 0
172 197 0
174 198 0
173 197 0
173 197 0
174 198 0
173 197 0
174 198 0
174 198 0
172 197 0
174 198 0
173 197 0
175 198 0
174 198 0
173 197 0
174 198 0
174 197 0
176 199 0
174 198 0
173 197 0
175 198 0
174 198 0
174 198 0
173 197 0
175 198 0
175 198 0
174 198 0
173 197 0
175 198 0
173 197 0
173 197 0
176 199 0
174 198 0
177 199 0
174 198 0
172 196 0
175 198 0
175 198 0
173 196 0
173 197 0
176 199 0
174 198 0
174 197 0
174 197 0
175 198 0
173 197 0
173 197 0
173 197 0
173 197 0
175 198 0
175 198 0
174 198 0
175 198 0
177 199 0
175 198 0
174 198 0
175 198 0
174 198 0
173 197 0
173 197 0
173 197 0
173 197 0
176 198 0
174 198 0
175 198 0
171 195 0
174 197 0
174 198 0
174 197 0
174 198 0
173 197 0
173 197 0
174 197 0
174 197 0
174 198 0
173 196 0
172 197 0
174 198 0
175 197 0
174 197 0
175 198 0
175 198 0
175 198 0
174 198 0
174 197 0
172 196 0
173 197 0
174 198 0
175 198 0
173 196 0
174 197 0
173 197 0
173 197 0
172 196 0
174 197 0
176 198 0
174 198 0
171 195 0
173 197 0
174 197 0
172 196 0
174 198 0
173 196 0
171 195 0
174 197 0
173 196 0
174 197 0
174 197 0
174 197 0
173 196 0
174 197 0
173 196 0
172 196 0
174 197 0
172 196 0
171 194 0
172 196 0
173 197 0
174 198 0
172 196 0
174 197 0
171 195 0
174 197 0
176 199 0
174 197 0
173 196 0
175 198 0
171 194 0
170 194 0
172 196 0
172 194 0
171 194 0
174 197 0
173 197 0
170 193 0
173 196 0
174 196 0
172 196 0
171 193 0
173 196 0
174 197 0
173 195 0
170 192 0
172 195 0
173 196 0
174 196 0
175 197 0
173 195 0
173 195 0
171 194 0
174 197 0
170 193 0
171 193 0
169 191 0
172 195 0
172 195 0
170 192 0
173 195 0
173 195 0
171 194 0
164 186 0
168 192 0
170 194 0
169 192 0
169 192 0
166 189 0
166 188 0
169 191 0
169 193 0
169 192 0
162 186 0
164 187 0
166 189 0
165 189 0
168 190 0
167 190 0
166 190 0
166 189 0
171 194 0
165 188 0
169 192 0
171 194 0
168 192 0
170 193 0
168 191 0
171 194 0
167 192 0
168 192 0
169 192 0
170 193 0
172 196 0
170 193 0
168 192 0
168 190 0
170 193 0
166 188 0
171 195 0
170 193 0
174 196 0
171 193 0
166 189 0
170 193 0
167 191 0
169 192 0
169 192 0
169 193 0
171 194 0
170 194 0
171 193 0
172 195 0
166 190 0
173 196 0
172 196 0
172 196 0
168 191 0
173 196 0
172 195 0
170 194 0
173 196 0
170 194 0
173 197 0
170 194 0
172 196 0
175 198 0
171 193 0
168 192 0
173 196 0
174 197 0
169 192 0
171 196 0
172 196 0
173 196 0
174 196 0
169 193 0
174 196 0
172 196 0
173 196 0
171 195 0
174 197 0
170 193 0
171 194 0
172 194 0
174 197 0
173 196 0
175 198 0
171 194 0
174 198 0
172 196 0
172 196 0
175 198 0
172 196 0
173 196 0
172 196 0
174 196 0
174 198 0
173 197 0
173 196 0
175 198 0
172 196 0
174 198 0
171 195 0
174 197 0
173 196 0
175 198 0
173 197 0
172 195 0
175 198 0
174 197 0
173 197 0
174 198 0
175 198 0
174 197 0
174 197 0
174 197 0
173 197 0
173 196 0
174 198 0
173 197 0
175 197 0
173 197 0
175 198 0
173 197 0
174 198 0
174 197 0
173 197 0
171 195 0
174 198 0
173 197 0
173 197 0
174 198 0
174 197 0
174 197 0
174 197 0
175 198 0
172 196 0
174 197 0
173 197 0
174 197 0
175 198 0
175 197 0
174 198 0
174 198 0
174 197 0
173 196 0
174 197 0
176 199 0
174 198 0
175 198 0
174 197 0
176 198 0
174 197 0
174 197 0
175 198 0
174 198 0
174 197 0
171 195 0
171 195 0
173 197 0
173 196 0
174 198 0
175 198 0
173 196 0
173 196 0
175 198 0
174 197 0
174 198 0
175 198 0
173 197 0
173 197 0
177 199 0
174 198 0
174 197 0
175 198 0
176 199 0
173 197 0
173 197 0
174 197 0
175 198 0
173 197 0
174 198 0
175 198 0
174 198 0
174 198 0
175 198 0
174 198 0
175 198 0
175 198 0
175 198 0
177 199 0
174 198 0
173 197 0
173 197 0
174 197 0
174 198 0
174 197 0
175 198 0
174 198 0
175 198 0
174 198 0
173 197 0
173 197 0
174 198 0
173 197 0
174 197 0
174 197 0
176 199 0
175 198 0
174 198 0
174 197 0
174 197 0
175 198 0
172 196 0
174 197 0
174 197 0
174 198 0
174 197 0
173 197 0
176 198 0
171 196 0
175 198 0
174 197 0
175 198 0
174 198 0
175 198 0
175 198 0
173 197 0
174 198 0
174 198 0
174 198 0
174 198 0
172 196 0
175 198 0
176 198 0
174 198 0
175 198 0
176 198 0
176 199 0
174 197 0
174 198 0
174 197 0
175 198 0
175 198 0
175 198 0
173 197 0
174 197 0
176 199 0
174 198 0
174 198 0
174 198 0
175 198 0
175 198 0
176 199 0
175 198 0
175 198 0
175 198 0
173 197 0
175 198 0
173 197 0
172 196 0
173 196 0
175 198 0
174 198 0
174 198 0
174 197 0
174 198 0
174 198 0
175 198 0
176 198 0
174 198 0
176 199 0
174 198 0
173 197 0
174 197 0
174 198 0
174 197 0
175 198 0
174 197 0
174 198 0
174 198 0
175 198 0
174 198 0
174 198 0
176 199 0
175 198 0
174 197 0
174 198 0
175 198 0
176 199 0
173 197 0
173 197 0
174 197 0
176 198 0
174 198 0
174 198 0
175 198 0
174 198 0
175 198 0
175 198 0
173 197 0
173 197 0
174 198 0
173 197 0
175 197 0
174 197 0
175 198 0
174 197 0
174 198 0
174 198 0
174 197 0
176 198 0
174 197 0
174 198 0
174 198 0
175 198 0
173 197 0
175 198 0
173 197 0
173 196 0
174 198 0
173 197 0
171 195 0
175 198 0
173 197 0
174 197 0
174 197 0
175 198 0
174 197 0
175 198 0
174 198 0
174 197 0
173 196 0
175 198 0
173 197 0
175 198 0
172 196 0
174 197 0
172 196 0
172 196 0
174 197 0
175 197 0
173 197 0
172 196 0
174 197 0
174 197 0
175 198 0
175 198 0
173 197 0
174 198 0
174 197 0
171 195 0
172 196 0
175 198 0
174 197 0
175 198 0
174 198 0
175 198 0
173 196 0
173 197 0
172 196 0
172 195 0
173 197 0
173 196 0
172 195 0
172 194 0
172 196 0
172 196 0
170 194 0
170 194 0
173 196 0
173 197 0
173 196 0
171 195 0
173 196 0
173 196 0
171 194 0
172 195 0
175 197 0
170 194 0
172 195 0
173 195 0
175 198 0
173 195 0
171 194 0
175 197 0
175 197 0
175 197 0
171 193 0
171 194 0
174 197 0
172 195 0
174 197 0
171 193 0
173 196 0
175 197 0
174 196 0
173 196 0
170 192 0
172 195 0
169 192 0
168 191 0
171 194 0
166 188 0
170 193 0
167 191 0
165 189 0
170 194 0
169 192 0
168 192 0
167 190 0
165 189 0
170 192 0
167 191 0
166 189 0
169 192 0
170 192 0
169 193 0
171 195 0
172 196 0
163 186 0
167 190 0
167 190 0
166 190 0
168 191 0
169 192 0
167 191 0
170 193 0
172 194 0
172 196 0
167 190 0
170 194 0
169 193 0
169 192 0
168 192 0
169 193 0
172 195 0
171 195 0
167 190 0
171 194 0
172 195 0
168 192 0
169 192 0
166 189 0
168 192 0
167 190 0
171 195 0
173 196 0
171 195 0
172 195 0
166 189 0
173 196 0
172 196 0
171 194 0
169 192 0
173 196 0
172 195 0
170 193 0
171 195 0
171 194 0
171 194 0
166 190 0
175 198 0
172 195 0
171 195 0
168 192 0
172 195 0
170 193 0
172 195 0
172 196 0
174 197 0
170 193 0
171 195 0
173 196 0
169 192 0
173 197 0
172 196 0
171 195 0
173 196 0
175 197 0
170 193 0
171 195 0
173 197 0
172 195 0
173 196 0
173 197 0
172 195 0
171 195 0
174 197 0
172 196 0
174 197 0
174 197 0
172 195 0
174 197 0
173 196 0
174 197 0
175 197 0
173 197 0
173 197 0
172 196 0
172 196 0
171 195 0
174 197 0
172 197 0
175 198 0
173 197 0
172 195 0
173 196 0
174 198 0
175 197 0
172 196 0
174 197 0
174 197 0
174 197 0
173 197 0
173 197 0
176 198 0
175 198 0
174 197 0
174 197 0
172 196 0
173 196 0
172 196 0
174 197 0
174 198 0
172 195 0
174 198 0
174 197 0
173 196 0
174 197 0
173 197 0
173 196 0
171 195 0
173 197 0
174 198 0
174 197 0
172 196 0
173 197 0
175 198 0
174 198 0
174 198 0
175 198 0
174 197 0
174 197 0
176 199 0
174 197 0
172 196 0
173 197 0
174 197 0
172 196 0
173 197 0
173 197 0
173 196 0
173 196 0
175 198 0
175 198 0
175 198 0
175 198 0
174 196 0
174 197 0
173 197 0
174 197 0
174 197 0
175 198 0
174 197 0
173 197 0
175 198 0
175 198 0
173 197 0
171 195 0
174 197 0
175 198 0
173 197 0
174 198 0
172 196 0
174 198 0
174 198 0
174 198 0
175 198 0
173 197 0
173 197 0
173 197 0
174 198 0
175 198 0
175 198 0
173 197 0
174 197 0
175 198 0
176 199 0
173 197 0
175 198 0
175 198 0
175 198 0
175 198 0
176 199 0
175 198 0
172 196 0
174 198 0
173 197 0
173 197 0
175 198 0
175 198 0
173 196 0
175 198 0
174 198 0
174 198 0
174 198 0
175 198 0
174 198 0
174 198 0
174 197 0
175 198 0
176 198 0
175 198 0
172 196 0
175 198 0
175 198 0
175 198 0
175 198 0
176 198 0
174 198 0
175 198 0
174 198 0
175 198 0
175 198 0
173 197 0
174 198 0
174 198 0
174 198 0
175 198 0
172 196 0
173 197 0
174 198 0
173 197 0
175 198 0
175 198 0
175 198 0
173 197 0
174 198 0
172 197 0
173 197 0
176 198 0
172 196 0
174 198 0
176 199 0
174 198 0
174 197 0
174 197 0
174 198 0
174 198 0
173 197 0
175 198 0
174 197 0
173 197 0
173 197 0
175 198 0
175 198 0
174 197 0
174 198 0
177 199 0
176 199 0
174 197 0
175 197 0
175 198 0
173 197 0
175 198 0
173 197 0
174 197 0
173 197 0
174 197 0
176 198 0
174 197 0
174 198 0
173 197 0
175 198 0
175 198 0
173 196 0
175 198 0
174 198 0
174 197 0
174 197 0
174 198 0
175 198 0
172 196 0
175 198 0
174 197 0
174 197 0
176 198 0
177 199 0
174 198 0
172 197 0
175 198 0
174 198 0
174 198 0
175 198 0
174 197 0
174 198 0
173 197 0
175 198 0
174 198 0
175 198 0
174 197 0
176 199 0
175 198 0
176 199 0
173 197 0
173 197 0
175 198 0
174 197 0
174 197 0
172 196 0
174 197 0
175 198 0
174 198 0
173 197 0
174 198 0
172 196 0
174 198 0
174 198 0
174 197 0
174 198 0
174 197 0
173 196 0
175 198 0
174 198 0
174 198 0
175 198 0
172 196 0
174 198 0
175 198 0
173 196 0
174 197 0
173 196 0
173 197 0
172 196 0
171 195 0
174 197 0
174 198 0
173 196 0
173 197 0
174 198 0
172 196 0
174 198 0
173 196 0
173 197 0
175 198 0
174 198 0
174 198 0
174 198 0
175 198 0
174 197 0
172 196 0
172 196 0
172 196 0
174 198 0
173 196 0
174 197 0
174 197 0
174 197 0
171 195 0
174 198 0
172 196 0
173 197 0
174 197 0
172 195 0
173 197 0
174 197 0
173 196 0
169 193 0
175 198 0
171 194 0
174 197 0
173 196 0
171 195 0
172 195 0
174 197 0
173 196 0
173 195 0
174 196 0
174 197 0
172 195 0
169 192 0
172 194 0
174 196 0
170 193 0
174 197 0
174 196 0
172 195 0
172 195 0
174 196 0
169 192 0
170 193 0
172 194 0
170 194 0
171 194 0
173 195 0
172 195 0
169 192 0
169 192 0
171 194 0
169 192 0
171 194 0
168 192 0
170 194 0
170 193 0
169 192 0
171 194 0
172 195 0
171 193 0
170 193 0
165 189 0
172 194 0
170 194 0
167 190 0
169 192 0
165 188 0
170 193 0
171 195 0
171 194 0
169 193 0
171 194 0
168 192 0
171 194 0
165 189 0
169 193 0
169 193 0
166 190 0
168 191 0
169 192 0
168 191 0
167 191 0
171 195 0
167 191 0
170 193 0
171 193 0
170 194 0
171 195 0
170 193 0
169 192 0
170 193 0
170 194 0
170 193 0
174 197 0
168 191 0
171 194 0
170 194 0
172 195 0
169 193 0
171 194 0
174 197 0
174 196 0
169 192 0
169 193 0
174 197 0
175 198 0
172 195 0
171 195 0
173 196 0
172 195 0
171 195 0
171 195 0
168 192 0
173 196 0
174 197 0
172 195 0
170 193 0
171 194 0
172 197 0
172 195 0
173 197 0
169 192 0
171 194 0
172 195 0
171 194 0
174 197 0
172 195 0
174 198 0
174 197 0
173 196 0
172 196 0
174 197 0
175 197 0
175 198 0
172 196 0
173 196 0
173 197 0
172 196 0
172 194 0
171 195 0
171 194 0
173 197 0
173 197 0
174 197 0
173 196 0
173 196 0
173 197 0
172 195 0
171 195 0
174 197 0
173 196 0
174 197 0
171 194 0
173 197 0
175 198 0
173 197 0
173 197 0
173 197 0
174 197 0
172 196 0
175 198 0
172 196 0
173 196 0
174 198 0
174 198 0
173 197 0
173 197 0
173 197 0
175 198 0
175 198 0
174 198 0
172 196 0
175 198 0
173 196 0
174 197 0
174 197 0
174 197 0
173 197 0
174 197 0
174 197 0
175 198 0
174 197 0
173 197 0
173 197 0
173 197 0
172 196 0
173 197 0
174 197 0
174 198 0
176 199 0
174 198 0
174 197 0
175 198 0
176 198 0
175 198 0
176 198 0
174 198 0
175 198 0
173 197 0
174 198 0
174 198 0
175 198 0
175 198 0
175 198 0
174 198 0
173 197 0
173 197 0
173 197 0
173 197 0
174 198 0
174 198 0
175 198 0
176 198 0
174 198 0
175 198 0
175 198 0
174 197 0
173 197 0
175 198 0
174 198 0
173 196 0
174 198 0
174 198 0
175 198 0
173 197 0
172 196 0
172 196 0
174 197 0
173 197 0
175 198 0
174 198 0
175 198 0
174 198 0
173 197 0
173 197 0
174 198 0
173 197 0
174 198 0
173 197 0
173 197 0
174 198 0
174 198 0
174 197 0
176 199 0
173 197 0
174 198 0
177 199 0
175 198 0
174 198 0
174 197 0
175 198 0
175 198 0
172 197 0
174 198 0
175 198 0
175 198 0
176 198 0
173 197 0
174 197 0
176 199 0
174 198 0
173 196 0
174 198 0
174 198 0
175 198 0
175 198 0
175 198 0
172 196 0
175 198 0
175 198 0
175 198 0
174 198 0
174 197 0
174 198 0
175 198 0
174 198 0
173 196 0
175 198 0
173 197 0
175 198 0
173 197 0
174 198 0
175 198 0
175 198 0
175 198 0
174 198 0
175 198 0
174 198 0
174 197 0
175 198 0
174 198 0
174 198 0
174 197 0
174 198 0
174 198 0
174 197 0
172 196 0
174 198 0
174 198 0
173 197 0
174 198 0
176 198 0
175 198 0
171 196 0
175 198 0
174 198 0
175 198 0
176 199 0
174 197 0
172 197 0
175 198 0
174 198 0
175 198 0
174 198 0
176 198 0
175 198 0
173 197 0
175 198 0
173 197 0
175 198 0
174 197 0
176 198 0
172 197 0
174 197 0
172 196 0
173 197 0
174 198 0
174 198 0
176 199 0
172 197 0
172 197 0
176 198 0
175 198 0
173 197 0
174 198 0
174 197 0
174 197 0
173 197 0
173 197 0
173 197 0
175 198 0
173 197 0
174 198 0
174 197 0
173 196 0
174 198 0
176 199 0
173 197 0
175 198 0
173 197 0
174 197 0
175 198 0
174 198 0
174 198 0
173 197 0
174 198 0
173 197 0
175 198 0
174 197 0
175 198 0
174 198 0
174 198 0
174 198 0
173 197 0
173 197 0
173 197 0
173 197 0
173 197 0
173 197 0
175 198 0
172 195 0
173 197 0
174 197 0
174 198 0
174 197 0
174 197 0
173 196 0
173 197 0
174 197 0
173 196 0
173 197 0
174 197 0
174 197 0
173 196 0
173 197 0
174 197 0
174 198 0
173 197 0
173 196 0
175 198 0
174 197 0
172 197 0
174 197 0
173 197 0
173 197 0
173 196 0
172 196 0
173 197 0
173 197 0
172 196 0
173 197 0
173 197 0
174 197 0
174 197 0
173 197 0
175 198 0
173 197 0
174 197 0
172 196 0
172 195 0
174 197 0
172 195 0
174 197 0
174 197 0
174 198 0
171 195 0
174 197 0
175 198 0
174 197 0
173 196 0
172 195 0
174 197 0
175 198 0
172 196 0
170 194 0
173 196 0
172 194 0
172 195 0
171 194 0
171 194 0
172 195 0
175 198 0
172 195 0
171 195 0
171 194 0
173 196 0
173 196 0
169 192 0
173 196 0
174 196 0
172 195 0
174 197 0
173 195 0
171 193 0
170 193 0
172 193 0
172 195 0
173 196 0
174 197 0
173 196 0
171 194 0
172 194 0
171 193 0
172 196 0
167 190 0
172 196 0
169 193 0
170 193 0
168 191 0
171 194 0
172 195 0
171 194 0
166 189 0
167 191 0
168 190 0
169 192 0
165 189 0
166 190 0
169 193 0
171 194 0
171 194 0
169 193 0
169 192 0
171 194 0
167 189 0
170 193 0
167 189 0
168 190 0
171 194 0
171 193 0
170 193 0
172 195 0
169 192 0
169 192 0
171 194 0
171 194 0
171 194 0
172 195 0
170 194 0
169 192 0
174 197 0
169 193 0
167 190 0
172 195 0
173 196 0
175 198 0
171 194 0
168 192 0
171 195 0
172 196 0
172 196 0
167 191 0
169 192 0
172 196 0
171 195 0
171 195 0
172 196 0
170 193 0
173 195 0
173 196 0
171 195 0
172 196 0
170 194 0
170 194 0
173 195 0
168 192 0
173 196 0
173 196 0
172 195 0
173 196 0
173 196 0
172 195 0
175 198 0
172 195 0
171 194 0
174 197 0
174 197 0
173 196 0
172 196 0
173 196 0
173 196 0
173 196 0
173 197 0
172 195 0
175 198 0
174 197 0
172 196 0
173 197 0
173 197 0
172 195 0
171 195 0
174 197 0
175 198 0
173 197 0
172 195 0
173 196 0
173 196 0
174 198 0
174 197 0
173 197 0
173 197 0
172 196 0
173 197 0
172 196 0
172 195 0
173 197 0
173 196 0
173 196 0
176 198 0
174 197 0
174 197 0
171 195 0
175 198 0
175 197 0
172 196 0
173 197 0
174 197 0
175 197 0
174 197 0
174 197 0
174 198 0
174 197 0
173 197 0
174 198 0
173 197 0
176 198 0
172 196 0
172 196 0
172 196 0
173 196 0
173 196 0
175 198 0
173 197 0
174 198 0
175 198 0
174 197 0
174 198 0
174 198 0
175 198 0
173 197 0
174 197 0
176 198 0
173 197 0
173 197 0
175 198 0
174 198 0
175 198 0
174 197 0
174 197 0
175 198 0
173 197 0
175 198 0
175 198 0
175 198 0
172 196 0
173 197 0
174 197 0
175 198 0
176 198 0
174 197 0
174 197 0
174 197 0
174 197 0
175 198 0
175 198 0
173 196 0
174 197 0
174 197 0
174 197 0
173 196 0
173 197 0
174 198 0
175 198 0
174 197 0
173 197 0
175 198 0
174 198 0
174 198 0
174 197 0
174 198 0
175 198 0
174 197 0
172 197 0
174 198 0
173 197 0
174 197 0
174 197 0
175 198 0
174 197 0
174 198 0
175 198 0
176 198 0
175 198 0
174 197 0
175 198 0
174 197 0
175 198 0
174 198 0
174 198 0
174 198 0
174 197 0
174 197 0
174 198 0
174 197 0
173 197 0
175 198 0
174 197 0
174 197 0
173 197 0
174 198 0
174 198 0
176 198 0
174 198 0
173 197 0
173 197 0
174 197 0
175 198 0
174 198 0
173 197 0
176 199 0
174 198 0
174 197 0
174 198 0
174 198 0
173 197 0
173 197 0
174 197 0
174 198 0
175 198 0
175 198 0
173 197 0
176 199 0
174 198 0
173 197 0
175 198 0
174 198 0
175 198 0
176 198 0
175 198 0
176 199 0
177 199 0
175 198 0
174 198 0
175 198 0
175 198 0
174 198 0
174 197 0
174 198 0
176 199 0
174 198 0
175 198 0
175 198 0
176 198 0
176 198 0
175 198 0
174 197 0
175 198 0
175 198 0
174 197 0
175 198 0
174 198 0
175 198 0
175 198 0
173 196 0
174 198 0
174 198 0
173 197 0
174 197 0
175 198 0
174 197 0
175 198 0
176 199 0
175 198 0
176 198 0
176 198 0
173 197 0
175 198 0
175 198 0
174 197 0
175 198 0
175 198 0
175 198 0
176 199 0
174 198 0
175 198 0
173 197 0
174 197 0
174 198 0
173 197 0
175 198 0
173 197 0
174 198 0
173 197 0
172 196 0
172 196 0
172 196 0
173 197 0
174 198 0
174 197 0
174 197 0
173 197 0
175 198 0
175 198 0
174 197 0
175 198 0
172 196 0
174 198 0
173 197 0
175 198 0
173 197 0
176 199 0
174 198 0
172 196 0
173 197 0
174 198 0
173 197 0
175 198 0
174 198 0
174 197 0
174 198 0
174 197 0
173 197 0
175 198 0
175 198 0
173 197 0
174 198 0
174 197 0
170 195 0
174 198 0
174 198 0
174 197 0
172 197 0
173 197 0
174 197 0
174 197 0
172 196 0
170 194 0
173 196 0
173 197 0
175 198 0
173 196 0
175 198 0
174 197 0
172 195 0
172 196 0
172 196 0
172 196 0
173 197 0
173 197 0
174 197 0
174 197 0
173 196 0
172 196 0
173 196 0
173 197 0
172 196 0
173 196 0
175 198 0
173 196 0
174 198 0
172 196 0
172 196 0
172 196 0
174 197 0
173 196 0
175 198 0
172 196 0
171 195 0
173 196 0
173 197 0
174 197 0
175 197 0
171 194 0
174 197 0
173 197 0
172 194 0
173 196 0
176 198 0
174 198 0
169 192 0
173 196 0
170 193 0
171 193 0
173 196 0
173 196 0
174 197 0
172 195 0
176 198 0
171 193 0
173 195 0
172 194 0
174 196 0
169 191 0
172 194 0
171 193 0
173 197 0
173 195 0
172 196 0
174 197 0
171 193 0
174 198 0
173 197 0
167 190 0
169 192 0
168 192 0
167 191 0
167 190 0
169 192 0
168 192 0
169 192 0
166 189 0
167 190 0
169 193 0
169 192 0
171 194 0
169 193 0
169 193 0
170 194 0
169 193 0
167 189 0
172 194 0
171 194 0
168 191 0
169 193 0
170 193 0
169 192 0
170 194 0
172 195 0
171 194 0
172 195 0
172 195 0
169 192 0
169 192 0
170 194 0
170 194 0
165 190 0
173 197 0
170 193 0
171 194 0
168 191 0
170 193 0
170 193 0
170 193 0
169 192 0
171 194 0
171 194 0
173 195 0
171 195 0
173 196 0
167 190 0
169 192 0
170 194 0
172 195 0
171 195 0
171 195 0
169 192 0
170 193 0
171 195 0
169 192 0
173 196 0
172 196 0
172 195 0
173 197 0
174 197 0
172 195 0
171 194 0
172 195 0
172 195 0
171 195 0
173 197 0
176 198 0
173 196 0
172 196 0
173 197 0
173 197 0
170 194 0
173 196 0
174 197 0
173 196 0
172 195 0
173 197 0
173 197 0
173 197 0
174 198 0
176 199 0
172 196 0
175 198 0
174 197 0
174 197 0
172 195 0
173 196 0
171 195 0
173 197 0
173 196 0
174 198 0
174 198 0
172 195 0
174 198 0
173 196 0
172 196 0
173 196 0
174 198 0
174 197 0
173 197 0
174 197 0
173 197 0
175 198 0
172 196 0
174 196 0
175 197 0
174 197 0
174 198 0
171 196 0
174 198 0
176 199 0
175 198 0
173 196 0
174 197 0
172 195 0
175 197 0
175 198 0
174 198 0
175 197 0
173 197 0
174 197 0
174 198 0
174 197 0
175 198 0
173 197 0
172 196 0
172 197 0
174 198 0
171 196 0
174 197 0
174 197 0
171 196 0
174 197 0
174 198 0
173 197 0
174 198 0
175 198 0
173 197 0
174 198 0
175 198 0
174 197 0
174 197 0
173 197 0
174 198 0
174 198 0
174 197 0
176 199 0
173 197 0
173 197 0
175 198 0
173 197 0
174 198 0
175 198 0
174 198 0
174 198 0
174 197 0
171 196 0
174 197 0
173 197 0
175 198 0
173 197 0
172 196 0
174 198 0
172 196 0
173 197 0
175 198 0
176 199 0
176 199 0
174 198 0
176 198 0
175 198 0
173 197 0
175 198 0
175 198 0
175 198 0
174 198 0
176 198 0
173 197 0
174 198 0
174 198 0
174 198 0
173 197 0
175 198 0
173 197 0
175 198 0
173 197 0
175 198 0
175 198 0
175 198 0
173 197 0
174 197 0
175 198 0
173 196 0
173 197 0
175 198 0
175 198 0
176 199 0
174 198 0
174 197 0
174 198 0
175 198 0
174 198 0
174 198 0
174 197 0
175 198 0
174 198 0
174 198 0
175 198 0
174 197 0
173 197 0
175 198 0
175 198 0
174 197 0
176 198 0
173 197 0
173 197 0
175 198 0
174 197 0
174 198 0
174 197 0
174 198 0
173 197 0
173 197 0
174 198 0
173 197 0
175 198 0
175 198 0
174 198 0
175 198 0
174 198 0
175 198 0
175 198 0
176 199 0
175 198 0
173 197 0
174 197 0
173 197 0
174 198 0
174 197 0
177 199 0
175 198 0
175 198 0
175 198 0
173 197 0
174 197 0
173 197 0
173 197 0
172 196 0
176 199 0
173 197 0
176 198 0
175 198 0
173 197 0
174 197 0
174 197 0
176 199 0
174 198 0
175 198 0
174 197 0
174 198 0
173 197 0
174 198 0
175 198 0
173 197 0
173 197 0
176 198 0
175 198 0
173 197 0
175 198 0
174 198 0
174 197 0
174 198 0
174 197 0
174 197 0
174 198 0
173 196 0
174 198 0
174 198 0
174 197 0
174 198 0
175 198 0
174 198 0
173 197 0
174 198 0
175 198 0
177 199 0
175 198 0
175 198 0
174 198 0
174 197 0
174 197 0
175 198 0
173 197 0
174 197 0
173 197 0
171 196 0
175 198 0
175 198 0
176 199 0
175 198 0
175 198 0
173 196 0
174 198 0
175 198 0
175 198 0
174 198 0
175 198 0
174 198 0
175 198 0
174 197 0
174 197 0
173 197 0
175 198 0
173 197 0
175 198 0
173 197 0
173 197 0
173 197 0
175 198 0
174 197 0
175 198 0
174 198 0
174 197 0
174 197 0
174 198 0
174 198 0
173 197 0
172 196 0
172 196 0
174 197 0
173 197 0
174 197 0
173 197 0
173 197 0
174 198 0
174 197 0
173 197 0
174 197 0
174 197 0
174 197 0
172 195 0
174 197 0
175 198 0
174 197 0
173 196 0
174 197 0
173 197 0
174 197 0
172 196 0
171 196 0
174 197 0
173 196 0
173 196 0
172 196 0
174 197 0
174 197 0
174 197 0
173 197 0
172 196 0
174 196 0
174 197 0
172 196 0
173 197 0
173 196 0
173 197 0
173 196 0
174 197 0
173 196 0
173 196 0
173 196 0
174 197 0
173 196 0
171 195 0
173 195 0
172 196 0
174 197 0
174 197 0
173 195 0
176 199 0
173 196 0
174 197 0
173 196 0
171 194 0
170 194 0
174 197 0
174 196 0
172 195 0
174 196 0
174 197 0
173 196 0
171 195 0
173 196 0
175 198 0
171 195 0
173 196 0
171 194 0
172 196 0
170 192 0
173 196 0
172 195 0
170 194 0
170 194 0
171 194 0
173 196 0
169 192 0
168 192 0
173 196 0
166 189 0
169 193 0
170 193 0
172 195 0
167 191 0
164 188 0
171 194 0
168 192 0
171 194 0
168 190 0
168 191 0
164 188 0
172 196 0
171 194 0
167 191 0
170 194 0
170 193 0
170 193 0
165 188 0
169 193 0
171 195 0
173 195 0
170 193 0
170 194 0
171 195 0
169 192 0
171 194 0
170 194 0
169 194 0
169 192 0
170 193 0
170 194 0
174 197 0
173 196 0
171 195 0
173 196 0
169 193 0
169 192 0
171 195 0
172 195 0
173 195 0
171 194 0
169 194 0
171 194 0
171 194 0
170 194 0
172 195 0
174 197 0
175 197 0
176 198 0
172 195 0
171 195 0
174 197 0
172 195 0
170 194 0
171 195 0
172 196 0
168 191 0
173 197 0
170 194 0
173 197 0
173 196 0
173 197 0
170 193 0
168 191 0
175 197 0
173 196 0
172 196 0
173 196 0
172 196 0
173 197 0
173 197 0
176 198 0
174 196 0
173 197 0
172 195 0
173 197 0
173 196 0
174 198 0
175 198 0
174 197 0
173 196 0
170 193 0
173 196 0
173 197 0
174 197 0
173 197 0
174 197 0
173 197 0
173 196 0
174 198 0
173 197 0
174 198 0
175 198 0
171 195 0
174 197 0
174 197 0
173 197 0
175 198 0
174 197 0
175 198 0
175 198 0
174 197 0
175 198 0
173 195 0
174 197 0
174 197 0
175 198 0
173 197 0
173 197 0
172 197 0
172 196 0
174 197 0
174 197 0
173 197 0
176 198 0
173 197 0
173 197 0
175 198 0
174 197 0
173 197 0
173 197 0
174 198 0
173 197 0
173 197 0
174 197 0
175 198 0
174 198 0
175 198 0
175 198 0
176 198 0
175 198 0
175 198 0
174 198 0
174 198 0
172 196 0
174 198 0
174 198 0
174 198 0
175 198 0
174 198 0
174 197 0
174 197 0
174 197 0
172 197 0
173 197 0
174 197 0
174 198 0
175 198 0
174 198 0
173 197 0
174 198 0
172 196 0
172 196 0
172 196 0
175 198 0
177 199 0
174 197 0
175 198 0
176 199 0
176 199 0
174 198 0
173 197 0
174 197 0
174 197 0
174 197 0
174 198 0
174 197 0
174 198 0
176 199 0
176 199 0
175 198 0
173 197 0
174 197 0
174 198 0
175 198 0
175 198 0
175 198 0
172 197 0
173 197 0
174 198 0
175 198 0
174 197 0
176 199 0
175 198 0
174 197 0
174 198 0
175 198 0
175 198 0
174 198 0
175 198 0
173 196 0
174 198 0
174 198 0
174 198 0
175 198 0
174 197 0
176 198 0
175 198 0
173 197 0
176 199 0
177 199 0
175 198 0
174 198 0
174 197 0
175 198 0
174 198 0
174 198 0
174 198 0
174 198 0
175 198 0
174 198 0
175 198 0
174 198 0
174 197 0
175 198 0
175 198 0
175 198 0
173 197 0
174 198 0
173 197 0
174 198 0
172 196 0
173 197 0
174 198 0
175 198 0
174 197 0
175 198 0
176 198 0
174 198 0
173 197 0
175 198 0
174 197 0
173 197 0
174 198 0
173 197 0
175 198 0
174 198 0
175 198 0
176 198 0
174 198 0
175 198 0
173 197 0
173 197 0
174 198 0
175 198 0
175 198 0
176 199 0
175 198 0
175 198 0
175 198 0
174 198 0
173 197 0
174 197 0
174 197 0
175 198 0
173 197 0
174 198 0
174 197 0
174 198 0
174 198 0
174 197 0
174 197 0
173 197 0
175 198 0
175 198 0
174 198 0
175 198 0
173 197 0
175 198 0
175 198 0
174 198 0
174 197 0
173 197 0
173 197 0
174 197 0
173 197 0
174 198 0
174 198 0
175 198 0
174 197 0
173 197 0
174 198 0
173 197 0
173 197 0
172 196 0
175 198 0
173 197 0
174 198 0
174 198 0
173 197 0
173 197 0
174 197 0
173 197 0
174 197 0
175 198 0
175 198 0
173 197 0
175 198 0
173 197 0
174 198 0
173 197 0
175 198 0
172 196 0
173 197 0
174 198 0
172 197 0
174 198 0
175 198 0
173 197 0
175 198 0
173 197 0
173 197 0
174 198 0
174 198 0
172 196 0
173 197 0
173 197 0
173 197 0
174 197 0
172 196 0
175 198 0
174 197 0
172 197 0
173 197 0
172 196 0
175 198 0
173 197 0
173 197 0
174 198 0
172 197 0
175 198 0
173 197 0
172 196 0
173 197 0
172 195 0
172 195 0
171 195 0
174 197 0
173 197 0
173 196 0
175 198 0
175 198 0
171 195 0
174 197 0
173 197 0
172 195 0
172 196 0
171 195 0
173 196 0
174 198 0
173 196 0
174 197 0
172 197 0
172 195 0
172 196 0
171 195 0
172 196 0
175 198 0
173 197 0
174 197 0
174 197 0
174 197 0
174 197 0
172 195 0
171 195 0
173 196 0
173 196 0
172 196 0
171 193 0
175 197 0
172 195 0
173 196 0
174 197 0
173 196 0
172 195 0
170 193 0
173 196 0
173 195 0
171 194 0
172 195 0
170 193 0
174 196 0
174 197 0
173 195 0
170 193 0
173 195 0
171 194 0
170 193 0
168 191 0
175 198 0
171 195 0
168 192 0
167 190 0
169 193 0
168 192 0
171 194 0
171 194 0
167 190 0
170 193 0
171 194 0
171 194 0
171 194 0
169 193 0
171 195 0
169 193 0
168 191 0
171 195 0
170 193 0
170 193 0
168 192 0
169 193 0
171 194 0
165 188 0
170 193 0
172 195 0
168 191 0
171 195 0
171 194 0
170 194 0
168 191 0
171 194 0
167 190 0
168 191 0
169 192 0
172 195 0
171 194 0
168 192 0
168 191 0
173 195 0
172 195 0
172 195 0
171 194 0
170 195 0
170 193 0
170 193 0
174 197 0
171 195 0
170 195 0
168 191 0
170 193 0
173 197 0
173 196 0
170 193 0
172 195 0
173 196 0
171 194 0
173 197 0
170 194 0
173 196 0
172 196 0
173 197 0
171 194 0
170 193 0
171 194 0
172 196 0
175 198 0
174 196 0
174 196 0
174 197 0
174 197 0
171 195 0
169 193 0
173 197 0
172 195 0
172 196 0
169 193 0
169 193 0
174 198 0
174 196 0
174 197 0
173 196 0
174 197 0
175 198 0
173 197 0
172 195 0
172 196 0
172 196 0
170 193 0
174 197 0
174 197 0
174 198 0
173 197 0
174 197 0
170 194 0
173 197 0
174 198 0
173 197 0
175 198 0
173 197 0
172 196 0
175 198 0
173 197 0
173 196 0
173 197 0
176 199 0
174 197 0
172 195 0
174 197 0
171 195 0
174 198 0
173 195 0
175 198 0
173 197 0
172 196 0
173 197 0
174 198 0
172 196 0
174 197 0
174 198 0
174 198 0
173 196 0
173 197 0
173 196 0
174 197 0
173 197 0
174 197 0
173 197 0
175 198 0
176 199 0
174 197 0
173 197 0
173 197 0
174 198 0
173 197 0
174 197 0
173 196 0
175 198 0
173 197 0
173 197 0
174 198 0
174 197 0
173 196 0
173 197 0
175 198 0
175 198 0
175 198 0
175 198 0
173 197 0
175 198 0
173 197 0
173 197 0
172 196 0
174 198 0
175 198 0
174 197 0
174 197 0
173 197 0
174 197 0
175 198 0
174 197 0
173 197 0
175 198 0
173 197 0
173 197 0
174 197 0
174 197 0
176 199 0
173 197 0
174 198 0
174 197 0
175 198 0
174 198 0
173 197 0
175 198 0
175 198 0
175 198 0
175 198 0
174 197 0
175 198 0
173 197 0
174 198 0
173 197 0
173 197 0
175 198 0
174 198 0
175 198 0
174 198 0
176 199 0
173 197 0
175 198 0
174 197 0
175 198 0
175 198 0
175 198 0
174 198 0
174 198 0
176 199 0
176 198 0
174 198 0
173 197 0
175 198 0
173 197 0
175 198 0
176 199 0
175 198 0
173 197 0
175 198 0
174 198 0
175 198 0
173 197 0
175 198 0
175 198 0
176 198 0
174 198 0
174 198 0
174 198 0
175 198 0
175 198 0
175 198 0
175 198 0
175 198 0
175 198 0
175 198 0
177 199 0
175 198 0
173 197 0
174 198 0
175 198 0
174 198 0
175 198 0
174 197 0
176 199 0
175 198 0
172 197 0
175 198 0
175 198 0
174 198 0
176 199 0
174 198 0
173 197 0
173 197 0
174 198 0
175 198 0
174 197 0
175 198 0
175 198 0
174 197 0
176 198 0
175 198 0
174 197 0
175 198 0
172 196 0
173 197 0
175 198 0
173 197 0
173 197 0
175 198 0
173 197 0
174 198 0
176 199 0
174 198 0
173 197 0
173 197 0
174 197 0
175 198 0
173 197 0
175 198 0
173 197 0
173 197 0
174 198 0
173 197 0
175 198 0
175 198 0
173 197 0
173 197 0
173 197 0
175 198 0
173 197 0
174 197 0
174 198 0
175 198 0
174 197 0
174 197 0
175 198 0
174 198 0
175 198 0
172 196 0
173 197 0
175 198 0
174 198 0
174 198 0
174 197 0
174 198 0
174 197 0
174 197 0
174 198 0
175 198 0
174 197 0
173 197 0
175 198 0
174 198 0
175 198 0
176 199 0
175 198 0
175 198 0
173 197 0
173 197 0
173 197 0
172 196 0
174 198 0
174 198 0
175 198 0
172 196 0
172 196 0
174 198 0
174 198 0
174 198 0
175 198 0
174 198 0
174 197 0
176 198 0
172 196 0
174 197 0
174 198 0
173 197 0
175 198 0
175 198 0
175 198 0
173 197 0
175 198 0
174 198 0
173 197 0
175 198 0
174 198 0
172 196 0
174 197 0
175 198 0
173 197 0
173 197 0
172 196 0
173 197 0
174 197 0
174 198 0
172 196 0
174 197 0
173 197 0
172 196 0
173 197 0
173 196 0
174 198 0
174 197 0
174 197 0
174 198 0
174 198 0
173 197 0
175 198 0
174 197 0
173 197 0
174 197 0
175 198 0
170 195 0
174 197 0
175 198 0
173 196 0
173 197 0
176 199 0
172 196 0
175 197 0
173 196 0
172 196 0
174 197 0
172 195 0
174 197 0
171 194 0
174 197 0
173 196 0
173 197 0
172 195 0
173 197 0
173 196 0
174 197 0
172 196 0
173 196 0
170 193 0
172 196 0
172 196 0
173 196 0
174 196 0
172 194 0
173 196 0
171 194 0
174 196 0
171 194 0
174 196 0
173 197 0
172 194 0
171 195 0
173 196 0
173 196 0
172 196 0
171 194 0
172 195 0
169 192 0
171 195 0
172 195 0
171 195 0
170 193 0
172 195 0
170 194 0
171 195 0
168 192 0
172 196 0
173 195 0
170 193 0
171 194 0
173 196 0
170 193 0
171 195 0
167 191 0
168 192 0
170 194 0
169 192 0
169 193 0
167 192 0
169 193 0
167 191 0
171 194 0
171 194 0
170 193 0
169 192 0
172 195 0
171 194 0
166 189 0
173 196 0
168 192 0
170 194 0
170 194 0
171 194 0
171 194 0
171 194 0
169 193 0
169 192 0
173 196 0
171 195 0
170 194 0
171 194 0
169 192 0
173 196 0
172 196 0
168 192 0
170 193 0
170 194 0
172 195 0
173 196 0
175 197 0
171 195 0
174 196 0
172 196 0
171 195 0
174 197 0
174 197 0
174 197 0
174 197 0
174 197 0
171 194 0
173 197 0
170 193 0
172 195 0
174 197 0
171 195 0
171 193 0
171 195 0
172 195 0
173 196 0
171 194 0
172 195 0
173 197 0
170 194 0
174 196 0
172 195 0
171 195 0
172 195 0
172 195 0
171 195 0
175 197 0
174 197 0
173 197 0
173 197 0
175 198 0
173 197 0
174 197 0
172 196 0
174 197 0
173 196 0
175 198 0
171 196 0
173 196 0
173 196 0
173 197 0
176 198 0
175 198 0
174 197 0
172 196 0
172 195 0
174 197 0
175 198 0
173 196 0
174 197 0
175 198 0
175 198 0
174 197 0
174 198 0
173 196 0
173 197 0
173 197 0
172 196 0
173 196 0
173 196 0
176 198 0
173 197 0
174 198 0
173 197 0
171 195 0
175 198 0
175 197 0
174 197 0
175 198 0
173 197 0
173 197 0
175 198 0
174 198 0
173 197 0
176 199 0
175 198 0
173 197 0
174 197 0
176 198 0
175 198 0
173 197 0
173 197 0
174 197 0
173 197 0
173 197 0
173 197 0
174 198 0
175 198 0
175 198 0
173 196 0
177 199 0
173 197 0
174 198 0
174 198 0
175 198 0
174 198 0
174 197 0
175 198 0
174 197 0
174 198 0
173 197 0
174 197 0
175 198 0
173 197 0
173 197 0
174 198 0
175 198 0
175 197 0
174 197 0
174 198 0
174 197 0
176 198 0
176 199 0
174 197 0
175 198 0
176 199 0
174 197 0
176 199 0
173 197 0
174 198 0
174 197 0
174 197 0
175 198 0
176 198 0
173 197 0
172 196 0
175 198 0
175 198 0
175 198 0
174 197 0
176 198 0
174 198 0
175 198 0
175 198 0
175 198 0
175 198 0
176 198 0
174 198 0
173 197 0
175 198 0
175 198 0
173 197 0
174 197 0
175 198 0
175 198 0
175 198 0
174 198 0
176 199 0
175 198 0
174 197 0
175 198 0
174 198 0
174 198 0
177 199 0
174 198 0
176 199 0
174 198 0
174 198 0
176 199 0
174 198 0
176 198 0
174 198 0
174 197 0
176 198 0
173 197 0
174 198 0
174 197 0
175 198 0
175 198 0
172 196 0
174 198 0
174 198 0
174 198 0
174 198 0
173 197 0
174 198 0
173 197 0
173 197 0
174 197 0
173 197 0
175 198 0
175 198 0
174 198 0
174 198 0
175 198 0
173 197 0
175 198 0
174 198 0
174 198 0
174 198 0
175 198 0
176 198 0
172 196 0
173 197 0
175 198 0
175 198 0
175 198 0
173 197 0
174 198 0
173 197 0
173 197 0
175 198 0
173 197 0
173 197 0
175 198 0
174 197 0
174 197 0
175 198 0
174 198 0
175 198 0
176 199 0
173 197 0
173 197 0
173 197 0
174 197 0
172 196 0
175 198 0
172 197 0
174 198 0
173 197 0
175 198 0
174 198 0
176 198 0
175 198 0
174 198 0
174 198 0
173 197 0
173 196 0
174 198 0
176 199 0
172 197 0
174 198 0
172 197 0
176 198 0
174 198 0
175 198 0
174 197 0
174 197 0
174 198 0
173 197 0
175 198 0
174 198 0
172 197 0
175 198 0
175 198 0
175 198 0
173 197 0
173 197 0
174 198 0
172 196 0
176 198 0
174 197 0
173 197 0
175 198 0
174 197 0
174 197 0
172 197 0
174 198 0
176 198 0
174 197 0
174 197 0
175 198 0
173 197 0
174 198 0
174 197 0
173 197 0
173 197 0
175 198 0
174 198 0
173 197 0
174 197 0
173 197 0
175 198 0
175 198 0
172 196 0
174 197 0
172 196 0
175 198 0
174 197 0
174 197 0
174 198 0
174 197 0
174 198 0
175 198 0
174 197 0
170 194 0
175 198 0
175 198 0
175 198 0
172 196 0
175 198 0
173 197 0
173 197 0
172 196 0
173 196 0
175 198 0
172 196 0
174 197 0
173 196 0
174 197 0
172 196 0
174 197 0
172 196 0
174 197 0
174 198 0
172 196 0
174 197 0
173 196 0
171 195 0
172 196 0
174 197 0
173 196 0
173 196 0
174 197 0
174 197 0
172 195 0
172 196 0
173 195 0
173 196 0
174 197 0
173 196 0
173 195 0
171 194 0
174 197 0
174 197 0
173 197 0
174 197 0
171 195 0
172 195 0
175 198 0
172 195 0
174 197 0
172 195 0
172 195 0
171 194 0
170 193 0
174 196 0
172 195 0
172 195 0
172 195 0
171 196 0
172 195 0
171 194 0
170 193 0
172 194 0
169 193 0
169 192 0
170 194 0
170 194 0
167 190 0
171 194 0
172 195 0
168 191 0
172 195 0
170 193 0
170 193 0
170 194 0
171 194 0
170 193 0
170 194 0
169 192 0
170 192 0
169 193 0
168 192 0
169 193 0
167 191 0
171 194 0
171 194 0
170 192 0
168 191 0
173 197 0
170 193 0
170 193 0
172 195 0
169 192 0
172 195 0
170 194 0
168 192 0
171 194 0
171 194 0
171 194 0
173 195 0
169 193 0
171 195 0
172 195 0
169 193 0
174 197 0
172 195 0
173 195 0
172 195 0
173 196 0
171 194 0
172 196 0
170 193 0
171 194 0
171 195 0
173 195 0
171 195 0
172 196 0
170 194 0
173 196 0
173 195 0
173 196 0
174 197 0
171 194 0
172 196 0
171 195 0
171 194 0
173 196 0
171 195 0
170 194 0
172 196 0
172 196 0
172 196 0
173 196 0
173 197 0
171 195 0
173 196 0
172 196 0
171 195 0
174 196 0
171 195 0
172 196 0
173 195 0
173 196 0
174 197 0
173 197 0
173 197 0
175 198 0
174 197 0
176 199 0
172 195 0
173 197 0
174 198 0
175 198 0
176 198 0
173 196 0
172 196 0
172 196 0
173 197 0
174 198 0
176 199 0
173 196 0
172 196 0
173 196 0
174 197 0
175 197 0
174 197 0
171 196 0
174 198 0
175 198 0
172 195 0
174 197 0
174 198 0
175 198 0
173 196 0
175 198 0
173 196 0
175 198 0
174 197 0
175 198 0
174 197 0
173 196 0
174 198 0
176 198 0
172 197 0
173 196 0
174 197 0
175 197 0
174 198 0
174 196 0
173 197 0
173 197 0
174 198 0
175 198 0
175 198 0
174 197 0
174 197 0
175 198 0
175 198 0
174 197 0
174 197 0
175 198 0
176 198 0
174 197 0
173 197 0
174 197 0
173 196 0
175 198 0
175 198 0
173 197 0
172 196 0
175 198 0
173 197 0
174 197 0
174 197 0
174 198 0
174 197 0
174 198 0
174 198 0
175 198 0
174 197 0
173 196 0
172 197 0
175 198 0
173 197 0
174 197 0
175 198 0
174 197 0
174 197 0
176 198 0
174 197 0
176 198 0
175 198 0
175 198 0
174 198 0
174 197 0
175 198 0
175 198 0
175 198 0
173 197 0
175 198 0
175 198 0
175 198 0
174 197 0
174 198 0
175 198 0
175 197 0
176 199 0
174 198 0
175 198 0
174 198 0
174 197 0
174 198 0
176 199 0
174 198 0
174 198 0
174 197 0
174 198 0
174 198 0
174 198 0
175 198 0
173 197 0
174 197 0
177 199 0
173 197 0
174 197 0
175 198 0
175 198 0
175 198 0
173 197 0
175 198 0
173 196 0
174 197 0
174 198 0
173 197 0
174 198 0
176 199 0
174 197 0
174 197 0
174 198 0
174 198 0
174 198 0
173 197 0
174 198 0
174 198 0
174 197 0
176 199 0
175 198 0
175 198 0
175 198 0
174 197 0
175 198 0
173 197 0
173 197 0
175 198 0
173 197 0
174 198 0
174 198 0
174 198 0
173 197 0
175 198 0
174 198 0
174 197 0
173 197 0
175 198 0
175 198 0
174 197 0
174 197 0
174 197 0
174 197 0
176 199 0
174 197 0
174 198 0
174 198 0
177 199 0
172 197 0
174 197 0
172 196 0
175 198 0
174 197 0
175 198 0
174 198 0
174 198 0
173 197 0
175 198 0
175 198 0
174 198 0
176 198 0
173 197 0
173 197 0
175 198 0
175 198 0
175 198 0
173 197 0
174 198 0
173 197 0
174 197 0
177 199 0
174 197 0
172 196 0
174 198 0
173 197 0
175 198 0
174 197 0
173 197 0
174 198 0
174 197 0
175 198 0
174 197 0
175 198 0
174 198 0
173 197 0
174 198 0
173 197 0
175 198 0
174 198 0
174 198 0
174 198 0
174 197 0
173 197 0
173 197 0
174 197 0
172 196 0
175 198 0
174 197 0
174 198 0
177 199 0
173 197 0
174 197 0
174 198 0
175 198 0
173 196 0
174 198 0
173 197 0
174 198 0
172 197 0
173 197 0
175 198 0
174 197 0
175 198 0
175 198 0
173 197 0
172 196 0
174 197 0
174 197 0
174 197 0
174 197 0
174 198 0
174 197 0
173 197 0
173 197 0
173 197 0
175 198 0
174 197 0
173 196 0
173 197 0
172 195 0
173 197 0
174 198 0
175 198 0
173 197 0
175 198 0
175 198 0
171 195 0
174 197 0
173 196 0
175 198 0
174 197 0
174 197 0
172 195 0
173 197 0
174 197 0
173 196 0
172 196 0
174 197 0
171 195 0
173 196 0
174 198 0
174 197 0
174 198 0
172 196 0
170 194 0
173 197 0
173 197 0
174 198 0
172 196 0
174 197 0
172 196 0
173 196 0
174 198 0
172 196 0
172 196 0
172 196 0
173 197 0
170 194 0
174 198 0
173 196 0
172 195 0
174 197 0
175 198 0
173 197 0
170 193 0
173 197 0
172 195 0
173 196 0
171 193 0
173 196 0
169 192 0
172 195 0
172 195 0
174 197 0
173 196 0
173 196 0
172 195 0
170 194 0
174 196 0
174 197 0
171 195 0
172 196 0
171 194 0
169 193 0
170 194 0
172 195 0
174 196 0
168 192 0
172 195 0
169 192 0
171 195 0
169 193 0
170 194 0
172 196 0
172 196 0
172 195 0
173 196 0
170 194 0
170 193 0
171 194 0
169 193 0
170 193 0
170 193 0
169 192 0
175 198 0
172 194 0
173 197 0
172 196 0
169 193 0
172 195 0
169 192 0
172 195 0
166 190 0
169 194 0
173 197 0
170 193 0
171 195 0
171 194 0
171 195 0
170 193 0
170 193 0
169 193 0
172 195 0
169 192 0
171 194 0
173 196 0
172 195 0
173 196 0
174 197 0
169 192 0
172 196 0
174 197 0
172 196 0
170 195 0
171 194 0
173 196 0
170 194 0
169 192 0
173 197 0
171 195 0
172 195 0
173 196 0
174 197 0
172 195 0
171 193 0
173 197 0
174 196 0
171 195 0
172 196 0
170 194 0
170 194 0
174 197 0
173 196 0
173 196 0
172 196 0
171 194 0
173 196 0
175 197 0
173 196 0
173 196 0
172 196 0
173 196 0
173 196 0
172 195 0
172 196 0
174 197 0
172 195 0
173 196 0
173 197 0
173 196 0
173 196 0
174 197 0
174 197 0
171 195 0
175 197 0
174 197 0
174 197 0
174 198 0
172 196 0
175 198 0
172 195 0
175 198 0
173 197 0
174 197 0
176 199 0
173 196 0
176 198 0
173 197 0
172 196 0
173 196 0
174 196 0
174 197 0
173 197 0
174 197 0
173 197 0
171 196 0
174 197 0
173 197 0
173 196 0
175 198 0
173 197 0
174 197 0
175 198 0
174 197 0
173 197 0
174 198 0
175 198 0
172 197 0
175 198 0
173 197 0
174 197 0
173 196 0
174 197 0
173 197 0
173 197 0
174 198 0
173 197 0
175 198 0
174 198 0
174 197 0
173 197 0
172 196 0
173 197 0
173 197 0
174 197 0
174 197 0
175 198 0
173 196 0
175 198 0
175 198 0
174 197 0
174 197 0
174 197 0
173 197 0
173 197 0
175 198 0
174 197 0
175 198 0
175 198 0
172 196 0
173 197 0
175 198 0
174 197 0
175 198 0
174 197 0
174 197 0
175 198 0
173 197 0
175 198 0
172 197 0
173 197 0
174 198 0
174 198 0
176 199 0
175 198 0
173 197 0
174 197 0
175 198 0
174 197 0
174 197 0
175 198 0
173 197 0
173 197 0
174 197 0
175 198 0
176 199 0
173 197 0
174 198 0
175 198 0
173 197 0
175 198 0
174 198 0
175 198 0
173 197 0
174 197 0
173 196 0
173 197 0
176 199 0
174 198 0
175 198 0
174 198 0
174 197 0
174 198 0
174 198 0
175 198 0
174 197 0
174 198 0
174 198 0
176 199 0
174 197 0
175 198 0
174 197 0
175 198 0
175 198 0
174 197 0
171 196 0
173 197 0
173 197 0
174 198 0
175 198 0
175 198 0
175 198 0
175 198 0
175 198 0
173 197 0
174 198 0
174 198 0
176 199 0
174 197 0
174 198 0
174 198 0
174 197 0
174 198 0
174 198 0
174 198 0
174 198 0
175 198 0
173 197 0
175 198 0
173 197 0
173 197 0
173 197 0
174 198 0
173 197 0
175 198 0
174 197 0
175 198 0
175 198 0
175 198 0
175 198 0
174 198 0
173 197 0
175 198 0
175 198 0
175 198 0
173 197 0
174 197 0
174 197 0
174 198 0
174 198 0
176 198 0
176 198 0
175 198 0
175 198 0
176 198 0
175 198 0
176 199 0
175 198 0
175 198 0
173 197 0
175 198 0
174 197 0
173 197 0
174 198 0
175 198 0
174 198 0
175 198 0
176 199 0
174 198 0
174 197 0
172 197 0
175 198 0
173 197 0
174 197 0
174 198 0
174 197 0
172 196 0
174 198 0
173 197 0
174 198 0
174 198 0
174 197 0
173 197 0
173 197 0
174 198 0
174 198 0
174 198 0
174 198 0
172 196 0
172 196 0
176 199 0
174 197 0
174 198 0
174 198 0
174 197 0
173 197 0
173 197 0
175 198 0
174 197 0
174 197 0
173 197 0
173 197 0
174 197 0
172 196 0
175 198 0
175 198 0
171 195 0
173 196 0
175 198 0
173 197 0
175 198 0
174 198 0
172 196 0
172 196 0
175 198 0
175 198 0
174 197 0
174 197 0
174 197 0
174 197 0
174 197 0
175 198 0
175 198 0
176 198 0
174 198 0
175 198 0
174 197 0
175 198 0
172 195 0
172 197 0
171 195 0
173 197 0
175 198 0
175 198 0
174 196 0
173 197 0
175 198 0
174 197 0
172 196 0
174 198 0
172 197 0
174 197 0
174 197 0
172 196 0
174 198 0
174 198 0
174 197 0
172 196 0
174 198 0
172 196 0
172 196 0
172 196 0
172 196 0
174 197 0
171 194 0
173 196 0
173 197 0
172 196 0
174 196 0
172 196 0
172 196 0
173 197 0
175 197 0
173 197 0
172 195 0
172 196 0
174 197 0
172 195 0
171 195 0
174 197 0
173 196 0
172 196 0
174 197 0
171 195 0
174 196 0
171 195 0
174 197 0
174 197 0
172 195 0
173 196 0
172 195 0
171 194 0
173 197 0
172 195 0
174 197 0
173 196 0
173 196 0
172 195 0
170 193 0
169 193 0
170 193 0
170 193 0
172 195 0
173 195 0
173 196 0
171 194 0
170 194 0
174 197 0
173 197 0
173 195 0
173 197 0
175 198 0
172 195 0
170 194 0
171 194 0
172 195 0
172 195 0
167 191 0
169 193 0
171 195 0
168 192 0
171 194 0
169 193 0
170 194 0
172 196 0
168 192 0
168 192 0
172 196 0
170 193 0
170 193 0
169 193 0
170 194 0
170 194 0
169 193 0
170 194 0
174 197 0
174 197 0
171 194 0
170 193 0
171 195 0
171 194 0
168 192 0
171 196 0
170 193 0
173 196 0
172 196 0
174 197 0
170 193 0
170 194 0
168 192 0
172 195 0
175 197 0
171 195 0
171 195 0
171 194 0
175 198 0
172 196 0
173 196 0
171 195 0
171 194 0
173 195 0
174 197 0
172 194 0
175 197 0
173 196 0
173 196 0
173 195 0
173 197 0
172 195 0
171 194 0
173 196 0
172 196 0
172 195 0
175 198 0
170 193 0
174 197 0
172 196 0
174 197 0
173 196 0
171 194 0
174 197 0
170 194 0
173 196 0
173 196 0
172 197 0
172 196 0
174 197 0
174 197 0
172 196 0
175 198 0
173 197 0
174 196 0
173 197 0
173 196 0
173 196 0
174 197 0
173 196 0
175 197 0
175 198 0
172 196 0
174 197 0
172 195 0
174 197 0
173 197 0
174 197 0
174 197 0
173 196 0
173 196 0
174 198 0
174 197 0
173 197 0
173 197 0
172 196 0
173 195 0
173 197 0
175 198 0
174 197 0
174 198 0
173 196 0
174 197 0
170 194 0
173 196 0
172 195 0
173 197 0
173 197 0
174 198 0
175 197 0
174 197 0
173 197 0
175 197 0
171 195 0
174 197 0
174 198 0
173 197 0
174 198 0
174 198 0
175 197 0
174 197 0
174 197 0
172 196 0
174 197 0
171 195 0
173 197 0
175 198 0
174 198 0
175 198 0
172 195 0
174 198 0
175 198 0
173 197 0
173 197 0
174 198 0
174 198 0
176 199 0
174 198 0
174 197 0
174 198 0
174 198 0
174 197 0
175 198 0
173 197 0
175 198 0
174 197 0
174 197 0
175 198 0
174 198 0
172 197 0
173 197 0
175 198 0
175 198 0
174 198 0
173 197 0
175 198 0
173 197 0
173 197 0
174 198 0
173 197 0
176 199 0
174 197 0
175 198 0
173 197 0
175 198 0
174 198 0
175 198 0
175 198 0
174 198 0
174 197 0
175 198 0
174 197 0
173 197 0
173 197 0
173 197 0
175 198 0
173 197 0
175 198 0
174 197 0
175 198 0
175 198 0
174 198 0
173 197 0
175 198 0
175 198 0
176 198 0
175 198 0
174 197 0
174 198 0
174 198 0
175 198 0
173 197 0
174 198 0
175 198 0
175 198 0
175 198 0
175 198 0
174 198 0
174 198 0
176 198 0
174 198 0
174 198 0
175 198 0
176 198 0
175 198 0
174 198 0
174 198 0
174 198 0
173 197 0
173 197 0
173 197 0
174 197 0
175 198 0
173 196 0
175 198 0
174 197 0
173 197 0
175 198 0
174 198 0
175 198 0
172 197 0
174 198 0
174 198 0
173 197 0
171 196 0
175 198 0
175 198 0
173 197 0
176 198 0
174 197 0
173 197 0
173 197 0
175 198 0
172 196 0
173 197 0
175 198 0
176 198 0
174 197 0
175 198 0
174 198 0
174 198 0
174 197 0
175 198 0
173 197 0
174 197 0
174 198 0
173 197 0
174 198 0
174 197 0
175 198 0
173 197 0
176 198 0
175 198 0
174 198 0
175 198 0
173 197 0
174 198 0
175 198 0
175 198 0
174 197 0
174 197 0
172 196 0
174 198 0
176 198 0
174 197 0
174 198 0
175 198 0
175 198 0
173 197 0
175 198 0
175 198 0
173 197 0
173 197 0
174 197 0
173 197 0
174 198 0
176 199 0
174 197 0
174 197 0
174 197 0
174 197 0
173 197 0
174 198 0
174 198 0
173 197 0
174 198 0
176 199 0
173 197 0
174 198 0
174 198 0
172 197 0
174 198 0
175 198 0
172 196 0
172 197 0
173 197 0
174 197 0
175 198 0
175 198 0
173 197 0
173 197 0
173 197 0
173 197 0
175 198 0
172 196 0
170 194 0
173 197 0
174 198 0
173 197 0
174 198 0
173 196 0
173 197 0
172 196 0
173 197 0
175 198 0
170 194 0
174 197 0
173 197 0
173 197 0
174 198 0
172 195 0
174 197 0
173 197 0
176 199 0
174 197 0
172 196 0
174 197 0
174 197 0
174 198 0
172 196 0
175 198 0
174 197 0
174 197 0
172 196 0
172 196 0
174 198 0
174 198 0
172 195 0
173 197 0
172 196 0
172 196 0
171 195 0
174 197 0
171 196 0
171 195 0
172 196 0
174 196 0
172 196 0
175 198 0
173 197 0
173 197 0
172 196 0
175 197 0
171 194 0
170 194 0
173 196 0
174 197 0
173 197 0
171 195 0
172 196 0
171 196 0
176 199 0
172 196 0
175 197 0
171 195 0
176 198 0
173 197 0
174 198 0
173 196 0
168 191 0
172 195 0
169 193 0
171 195 0
171 195 0
172 195 0
175 198 0
173 196 0
173 197 0
172 195 0
171 195 0
172 195 0
173 196 0
172 196 0
173 196 0
173 196 0
167 191 0
171 194 0
174 197 0
172 195 0
171 195 0
171 194 0
170 194 0
173 197 0
169 193 0
170 194 0
169 193 0
171 194 0
172 195 0
172 196 0
170 193 0
172 195 0
172 195 0
170 193 0
168 191 0
171 195 0
171 194 0
172 196 0
171 195 0
171 194 0
170 194 0
171 195 0
172 195 0
171 194 0
171 194 0
170 194 0
171 193 0
169 193 0
173 196 0
170 194 0
171 194 0
170 194 0
173 195 0
171 195 0
172 196 0
172 195 0
173 196 0
171 195 0
172 196 0
171 194 0
170 194 0
171 195 0
172 196 0
173 197 0
168 192 0
174 197 0
172 196 0
172 196 0
172 195 0
168 192 0
173 196 0
172 194 0
173 197 0
172 195 0
175 198 0
173 197 0
171 195 0
169 193 0
172 195 0
172 195 0
171 195 0
174 198 0
174 197 0
172 195 0
174 197 0
174 198 0
173 196 0
172 196 0
168 192 0
170 193 0
174 197 0
170 194 0
171 196 0
173 197 0
173 196 0
173 197 0
174 197 0
172 195 0
174 197 0
171 195 0
172 196 0
173 197 0
170 194 0
172 195 0
175 197 0
174 197 0
173 197 0
173 196 0
172 195 0
173 197 0
174 197 0
173 196 0
174 198 0
174 197 0
174 198 0
173 197 0
173 195 0
172 196 0
172 196 0
173 196 0
173 197 0
174 197 0
173 197 0
175 198 0
174 196 0
174 197 0
175 198 0
173 196 0
173 197 0
175 198 0
175 197 0
173 197 0
173 197 0
173 197 0
173 197 0
173 197 0
174 197 0
173 197 0
173 197 0
175 198 0
173 197 0
173 197 0
173 197 0
175 198 0
173 196 0
173 196 0
173 197 0
174 197 0
174 197 0
174 197 0
174 197 0
174 198 0
175 197 0
175 198 0
174 197 0
174 198 0
172 196 0
173 197 0
173 197 0
173 197 0
174 197 0
175 198 0
176 198 0
175 198 0
176 198 0
174 197 0
175 198 0
174 197 0
174 198 0
175 198 0
173 197 0
174 197 0
175 198 0
174 197 0
175 198 0
173 197 0
174 197 0
174 198 0
176 198 0
172 196 0
174 197 0
174 198 0
173 196 0
175 198 0
174 197 0
174 198 0
174 197 0
175 198 0
172 196 0
173 197 0
176 199 0
174 197 0
176 199 0
174 197 0
175 198 0
175 198 0
173 197 0
174 197 0
173 197 0
174 197 0
175 198 0
174 197 0
174 198 0
174 198 0
174 198 0
175 198 0
175 198 0
173 197 0
174 198 0
174 198 0
173 197 0
174 197 0
174 198 0
175 198 0
174 198 0
174 198 0
174 197 0
173 197 0
176 199 0
176 198 0
175 198 0
173 197 0
174 197 0
175 198 0
174 198 0
174 198 0
175 198 0
175 198 0
174 197 0
174 198 0
175 198 0
173 197 0
176 199 0
174 198 0
177 199 0
174 198 0
173 196 0
175 198 0
174 198 0
175 198 0
173 197 0
174 198 0
174 197 0
175 198 0
175 198 0
175 198 0
174 198 0
173 197 0
173 197 0
175 198 0
174 198 0
175 198 0
173 197 0
173 197 0
174 198 0
174 198 0
174 198 0
175 198 0
175 198 0
174 198 0
176 198 0
173 196 0
174 198 0
173 197 0
175 198 0
174 197 0
174 197 0
174 198 0
174 198 0
174 198 0
173 197 0
174 198 0
174 197 0
174 197 0
174 197 0
175 198 0
176 198 0
174 197 0
175 198 0
175 198 0
175 198 0
174 198 0
175 198 0
176 198 0
176 199 0
173 197 0
174 198 0
174 198 0
173 197 0
173 197 0
175 198 0
174 198 0
175 198 0
175 198 0
175 198 0
175 198 0
173 197 0
173 197 0
174 198 0
173 197 0
175 198 0
171 195 0
174 198 0
175 198 0
173 196 0
175 198 0
175 198 0
173 197 0
173 197 0
175 198 0
174 197 0
174 197 0
174 198 0
176 198 0
174 198 0
174 198 0
174 198 0
176 198 0
172 196 0
173 197 0
171 195 0
175 198 0
177 199 0
172 196 0
172 196 0
175 198 0
174 197 0
173 197 0
173 196 0
173 197 0
173 197 0
176 198 0
175 198 0
173 197 0
173 197 0
173 197 0
173 197 0
175 198 0
174 197 0
173 197 0
174 198 0
173 197 0
174 197 0
173 197 0
174 198 0
173 197 0
174 197 0
174 197 0
174 197 0
172 196 0
172 196 0
173 197 0
173 196 0
173 197 0
174 197 0
174 197 0
173 196 0
174 198 0
173 197 0
174 197 0
174 197 0
174 198 0
173 197 0
172 196 0
172 196 0
172 196 0
174 198 0
173 196 0
172 196 0
174 198 0
174 197 0
174 197 0
176 199 0
173 196 0
171 195 0
173 196 0
175 198 0
173 197 0
172 195 0
173 196 0
173 197 0
171 196 0
171 194 0
171 194 0
174 197 0
175 198 0
173 196 0
174 197 0
173 196 0
171 195 0
172 195 0
173 196 0
173 196 0
173 196 0
173 196 0
171 195 0
172 195 0
171 195 0
172 196 0
173 197 0
172 195 0
174 198 0
172 196 0
173 197 0
172 195 0
173 197 0
174 196 0
171 194 0
174 196 0
173 197 0
172 195 0
173 197 0
171 194 0
171 195 0
173 197 0
173 196 0
172 195 0
171 195 0
173 196 0
172 196 0
172 195 0
174 197 0
173 197 0
173 197 0
172 195 0
172 196 0
171 194 0
172 195 0
172 196 0
169 193 0
172 195 0
174 197 0
166 190 0
170 194 0
169 193 0
170 193 0
171 195 0
171 194 0
172 194 0
172 194 0
166 189 0
171 195 0
174 198 0
170 193 0
170 193 0
171 195 0
173 196 0
172 195 0
172 195 0
173 196 0
169 193 0
172 195 0
170 192 0
170 193 0
171 194 0
173 196 0
172 195 0
173 196 0
170 194 0
172 196 0
173 197 0
172 195 0
173 196 0
173 196 0
172 196 0
174 196 0
171 194 0
172 196 0
170 194 0
174 196 0
175 198 0
173 196 0
171 194 0
173 196 0
172 195 0
174 197 0
172 196 0
171 194 0
171 194 0
174 197 0
170 193 0
171 194 0
174 197 0
173 196 0
172 196 0
173 196 0
171 194 0
171 194 0
175 198 0
172 196 0
173 196 0
173 196 0
174 197 0
174 197 0
176 199 0
173 196 0
175 198 0
172 196 0
173 196 0
172 196 0
172 195 0
173 196 0
173 196 0
172 195 0
174 196 0
175 198 0
175 198 0
172 196 0
174 198 0
174 197 0
174 197 0
174 197 0
172 197 0
172 197 0
173 197 0
171 195 0
173 197 0
174 197 0
175 198 0
174 197 0
171 194 0
174 197 0
175 198 0
174 197 0
175 198 0
173 197 0
175 198 0
175 198 0
173 197 0
174 198 0
175 198 0
175 198 0
175 198 0
174 198 0
175 198 0
175 198 0
177 199 0
174 198 0
173 197 0
175 198 0
173 197 0
176 198 0
173 196 0
174 197 0
172 196 0
174 198 0
175 198 0
174 197 0
174 197 0
174 197 0
174 197 0
174 197 0
174 198 0
175 198 0
172 196 0
175 198 0
174 198 0
175 198 0
175 198 0
174 198 0
173 197 0
174 196 0
174 198 0
176 199 0
174 197 0
173 196 0
174 197 0
176 198 0
175 198 0
174 198 0
175 198 0
172 196 0
176 199 0
175 198 0
173 197 0
175 198 0
173 196 0
175 198 0
173 197 0
173 197 0
176 199 0
175 198 0
175 198 0
175 198 0
173 197 0
174 198 0
174 197 0
175 198 0
175 198 0
173 197 0
174 198 0
174 197 0
174 197 0
174 198 0
174 197 0
175 198 0
174 198 0
174 197 0
174 197 0
175 198 0
174 198 0
175 198 0
174 198 0
174 198 0
173 197 0
174 198 0
174 198 0
175 198 0
174 198 0
174 197 0
175 198 0
173 197 0
175 198 0
174 197 0
174 198 0
175 198 0
175 198 0
174 197 0
173 197 0
175 198 0
176 198 0
175 198 0
176 198 0
175 198 0
175 198 0
174 197 0
174 197 0
173 197 0
176 198 0
174 198 0
173 196 0
174 198 0
176 198 0
176 199 0
175 198 0
174 197 0
174 198 0
175 198 0
173 197 0
174 198 0
176 199 0
173 197 0
173 196 0
175 198 0
174 197 0
174 197 0
176 198 0
176 199 0
173 197 0
173 197 0
174 198 0
175 198 0
174 197 0
175 198 0
175 198 0
174 197 0
175 198 0
177 199 0
177 199 0
176 199 0
174 197 0
175 198 0
175 198 0
174 198 0
172 197 0
175 198 0
174 197 0
174 197 0
175 198 0
174 197 0
174 198 0
174 198 0
173 197 0
175 198 0
175 198 0
173 197 0
174 198 0
174 198 0
174 197 0
175 198 0
172 197 0
175 198 0
175 198 0
173 197 0
175 198 0
174 198 0
174 198 0
173 197 0
174 197 0
173 197 0
175 198 0
174 197 0
175 198 0
174 198 0
173 197 0
173 197 0
175 198 0
175 198 0
173 197 0
173 197 0
174 198 0
174 198 0
173 197 0
174 198 0
175 198 0
174 198 0
173 197 0
176 199 0
174 197 0
173 197 0
175 198 0
175 198 0
174 198 0
175 198 0
173 197 0
175 198 0
175 198 0
175 198 0
174 197 0
174 197 0
175 198 0
175 198 0
174 197 0
175 198 0
174 198 0
175 198 0
172 196 0
174 197 0
175 198 0
175 198 0
175 198 0
172 196 0
174 197 0
175 198 0
174 197 0
173 197 0
173 197 0
174 197 0
172 197 0
174 197 0
173 197 0
174 197 0
173 197 0
173 197 0
173 197 0
174 198 0
176 198 0
174 197 0
173 197 0
174 197 0
175 198 0
175 198 0
174 197 0
172 196 0
173 196 0
174 197 0
174 197 0
174 198 0
173 197 0
173 197 0
174 197 0
172 196 0
173 196 0
173 197 0
174 198 0
172 196 0
173 196 0
174 197 0
174 197 0
173 197 0
173 197 0
175 198 0
173 197 0
174 198 0
173 196 0
173 197 0
173 197 0
175 198 0
173 197 0
174 197 0
173 197 0
173 197 0
172 196 0
172 196 0
172 196 0
173 196 0
173 196 0
173 196 0
173 197 0
172 196 0
173 196 0
172 196 0
174 197 0
173 196 0
171 194 0
174 197 0
172 196 0
169 193 0
171 195 0
173 196 0
174 196 0
172 196 0
174 197 0
174 197 0
172 196 0
174 196 0
173 197 0
173 196 0
174 198 0
171 196 0
171 195 0
170 194 0
172 196 0
173 196 0
173 196 0
171 195 0
167 190 0
172 195 0
172 196 0
171 194 0
169 192 0
171 195 0
171 195 0
173 197 0
170 193 0
173 195 0
174 197 0
171 194 0
171 194 0
172 196 0
170 194 0
171 195 0
172 195 0
170 193 0
171 194 0
172 195 0
169 193 0
172 195 0
172 195 0
171 195 0
171 195 0
173 196 0
171 195 0
169 193 0
174 197 0
172 195 0
171 193 0
171 194 0
170 195 0
172 195 0
171 195 0
170 193 0
167 190 0
170 193 0
171 195 0
173 196 0
172 195 0
174 197 0
173 197 0
172 194 0
172 195 0
172 195 0
172 196 0
170 193 0
170 194 0
172 196 0
172 196 0
172 195 0
170 193 0
169 193 0
173 196 0
172 195 0
173 196 0
172 195 0
173 196 0
172 195 0
174 197 0
172 195 0
171 195 0
170 193 0
173 197 0
171 195 0
172 195 0
173 197 0
173 196 0
172 195 0
172 196 0
172 195 0
173 196 0
175 197 0
171 195 0
172 195 0
172 196 0
174 198 0
174 197 0
173 196 0
171 195 0
171 194 0
176 198 0
173 196 0
173 196 0
173 197 0
172 196 0
174 197 0
173 197 0
172 196 0
175 198 0
173 196 0
173 197 0
174 197 0
173 197 0
172 195 0
172 196 0
174 198 0
172 196 0
175 198 0
174 197 0
173 196 0
175 198 0
175 197 0
171 194 0
174 198 0
171 194 0
174 197 0
175 198 0
173 196 0
172 195 0
173 196 0
172 196 0
175 198 0
174 198 0
174 197 0
174 198 0
172 196 0
175 198 0
174 197 0
172 196 0
172 196 0
175 198 0
174 197 0
172 196 0
174 197 0
176 198 0
175 197 0
174 197 0
175 198 0
174 198 0
173 197 0
173 196 0
176 198 0
174 197 0
175 198 0
172 196 0
176 198 0
174 198 0
174 197 0
174 197 0
174 198 0
175 198 0
174 197 0
174 197 0
177 199 0
174 197 0
176 199 0
175 198 0
175 198 0
174 197 0
173 197 0
173 197 0
174 197 0
174 198 0
176 199 0
175 198 0
174 197 0
174 198 0
175 198 0
173 197 0
172 197 0
175 198 0
174 198 0
175 198 0
174 197 0
174 197 0
175 198 0
175 198 0
174 197 0
174 198 0
174 198 0
175 198 0
173 197 0
175 198 0
174 198 0
175 198 0
174 197 0
175 198 0
174 197 0
175 198 0
174 197 0
174 198 0
173 196 0
174 197 0
173 197 0
174 197 0
175 198 0
174 197 0
174 198 0
174 198 0
175 198 0
174 197 0
175 198 0
175 198 0
175 198 0
174 198 0
174 197 0
175 198 0
173 196 0
173 197 0
174 198 0
174 198 0
174 198 0
175 198 0
175 197 0
176 199 0
173 197 0
175 198 0
174 198 0
176 198 0
174 198 0
175 198 0
174 197 0
174 198 0
175 198 0
174 198 0
175 198 0
174 198 0
173 197 0
174 197 0
175 198 0
174 198 0
173 197 0
176 199 0
175 198 0
174 198 0
175 198 0
176 199 0
175 198 0
176 198 0
175 198 0
173 197 0
174 198 0
175 198 0
175 198 0
174 197 0
176 198 0
174 198 0
175 198 0
174 197 0
175 198 0
174 198 0
175 198 0
175 198 0
174 198 0
175 198 0
173 197 0
174 197 0
174 198 0
174 197 0
173 197 0
176 199 0
175 198 0
175 198 0
176 199 0
175 198 0
175 198 0
174 198 0
175 198 0
173 197 0
175 198 0
175 198 0
174 197 0
174 198 0
174 198 0
174 197 0
174 198 0
174 198 0
172 197 0
176 198 0
174 197 0
173 197 0
174 198 0
174 197 0
175 198 0
175 198 0
174 198 0
174 197 0
175 198 0
174 198 0
173 196 0
173 197 0
174 198 0
172 197 0
175 198 0
175 198 0
173 197 0
175 198 0
174 197 0
175 198 0
173 197 0
173 197 0
173 197 0
174 197 0
174 198 0
174 197 0
174 198 0
172 196 0
171 196 0
174 197 0
174 197 0
174 197 0
175 198 0
174 198 0
173 197 0
173 197 0
174 198 0
175 198 0
175 198 0
173 197 0
173 197 0
175 198 0
173 197 0
175 198 0
175 198 0
175 198 0
173 197 0
176 199 0
173 197 0
175 198 0
175 198 0
176 198 0
174 197 0
174 197 0
174 198 0
173 197 0
175 197 0
174 198 0
173 197 0
173 196 0
173 197 0
173 197 0
174 197 0
174 198 0
173 197 0
173 197 0
175 198 0
174 197 0
173 196 0
175 198 0
175 198 0
173 197 0
172 195 0
176 199 0
172 196 0
175 198 0
172 196 0
172 196 0
174 197 0
173 197 0
172 195 0
172 196 0
174 198 0
173 196 0
175 198 0
173 197 0
171 194 0
173 197 0
173 197 0
171 195 0
172 196 0
172 196 0
174 197 0
171 194 0
173 196 0
172 196 0
171 195 0
175 198 0
174 198 0
174 197 0
175 198 0
174 197 0
173 196 0
173 196 0
173 196 0
170 194 0
172 196 0
173 196 0
172 195 0
173 197 0
173 196 0
174 198 0
172 196 0
174 197 0
170 193 0
175 197 0
175 197 0
174 197 0
173 197 0
170 193 0
171 194 0
173 197 0
173 196 0
171 194 0
171 196 0
168 191 0
172 195 0
169 193 0
172 196 0
172 194 0
171 195 0
172 195 0
174 196 0
172 195 0
170 193 0
173 196 0
173 196 0
171 194 0
169 193 0
172 196 0
172 195 0
172 196 0
170 194 0
168 192 0
170 194 0
171 195 0
172 195 0
169 193 0
170 194 0
172 194 0
169 193 0
173 196 0
171 195 0
169 193 0
173 197 0
172 196 0
172 195 0
171 194 0
172 196 0
170 194 0
170 194 0
170 194 0
173 196 0
169 193 0
169 192 0
173 197 0
171 195 0
172 196 0
173 196 0
172 195 0
173 196 0
172 196 0
172 196 0
172 196 0
170 193 0
171 194 0
167 191 0
172 195 0
171 195 0
172 196 0
172 196 0
171 195 0
170 194 0
174 198 0
172 196 0
171 194 0
172 195 0
170 193 0
174 197 0
175 198 0
173 197 0
173 195 0
172 195 0
172 195 0
170 193 0
172 196 0
173 196 0
174 197 0
171 195 0
172 195 0
174 197 0
171 194 0
172 195 0
173 197 0
173 196 0
172 195 0
173 196 0
172 195 0
171 195 0
173 197 0
175 198 0
173 196 0
173 197 0
174 198 0
175 198 0
175 198 0
176 198 0
172 196 0
175 198 0
175 197 0
172 196 0
172 196 0
174 197 0
174 198 0
173 197 0
172 196 0
173 196 0
175 197 0
173 197 0
173 196 0
173 197 0
175 198 0
172 196 0
175 198 0
173 197 0
172 196 0
174 198 0
174 197 0
174 197 0
173 196 0
173 197 0
174 198 0
174 197 0
175 198 0
174 198 0
175 198 0
174 197 0
174 197 0
175 198 0
175 198 0
174 197 0
174 197 0
174 197 0
175 198 0
175 198 0
174 197 0
173 197 0
174 198 0
172 196 0
173 197 0
174 197 0
175 198 0
173 197 0
172 196 0
173 196 0
172 196 0
176 198 0
173 197 0
174 197 0
174 197 0
175 198 0
174 198 0
174 198 0
174 197 0
174 197 0
175 198 0
174 197 0
174 197 0
174 198 0
174 197 0
174 198 0
174 197 0
174 197 0
176 199 0
173 197 0
174 198 0
174 198 0
175 198 0
174 197 0
174 198 0
175 198 0
175 198 0
173 197 0
174 198 0
175 198 0
173 197 0
175 198 0
174 197 0
174 197 0
175 198 0
175 198 0
173 197 0
175 198 0
174 197 0
173 197 0
175 198 0
172 196 0
176 199 0
173 197 0
175 198 0
174 198 0
175 198 0
176 199 0
175 198 0
174 198 0
175 198 0
174 198 0
174 197 0
174 197 0
174 198 0
174 197 0
176 199 0
175 198 0
175 198 0
174 197 0
175 198 0
174 198 0
174 198 0
173 197 0
175 198 0
174 198 0
173 197 0
173 197 0
175 198 0
176 199 0
174 197 0
174 197 0
174 198 0
176 199 0
175 198 0
175 198 0
175 198 0
173 197 0
172 197 0
175 198 0
174 198 0
174 197 0
174 197 0
176 199 0
174 198 0
173 197 0
174 197 0
175 198 0
175 198 0
174 197 0
172 197 0
176 198 0
174 198 0
175 198 0
173 197 0
175 198 0
176 198 0
176 198 0
174 198 0
173 197 0
174 198 0
174 198 0
174 198 0
175 198 0
175 198 0
175 198 0
174 198 0
174 198 0
173 197 0
174 197 0
173 197 0
173 197 0
175 198 0
174 198 0
174 198 0
173 197 0
175 198 0
174 197 0
174 198 0
173 197 0
175 198 0
174 198 0
174 197 0
174 198 0
173 197 0
174 198 0
173 197 0
173 197 0
174 198 0
173 196 0
172 196 0
176 198 0
176 199 0
174 198 0
175 198 0
172 197 0
174 197 0
174 198 0
173 197 0
174 198 0
173 197 0
174 198 0
174 198 0
173 197 0
174 198 0
175 198 0
176 199 0
175 198 0
174 197 0
173 197 0
175 198 0
174 198 0
173 196 0
174 198 0
174 197 0
174 198 0
174 197 0
173 197 0
174 198 0
175 198 0
174 197 0
174 198 0
173 197 0
174 197 0
176 199 0
175 198 0
176 199 0
175 198 0
174 197 0
174 198 0
175 198 0
173 196 0
174 198 0
174 198 0
175 198 0
175 198 0
174 197 0
174 197 0
174 197 0
174 198 0
174 197 0
175 198 0
174 197 0
173 197 0
175 198 0
174 197 0
174 198 0
173 197 0
173 197 0
173 196 0
175 198 0
174 198 0
173 197 0
174 197 0
174 198 0
173 197 0
173 197 0
175 198 0
175 198 0
172 196 0
174 197 0
173 197 0
175 198 0
172 196 0
175 198 0
172 197 0
175 198 0
174 197 0
174 198 0
172 197 0
173 197 0
176 199 0
174 197 0
172 196 0
173 197 0
170 194 0
176 198 0
174 198 0
173 197 0
174 198 0
175 198 0
174 198 0
175 198 0
173 196 0
173 197 0
172 195 0
175 198 0
172 196 0
173 196 0
172 196 0
170 194 0
172 196 0
174 198 0
173 197 0
175 198 0
174 198 0
172 196 0
173 197 0
173 196 0
170 193 0
172 196 0
174 197 0
173 197 0
174 197 0
172 196 0
172 195 0
169 193 0
173 197 0
173 196 0
174 197 0
173 196 0
173 197 0
173 196 0
173 197 0
172 195 0
170 193 0
174 197 0
172 195 0
172 196 0
173 196 0
169 193 0
169 193 0
172 196 0
173 197 0
171 195 0
171 194 0
173 196 0
171 194 0
171 194 0
170 194 0
172 195 0
171 195 0
171 195 0
172 196 0
170 194 0
171 195 0
174 197 0
172 195 0
172 196 0
172 196 0
170 194 0
172 195 0
172 196 0
171 195 0
170 194 0
172 194 0
171 194 0
170 194 0
169 193 0
172 195 0
170 194 0
171 195 0
168 191 0
172 195 0
172 196 0
171 195 0
170 195 0
167 191 0
168 192 0
173 196 0
172 195 0
172 196 0
172 195 0
171 194 0
170 193 0
170 193 0
173 197 0
172 196 0
171 194 0
170 195 0
172 195 0
170 192 0
173 197 0
172 195 0
173 197 0
172 195 0
173 197 0
173 195 0
172 195 0
172 195 0
174 197 0
172 196 0
172 194 0
174 197 0
172 195 0
170 193 0
173 197 0
171 195 0
173 196 0
170 194 0
173 196 0
173 196 0
173 197 0
172 195 0
171 195 0
174 197 0
173 196 0
172 196 0
172 196 0
173 196 0
172 196 0
173 197 0
174 197 0
174 197 0
174 197 0
174 197 0
172 196 0
172 196 0
173 196 0
173 196 0
173 197 0
173 196 0
173 197 0
173 196 0
171 195 0
174 196 0
172 195 0
174 197 0
174 197 0
174 197 0
173 196 0
171 195 0
174 197 0
173 197 0
175 198 0
171 195 0
174 198 0
174 197 0
172 196 0
172 196 0
172 196 0
174 198 0
173 197 0
173 197 0
172 196 0
174 197 0
174 197 0
172 196 0
175 198 0
173 196 0
175 198 0
174 197 0
174 197 0
174 198 0
173 197 0
172 195 0
174 197 0
175 198 0
174 198 0
173 196 0
173 196 0
175 198 0
174 198 0
173 197 0
173 197 0
175 198 0
173 197 0
173 196 0
176 198 0
174 198 0
174 198 0
173 197 0
175 197 0
173 196 0
173 197 0
173 196 0
173 197 0
174 198 0
175 198 0
173 197 0
174 197 0
175 198 0
174 197 0
175 198 0
174 198 0
174 198 0
174 198 0
175 198 0
176 199 0
174 198 0
175 198 0
174 197 0
174 197 0
175 198 0
175 198 0
174 197 0
174 198 0
174 197 0
174 198 0
176 198 0
174 198 0
173 197 0
173 197 0
175 198 0
174 198 0
174 198 0
173 197 0
174 197 0
173 197 0
175 198 0
174 198 0
174 197 0
174 197 0
175 198 0
174 198 0
172 197 0
176 199 0
175 198 0
174 198 0
174 198 0
175 198 0
173 197 0
176 199 0
175 198 0
175 198 0
175 198 0
175 198 0
176 199 0
175 198 0
176 198 0
174 197 0
175 198 0
174 198 0
175 198 0
175 198 0
174 197 0
175 198 0
174 198 0
175 198 0
175 198 0
175 198 0
174 198 0
173 197 0
176 199 0
174 198 0
172 196 0
176 199 0
173 197 0
176 198 0
173 197 0
174 198 0
175 198 0
174 197 0
174 198 0
174 197 0
175 198 0
175 198 0
175 198 0
173 197 0
175 198 0
173 197 0
174 198 0
176 199 0
176 199 0
175 198 0
174 198 0
174 197 0
175 198 0
173 197 0
173 197 0
175 198 0
173 197 0
175 198 0
175 198 0
175 198 0
173 197 0
174 197 0
174 197 0
174 198 0
174 198 0
175 198 0
174 198 0
174 198 0
173 197 0
174 197 0
172 196 0
175 198 0
174 198 0
173 197 0
176 199 0
175 198 0
175 198 0
174 198 0
172 196 0
174 198 0
173 197 0
172 197 0
174 198 0
174 197 0
174 197 0
173 197 0
175 198 0
175 198 0
176 198 0
176 198 0
175 198 0
174 197 0
175 198 0
174 197 0
174 198 0
174 198 0
174 198 0
173 197 0
176 198 0
174 197 0
175 198 0
176 199 0
174 198 0
173 197 0
173 197 0
175 198 0
174 197 0
175 198 0
172 196 0
174 198 0
174 198 0
175 198 0
173 197 0
175 198 0
175 198 0
174 198 0
174 197 0
174 197 0
174 197 0
173 197 0
174 197 0
175 198 0
176 198 0
172 195 0
174 197 0
176 198 0
175 198 0
174 197 0
175 198 0
174 197 0
174 197 0
175 198 0
175 198 0
175 198 0
175 198 0
175 198 0
173 197 0
176 198 0
175 198 0
173 197 0
174 197 0
176 198 0
173 197 0
174 197 0
176 198 0
172 196 0
174 197 0
174 198 0
175 198 0
174 198 0
175 198 0
173 197 0
174 197 0
174 197 0
174 197 0
172 196 0
172 196 0
174 198 0
172 196 0
172 195 0
175 198 0
174 197 0
173 196 0
174 198 0
173 196 0
173 197 0
173 196 0
173 197 0
173 197 0
173 197 0
174 197 0
174 197 0
174 198 0
172 196 0
174 197 0
173 197 0
174 198 0
174 197 0
175 197 0
172 196 0
173 196 0
174 197 0
175 198 0
174 197 0
173 197 0
173 196 0
175 198 0
173 197 0
173 196 0
173 196 0
174 197 0
173 196 0
172 196 0
172 195 0
172 196 0
175 198 0
172 195 0
172 195 0
174 197 0
174 197 0
173 197 0
171 194 0
175 198 0
171 195 0
172 195 0
172 195 0
175 198 0
173 197 0
173 196 0
170 194 0
170 193 0
172 195 0
173 196 0
173 196 0
171 195 0
171 195 0
172 194 0
173 197 0
172 196 0
173 197 0
172 196 0
172 195 0
170 193 0
170 193 0
170 193 0
171 195 0
172 194 0
172 195 0
173 196 0
171 195 0
173 197 0
172 195 0
172 196 0
175 197 0
171 194 0
171 195 0
171 195 0
173 197 0
172 195 0
170 194 0
173 196 0
169 194 0
174 197 0
172 196 0
169 192 0
171 195 0
171 195 0
167 191 0
171 195 0
171 194 0
174 197 0
170 193 0
174 197 0
174 197 0
173 197 0
171 194 0
169 193 0
173 196 0
167 190 0
171 194 0
175 197 0
172 195 0
170 194 0
173 197 0
171 195 0
172 195 0
174 197 0
172 195 0
175 198 0
173 196 0
173 197 0
172 196 0
170 194 0
170 193 0
173 197 0
172 196 0
173 196 0
174 196 0
171 194 0
172 195 0
170 195 0
172 196 0
173 197 0
171 195 0
171 195 0
172 196 0
174 197 0
174 197 0
174 198 0
175 198 0
172 196 0
173 196 0
171 195 0
174 197 0
171 194 0
173 196 0
174 197 0
175 198 0
173 197 0
171 195 0
174 198 0
173 197 0
172 195 0
173 197 0
174 198 0
174 197 0
173 196 0
174 197 0
175 198 0
172 196 0
171 194 0
173 196 0
170 194 0
173 197 0
175 198 0
172 196 0
174 197 0
173 197 0
174 197 0
174 197 0
173 197 0
173 196 0
175 198 0
175 198 0
173 196 0
173 196 0
173 197 0
174 197 0
173 196 0
174 197 0
174 197 0
173 197 0
173 197 0
175 198 0
173 197 0
173 196 0
174 198 0
173 197 0
173 197 0
173 197 0
175 198 0
172 196 0
172 196 0
175 198 0
173 197 0
173 196 0
173 197 0
175 198 0
172 196 0
174 198 0
174 197 0
172 196 0
175 198 0
174 197 0
175 198 0
175 198 0
173 197 0
173 197 0
173 197 0
173 197 0
174 198 0
175 198 0
174 197 0
173 197 0
176 199 0
174 197 0
175 197 0
174 197 0
175 198 0
174 198 0
172 196 0
174 197 0
174 197 0
172 197 0
174 197 0
175 198 0
175 198 0
175 198 0
175 198 0
172 195 0
173 196 0
175 198 0
175 198 0
173 197 0
173 197 0
174 197 0
175 198 0
175 198 0
174 198 0
173 197 0
174 198 0
174 197 0
174 198 0
176 198 0
174 197 0
172 196 0
174 198 0
177 199 0
174 198 0
173 197 0
174 197 0
174 197 0
172 196 0
174 197 0
175 198 0
174 197 0
174 198 0
175 198 0
176 198 0
175 198 0
173 197 0
175 198 0
175 198 0
174 198 0
176 198 0
175 198 0
172 196 0
174 197 0
176 199 0
174 197 0
175 198 0
174 198 0
175 198 0
174 197 0
174 198 0
174 198 0
174 198 0
175 198 0
175 198 0
175 198 0
174 198 0
174 197 0
174 198 0
174 197 0
174 197 0
173 197 0
175 198 0
174 197 0
175 198 0
174 198 0
176 199 0
175 198 0
175 198 0
174 198 0
174 198 0
176 199 0
173 197 0
173 197 0
175 198 0
173 197 0
173 197 0
175 198 0
175 198 0
175 198 0
172 196 0
175 198 0
175 198 0
172 196 0
174 197 0
175 198 0
173 196 0
174 197 0
173 197 0
173 197 0
174 198 0
174 198 0
173 197 0
175 198 0
175 198 0
175 198 0
172 197 0
175 198 0
174 198 0
175 198 0
175 198 0
174 197 0
174 197 0
174 198 0
172 197 0
174 198 0
174 197 0
173 197 0
175 198 0
175 198 0
175 198 0
174 197 0
175 198 0
174 198 0
174 198 0
175 198 0
174 198 0
174 198 0
176 199 0
174 198 0
174 198 0
173 196 0
175 198 0
173 197 0
177 199 0
173 197 0
175 198 0
173 197 0
174 198 0
174 198 0
173 197 0
173 197 0
175 198 0
174 198 0
174 197 0
175 198 0
174 198 0
175 198 0
173 197 0
175 198 0
175 198 0
173 197 0
177 199 0
174 197 0
174 197 0
175 198 0
176 198 0
176 199 0
174 197 0
174 198 0
173 197 0
174 198 0
174 197 0
174 198 0
174 198 0
174 198 0
176 198 0
175 198 0
174 197 0
173 197 0
174 197 0
174 198 0
174 198 0
175 198 0
174 198 0
173 197 0
173 197 0
175 198 0
174 197 0
173 197 0
175 198 0
172 196 0
173 197 0
175 198 0
174 197 0
173 197 0
174 198 0
174 197 0
173 197 0
172 195 0
175 198 0
173 197 0
174 197 0
173 197 0
173 197 0
173 197 0
175 198 0
172 196 0
173 197 0
173 196 0
174 197 0
173 197 0
174 197 0
173 197 0
174 197 0
174 197 0
173 197 0
177 199 0
175 197 0
172 197 0
175 198 0
171 195 0
175 198 0
173 196 0
174 197 0
174 197 0
176 199 0
173 197 0
173 197 0
175 198 0
173 197 0
173 197 0
173 197 0
171 194 0
174 197 0
171 195 0
171 195 0
173 197 0
173 196 0
174 197 0
171 195 0
171 195 0
173 196 0
173 196 0
172 195 0
173 197 0
174 197 0
171 195 0
174 197 0
174 197 0
171 195 0
174 196 0
173 197 0
174 197 0
173 196 0
173 196 0
172 195 0
172 196 0
173 196 0
172 196 0
173 196 0
172 195 0
172 195 0
170 194 0
171 194 0
170 193 0
171 194 0
172 196 0
173 197 0
173 197 0
169 193 0
171 196 0
172 195 0
173 196 0
174 197 0
171 195 0
173 196 0
172 196 0
174 197 0
168 192 0
170 194 0
170 192 0
172 195 0
168 192 0
168 191 0
173 197 0
168 191 0
171 195 0
170 194 0
171 195 0
170 193 0
172 196 0
170 193 0
170 194 0
173 196 0
174 197 0
171 195 0
170 194 0
173 196 0
173 196 0
171 194 0
171 195 0
170 194 0
171 195 0
171 194 0
173 196 0
172 196 0
170 193 0
171 196 0
174 197 0
173 197 0
173 197 0
174 197 0
171 194 0
172 195 0
172 196 0
173 196 0
174 197 0
172 195 0
173 196 0
173 197 0
175 198 0
172 195 0
173 197 0
171 194 0
171 195 0
172 195 0
174 197 0
176 199 0
173 196 0
171 195 0
176 197 0
173 196 0
173 197 0
172 196 0
172 196 0
173 196 0
172 195 0
172 196 0
174 198 0
174 197 0
175 198 0
172 196 0
171 193 0
170 193 0
173 197 0
173 196 0
174 197 0
174 197 0
173 196 0
174 198 0
173 197 0
171 195 0
174 197 0
173 197 0
174 197 0
173 197 0
173 197 0
172 197 0
174 197 0
172 195 0
173 197 0
175 198 0
176 198 0
173 197 0
173 197 0
174 198 0
174 197 0
173 195 0
173 197 0
173 197 0
173 197 0
173 196 0
173 196 0
174 197 0
175 198 0
176 198 0
174 198 0
171 194 0
172 196 0
175 198 0
173 197 0
174 198 0
171 195 0
171 196 0
174 197 0
174 197 0
173 196 0
173 197 0
173 197 0
173 197 0
174 197 0
174 197 0
175 198 0
173 197 0
174 197 0
176 198 0
175 198 0
173 197 0
173 197 0
174 197 0
174 198 0
173 197 0
175 198 0
173 197 0
174 198 0
174 197 0
172 196 0
174 198 0
175 198 0
174 197 0
175 198 0
175 198 0
174 198 0
174 198 0
174 197 0
174 197 0
173 197 0
175 198 0
173 197 0
174 197 0
176 198 0
176 198 0
174 198 0
174 198 0
173 197 0
173 197 0
173 197 0
174 198 0
173 197 0
173 196 0
173 197 0
174 197 0
174 197 0
174 198 0
174 198 0
175 198 0
174 197 0
174 197 0
174 198 0
174 198 0
173 197 0
173 197 0
173 197 0
174 198 0
175 198 0
175 198 0
175 198 0
174 198 0
177 199 0
174 197 0
173 196 0
175 198 0
176 198 0
175 197 0
175 198 0
174 198 0
174 198 0
174 197 0
175 198 0
173 197 0
173 197 0
171 195 0
173 197 0
174 197 0
176 199 0
175 198 0
176 198 0
174 198 0
175 198 0
175 198 0
175 198 0
175 198 0
174 197 0
174 197 0
172 196 0
174 197 0
174 198 0
175 198 0
175 198 0
174 197 0
174 198 0
174 197 0
174 198 0
175 198 0
174 198 0
175 198 0
175 198 0
173 197 0
174 197 0
174 198 0
175 198 0
174 197 0
176 199 0
175 198 0
174 198 0
175 198 0
176 199 0
175 198 0
173 197 0
174 198 0
174 198 0
174 198 0
173 197 0
173 197 0
174 198 0
176 198 0
175 198 0
173 197 0
174 198 0
175 198 0
173 197 0
175 198 0
174 198 0
175 198 0
174 197 0
173 197 0
174 197 0
176 199 0
174 197 0
174 198 0
174 197 0
173 197 0
175 198 0
175 198 0
175 198 0
174 198 0
175 198 0
175 198 0
173 197 0
176 198 0
175 198 0
175 198 0
174 197 0
176 198 0
176 199 0
173 196 0
176 199 0
175 198 0
173 197 0
174 197 0
175 198 0
174 197 0
174 198 0
174 197 0
173 197 0
175 198 0
173 197 0
173 196 0
174 198 0
175 198 0
175 198 0
174 198 0
173 197 0
173 197 0
174 197 0
173 197 0
174 197 0
172 196 0
174 197 0
176 199 0
175 198 0
174 198 0
174 198 0
174 197 0
176 198 0
174 197 0
175 198 0
174 198 0
175 198 0
174 197 0
173 197 0
174 198 0
174 197 0
174 197 0
175 198 0
171 196 0
172 196 0
172 196 0
174 197 0
174 197 0
177 199 0
175 198 0
174 197 0
173 196 0
174 197 0
173 197 0
173 197 0
174 197 0
174 198 0
173 197 0
174 197 0
175 198 0
174 197 0
173 196 0
174 197 0
173 196 0
173 197 0
175 198 0
171 195 0
176 198 0
174 198 0
173 197 0
174 198 0
173 197 0
173 197 0
174 197 0
175 198 0
173 196 0
174 198 0
173 197 0
174 197 0
173 197 0
175 198 0
172 196 0
173 197 0
173 196 0
173 196 0
175 198 0
173 197 0
172 196 0
173 197 0
173 196 0
174 197 0
175 198 0
174 198 0
173 197 0
173 197 0
173 196 0
173 195 0
174 197 0
172 196 0
173 197 0
172 196 0
173 196 0
173 197 0
173 196 0
174 198 0
174 197 0
173 197 0
173 196 0
171 195 0
172 196 0
172 196 0
173 196 0
175 198 0
172 195 0
174 197 0
173 196 0
174 197 0
171 193 0
174 198 0
173 197 0
172 195 0
173 196 0
174 197 0
173 196 0
171 194 0
175 197 0
172 195 0
171 194 0
172 196 0
172 195 0
173 196 0
170 194 0
171 195 0
170 193 0
171 194 0
172 196 0
174 197 0
174 197 0
168 192 0
173 196 0
173 197 0
171 195 0
170 192 0
172 195 0
174 197 0
172 196 0
173 196 0
169 192 0
170 194 0
173 196 0
171 195 0
173 196 0
174 198 0
171 194 0
169 193 0
172 195 0
171 195 0
171 195 0
172 196 0
171 194 0
174 197 0
175 198 0
174 196 0
168 192 0
172 196 0
171 195 0
169 192 0
170 194 0
174 197 0
174 197 0
173 196 0
171 194 0
172 195 0
174 198 0
174 197 0
171 195 0
171 194 0
172 194 0
174 197 0
171 194 0
174 197 0
173 197 0
170 194 0
171 195 0
172 196 0
174 197 0
169 192 0
173 196 0
171 196 0
172 196 0
174 197 0
173 197 0
172 196 0
174 197 0
171 195 0
171 195 0
173 197 0
174 197 0
173 196 0
174 197 0
174 198 0
176 198 0
173 196 0
173 196 0
175 198 0
174 197 0
170 194 0
173 196 0
174 197 0
171 195 0
173 196 0
174 197 0
174 198 0
171 195 0
172 196 0
174 197 0
174 197 0
173 196 0
174 197 0
174 197 0
172 195 0
172 195 0
174 197 0
172 195 0
173 196 0
174 198 0
174 198 0
174 197 0
173 197 0
172 195 0
171 195 0
174 198 0
171 195 0
173 197 0
175 198 0
173 196 0
173 197 0
175 198 0
175 198 0
174 197 0
174 197 0
173 196 0
172 195 0
174 197 0
172 195 0
173 197 0
174 197 0
174 197 0
172 196 0
174 197 0
174 198 0
175 198 0
175 198 0
174 198 0
174 197 0
176 199 0
174 197 0
173 197 0
173 197 0
172 196 0
174 197 0
175 198 0
174 197 0
174 198 0
174 197 0
171 195 0
172 196 0
175 197 0
175 198 0
173 197 0
175 198 0
174 198 0
174 197 0
174 198 0
175 197 0
173 196 0
174 198 0
175 198 0
175 198 0
174 197 0
175 198 0
175 198 0
175 198 0
174 197 0
176 199 0
172 196 0
172 196 0
174 198 0
175 198 0
173 197 0
173 197 0
175 198 0
173 197 0
175 198 0
174 197 0
174 197 0
174 197 0
174 197 0
172 196 0
176 199 0
173 196 0
177 199 0
173 197 0
175 198 0
172 196 0
174 198 0
174 197 0
173 197 0
173 197 0
174 197 0
175 198 0
174 197 0
174 198 0
173 197 0
174 198 0
173 197 0
175 198 0
176 198 0
173 197 0
175 198 0
175 198 0
175 198 0
176 199 0
176 199 0
174 198 0
175 198 0
175 198 0
174 197 0
174 197 0
175 198 0
172 197 0
174 198 0
174 197 0
174 198 0
174 198 0
174 197 0
173 197 0
174 198 0
174 198 0
174 198 0
174 197 0
176 199 0
176 199 0
175 198 0
174 198 0
175 198 0
173 197 0
174 198 0
174 197 0
175 198 0
175 198 0
175 198 0
175 198 0
175 198 0
172 197 0
174 197 0
174 197 0
175 198 0
175 197 0
173 197 0
174 197 0
174 198 0
174 198 0
174 198 0
176 198 0
174 198 0
175 198 0
175 198 0
173 197 0
175 198 0
174 198 0
174 198 0
174 198 0
176 199 0
176 198 0
174 197 0
176 199 0
173 197 0
176 198 0
174 197 0
174 198 0
175 198 0
175 198 0
176 199 0
175 198 0
172 197 0
175 198 0
175 198 0
175 198 0
174 197 0
174 197 0
175 198 0
174 197 0
173 197 0
175 198 0
175 198 0
173 197 0
175 198 0
172 196 0
173 197 0
174 197 0
175 198 0
174 198 0
175 198 0
175 198 0
175 198 0
174 198 0
175 198 0
174 197 0
173 197 0
175 198 0
172 196 0
175 198 0
175 198 0
174 197 0
175 198 0
176 198 0
175 198 0
173 197 0
175 198 0
175 198 0
174 198 0
174 197 0
174 198 0
174 197 0
175 198 0
174 198 0
176 199 0
174 198 0
174 198 0
175 198 0
173 197 0
174 198 0
173 197 0
173 197 0
174 198 0
172 196 0
175 198 0
175 198 0
174 197 0
175 198 0
176 198 0
174 198 0
174 197 0
173 197 0
174 198 0
173 197 0
174 198 0
174 197 0
175 198 0
174 197 0
175 198 0
175 198 0
172 196 0
175 198 0
175 198 0
174 197 0
173 197 0
175 198 0
174 197 0
175 198 0
174 197 0
173 197 0
175 198 0
174 198 0
174 198 0
172 196 0
172 197 0
174 197 0
174 198 0
173 197 0
174 198 0
174 197 0
172 196 0
173 196 0
174 197 0
173 197 0
174 197 0
174 197 0
172 195 0
175 198 0
174 197 0
171 195 0
172 196 0
174 198 0
173 197 0
172 196 0
170 195 0
174 197 0
174 197 0
171 196 0
173 196 0
172 196 0
174 198 0
173 196 0
172 195 0
174 198 0
172 195 0
175 198 0
171 195 0
174 197 0
173 197 0
174 197 0
173 196 0
173 196 0
175 198 0
172 196 0
171 195 0
173 196 0
172 196 0
173 197 0
175 198 0
173 196 0
174 197 0
174 197 0
173 196 0
175 198 0
175 198 0
172 195 0
169 192 0
172 195 0
172 195 0
173 197 0
174 197 0
171 194 0
171 195 0
172 196 0
174 198 0
172 196 0
172 195 0
173 196 0
174 197 0
173 197 0
171 194 0
172 195 0
167 190 0
166 190 0
172 196 0
170 193 0
172 196 0
166 190 0
171 195 0
170 193 0
170 194 0
173 196 0
173 196 0
172 195 0
173 196 0
171 195 0
172 196 0
171 195 0
170 194 0
172 197 0
174 197 0
169 192 0
171 193 0
174 197 0
171 195 0
170 193 0
174 197 0
170 193 0
170 194 0
172 195 0
170 194 0
171 196 0
171 193 0
170 195 0
173 196 0
170 194 0
173 196 0
170 194 0
172 196 0
175 198 0
173 196 0
173 196 0
171 195 0
172 195 0
172 195 0
173 195 0
169 194 0
173 196 0
172 196 0
170 194 0
172 195 0
168 192 0
173 196 0
173 196 0
171 195 0
171 195 0
174 197 0
173 196 0
170 194 0
170 194 0
170 193 0
172 196 0
172 196 0
174 197 0
173 196 0
172 195 0
176 198 0
172 195 0
175 198 0
174 198 0
175 197 0
170 195 0
173 197 0
172 196 0
173 197 0
172 196 0
172 195 0
173 197 0
174 197 0
173 195 0
173 197 0
171 195 0
171 195 0
175 198 0
172 196 0
174 197 0
172 197 0
173 197 0
173 197 0
172 196 0
175 198 0
174 196 0
174 197 0
172 196 0
174 198 0
176 199 0
174 197 0
173 197 0
174 197 0
173 196 0
173 196 0
172 196 0
172 196 0
175 198 0
172 196 0
174 197 0
173 197 0
174 198 0
174 197 0
175 198 0
173 197 0
174 197 0
172 196 0
175 198 0
172 196 0
174 197 0
176 199 0
171 196 0
173 196 0
173 197 0
174 197 0
174 197 0
174 196 0
174 197 0
173 196 0
172 196 0
173 197 0
173 197 0
174 198 0
174 197 0
173 196 0
176 198 0
172 196 0
175 198 0
175 198 0
174 197 0
174 197 0
174 197 0
173 197 0
175 198 0
175 198 0
175 198 0
175 198 0
176 199 0
174 197 0
176 198 0
175 198 0
173 197 0
173 196 0
173 197 0
173 197 0
175 198 0
176 199 0
174 197 0
174 198 0
175 198 0
175 198 0
173 197 0
174 197 0
175 198 0
173 197 0
174 197 0
173 197 0
174 198 0
175 198 0
174 198 0
174 197 0
176 198 0
174 197 0
174 198 0
175 198 0
173 197 0
175 198 0
174 197 0
175 198 0
175 198 0
174 197 0
173 197 0
174 198 0
172 196 0
175 198 0
173 197 0
174 197 0
174 198 0
175 198 0
174 198 0
174 197 0
177 199 0
177 199 0
176 198 0
174 197 0
175 198 0
175 198 0
173 197 0
174 197 0
174 197 0
175 198 0
175 198 0
172 196 0
174 198 0
172 197 0
173 197 0
176 199 0
175 198 0
174 198 0
174 198 0
175 198 0
174 197 0
174 198 0
175 198 0
174 198 0
175 198 0
176 198 0
175 198 0
174 198 0
176 198 0
174 198 0
175 198 0
173 197 0
173 197 0
176 199 0
174 197 0
175 198 0
174 198 0
174 198 0
173 197 0
175 198 0
176 198 0
174 197 0
174 198 0
174 198 0
174 197 0
175 198 0
173 197 0
173 197 0
175 198 0
174 198 0
173 197 0
173 197 0
173 197 0
172 196 0
173 197 0
173 197 0
174 198 0
175 198 0
173 197 0
175 198 0
175 198 0
173 197 0
174 198 0
173 197 0
175 198 0
175 198 0
174 197 0
174 198 0
176 199 0
174 198 0
176 199 0
174 198 0
175 198 0
174 197 0
174 198 0
174 198 0
174 197 0
176 198 0
174 197 0
173 197 0
175 198 0
175 198 0
175 198 0
175 198 0
174 197 0
174 197 0
173 197 0
173 197 0
173 197 0
175 198 0
174 198 0
175 198 0
171 196 0
173 197 0
174 198 0
174 197 0
174 198 0
175 198 0
173 197 0
173 197 0
175 198 0
173 197 0
174 198 0
173 197 0
173 196 0
173 197 0
173 197 0
174 197 0
176 198 0
174 198 0
175 198 0
173 197 0
173 197 0
172 196 0
176 199 0
174 197 0
175 198 0
175 198 0
175 198 0
175 198 0
174 198 0
175 198 0
174 197 0
174 197 0
173 196 0
174 198 0
174 197 0
173 197 0
175 198 0
173 197 0
173 197 0
174 197 0
173 197 0
175 198 0
174 197 0
172 196 0
175 198 0
175 198 0
171 195 0
173 197 0
176 198 0
173 197 0
175 198 0
176 198 0
174 197 0
176 198 0
174 197 0
172 195 0
175 198 0
174 196 0
175 198 0
173 197 0
176 199 0
174 198 0
175 198 0
172 196 0
171 195 0
174 197 0
172 196 0
174 197 0
173 197 0
175 198 0
174 197 0
173 196 0
174 197 0
173 197 0
173 197 0
171 195 0
174 198 0
172 195 0
173 196 0
175 198 0
175 198 0
173 197 0
174 197 0
172 196 0
173 197 0
173 196 0
173 197 0
172 196 0
173 197 0
173 196 0
174 198 0
176 199 0
172 195 0
173 197 0
171 195 0
174 197 0
174 198 0
173 197 0
174 197 0
172 196 0
172 196 0
169 194 0
173 197 0
176 199 0
172 196 0
174 197 0
172 196 0
171 194 0
173 196 0
172 196 0
172 196 0
171 195 0
172 196 0
172 195 0
171 195 0
175 198 0
174 197 0
170 193 0
174 197 0
169 192 0
172 196 0
168 192 0
172 195 0
171 195 0
171 194 0
174 197 0
173 197 0
170 194 0
170 193 0
171 194 0
172 196 0
171 194 0
172 195 0
170 194 0
170 195 0
169 192 0
171 195 0
172 196 0
171 195 0
170 194 0
171 195 0
170 195 0
172 196 0
172 195 0
170 194 0
172 195 0
171 195 0
173 196 0
171 194 0
170 194 0
170 194 0
173 197 0
171 195 0
172 196 0
171 194 0
173 196 0
172 196 0
171 195 0
172 197 0
173 197 0
173 196 0
174 198 0
169 192 0
171 195 0
171 195 0
174 197 0
172 196 0
170 194 0
172 195 0
171 195 0
172 195 0
173 196 0
173 196 0
173 196 0
173 197 0
172 196 0
174 197 0
171 194 0
173 197 0
173 197 0
172 195 0
169 192 0
172 196 0
174 197 0
173 195 0
175 197 0
173 196 0
176 198 0
175 198 0
174 197 0
172 195 0
171 195 0
172 196 0
173 196 0
172 196 0
174 197 0
172 196 0
173 196 0
172 196 0
172 195 0
174 196 0
172 196 0
173 197 0
175 198 0
173 196 0
173 197 0
174 198 0
174 198 0
174 197 0
174 197 0
173 197 0
171 195 0
174 196 0
172 196 0
175 198 0
174 196 0
175 198 0
174 197 0
174 197 0
175 197 0
173 196 0
173 197 0
172 195 0
173 196 0
173 197 0
173 197 0
174 197 0
175 198 0
173 196 0
174 198 0
174 197 0
175 198 0
174 198 0
173 197 0
173 197 0
173 197 0
175 198 0
172 196 0
174 197 0
175 198 0
175 197 0
172 195 0
172 196 0
174 197 0
173 197 0
171 195 0
173 195 0
174 198 0
176 198 0
174 197 0
173 196 0
175 198 0
173 197 0
173 197 0
174 198 0
173 197 0
175 198 0
174 198 0
176 199 0
173 197 0
172 197 0
174 197 0
173 196 0
174 197 0
173 197 0
173 197 0
174 197 0
175 198 0
173 197 0
175 197 0
174 197 0
174 198 0
174 197 0
176 199 0
174 198 0
173 197 0
174 197 0
174 198 0
174 197 0
174 198 0
173 197 0
173 197 0
174 197 0
173 197 0
172 196 0
173 197 0
175 198 0
173 197 0
173 197 0
175 198 0
175 198 0
173 197 0
175 198 0
173 196 0
175 198 0
173 197 0
174 198 0
174 197 0
176 199 0
174 198 0
175 198 0
174 198 0
173 197 0
173 197 0
175 198 0
174 197 0
173 197 0
174 197 0
175 198 0
174 197 0
175 198 0
174 197 0
173 197 0
175 198 0
176 198 0
176 198 0
174 198 0
174 198 0
176 198 0
172 197 0
175 198 0
175 198 0
174 197 0
174 198 0
175 198 0
173 197 0
174 198 0
173 197 0
175 198 0
175 198 0
173 197 0
174 198 0
173 197 0
175 198 0
175 198 0
174 197 0
174 198 0
174 198 0
174 198 0
175 198 0
174 197 0
175 198 0
175 198 0
174 197 0
175 198 0
173 197 0
175 198 0
174 197 0
174 198 0
175 198 0
175 198 0
175 198 0
175 198 0
175 198 0
174 198 0
176 199 0
174 198 0
173 197 0
175 198 0
175 198 0
172 196 0
176 199 0
175 198 0
174 198 0
174 197 0
175 198 0
175 198 0
174 197 0
173 197 0
173 197 0
175 198 0
174 197 0
174 197 0
174 198 0
174 197 0
174 198 0
175 198 0
174 198 0
175 198 0
175 198 0
176 198 0
172 196 0
175 198 0
174 198 0
174 198 0
174 197 0
175 198 0
173 196 0
174 198 0
173 197 0
175 198 0
173 197 0
175 198 0
175 198 0
174 198 0
174 197 0
175 198 0
175 198 0
175 198 0
175 198 0
173 197 0
174 197 0
174 197 0
175 198 0
173 197 0
174 198 0
174 197 0
176 199 0
174 198 0
175 198 0
173 197 0
173 197 0
176 198 0
174 197 0
174 198 0
173 197 0
174 198 0
173 197 0
174 198 0
175 198 0
174 197 0
174 198 0
174 198 0
175 198 0
172 196 0
176 199 0
174 198 0
173 197 0
171 196 0
173 197 0
173 196 0
173 197 0
173 197 0
173 196 0
175 198 0
173 197 0
175 198 0
175 198 0
174 197 0
172 196 0
175 198 0
173 197 0
172 196 0
175 198 0
174 198 0
175 198 0
172 196 0
174 198 0
174 197 0
174 198 0
173 197 0
173 197 0
175 198 0
174 197 0
174 198 0
173 197 0
175 198 0
172 196 0
174 198 0
174 197 0
172 196 0
172 195 0
174 197 0
173 197 0
175 198 0
172 196 0
173 196 0
174 197 0
175 198 0
174 198 0
175 198 0
174 198 0
173 196 0
175 198 0
173 197 0
174 198 0
173 197 0
173 197 0
173 196 0
175 198 0
172 196 0
174 197 0
171 196 0
173 197 0
174 197 0
173 196 0
172 196 0
174 197 0
172 195 0
173 197 0
172 196 0
173 197 0
174 197 0
173 196 0
174 197 0
173 196 0
175 197 0
173 196 0
174 197 0
172 196 0
172 195 0
174 197 0
173 196 0
171 194 0
172 196 0
171 194 0
173 196 0
175 198 0
174 197 0
173 197 0
173 197 0
171 194 0
171 195 0
174 197 0
172 196 0
173 197 0
171 195 0
173 196 0
171 195 0
171 195 0
174 197 0
172 196 0
171 195 0
172 195 0
173 197 0
173 196 0
171 195 0
174 197 0
172 195 0
172 195 0
170 194 0
173 196 0
174 197 0
170 194 0
173 196 0
174 197 0
174 197 0
171 195 0
174 197 0
172 195 0
172 195 0
173 196 0
171 194 0
173 196 0
171 195 0
169 192 0
170 194 0
173 197 0
172 195 0
173 197 0
172 196 0
169 193 0
174 197 0
171 195 0
175 198 0
173 195 0
170 194 0
172 195 0
172 195 0
172 196 0
173 196 0
173 197 0
173 196 0
171 195 0
172 195 0
170 194 0
174 197 0
173 197 0
172 196 0
172 196 0
173 196 0
172 196 0
173 197 0
173 196 0
173 195 0
172 195 0
174 197 0
169 193 0
173 195 0
171 194 0
174 197 0
175 198 0
169 193 0
173 196 0
173 197 0
172 196 0
172 195 0
173 196 0
175 198 0
174 197 0
174 197 0
174 197 0
173 196 0
171 194 0
171 195 0
173 197 0
173 197 0
174 197 0
173 195 0
172 195 0
174 197 0
174 197 0
175 198 0
173 197 0
172 196 0
170 195 0
172 195 0
174 198 0
173 197 0
174 197 0
174 198 0
172 196 0
173 197 0
176 198 0
173 196 0
174 197 0
174 197 0
175 198 0
175 197 0
173 196 0
174 197 0
174 198 0
174 198 0
173 197 0
173 197 0
174 198 0
174 198 0
174 198 0
174 198 0
172 195 0
173 196 0
174 198 0
175 198 0
173 197 0
173 197 0
174 197 0
173 197 0
174 198 0
172 196 0
174 198 0
172 197 0
174 198 0
176 198 0
173 197 0
174 197 0
174 197 0
174 198 0
174 197 0
172 195 0
172 195 0
175 198 0
173 196 0
172 195 0
174 198 0
173 196 0
173 196 0
175 198 0
174 197 0
174 197 0
174 198 0
174 197 0
173 197 0
174 198 0
174 197 0
174 198 0
174 197 0
174 197 0
175 198 0
173 197 0
175 198 0
174 197 0
173 197 0
173 197 0
172 196 0
174 198 0
174 198 0
174 197 0
175 198 0
174 198 0
173 197 0
174 197 0
175 198 0
175 198 0
175 198 0
174 198 0
174 197 0
175 198 0
174 198 0
174 197 0
174 198 0
174 197 0
174 198 0
174 197 0
174 197 0
175 198 0
174 197 0
173 196 0
174 197 0
172 196 0
175 198 0
175 198 0
173 196 0
174 197 0
172 196 0
175 198 0
175 198 0
176 198 0
174 197 0
173 197 0
174 198 0
174 198 0
174 197 0
175 198 0
174 198 0
174 198 0
176 198 0
176 199 0
174 198 0
174 198 0
175 198 0
174 198 0
175 198 0
175 198 0
175 198 0
174 197 0
174 197 0
173 197 0
175 198 0
175 198 0
173 197 0
177 199 0
175 198 0
176 199 0
174 198 0
174 198 0
176 198 0
174 198 0
174 198 0
175 198 0
175 198 0
174 198 0
174 198 0
174 198 0
174 197 0
176 199 0
175 198 0
173 197 0
174 198 0
173 197 0
175 198 0
174 198 0
176 199 0
175 198 0
173 197 0
176 199 0
174 198 0
174 197 0
174 198 0
175 198 0
175 198 0
175 198 0
173 197 0
176 199 0
174 197 0
175 198 0
174 197 0
174 198 0
174 197 0
173 197 0
176 199 0
173 196 0
175 198 0
173 197 0
175 198 0
175 198 0
175 198 0
173 197 0
175 198 0
173 197 0
175 198 0
176 199 0
176 199 0
174 198 0
174 197 0
175 198 0
175 198 0
175 198 0
174 197 0
175 198 0
177 199 0
176 198 0
175 198 0
175 198 0
174 197 0
174 198 0
176 199 0
175 198 0
174 198 0
175 198 0
174 197 0
172 196 0
175 198 0
174 197 0
172 197 0
175 198 0
174 198 0
175 198 0
172 197 0
174 198 0
175 198 0
174 198 0
175 198 0
174 198 0
175 198 0
175 198 0
175 198 0
173 197 0
174 198 0
175 198 0
174 198 0
173 197 0
173 197 0
174 197 0
173 196 0
174 198 0
174 197 0
174 198 0
172 197 0
175 198 0
176 198 0
173 196 0
176 199 0
173 197 0
174 198 0
173 197 0
175 198 0
174 197 0
173 197 0
173 197 0
172 196 0
174 197 0
175 198 0
172 196 0
172 197 0
175 198 0
173 197 0
174 197 0
172 196 0
175 198 0
175 198 0
173 197 0
175 198 0
172 196 0
174 197 0
174 198 0
174 197 0
175 198 0
172 196 0
174 198 0
175 198 0
174 197 0
174 197 0
173 197 0
175 198 0
176 199 0
173 197 0
174 197 0
174 197 0
174 198 0
174 197 0
171 196 0
174 197 0
174 197 0
173 196 0
175 198 0
173 197 0
172 195 0
174 197 0
175 198 0
173 196 0
173 196 0
175 198 0
173 197 0
175 198 0
172 195 0
174 197 0
175 198 0
173 197 0
173 196 0
172 196 0
174 198 0
174 198 0
173 196 0
173 196 0
173 197 0
174 197 0
175 198 0
176 198 0
176 198 0
174 197 0
173 196 0
172 196 0
175 197 0
173 197 0
172 196 0
174 197 0
171 194 0
169 193 0
172 196 0
172 195 0
172 196 0
171 195 0
173 197 0
174 198 0
174 197 0
173 196 0
171 195 0
173 197 0
173 196 0
173 196 0
174 196 0
170 194 0
171 195 0
173 196 0
172 196 0
172 196 0
171 194 0
171 195 0
172 195 0
170 193 0
174 197 0
171 195 0
173 196 0
171 195 0
172 196 0
171 195 0
167 191 0
170 193 0
171 195 0
173 197 0
173 197 0
171 195 0
172 196 0
174 198 0
173 196 0
171 195 0
173 197 0
174 197 0
174 197 0
172 195 0
174 197 0
174 197 0
172 196 0
174 197 0
174 197 0
173 196 0
171 194 0
173 196 0
174 198 0
170 194 0
173 197 0
170 194 0
173 197 0
171 195 0
171 195 0
172 195 0
170 193 0
174 197 0
173 196 0
173 196 0
174 197 0
171 195 0
172 195 0
173 196 0
172 196 0
171 195 0
172 195 0
174 197 0
173 195 0
176 198 0
173 196 0
173 196 0
171 195 0
173 197 0
174 197 0
172 196 0
175 198 0
172 196 0
174 197 0
173 196 0
172 196 0
171 195 0
173 197 0
173 197 0
172 194 0
173 195 0
173 196 0
173 196 0
171 195 0
174 197 0
173 197 0
173 196 0
172 196 0
171 195 0
173 196 0
173 197 0
173 196 0
171 195 0
173 197 0
172 195 0
173 196 0
175 197 0
173 197 0
173 196 0
170 194 0
173 197 0
173 197 0
172 196 0
171 195 0
172 195 0
172 196 0
172 196 0
172 196 0
172 196 0
175 198 0
174 197 0
172 196 0
174 196 0
173 196 0
175 198 0
174 197 0
175 198 0
173 197 0
173 197 0
173 196 0
175 198 0
175 198 0
174 197 0
173 197 0
173 197 0
173 197 0
175 198 0
174 197 0
174 197 0
176 199 0
175 198 0
173 197 0
173 197 0
174 197 0
174 197 0
175 197 0
175 197 0
175 198 0
175 198 0
173 197 0
176 198 0
173 196 0
173 196 0
173 197 0
174 198 0
172 196 0
174 197 0
174 197 0
174 197 0
173 197 0
174 197 0
174 197 0
174 197 0
173 197 0
174 197 0
173 197 0
175 198 0
174 197 0
174 197 0
172 196 0
175 198 0
174 197 0
174 197 0
174 197 0
174 197 0
173 197 0
175 198 0
174 197 0
174 197 0
175 198 0
175 198 0
175 198 0
174 198 0
175 198 0
176 199 0
174 198 0
173 197 0
173 197 0
175 198 0
175 198 0
172 196 0
174 197 0
172 196 0
175 198 0
173 197 0
174 198 0
175 198 0
176 199 0
173 197 0
174 198 0
175 198 0
176 199 0
175 198 0
176 198 0
176 199 0
175 198 0
173 196 0
172 197 0
175 198 0
174 198 0
172 196 0
175 198 0
174 197 0
175 198 0
175 198 0
174 197 0
175 198 0
174 197 0
175 198 0
173 196 0
174 197 0
174 197 0
176 198 0
174 198 0
174 197 0
174 198 0
174 197 0
173 197 0
176 198 0
172 197 0
176 199 0
174 197 0
174 198 0
174 198 0
174 197 0
174 198 0
174 197 0
174 198 0
174 198 0
175 198 0
172 196 0
175 198 0
173 197 0
175 198 0
174 198 0
175 198 0
175 198 0
175 198 0
173 197 0
174 198 0
175 198 0
176 198 0
174 198 0
176 199 0
174 198 0
174 197 0
173 197 0
174 198 0
175 198 0
173 197 0
174 198 0
175 198 0
175 198 0
174 198 0
175 198 0
174 198 0
175 198 0
176 199 0
174 198 0
174 197 0
174 197 0
176 199 0
174 198 0
174 197 0
175 198 0
175 198 0
174 197 0
174 197 0
174 197 0
175 198 0
173 197 0
174 198 0
173 197 0
172 197 0
174 197 0
175 198 0
173 197 0
175 198 0
174 198 0
174 198 0
174 198 0
173 196 0
173 197 0
175 198 0
174 198 0
173 197 0
175 198 0
175 198 0
175 198 0
174 198 0
175 198 0
174 198 0
175 198 0
176 199 0
173 197 0
174 198 0
175 198 0
172 196 0
176 199 0
173 197 0
173 197 0
173 197 0
174 197 0
173 197 0
173 197 0
175 198 0
175 198 0
172 197 0
173 197 0
174 197 0
174 198 0
173 196 0
174 198 0
174 197 0
172 196 0
175 198 0
173 197 0
173 197 0
173 197 0
175 198 0
174 197 0
174 197 0
173 196 0
175 198 0
175 198 0
174 198 0
171 196 0
175 198 0
175 198 0
172 196 0
173 197 0
175 198 0
174 197 0
173 196 0
175 198 0
175 198 0
175 198 0
174 197 0
175 198 0
174 198 0
175 198 0
173 197 0
175 198 0
172 196 0
173 197 0
175 198 0
174 198 0
172 196 0
175 198 0
173 197 0
174 197 0
175 198 0
174 197 0
172 196 0
173 196 0
173 196 0
174 197 0
173 197 0
173 197 0
174 197 0
175 198 0
174 197 0
173 196 0
174 198 0
172 196 0
172 196 0
173 196 0
171 195 0
173 197 0
174 197 0
174 197 0
173 197 0
173 197 0
175 198 0
172 195 0
174 198 0
173 197 0
170 194 0
172 196 0
173 197 0
175 198 0
171 195 0
171 195 0
174 197 0
174 197 0
174 198 0
174 197 0
173 197 0
173 197 0
174 198 0
173 196 0
172 196 0
173 196 0
170 194 0
173 196 0
173 197 0
174 197 0
170 193 0
172 195 0
174 198 0
172 196 0
174 198 0
172 196 0
173 196 0
172 196 0
173 196 0
173 196 0
173 197 0
169 193 0
175 198 0
171 195 0
173 196 0
170 194 0
169 192 0
170 194 0
173 196 0
172 196 0
172 196 0
173 197 0
171 194 0
172 195 0
172 196 0
170 194 0
173 196 0
171 195 0
173 196 0
170 194 0
176 198 0
174 197 0
172 195 0
172 196 0
172 196 0
171 194 0
171 195 0
173 197 0
173 196 0
173 197 0
174 198 0
172 195 0
172 196 0
171 195 0
171 195 0
174 197 0
173 197 0
172 196 0
170 194 0
172 195 0
170 192 0
173 196 0
172 196 0
174 197 0
172 195 0
173 197 0
173 196 0
170 194 0
172 196 0
173 196 0
171 194 0
173 196 0
170 194 0
173 197 0
174 196 0
172 195 0
173 195 0
174 197 0
173 197 0
172 195 0
173 196 0
174 196 0
174 197 0
172 194 0
171 194 0
171 195 0
175 197 0
174 198 0
171 195 0
171 195 0
173 196 0
169 193 0
172 196 0
173 196 0
174 197 0
173 197 0
176 198 0
174 197 0
173 196 0
173 196 0
176 198 0
174 197 0
173 196 0
175 198 0
172 196 0
173 196 0
173 196 0
173 197 0
172 196 0
172 196 0
172 195 0
171 194 0
172 197 0
174 197 0
174 198 0
174 196 0
174 198 0
171 195 0
174 197 0
174 197 0
174 197 0
173 196 0
175 198 0
173 196 0
175 198 0
172 196 0
174 197 0
173 197 0
172 196 0
174 197 0
174 197 0
173 197 0
173 196 0
175 198 0
174 198 0
173 197 0
176 198 0
174 198 0
173 196 0
173 196 0
173 196 0
173 196 0
171 195 0
173 196 0
175 198 0
172 196 0
174 198 0
174 198 0
173 196 0
174 197 0
175 198 0
174 198 0
172 197 0
174 197 0
174 198 0
174 197 0
173 197 0
176 198 0
175 198 0
175 198 0
176 199 0
176 198 0
175 197 0
174 198 0
173 197 0
174 197 0
175 198 0
174 198 0
173 197 0
175 198 0
174 197 0
173 197 0
173 197 0
174 197 0
172 196 0
175 198 0
173 197 0
175 198 0
174 197 0
174 197 0
172 196 0
173 197 0
175 198 0
175 198 0
175 198 0
173 197 0
174 197 0
175 198 0
173 197 0
174 197 0
175 198 0
174 197 0
173 197 0
174 198 0
176 199 0
174 198 0
175 198 0
175 198 0
175 198 0
173 196 0
174 198 0
174 198 0
174 197 0
173 197 0
174 198 0
174 198 0
175 198 0
173 197 0
175 198 0
176 199 0
174 198 0
175 198 0
172 196 0
175 198 0
174 198 0
174 198 0
176 199 0
174 197 0
176 199 0
175 198 0
174 197 0
175 198 0
174 198 0
174 198 0
175 198 0
176 199 0
175 198 0
174 198 0
174 198 0
175 198 0
174 197 0
176 198 0
173 197 0
173 197 0
174 198 0
175 198 0
174 197 0
173 197 0
174 198 0
175 198 0
175 198 0
175 198 0
174 198 0
173 197 0
174 197 0
173 197 0
175 198 0
174 198 0
174 198 0
176 199 0
175 198 0
174 198 0
175 198 0
174 197 0
172 196 0
173 197 0
172 196 0
174 198 0
175 198 0
174 198 0
174 198 0
176 198 0
172 197 0
175 198 0
175 198 0
175 198 0
174 198 0
173 197 0
176 198 0
172 197 0
174 198 0
173 196 0
174 197 0
176 199 0
172 196 0
175 198 0
174 198 0
174 198 0
173 197 0
174 198 0
174 198 0
175 198 0
174 197 0
173 197 0
175 198 0
174 198 0
175 198 0
176 199 0
175 198 0
174 198 0
173 197 0
175 198 0
173 196 0
174 197 0
174 197 0
173 197 0
173 196 0
174 197 0
173 197 0
173 197 0
174 198 0
173 197 0
175 198 0
174 198 0
174 197 0
173 197 0
174 197 0
173 197 0
175 198 0
175 198 0
173 197 0
173 197 0
175 198 0
175 198 0
174 197 0
173 197 0
176 198 0
173 197 0
173 197 0
174 198 0
175 198 0
174 197 0
173 197 0
174 198 0
173 196 0
173 197 0
176 199 0
174 197 0
175 198 0
175 198 0
172 196 0
174 198 0
175 198 0
174 198 0
175 198 0
174 197 0
175 198 0
175 198 0
175 198 0
174 198 0
173 197 0
175 198 0
174 198 0
174 197 0
174 197 0
174 197 0
173 196 0
175 198 0
172 196 0
174 198 0
173 197 0
174 197 0
174 197 0
173 196 0
171 194 0
175 198 0
173 197 0
175 198 0
174 198 0
176 198 0
174 198 0
174 197 0
174 198 0
175 198 0
174 197 0
175 198 0
174 197 0
173 197 0
173 197 0
174 197 0
173 197 0
174 197 0
175 198 0
173 196 0
173 197 0
174 197 0
173 197 0
171 195 0
175 198 0
172 196 0
173 197 0
175 198 0
173 197 0
175 198 0
175 198 0
172 196 0
174 198 0
173 196 0
173 197 0
172 195 0
170 193 0
173 197 0
172 196 0
173 197 0
174 197 0
172 196 0
173 196 0
173 196 0
173 196 0
173 196 0
174 196 0
173 196 0
173 196 0
174 197 0
174 197 0
173 196 0
174 197 0
173 197 0
171 195 0
171 195 0
173 197 0
173 197 0
173 197 0
172 196 0
173 196 0
171 195 0
175 198 0
171 195 0
172 196 0
172 195 0
169 193 0
172 196 0
171 194 0
173 196 0
174 197 0
173 197 0
174 197 0
172 196 0
171 195 0
169 193 0
174 197 0
171 193 0
173 196 0
173 196 0
172 196 0
171 195 0
170 194 0
169 193 0
174 197 0
172 196 0
172 197 0
172 196 0
169 193 0
172 195 0
174 197 0
171 194 0
173 196 0
169 193 0
171 194 0
170 193 0
170 193 0
173 196 0
173 197 0
174 197 0
173 197 0
173 195 0
172 196 0
174 196 0
173 195 0
173 197 0
170 194 0
173 196 0
174 196 0
174 197 0
173 197 0
174 196 0
172 196 0
172 195 0
173 197 0
175 198 0
174 197 0
173 197 0
172 196 0
172 196 0
171 195 0
175 198 0
175 198 0
173 196 0
174 197 0
173 195 0
175 198 0
174 197 0
171 194 0
173 196 0
172 195 0
172 196 0
171 194 0
173 196 0
173 197 0
172 195 0
172 196 0
173 196 0
169 194 0
173 197 0
174 197 0
174 197 0
174 197 0
172 196 0
172 196 0
172 196 0
173 196 0
172 196 0
173 196 0
174 196 0
173 197 0
173 196 0
173 197 0
172 195 0
175 198 0
172 195 0
173 197 0
174 197 0
176 198 0
173 197 0
173 196 0
173 197 0
173 196 0
172 195 0
172 196 0
172 196 0
174 197 0
172 196 0
174 197 0
174 197 0
174 198 0
173 197 0
176 198 0
174 198 0
174 197 0
173 196 0
174 197 0
173 197 0
173 196 0
174 197 0
173 196 0
174 198 0
173 197 0
175 198 0
174 197 0
175 198 0
174 197 0
172 196 0
172 196 0
172 196 0
174 198 0
174 197 0
174 197 0
176 198 0
174 197 0
173 196 0
172 195 0
175 198 0
173 197 0
172 196 0
175 198 0
176 198 0
174 198 0
173 196 0
174 198 0
175 198 0
175 198 0
174 197 0
173 196 0
173 197 0
174 198 0
174 197 0
174 197 0
173 197 0
174 198 0
173 197 0
172 196 0
175 198 0
173 197 0
174 198 0
175 198 0
175 198 0
175 198 0
174 197 0
175 198 0
176 199 0
175 198 0
174 198 0
175 198 0
173 197 0
175 198 0
173 197 0
176 198 0
175 198 0
173 197 0
175 198 0
175 198 0
174 197 0
173 197 0
174 198 0
173 197 0
173 197 0
175 198 0
174 197 0
173 197 0
175 198 0
174 197 0
175 198 0
172 196 0
172 197 0
174 197 0
174 198 0
174 198 0
175 198 0
174 198 0
174 197 0
174 198 0
174 198 0
174 198 0
173 197 0
174 197 0
175 198 0
176 199 0
174 198 0
173 197 0
175 198 0
175 198 0
174 198 0
176 199 0
175 198 0
174 198 0
175 198 0
176 199 0
174 197 0
173 197 0
174 197 0
175 198 0
174 198 0
173 197 0
174 198 0
173 197 0
175 198 0
175 198 0
174 198 0
173 197 0
176 199 0
175 198 0
176 199 0
175 198 0
174 198 0
173 197 0
174 198 0
175 198 0
174 197 0
176 198 0
176 198 0
175 198 0
173 197 0
174 198 0
173 197 0
174 197 0
176 198 0
172 196 0
175 198 0
174 197 0
174 198 0
175 198 0
174 198 0
175 198 0
175 198 0
174 198 0
173 197 0
174 198 0
173 197 0
173 197 0
174 198 0
174 197 0
175 198 0
176 198 0
174 198 0
175 198 0
175 198 0
175 198 0
174 197 0
174 198 0
175 198 0
175 198 0
175 198 0
175 198 0
172 196 0
173 197 0
175 198 0
176 198 0
174 197 0
174 197 0
173 196 0
175 198 0
175 198 0
175 198 0
174 197 0
175 198 0
173 197 0
173 197 0
173 197 0
174 198 0
175 198 0
173 197 0
175 198 0
174 197 0
174 197 0
175 198 0
173 197 0
176 198 0
174 198 0
174 198 0
173 197 0
174 198 0
174 198 0
174 198 0
175 198 0
174 197 0
173 197 0
174 197 0
175 197 0
174 198 0
172 196 0
172 197 0
174 197 0
175 198 0
174 198 0
174 198 0
172 196 0
172 196 0
174 198 0
175 198 0
175 198 0
175 198 0
175 198 0
174 197 0
174 197 0
173 197 0
176 198 0
176 199 0
173 197 0
175 198 0
174 198 0
173 196 0
176 199 0
172 196 0
174 197 0
173 197 0
172 196 0
174 197 0
175 198 0
175 198 0
173 197 0
172 196 0
173 197 0
174 198 0
172 196 0
174 197 0
174 197 0
174 198 0
176 199 0
174 198 0
174 198 0
176 199 0
175 198 0
174 197 0
172 196 0
173 197 0
174 198 0
172 196 0
173 196 0
174 197 0
174 198 0
174 197 0
170 194 0
173 197 0
173 196 0
173 196 0
171 195 0
172 196 0
174 197 0
174 197 0
170 193 0
173 197 0
173 196 0
172 196 0
171 196 0
174 197 0
171 195 0
175 198 0
171 196 0
173 196 0
174 198 0
173 197 0
173 196 0
171 196 0
174 197 0
174 197 0
173 196 0
173 197 0
174 197 0
174 198 0
172 196 0
174 197 0
174 197 0
170 194 0
171 194 0
173 196 0
171 195 0
174 196 0
172 195 0
171 196 0
172 196 0
174 197 0
171 195 0
174 197 0
173 196 0
172 195 0
174 197 0
172 196 0
173 196 0
172 196 0
173 196 0
172 196 0
172 195 0
172 195 0
174 197 0
171 195 0
172 196 0
173 197 0
172 196 0
171 194 0
172 196 0
173 196 0
172 195 0
173 196 0
171 194 0
173 196 0
172 195 0
172 195 0
171 194 0
173 196 0
173 197 0
173 197 0
173 197 0
174 198 0
172 195 0
173 196 0
172 196 0
170 193 0
171 195 0
171 195 0
174 196 0
171 195 0
173 196 0
172 195 0
172 195 0
170 194 0
173 197 0
171 195 0
173 196 0
170 194 0
174 197 0
174 197 0
171 195 0
172 196 0
173 196 0
174 197 0
173 196 0
170 193 0
174 197 0
174 197 0
173 196 0
172 196 0
173 197 0
172 195 0
167 190 0
174 197 0
167 191 0
172 195 0
170 195 0
173 196 0
172 195 0
172 195 0
173 196 0
173 197 0
173 196 0
173 197 0
171 195 0
172 196 0
173 197 0
173 196 0
173 196 0
173 196 0
172 196 0
173 197 0
172 194 0
173 197 0
173 196 0
174 197 0
172 196 0
174 197 0
173 197 0
175 198 0
173 196 0
174 198 0
173 196 0
172 195 0
173 196 0
174 197 0
173 196 0
174 197 0
173 197 0
173 196 0
173 196 0
172 196 0
172 196 0
171 195 0
175 198 0
174 197 0
173 197 0
174 197 0
174 197 0
175 198 0
173 197 0
173 197 0
174 197 0
174 197 0
174 197 0
172 196 0
174 197 0
174 197 0
175 197 0
174 197 0
174 198 0
174 197 0
174 198 0
174 197 0
173 196 0
174 197 0
175 198 0
173 197 0
175 198 0
176 198 0
175 198 0
172 196 0
172 196 0
175 198 0
175 198 0
174 198 0
174 198 0
175 198 0
173 197 0
174 198 0
175 198 0
174 197 0
174 198 0
173 196 0
173 197 0
174 197 0
174 198 0
173 197 0
172 195 0
173 197 0
174 197 0
173 197 0
174 198 0
174 197 0
174 197 0
174 197 0
175 198 0
174 197 0
176 198 0
174 197 0
175 198 0
175 198 0
175 198 0
173 196 0
174 197 0
174 197 0
174 197 0
175 198 0
177 199 0
175 198 0
175 198 0
174 198 0
174 197 0
173 197 0
174 197 0
174 198 0
176 199 0
174 197 0
175 198 0
171 195 0
175 198 0
175 198 0
172 196 0
174 197 0
176 198 0
173 197 0
174 197 0
173 197 0
175 198 0
175 198 0
175 198 0
174 198 0
175 198 0
174 198 0
175 198 0
174 198 0
173 197 0
175 198 0
174 197 0
175 198 0
174 197 0
175 198 0
175 198 0
175 198 0
175 198 0
175 198 0
173 197 0
172 196 0
173 197 0
175 198 0
173 197 0
174 198 0
176 199 0
175 198 0
173 197 0
174 197 0
175 198 0
173 197 0
173 197 0
174 197 0
173 197 0
173 197 0
174 198 0
173 197 0
174 196 0
174 198 0
175 198 0
174 197 0
174 198 0
175 198 0
175 198 0
173 197 0
175 198 0
175 198 0
174 198 0
174 197 0
175 198 0
175 198 0
175 198 0
174 197 0
175 198 0
175 198 0
176 198 0
174 198 0
173 197 0
174 198 0
175 198 0
174 197 0
176 199 0
174 198 0
174 198 0
174 198 0
175 198 0
175 198 0
173 197 0
174 197 0
175 198 0
174 197 0
174 197 0
173 196 0
174 197 0
174 197 0
175 198 0
175 198 0
174 198 0
175 198 0
176 199 0
174 197 0
176 199 0
173 197 0
173 197 0
174 198 0
173 197 0
173 197 0
174 198 0
173 197 0
174 197 0
175 198 0
174 197 0
173 197 0
174 198 0
174 198 0
174 198 0
174 198 0
174 197 0
176 198 0
173 197 0
175 198 0
175 198 0
176 199 0
175 198 0
174 198 0
174 198 0
173 197 0
174 196 0
175 198 0
173 197 0
175 198 0
175 198 0
173 197 0
175 198 0
174 197 0
174 197 0
173 197 0
174 197 0
174 197 0
173 197 0
173 197 0
172 196 0
176 199 0
173 197 0
174 198 0
175 198 0
174 198 0
175 198 0
174 198 0
174 197 0
175 198 0
174 198 0
174 197 0
173 196 0
172 196 0
174 197 0
175 198 0
174 198 0
176 199 0
171 195 0
173 197 0
175 198 0
174 197 0
173 197 0
174 197 0
173 197 0
175 198 0
173 197 0
174 198 0
175 198 0
173 196 0
175 198 0
174 197 0
174 197 0
174 198 0
175 198 0
173 197 0
175 198 0
173 196 0
174 197 0
174 197 0
175 198 0
174 197 0
172 196 0
175 198 0
176 199 0
173 196 0
173 197 0
173 197 0
173 197 0
173 196 0
173 197 0
174 197 0
172 196 0
173 197 0
176 198 0
174 197 0
174 197 0
175 198 0
173 197 0
172 196 0
173 196 0
173 197 0
175 197 0
173 196 0
173 197 0
174 196 0
174 197 0
175 198 0
170 194 0
172 196 0
173 196 0
174 198 0
174 197 0
174 198 0
172 196 0
173 197 0
176 199 0
175 198 0
174 198 0
171 195 0
175 198 0
170 194 0
174 197 0
174 197 0
173 197 0
176 198 0
170 193 0
174 197 0
175 198 0
173 196 0
172 196 0
173 197 0
171 195 0
171 195 0
171 195 0
172 196 0
171 195 0
172 196 0
174 197 0
172 196 0
173 197 0
171 195 0
175 198 0
172 196 0
172 195 0
173 196 0
173 196 0
173 196 0
175 197 0
169 194 0
172 195 0
172 195 0
173 197 0
172 196 0
172 196 0
172 195 0
172 196 0
171 195 0
172 196 0
173 197 0
173 196 0
173 196 0
173 196 0
172 195 0
169 193 0
173 197 0
173 196 0
173 196 0
172 195 0
171 195 0
171 196 0
170 193 0
173 196 0
173 197 0
170 194 0
172 195 0
172 194 0
173 196 0
174 197 0
171 195 0
170 194 0
174 197 0
173 195 0
176 199 0
171 195 0
171 195 0
174 197 0
173 196 0
173 196 0
171 195 0
170 194 0
175 198 0
173 196 0
173 196 0
173 197 0
173 197 0
173 196 0
172 196 0
173 197 0
172 196 0
170 194 0
174 197 0
173 196 0
174 197 0
173 197 0
175 197 0
174 197 0
173 197 0
175 198 0
174 197 0
172 196 0
174 197 0
173 197 0
172 195 0
173 196 0
173 196 0
173 197 0
177 199 0
173 197 0
174 198 0
174 197 0
175 198 0
173 196 0
173 197 0
173 196 0
172 196 0
173 197 0
174 197 0
174 197 0
172 196 0
173 197 0
173 195 0
172 196 0
174 198 0
174 197 0
175 198 0
174 197 0
173 196 0
174 197 0
172 197 0
172 196 0
174 198 0
173 197 0
175 198 0
175 198 0
175 197 0
174 197 0
174 197 0
174 197 0
173 196 0
173 197 0
172 196 0
175 198 0
173 196 0
174 197 0
174 197 0
175 198 0
173 197 0
173 196 0
175 198 0
174 197 0
173 197 0
175 198 0
174 198 0
174 197 0
174 197 0
174 197 0
174 198 0
174 198 0
172 196 0
173 196 0
175 198 0
174 197 0
173 196 0
173 196 0
174 198 0
174 197 0
173 197 0
173 197 0
173 197 0
175 198 0
173 197 0
174 198 0
174 198 0
171 196 0
173 197 0
174 198 0
173 197 0
173 197 0
176 199 0
174 198 0
173 197 0
173 197 0
174 198 0
173 197 0
175 198 0
176 198 0
174 197 0
175 198 0
174 197 0
174 198 0
174 197 0
175 198 0
172 196 0
175 198 0
174 198 0
173 197 0
174 197 0
173 196 0
174 197 0
176 199 0
174 198 0
175 198 0
175 198 0
174 198 0
174 197 0
174 198 0
174 197 0
176 199 0
175 198 0
176 199 0
173 197 0
174 197 0
174 198 0
174 198 0
174 198 0
176 199 0
174 198 0
175 198 0
174 197 0
174 197 0
173 197 0
175 198 0
174 197 0
175 198 0
174 198 0
174 198 0
173 197 0
175 198 0
174 198 0
174 198 0
174 198 0
172 196 0
174 198 0
174 198 0
173 197 0
176 198 0
174 197 0
175 198 0
173 197 0
175 198 0
175 198 0
175 198 0
175 198 0
175 198 0
176 199 0
175 198 0
174 197 0
175 198 0
175 198 0
175 198 0
173 197 0
175 198 0
173 197 0
175 198 0
173 197 0
174 198 0
174 198 0
176 199 0
175 198 0
175 198 0
174 198 0
174 198 0
172 197 0
173 197 0
174 198 0
174 198 0
175 198 0
175 198 0
174 198 0
174 198 0
172 197 0
175 198 0
174 197 0
174 197 0
176 199 0
175 198 0
174 198 0
174 198 0
173 197 0
174 198 0
175 198 0
174 198 0
174 197 0
175 198 0
175 198 0
174 197 0
174 197 0
174 198 0
176 198 0
174 198 0
174 198 0
175 198 0
175 198 0
173 197 0
173 197 0
173 197 0
174 197 0
173 197 0
174 197 0
173 197 0
174 198 0
173 197 0
172 197 0
173 197 0
174 198 0
173 197 0
173 197 0
175 198 0
174 198 0
175 198 0
174 197 0
174 197 0
174 198 0
173 197 0
174 197 0
174 198 0
175 198 0
173 197 0
175 198 0
174 198 0
173 197 0
174 198 0
176 198 0
174 198 0
175 198 0
174 197 0
174 198 0
173 197 0
174 197 0
174 198 0
174 197 0
175 198 0
175 198 0
173 197 0
174 197 0
174 197 0
174 198 0
174 198 0
175 198 0
175 198 0
173 197 0
175 198 0
173 197 0
174 197 0
174 198 0
174 197 0
175 198 0
173 197 0
175 198 0
171 196 0
174 197 0
174 198 0
176 199 0
173 197 0
174 197 0
173 197 0
173 197 0
174 197 0
175 198 0
173 197 0
174 198 0
175 198 0
175 198 0
174 198 0
173 196 0
175 198 0
173 197 0
173 197 0
174 197 0
172 196 0
174 198 0
175 198 0
175 198 0
172 196 0
174 197 0
172 196 0
173 197 0
172 196 0
172 196 0
173 197 0
174 197 0
174 198 0
173 197 0
173 197 0
174 197 0
173 197 0
172 196 0
172 197 0
172 197 0
173 196 0
172 196 0
172 196 0
175 198 0
172 196 0
173 196 0
173 197 0
172 195 0
173 196 0
173 196 0
173 196 0
172 196 0
173 196 0
175 198 0
172 195 0
172 196 0
171 196 0
173 196 0
173 196 0
174 197 0
174 198 0
171 195 0
172 195 0
173 196 0
173 197 0
174 198 0
171 195 0
174 198 0
172 195 0
171 195 0
171 195 0
172 196 0
173 196 0
173 197 0
172 195 0
174 197 0
175 198 0
173 197 0
175 198 0
170 193 0
171 195 0
174 197 0
172 195 0
171 195 0
172 195 0
173 197 0
170 194 0
170 193 0
173 196 0
171 194 0
170 194 0
171 195 0
173 197 0
171 195 0
172 195 0
168 192 0
172 195 0
171 195 0
171 194 0
172 195 0
172 195 0
173 197 0
172 196 0
171 194 0
171 195 0
173 197 0
175 198 0
174 197 0
174 197 0
171 195 0
174 197 0
171 195 0
172 196 0
171 195 0
174 197 0
174 197 0
172 196 0
171 194 0
173 197 0
173 196 0
170 194 0
172 197 0
171 196 0
174 197 0
172 195 0
172 196 0
173 196 0
173 197 0
173 196 0
170 194 0
173 196 0
175 198 0
172 196 0
173 196 0
173 197 0
173 196 0
170 194 0
173 196 0
173 196 0
173 196 0
175 197 0
173 196 0
172 195 0
174 197 0
172 195 0
174 197 0
174 196 0
173 197 0
173 197 0
172 196 0
171 194 0
174 197 0
172 196 0
170 194 0
174 197 0
176 199 0
173 197 0
174 197 0
175 198 0
173 196 0
172 196 0
174 197 0
173 197 0
173 197 0
174 198 0
175 197 0
174 197 0
172 196 0
173 196 0
174 198 0
174 197 0
176 199 0
174 198 0
173 195 0
174 197 0
172 195 0
175 198 0
173 196 0
175 198 0
175 198 0
173 196 0
172 196 0
174 197 0
173 197 0
175 198 0
175 198 0
174 197 0
174 197 0
173 197 0
174 197 0
175 198 0
174 197 0
175 198 0
175 198 0
172 196 0
175 198 0
174 198 0
173 196 0
174 197 0
173 197 0
174 198 0
174 197 0
173 197 0
173 196 0
173 197 0
175 198 0
173 196 0
175 198 0
175 198 0
173 197 0
174 197 0
173 197 0
174 198 0
174 198 0
175 197 0
173 196 0
174 198 0
174 198 0
174 197 0
175 198 0
172 196 0
175 198 0
172 196 0
172 197 0
176 198 0
175 198 0
172 196 0
175 198 0
175 197 0
175 198 0
173 197 0
174 197 0
174 197 0
173 197 0
173 197 0
173 195 0
174 197 0
174 198 0
177 199 0
175 198 0
175 198 0
175 198 0
174 197 0
172 196 0
175 198 0
174 197 0
174 197 0
175 198 0
174 198 0
174 197 0
174 198 0
174 198 0
175 198 0
175 198 0
173 197 0
175 198 0
175 198 0
174 197 0
175 198 0
173 197 0
175 198 0
175 198 0
174 197 0
175 198 0
175 198 0
173 196 0
175 198 0
176 199 0
173 197 0
173 196 0
175 198 0
175 198 0
173 197 0
174 198 0
175 198 0
173 197 0
173 197 0
174 198 0
174 198 0
173 197 0
174 198 0
174 198 0
175 198 0
174 198 0
175 198 0
173 197 0
174 197 0
174 198 0
175 198 0
176 199 0
175 198 0
173 197 0
174 198 0
176 199 0
174 198 0
176 198 0
174 197 0
172 196 0
174 198 0
174 197 0
174 198 0
176 199 0
174 198 0
173 197 0
174 198 0
176 199 0
174 198 0
175 198 0
174 198 0
173 197 0
173 197 0
173 197 0
174 197 0
174 197 0
174 198 0
175 198 0
176 198 0
175 198 0
174 198 0
175 198 0
175 198 0
175 198 0
174 197 0
174 198 0
176 199 0
174 198 0
175 198 0
176 199 0
175 198 0
176 198 0
172 195 0
175 198 0
175 198 0
173 197 0
174 198 0
174 197 0
173 197 0
174 197 0
173 197 0
175 198 0
174 198 0
174 197 0
174 198 0
174 197 0
173 196 0
175 198 0
173 197 0
175 198 0
175 198 0
175 198 0
174 198 0
173 197 0
173 197 0
174 198 0
174 197 0
174 198 0
174 198 0
175 198 0
173 197 0
173 197 0
175 198 0
173 197 0
174 198 0
175 198 0
173 197 0
175 198 0
175 198 0
174 197 0
174 197 0
174 198 0
173 197 0
175 198 0
173 197 0
173 197 0
175 198 0
174 198 0
177 199 0
173 197 0
176 199 0
174 198 0
175 198 0
173 196 0
176 198 0
173 197 0
174 197 0
174 198 0
175 198 0
174 198 0
175 198 0
174 198 0
172 196 0
175 198 0
174 198 0
173 197 0
176 198 0
175 198 0
174 198 0
173 197 0
173 197 0
174 197 0
176 198 0
175 198 0
175 198 0
174 198 0
173 197 0
174 197 0
173 197 0
173 197 0
173 197 0
174 197 0
174 197 0
171 196 0
173 197 0
174 198 0
172 196 0
172 196 0
174 198 0
173 197 0
175 198 0
173 197 0
174 198 0
173 197 0
173 196 0
174 198 0
173 197 0
175 198 0
174 197 0
173 197 0
173 197 0
172 196 0
173 197 0
174 197 0
173 197 0
173 196 0
172 196 0
172 196 0
173 197 0
173 197 0
174 197 0
172 196 0
175 198 0
174 198 0
172 196 0
174 197 0
171 195 0
171 195 0
173 197 0
174 197 0
172 196 0
173 196 0
173 196 0
173 196 0
172 196 0
171 195 0
174 197 0
173 197 0
176 198 0
176 199 0
172 195 0
174 197 0
174 198 0
173 197 0
173 197 0
174 197 0
170 193 0
171 194 0
175 198 0
171 195 0
173 196 0
172 196 0
176 198 0
171 195 0
172 195 0
173 197 0
174 198 0
173 197 0
175 198 0
173 197 0
174 196 0
174 197 0
174 198 0
174 197 0
173 196 0
173 196 0
171 195 0
174 197 0
172 195 0
169 193 0
172 195 0
175 198 0
173 196 0
170 194 0
174 198 0
172 196 0
171 195 0
174 197 0
173 197 0
173 197 0
170 194 0
175 198 0
171 194 0
174 197 0
173 196 0
171 195 0
173 196 0
173 197 0
175 198 0
173 197 0
174 197 0
172 196 0
173 196 0
172 196 0
173 196 0
171 195 0
174 198 0
173 197 0
172 195 0
174 197 0
171 195 0
171 195 0
174 197 0
173 196 0
171 194 0
174 197 0
173 196 0
174 198 0
174 197 0
173 196 0
172 196 0
174 197 0
174 197 0
173 197 0
172 196 0
172 196 0
173 196 0
172 195 0
173 196 0
174 197 0
172 196 0
171 194 0
173 196 0
173 196 0
170 193 0
172 196 0
174 197 0
172 195 0
173 196 0
173 196 0
172 196 0
171 194 0
170 194 0
171 195 0
174 197 0
175 197 0
170 194 0
174 197 0
173 196 0
174 198 0
175 198 0
173 196 0
173 196 0
173 197 0
174 197 0
174 197 0
173 196 0
176 199 0
173 196 0
175 198 0
173 196 0
174 197 0
174 198 0
175 198 0
172 196 0
175 198 0
174 197 0
173 196 0
175 198 0
174 198 0
173 197 0
175 198 0
174 197 0
173 196 0
173 197 0
175 198 0
174 197 0
175 198 0
175 197 0
174 197 0
173 197 0
173 197 0
175 198 0
174 198 0
173 197 0
175 198 0
174 197 0
172 196 0
174 197 0
174 197 0
172 196 0
173 197 0
174 198 0
173 197 0
174 198 0
174 197 0
174 198 0
175 198 0
175 198 0
173 197 0
175 198 0
177 199 0
175 197 0
173 197 0
176 199 0
174 197 0
175 198 0
174 198 0
174 198 0
176 198 0
175 198 0
175 198 0
172 196 0
172 196 0
174 198 0
172 196 0
174 198 0
175 198 0
174 197 0
174 197 0
174 197 0
176 198 0
176 198 0
173 197 0
174 197 0
174 198 0
174 197 0
172 196 0
175 198 0
174 196 0
174 198 0
173 197 0
174 197 0
174 198 0
173 197 0
175 198 0
175 198 0
175 198 0
175 198 0
173 197 0
175 198 0
175 198 0
175 198 0
174 198 0
175 198 0
174 198 0
174 197 0
175 198 0
174 198 0
176 198 0
173 196 0
175 198 0
174 198 0
173 197 0
175 198 0
175 198 0
175 198 0
176 198 0
175 198 0
175 198 0
175 198 0
173 197 0
176 199 0
175 198 0
174 197 0
174 197 0
174 197 0
174 197 0
175 198 0
174 198 0
174 198 0
174 198 0
176 198 0
173 197 0
176 199 0
175 198 0
174 197 0
175 198 0
175 198 0
174 198 0
174 197 0
175 198 0
175 198 0
175 198 0
175 198 0
175 198 0
175 198 0
174 198 0
174 197 0
174 198 0
175 198 0
174 197 0
174 198 0
174 197 0
174 198 0
175 198 0
175 198 0
174 197 0
176 199 0
172 196 0
173 197 0
173 197 0
172 197 0
176 198 0
175 198 0
174 197 0
176 199 0
175 198 0
175 198 0
175 198 0
174 198 0
175 198 0
174 198 0
176 198 0
175 198 0
175 198 0
175 198 0
175 198 0
176 198 0
174 198 0
175 198 0
175 198 0
174 198 0
173 196 0
174 198 0
175 198 0
174 197 0
175 198 0
173 197 0
175 198 0
175 198 0
175 198 0
173 197 0
173 197 0
175 198 0
175 198 0
175 198 0
173 197 0
175 198 0
174 197 0
174 198 0
173 197 0
174 197 0
173 197 0
173 197 0
174 197 0
174 198 0
175 198 0
175 198 0
172 196 0
174 198 0
175 198 0
174 197 0
175 198 0
173 197 0
173 197 0
174 197 0
174 198 0
174 198 0
174 197 0
174 197 0
173 197 0
175 198 0
175 198 0
175 198 0
175 198 0
175 198 0
173 197 0
176 199 0
175 198 0
174 198 0
173 197 0
173 197 0
174 198 0
172 196 0
174 197 0
174 197 0
174 198 0
174 198 0
174 197 0
173 196 0
173 197 0
175 198 0
173 196 0
173 197 0
174 197 0
175 198 0
174 197 0
173 196 0
174 197 0
173 197 0
173 197 0
174 198 0
172 196 0
173 197 0
174 198 0
174 198 0
174 197 0
174 198 0
174 198 0
175 198 0
175 198 0
174 198 0
174 197 0
175 198 0
173 197 0
173 197 0
173 196 0
174 197 0
173 197 0
174 198 0
174 197 0
174 198 0
173 196 0
174 198 0
173 197 0
174 197 0
171 195 0
174 198 0
173 197 0
174 197 0
175 198 0
172 196 0
172 196 0
173 197 0
175 198 0
174 197 0
175 198 0
175 198 0
173 197 0
175 198 0
174 197 0
173 197 0
173 196 0
171 195 0
173 196 0
175 198 0
174 198 0
174 198 0
175 198 0
175 198 0
174 197 0
173 197 0
174 197 0
175 198 0
172 196 0
174 197 0
173 196 0
173 196 0
173 196 0
173 196 0
175 198 0
172 196 0
174 197 0
173 196 0
175 198 0
175 198 0
171 194 0
173 196 0
172 196 0
175 198 0
170 194 0
171 194 0
175 198 0
173 197 0
173 196 0
170 194 0
171 195 0
171 194 0
171 195 0
175 197 0
173 196 0
171 194 0
173 196 0
172 196 0
172 195 0
174 197 0
174 197 0
172 195 0
172 196 0
172 196 0
172 196 0
173 196 0
172 196 0
171 195 0
171 195 0
173 196 0
174 198 0
174 197 0
174 197 0
174 198 0
172 195 0
175 198 0
175 198 0
172 196 0
174 197 0
171 195 0
172 196 0
173 196 0
171 195 0
173 197 0
171 195 0
174 197 0
172 195 0
173 196 0
171 196 0
174 198 0
174 198 0
172 196 0
174 198 0
176 198 0
173 196 0
172 195 0
171 195 0
171 194 0
172 195 0
172 195 0
172 196 0
171 194 0
172 195 0
173 196 0
173 196 0
171 195 0
172 196 0
173 196 0
172 195 0
172 195 0
172 195 0
173 196 0
176 198 0
174 197 0
171 194 0
173 196 0
174 197 0
175 198 0
173 197 0
174 197 0
172 196 0
175 198 0
172 196 0
173 197 0
172 196 0
174 197 0
172 196 0
173 196 0
174 197 0
172 195 0
172 196 0
174 197 0
174 198 0
173 197 0
171 194 0
173 196 0
173 197 0
172 196 0
173 197 0
172 196 0
175 198 0
173 197 0
173 196 0
171 194 0
171 196 0
175 198 0
176 198 0
175 198 0
174 198 0
175 198 0
173 197 0
174 198 0
172 196 0
175 198 0
174 198 0
173 196 0
174 198 0
174 198 0
173 197 0
174 197 0
173 197 0
174 197 0
173 197 0
174 197 0
174 197 0
175 198 0
174 198 0
174 197 0
173 197 0
174 197 0
173 197 0
173 197 0
172 196 0
175 198 0
174 198 0
174 198 0
175 198 0
175 197 0
172 196 0
174 197 0
174 197 0
173 197 0
173 197 0
173 197 0
172 196 0
175 198 0
174 198 0
172 196 0
172 196 0
175 198 0
177 199 0
173 197 0
175 198 0
174 198 0
174 197 0
173 197 0
175 198 0
174 197 0
173 197 0
176 198 0
175 198 0
173 197 0
174 197 0
172 196 0
173 197 0
175 198 0
173 197 0
174 197 0
175 198 0
174 197 0
174 198 0
174 197 0
174 198 0
174 198 0
174 198 0
174 198 0
175 198 0
173 197 0
173 197 0
175 198 0
175 198 0
173 197 0
174 197 0
175 198 0
175 198 0
175 198 0
172 196 0
175 198 0
173 197 0
175 198 0
174 197 0
173 197 0
173 197 0
174 197 0
175 198 0
174 197 0
175 198 0
175 198 0
174 198 0
174 197 0
174 197 0
175 198 0
174 197 0
173 197 0
174 197 0
174 197 0
174 198 0
175 198 0
174 198 0
176 198 0
174 198 0
176 199 0
174 197 0
174 197 0
173 197 0
174 197 0
176 199 0
176 198 0
174 198 0
174 198 0
175 198 0
176 198 0
174 198 0
174 197 0
173 196 0
175 198 0
175 198 0
174 198 0
177 199 0
174 197 0
174 197 0
175 198 0
175 198 0
173 197 0
175 198 0
173 197 0
174 198 0
176 198 0
175 198 0
173 197 0
173 197 0
176 198 0
174 198 0
174 198 0
175 198 0
174 198 0
176 198 0
173 197 0
174 198 0
176 199 0
175 198 0
175 198 0
175 198 0
175 198 0
174 198 0
174 198 0
174 198 0
173 197 0
175 198 0
174 197 0
174 197 0
174 198 0
175 198 0
174 198 0
176 199 0
174 198 0
174 197 0
175 198 0
175 198 0
175 198 0
173 197 0
174 198 0
173 197 0
174 197 0
172 196 0
175 198 0
174 198 0
174 197 0
174 198 0
173 197 0
174 198 0
174 198 0
175 198 0
176 199 0
173 197 0
175 198 0
174 198 0
174 198 0
175 198 0
175 198 0
174 197 0
172 197 0
174 197 0
176 199 0
175 198 0
175 198 0
173 197 0
174 197 0
174 198 0
174 197 0
174 197 0
174 198 0
175 198 0
174 197 0
175 198 0
176 198 0
175 198 0
175 198 0
175 198 0
173 196 0
173 197 0
173 197 0
174 198 0
173 197 0
175 198 0
175 198 0
175 198 0
174 198 0
175 198 0
173 196 0
173 197 0
175 198 0
174 197 0
173 197 0
175 198 0
174 197 0
175 198 0
173 197 0
173 197 0
174 197 0
173 197 0
174 198 0
174 198 0
174 197 0
173 197 0
172 196 0
175 198 0
174 197 0
173 197 0
175 198 0
175 198 0
173 197 0
174 197 0
173 196 0
175 198 0
175 198 0
174 197 0
171 195 0
175 198 0
174 197 0
175 198 0
173 197 0
172 196 0
173 197 0
175 198 0
174 198 0
175 198 0
171 196 0
176 199 0
174 197 0
173 197 0
173 197 0
173 197 0
170 195 0
173 196 0
175 198 0
174 197 0
174 197 0
175 198 0
174 197 0
172 196 0
172 196 0
173 197 0
174 197 0
173 197 0
172 196 0
172 196 0
174 198 0
173 197 0
173 197 0
173 196 0
176 198 0
175 197 0
174 197 0
172 195 0
172 197 0
174 198 0
173 197 0
175 197 0
172 195 0
174 197 0
172 196 0
175 198 0
173 197 0
172 196 0
173 197 0
174 198 0
174 197 0
172 196 0
174 197 0
172 196 0
173 196 0
173 197 0
172 196 0
173 197 0
173 196 0
173 197 0
171 195 0
173 197 0
175 198 0
173 197 0
173 196 0
174 197 0
173 196 0
173 196 0
170 193 0
169 193 0
171 195 0
173 197 0
169 193 0
173 196 0
173 196 0
173 197 0
174 197 0
175 197 0
171 195 0
175 198 0
172 196 0
171 195 0
173 197 0
172 196 0
173 197 0
173 196 0
172 196 0
171 196 0
172 196 0
170 193 0
171 195 0
174 197 0
173 196 0
168 192 0
173 197 0
175 198 0
171 195 0
174 197 0
172 196 0
172 195 0
172 195 0
172 196 0
173 196 0
172 196 0
173 196 0
172 195 0
173 196 0
171 194 0
170 194 0
172 196 0
171 195 0
173 197 0
173 197 0
173 197 0
171 194 0
172 195 0
172 196 0
173 196 0
170 193 0
174 197 0
173 196 0
172 195 0
170 194 0
172 196 0
171 195 0
170 194 0
174 197 0
172 195 0
173 196 0
174 197 0
174 197 0
174 197 0
171 195 0
175 198 0
175 198 0
173 195 0
173 196 0
171 194 0
174 198 0
171 195 0
172 196 0
175 198 0
171 196 0
174 197 0
171 195 0
170 193 0
175 197 0
172 195 0
174 197 0
174 197 0
174 197 0
173 196 0
172 196 0
176 199 0
171 195 0
174 198 0
174 197 0
174 198 0
174 197 0
171 196 0
174 197 0
173 197 0
174 197 0
175 198 0
171 195 0
174 197 0
175 198 0
174 198 0
173 197 0
173 195 0
173 197 0
175 198 0
174 197 0
175 198 0
174 198 0
171 195 0
175 198 0
174 197 0
173 197 0
173 197 0
174 198 0
173 196 0
171 195 0
174 197 0
172 196 0
173 197 0
174 198 0
174 198 0
173 197 0
172 195 0
174 197 0
174 197 0
173 197 0
174 198 0
174 197 0
175 197 0
175 198 0
174 198 0
174 197 0
174 198 0
173 197 0
175 198 0
173 197 0
173 197 0
172 196 0
173 197 0
174 197 0
173 197 0
173 197 0
174 197 0
173 196 0
174 198 0
174 198 0
174 197 0
174 197 0
173 197 0
174 198 0
174 198 0
174 198 0
175 198 0
175 198 0
175 198 0
174 197 0
174 198 0
175 198 0
174 198 0
173 197 0
172 196 0
174 197 0
175 198 0
175 198 0
175 198 0
173 197 0
174 198 0
175 198 0
173 197 0
175 198 0
174 197 0
174 198 0
174 197 0
174 198 0
173 197 0
174 198 0
173 197 0
174 197 0
173 196 0
174 198 0
174 198 0
174 198 0
175 198 0
174 197 0
173 197 0
173 197 0
173 197 0
174 198 0
174 197 0
174 198 0
175 198 0
172 196 0
176 198 0
175 198 0
175 198 0
175 198 0
175 198 0
173 197 0
174 197 0
174 197 0
174 198 0
173 197 0
173 197 0
173 197 0
176 198 0
174 198 0
172 197 0
173 197 0
175 198 0
173 197 0
175 197 0
174 197 0
174 198 0
175 198 0
176 199 0
174 198 0
175 198 0
174 197 0
175 198 0
175 198 0
174 197 0
175 198 0
174 197 0
175 198 0
176 199 0
174 198 0
173 197 0
174 198 0
172 197 0
175 198 0
174 198 0
175 198 0
175 198 0
175 198 0
175 198 0
176 198 0
174 198 0
175 198 0
174 198 0
175 198 0
173 197 0
174 197 0
173 197 0
173 197 0
176 198 0
174 197 0
175 198 0
174 198 0
174 198 0
175 198 0
174 197 0
173 196 0
174 198 0
172 197 0
174 197 0
174 198 0
173 197 0
177 199 0
173 197 0
175 198 0
173 197 0
173 197 0
174 197 0
173 197 0
174 198 0
175 198 0
174 198 0
173 197 0
174 197 0
174 197 0
174 198 0
174 197 0
176 199 0
173 197 0
173 197 0
173 197 0
173 196 0
175 198 0
174 197 0
174 197 0
173 197 0
173 197 0
175 198 0
173 196 0
173 197 0
174 198 0
174 198 0
173 197 0
173 196 0
173 197 0
173 197 0
174 197 0
174 197 0
172 196 0
175 198 0
173 197 0
172 196 0
173 197 0
173 196 0
174 198 0
174 197 0
174 197 0
173 197 0
174 198 0
175 198 0
173 197 0
175 198 0
174 198 0
174 197 0
173 197 0
174 198 0
175 198 0
175 198 0
175 198 0
176 199 0
173 197 0
174 197 0
174 198 0
175 198 0
175 198 0
175 198 0
175 198 0
175 198 0
174 197 0
175 198 0
174 198 0
175 198 0
173 196 0
173 197 0
172 196 0
174 198 0
175 198 0
174 198 0
171 196 0
174 197 0
174 198 0
173 197 0
171 195 0
174 198 0
174 198 0
174 197 0
173 196 0
174 197 0
172 196 0
174 197 0
173 197 0
174 197 0
172 195 0
174 197 0
175 198 0
175 198 0
171 195 0
171 196 0
173 197 0
172 195 0
173 197 0
174 197 0
174 198 0
174 198 0
175 198 0
172 196 0
175 198 0
173 197 0
172 195 0
174 198 0
175 198 0
172 195 0
173 196 0
171 196 0
173 197 0
172 196 0
174 197 0
172 196 0
172 196 0
173 196 0
174 197 0
175 198 0
175 198 0
175 198 0
174 197 0
174 197 0
176 199 0
174 198 0
173 197 0
171 195 0
176 199 0
173 196 0
174 197 0
177 199 0
173 196 0
173 197 0
174 197 0
173 196 0
173 197 0
171 195 0
172 196 0
175 198 0
174 197 0
172 195 0
173 197 0
174 198 0
176 198 0
173 197 0
174 197 0
174 197 0
172 196 0
174 197 0
174 198 0
172 196 0
172 195 0
173 196 0
175 198 0
173 197 0
171 195 0
174 197 0
175 198 0
172 195 0
172 196 0
172 195 0
171 195 0
171 195 0
172 195 0
172 196 0
172 195 0
170 195 0
173 196 0
172 195 0
172 195 0
173 196 0
173 197 0
171 194 0
173 196 0
174 197 0
170 193 0
172 196 0
174 197 0
173 197 0
174 197 0
172 195 0
172 196 0
172 196 0
175 198 0
172 196 0
173 197 0
174 196 0
173 196 0
172 195 0
172 196 0
173 196 0
171 194 0
172 195 0
173 196 0
172 196 0
174 197 0
174 197 0
173 197 0
172 196 0
167 191 0
174 198 0
173 197 0
173 195 0
174 197 0
174 198 0
171 195 0
173 196 0
173 196 0
172 196 0
173 197 0
172 196 0
171 195 0
175 198 0
175 198 0
174 197 0
175 197 0
172 196 0
173 196 0
174 197 0
173 196 0
174 197 0
173 197 0
171 194 0
174 197 0
172 196 0
173 196 0
174 197 0
171 194 0
174 198 0
173 196 0
173 196 0
174 197 0
174 197 0
174 197 0
173 196 0
175 198 0
174 197 0
172 196 0
174 198 0
173 197 0
171 195 0
172 196 0
173 196 0
173 196 0
175 198 0
174 197 0
174 197 0
174 196 0
175 198 0
173 197 0
173 196 0
175 197 0
174 197 0
174 197 0
174 197 0
175 198 0
173 196 0
174 197 0
173 197 0
173 197 0
174 197 0
173 197 0
176 199 0
173 196 0
174 198 0
173 197 0
173 197 0
176 198 0
174 197 0
174 197 0
173 197 0
172 196 0
175 198 0
174 197 0
176 198 0
173 196 0
174 198 0
173 197 0
173 197 0
174 197 0
174 198 0
176 199 0
173 197 0
175 198 0
173 196 0
174 198 0
174 198 0
175 198 0
173 197 0
172 195 0
173 197 0
172 196 0
174 197 0
174 196 0
174 197 0
175 198 0
174 197 0
174 197 0
174 197 0
174 197 0
174 197 0
174 198 0
175 198 0
173 196 0
173 197 0
175 198 0
174 197 0
173 197 0
175 198 0
173 197 0
175 198 0
173 196 0
175 198 0
174 198 0
172 196 0
174 198 0
176 199 0
175 198 0
173 197 0
174 197 0
174 198 0
176 198 0
174 197 0
173 197 0
173 197 0
174 198 0
173 197 0
174 198 0
174 197 0
173 196 0
173 197 0
174 198 0
173 197 0
174 197 0
174 198 0
174 198 0
174 197 0
175 198 0
174 197 0
174 197 0
172 196 0
174 197 0
174 198 0
174 197 0
175 198 0
173 197 0
175 198 0
176 198 0
173 197 0
175 198 0
174 198 0
176 198 0
175 198 0
175 198 0
173 197 0
175 198 0
176 198 0
174 197 0
173 197 0
174 198 0
175 198 0
173 197 0
173 197 0
174 198 0
172 196 0
174 198 0
173 197 0
174 198 0
174 198 0
174 198 0
173 197 0
175 198 0
173 197 0
174 198 0
174 198 0
173 197 0
174 198 0
173 197 0
175 198 0
174 197 0
175 198 0
174 197 0
175 198 0
175 198 0
176 199 0
176 199 0
175 198 0
173 197 0
175 198 0
174 198 0
172 197 0
174 197 0
174 198 0
174 198 0
176 199 0
174 198 0
174 198 0
174 197 0
174 197 0
175 198 0
174 198 0
174 198 0
173 197 0
174 197 0
173 197 0
172 196 0
174 198 0
172 197 0
174 197 0
174 197 0
174 197 0
173 197 0
175 198 0
174 198 0
174 198 0
173 197 0
173 197 0
175 198 0
172 196 0
171 196 0
172 196 0
175 198 0
173 197 0
175 198 0
174 197 0
174 197 0
172 197 0
174 197 0
172 196 0
173 197 0
174 198 0
175 198 0
174 198 0
175 198 0
173 197 0
174 198 0
175 198 0
174 198 0
174 198 0
175 198 0
177 199 0
173 197 0
175 198 0
175 198 0
174 197 0
175 198 0
172 196 0
173 197 0
176 198 0
175 198 0
172 196 0
174 198 0
174 197 0
174 197 0
173 196 0
174 198 0
176 198 0
176 199 0
174 198 0
173 197 0
173 196 0
175 198 0
175 198 0
172 196 0
174 198 0
175 198 0
175 198 0
174 198 0
172 196 0
173 197 0
173 197 0
173 197 0
174 197 0
174 197 0
173 197 0
174 197 0
176 198 0
173 197 0
173 197 0
172 196 0
176 198 0
173 197 0
174 197 0
175 198 0
172 197 0
174 198 0
174 197 0
172 196 0
172 195 0
175 198 0
173 197 0
174 198 0
173 197 0
175 198 0
174 198 0
172 196 0
173 197 0
174 197 0
172 196 0
173 196 0
174 197 0
171 194 0
173 196 0
174 198 0
174 198 0
173 197 0
173 197 0
171 195 0
174 197 0
172 196 0
175 198 0
171 195 0
175 198 0
173 197 0
174 198 0
172 196 0
172 196 0
172 196 0
174 197 0
172 195 0
173 197 0
172 196 0
174 198 0
172 196 0
172 196 0
174 197 0
172 196 0
174 198 0
172 196 0
173 196 0
173 197 0
173 197 0
175 198 0
172 195 0
174 197 0
174 197 0
173 196 0
172 196 0
173 197 0
174 197 0
174 198 0
173 196 0
173 196 0
174 198 0
172 196 0
173 197 0
172 196 0
174 197 0
175 198 0
175 198 0
172 196 0
173 196 0
172 195 0
174 197 0
172 196 0
173 196 0
172 196 0
171 195 0
172 196 0
173 197 0
175 198 0
173 196 0
173 196 0
173 197 0
173 196 0
176 198 0
173 196 0
171 195 0
169 193 0
172 196 0
174 197 0
173 197 0
173 197 0
175 198 0
171 195 0
172 195 0
173 196 0
173 197 0
171 196 0
173 196 0
173 197 0
174 198 0
174 197 0
174 197 0
173 196 0
173 196 0
173 197 0
173 196 0
172 195 0
171 195 0
175 197 0
174 197 0
171 195 0
173 196 0
174 198 0
175 198 0
172 196 0
171 194 0
172 196 0
173 196 0
171 195 0
173 197 0
172 196 0
173 196 0
173 197 0
173 197 0
176 198 0
174 197 0
174 197 0
171 195 0
173 195 0
174 198 0
174 198 0
171 194 0
173 197 0
173 197 0
173 197 0
173 197 0
172 196 0
173 197 0
173 197 0
172 195 0
175 198 0
173 197 0
173 196 0
173 196 0
175 198 0
174 196 0
174 197 0
173 196 0
173 196 0
173 197 0
173 196 0
173 197 0
175 198 0
175 198 0
172 197 0
173 197 0
173 197 0
172 196 0
172 194 0
174 197 0
174 198 0
173 197 0
173 197 0
175 198 0
175 198 0
172 196 0
173 197 0
172 195 0
172 196 0
173 196 0
175 198 0
173 197 0
173 197 0
174 198 0
172 195 0
170 194 0
173 197 0
175 198 0
174 197 0
174 198 0
174 197 0
174 197 0
174 198 0
174 198 0
173 196 0
172 196 0
174 197 0
174 197 0
174 197 0
174 197 0
173 197 0
174 196 0
173 196 0
175 198 0
174 197 0
174 197 0
176 199 0
172 196 0
172 196 0
175 198 0
175 198 0
172 196 0
174 197 0
174 197 0
174 198 0
174 197 0
175 198 0
174 197 0
175 198 0
173 197 0
173 197 0
175 198 0
173 197 0
175 198 0
174 197 0
172 196 0
175 198 0
171 196 0
173 197 0
173 196 0
174 198 0
172 196 0
173 197 0
173 196 0
175 198 0
174 198 0
171 195 0
173 197 0
174 198 0
174 197 0
173 197 0
173 197 0
174 197 0
175 198 0
175 198 0
175 198 0
173 197 0
173 197 0
174 197 0
175 198 0
174 197 0
173 197 0
173 197 0
174 198 0
175 198 0
175 198 0
174 198 0
174 198 0
174 197 0
172 196 0
175 198 0
174 197 0
174 197 0
173 197 0
173 197 0
174 198 0
174 198 0
173 197 0
176 198 0
174 198 0
175 198 0
174 198 0
175 198 0
174 197 0
176 198 0
174 197 0
174 197 0
173 196 0
174 198 0
175 198 0
174 197 0
175 198 0
176 198 0
174 198 0
174 197 0
175 198 0
175 198 0
173 197 0
175 198 0
175 198 0
175 198 0
176 199 0
174 197 0
174 197 0
175 198 0
174 197 0
173 197 0
175 198 0
173 197 0
174 197 0
174 198 0
174 198 0
175 198 0
173 197 0
176 199 0
175 198 0
175 198 0
174 197 0
174 197 0
174 198 0
176 198 0
173 197 0
175 198 0
174 198 0
174 198 0
174 197 0
174 198 0
176 199 0
175 198 0
174 198 0
176 198 0
174 198 0
173 197 0
174 198 0
174 198 0
174 198 0
173 197 0
175 198 0
173 197 0
174 198 0
175 198 0
173 197 0
173 197 0
173 197 0
174 197 0
174 198 0
174 197 0
173 197 0
173 197 0
174 197 0
174 197 0
175 198 0
174 198 0
175 198 0
175 198 0
174 197 0
174 198 0
174 197 0
173 197 0
174 197 0
172 196 0
174 198 0
175 198 0
171 196 0
175 198 0
174 197 0
174 198 0
175 198 0
174 197 0
174 198 0
174 197 0
175 198 0
173 197 0
174 197 0
174 198 0
174 198 0
174 197 0
174 198 0
174 198 0
174 198 0
172 196 0
174 198 0
174 198 0
174 198 0
175 198 0
174 198 0
175 198 0
172 197 0
175 198 0
175 198 0
174 197 0
176 198 0
173 197 0
173 197 0
174 198 0
174 197 0
174 198 0
174 198 0
174 197 0
174 198 0
174 198 0
174 198 0
175 198 0
173 197 0
174 198 0
173 197 0
173 197 0
175 198 0
175 198 0
175 198 0
173 196 0
175 198 0
174 197 0
175 198 0
173 196 0
172 195 0
174 198 0
174 197 0
174 198 0
173 197 0
175 198 0
174 197 0
174 197 0
174 197 0
174 197 0
173 197 0
173 197 0
174 197 0
173 196 0
174 197 0
172 196 0
174 197 0
174 196 0
175 198 0
175 198 0
175 198 0
173 197 0
174 197 0
174 197 0
174 197 0
174 198 0
173 196 0
172 196 0
175 198 0
174 197 0
174 197 0
173 197 0
174 197 0
172 196 0
173 197 0
174 198 0
175 198 0
174 197 0
174 198 0
172 196 0
172 196 0
173 197 0
175 198 0
176 198 0
173 197 0
172 196 0
174 198 0
172 196 0
173 196 0
173 196 0
174 198 0
174 197 0
174 197 0
174 197 0
173 197 0
175 197 0
173 197 0
172 196 0
175 197 0
175 198 0
174 196 0
172 196 0
174 197 0
173 196 0
172 196 0
170 194 0
173 197 0
175 198 0
174 198 0
171 194 0
173 196 0
176 198 0
171 194 0
174 198 0
173 197 0
173 197 0
172 196 0
173 197 0
172 196 0
173 196 0
175 198 0
172 196 0
175 198 0
172 195 0
173 197 0
171 194 0
172 196 0
173 196 0
173 196 0
173 196 0
171 195 0
172 195 0
171 195 0
175 198 0
170 194 0
173 196 0
168 192 0
174 197 0
173 196 0
174 197 0
173 196 0
170 194 0
175 198 0
172 195 0
173 197 0
171 194 0
172 195 0
174 197 0
172 196 0
171 194 0
171 195 0
173 196 0
174 197 0
176 198 0
173 196 0
173 196 0
173 196 0
173 196 0
171 194 0
172 196 0
173 196 0
173 197 0
172 196 0
175 198 0
174 197 0
176 199 0
173 196 0
173 197 0
169 194 0
173 196 0
172 195 0
174 197 0
172 196 0
172 196 0
173 196 0
173 196 0
172 196 0
173 197 0
175 198 0
174 198 0
173 197 0
172 196 0
172 196 0
173 197 0
175 198 0
173 197 0
174 197 0
175 198 0
173 196 0
173 197 0
171 195 0
172 195 0
173 196 0
173 196 0
174 198 0
173 197 0
173 196 0
174 197 0
172 196 0
172 196 0
172 196 0
173 196 0
174 197 0
174 197 0
175 198 0
174 197 0
175 198 0
174 196 0
171 195 0
175 198 0
174 197 0
172 196 0
173 197 0
175 198 0
173 196 0
176 198 0
173 197 0
173 196 0
174 197 0
173 196 0
174 197 0
173 197 0
175 198 0
175 198 0
174 198 0
173 197 0
172 197 0
175 197 0
173 196 0
172 196 0
175 198 0
176 199 0
174 197 0
176 199 0
173 197 0
174 198 0
174 197 0
175 198 0
175 198 0
173 196 0
175 198 0
175 198 0
173 196 0
173 197 0
175 198 0
176 198 0
173 197 0
175 198 0
175 198 0
174 197 0
174 197 0
172 195 0
173 197 0
174 198 0
172 196 0
175 198 0
174 198 0
174 198 0
174 197 0
174 197 0
174 198 0
175 198 0
173 196 0
174 198 0
174 198 0
175 198 0
175 198 0
174 197 0
175 198 0
172 196 0
175 197 0
174 197 0
174 197 0
174 198 0
174 197 0
174 197 0
173 197 0
173 197 0
175 198 0
174 198 0
173 197 0
176 198 0
173 197 0
172 197 0
174 198 0
175 198 0
174 198 0
173 197 0
175 198 0
173 197 0
174 197 0
175 198 0
174 197 0
175 197 0
176 199 0
174 197 0
174 198 0
174 198 0
174 198 0
174 197 0
175 198 0
175 198 0
175 198 0
174 198 0
174 198 0
175 198 0
175 198 0
173 197 0
175 198 0
174 198 0
175 198 0
176 199 0
173 197 0
174 198 0
176 199 0
173 197 0
174 197 0
174 198 0
173 196 0
173 197 0
174 197 0
172 197 0
175 198 0
173 197 0
173 197 0
176 199 0
175 198 0
174 198 0
172 196 0
173 197 0
174 198 0
176 199 0
175 198 0
176 199 0
174 198 0
176 199 0
174 198 0
174 198 0
174 197 0
175 198 0
175 198 0
174 197 0
174 197 0
175 198 0
175 198 0
172 197 0
175 198 0
174 198 0
174 198 0
173 197 0
176 198 0
175 198 0
174 198 0
173 197 0
175 198 0
174 197 0
175 198 0
173 197 0
176 199 0
174 197 0
174 198 0
173 197 0
175 198 0
174 197 0
172 196 0
173 197 0
173 197 0
173 197 0
175 198 0
175 198 0
176 199 0
174 198 0
174 198 0
173 197 0
174 198 0
176 199 0
175 198 0
174 198 0
173 197 0
175 198 0
176 199 0
175 198 0
173 197 0
174 197 0
175 198 0
173 197 0
174 197 0
174 198 0
174 198 0
175 198 0
174 198 0
173 196 0
176 198 0
174 197 0
173 197 0
174 198 0
173 197 0
174 198 0
174 197 0
174 198 0
175 198 0
172 196 0
174 197 0
174 198 0
174 197 0
176 199 0
173 197 0
175 198 0
174 198 0
173 196 0
175 198 0
174 198 0
174 198 0
175 198 0
175 198 0
173 197 0
173 197 0
173 196 0
175 198 0
174 198 0
174 197 0
174 197 0
173 197 0
175 198 0
172 196 0
173 196 0
175 198 0
171 195 0
174 197 0
176 198 0
173 196 0
174 197 0
173 197 0
174 198 0
174 198 0
172 196 0
173 197 0
174 198 0
176 199 0
174 197 0
173 197 0
174 198 0
174 198 0
173 197 0
176 199 0
175 197 0
173 197 0
175 198 0
174 197 0
172 197 0
174 197 0
172 196 0
174 198 0
174 197 0
175 198 0
176 198 0
171 195 0
173 197 0
173 196 0
173 197 0
174 198 0
174 197 0
175 198 0
172 197 0
173 197 0
173 196 0
173 197 0
173 197 0
175 198 0
172 196 0
172 196 0
173 197 0
174 197 0
174 197 0
173 197 0
173 197 0
171 195 0
174 197 0
174 198 0
172 196 0
171 196 0
175 198 0
173 197 0
173 197 0
174 197 0
175 198 0
172 196 0
175 197 0
172 196 0
173 197 0
173 197 0
174 196 0
173 197 0
172 197 0
174 197 0
174 197 0
172 195 0
172 196 0
174 197 0
173 197 0
171 194 0
174 198 0
172 196 0
171 195 0
174 198 0
176 198 0
172 195 0
172 196 0
174 197 0
171 195 0
172 196 0
174 197 0
173 197 0
174 196 0
173 197 0
174 197 0
172 196 0
171 195 0
173 197 0
173 196 0
173 196 0
172 195 0
174 198 0
173 196 0
173 196 0
172 195 0
172 196 0
172 195 0
173 197 0
175 198 0
169 193 0
173 195 0
172 195 0
173 197 0
174 197 0
173 197 0
173 197 0
173 196 0
174 197 0
172 196 0
172 196 0
174 197 0
174 197 0
174 198 0
171 195 0
173 197 0
173 197 0
169 193 0
170 194 0
172 195 0
174 197 0
173 197 0
172 196 0
173 196 0
170 193 0
175 198 0
172 196 0
174 197 0
174 197 0
175 198 0
172 195 0
172 196 0
173 197 0
172 196 0
172 196 0
173 197 0
171 195 0
172 195 0
172 196 0
173 196 0
172 195 0
173 196 0
173 196 0
172 195 0
172 196 0
174 197 0
173 197 0
174 198 0
174 197 0
176 199 0
173 197 0
172 196 0
174 197 0
173 197 0
173 197 0
173 196 0
172 196 0
175 198 0
175 198 0
171 194 0
170 193 0
175 198 0
172 196 0
173 197 0
174 197 0
175 198 0
173 196 0
173 197 0
174 197 0
174 198 0
174 197 0
173 197 0
173 196 0
173 197 0
173 197 0
173 197 0
172 196 0
172 196 0
177 199 0
173 197 0
172 196 0
174 197 0
174 197 0
174 197 0
174 197 0
174 198 0
174 197 0
175 198 0
173 196 0
174 197 0
173 196 0
174 197 0
174 197 0
174 197 0
174 197 0
174 197 0
174 197 0
173 197 0
174 198 0
173 197 0
173 196 0
175 198 0
175 198 0
173 196 0
173 197 0
174 198 0
175 198 0
176 198 0
173 197 0
174 198 0
175 197 0
174 197 0
173 197 0
172 196 0
173 197 0
175 198 0
176 199 0
174 198 0
173 196 0
175 198 0
175 198 0
174 197 0
175 198 0
175 198 0
175 198 0
175 198 0
176 199 0
174 197 0
175 198 0
175 198 0
175 198 0
174 197 0
174 197 0
174 198 0
174 198 0
176 198 0
175 198 0
174 197 0
174 197 0
173 197 0
175 198 0
173 197 0
175 198 0
175 198 0
175 198 0
175 198 0
174 198 0
175 198 0
174 198 0
175 198 0
176 198 0
175 198 0
174 198 0
176 198 0
175 198 0
174 197 0
173 197 0
173 197 0
175 198 0
175 198 0
175 198 0
173 197 0
176 198 0
175 198 0
175 198 0
173 197 0
176 199 0
176 198 0
175 198 0
173 197 0
174 197 0
174 197 0
173 196 0
174 198 0
175 198 0
173 197 0
174 198 0
174 197 0
175 198 0
175 198 0
174 198 0
173 197 0
174 198 0
175 198 0
173 197 0
175 198 0
174 198 0
174 198 0
174 198 0
175 198 0
173 197 0
174 198 0
172 196 0
175 198 0
173 197 0
176 198 0
175 198 0
176 199 0
175 198 0
173 197 0
174 197 0
174 197 0
174 197 0
175 198 0
174 197 0
174 198 0
176 199 0
174 198 0
173 197 0
172 197 0
174 198 0
173 197 0
173 197 0
175 198 0
175 198 0
174 197 0
174 198 0
174 197 0
174 198 0
174 198 0
174 197 0
172 197 0
175 198 0
174 198 0
175 198 0
175 198 0
175 198 0
174 198 0
175 198 0
176 198 0
175 198 0
175 198 0
175 198 0
174 198 0
173 197 0
174 198 0
173 197 0
173 197 0
174 198 0
173 196 0
175 198 0
173 197 0
173 197 0
173 197 0
174 197 0
175 198 0
175 198 0
174 198 0
173 197 0
174 198 0
174 197 0
175 198 0
174 198 0
175 197 0
173 197 0
173 197 0
175 198 0
173 197 0
173 197 0
174 197 0
175 198 0
175 198 0
174 197 0
173 197 0
174 197 0
176 199 0
175 198 0
173 197 0
173 197 0
174 198 0
173 197 0
175 198 0
174 198 0
174 198 0
174 197 0
173 197 0
174 197 0
172 196 0
174 198 0
174 197 0
174 197 0
176 199 0
174 198 0
174 198 0
174 197 0
173 197 0
173 197 0
174 198 0
174 198 0
174 198 0
173 197 0
172 196 0
174 197 0
174 197 0
173 197 0
174 198 0
174 197 0
174 198 0
174 197 0
172 196 0
175 198 0
174 198 0
173 197 0
172 196 0
173 197 0
172 197 0
173 197 0
175 198 0
174 197 0
171 195 0
174 198 0
171 195 0
173 197 0
173 196 0
174 197 0
175 198 0
174 197 0
174 197 0
173 197 0
174 197 0
174 198 0
173 197 0
173 197 0
174 197 0
174 197 0
172 196 0
175 198 0
176 198 0
173 197 0
174 197 0
173 197 0
176 198 0
172 196 0
174 198 0
173 196 0
175 198 0
173 197 0
176 198 0
172 196 0
173 196 0
173 196 0
171 195 0
172 196 0
172 196 0
173 196 0
173 196 0
173 197 0
171 196 0
173 197 0
174 197 0
173 197 0
175 198 0
173 197 0
176 199 0
173 196 0
172 196 0
174 197 0
175 198 0
174 197 0
173 197 0
174 197 0
172 196 0
173 196 0
174 198 0
173 197 0
173 196 0
173 196 0
171 194 0
173 196 0
174 197 0
174 197 0
172 196 0
175 198 0
173 197 0
171 195 0
171 194 0
172 195 0
175 198 0
171 195 0
172 196 0
172 196 0
173 196 0
173 196 0
173 196 0
171 195 0
172 197 0
172 196 0
173 197 0
173 196 0
173 196 0
173 197 0
176 199 0
174 197 0
173 196 0
174 196 0
173 196 0
174 197 0
172 196 0
171 195 0
172 196 0
174 197 0
173 197 0
172 197 0
170 194 0
169 192 0
173 196 0
173 196 0
174 198 0
172 196 0
173 197 0
174 196 0
174 197 0
173 197 0
173 196 0
174 198 0
171 194 0
174 197 0
174 197 0
172 196 0
173 197 0
173 197 0
173 197 0
175 198 0
174 198 0
172 197 0
174 198 0
173 196 0
172 196 0
173 196 0
173 197 0
171 195 0
173 196 0
173 197 0
174 197 0
172 196 0
173 196 0
173 196 0
174 197 0
173 196 0
171 195 0
172 195 0
171 195 0
173 196 0
172 196 0
173 196 0
173 197 0
172 196 0
175 197 0
173 197 0
174 197 0
174 197 0
174 198 0
174 197 0
175 197 0
171 195 0
173 196 0
173 196 0
174 197 0
175 198 0
172 196 0
173 197 0
173 196 0
173 196 0
173 195 0
174 198 0
175 198 0
171 195 0
173 197 0
172 196 0
174 198 0
174 197 0
173 196 0
173 196 0
172 196 0
175 198 0
174 197 0
176 199 0
176 198 0
175 198 0
174 197 0
173 196 0
172 196 0
173 197 0
176 199 0
174 198 0
172 196 0
174 197 0
173 197 0
173 197 0
174 197 0
172 196 0
173 196 0
173 197 0
173 196 0
174 197 0
172 196 0
173 197 0
175 198 0
174 197 0
174 197 0
174 198 0
174 198 0
174 198 0
174 197 0
173 196 0
174 197 0
174 198 0
174 197 0
175 198 0
173 197 0
173 197 0
173 197 0
174 197 0
175 198 0
174 197 0
174 198 0
174 198 0
174 197 0
173 197 0
174 197 0
174 197 0
175 198 0
173 197 0
175 198 0
175 198 0
174 198 0
174 197 0
175 198 0
174 197 0
174 197 0
174 197 0
174 197 0
173 197 0
173 197 0
175 198 0
174 198 0
174 197 0
174 197 0
176 199 0
174 197 0
175 198 0
175 198 0
173 196 0
172 196 0
172 196 0
173 197 0
175 198 0
174 198 0
173 197 0
175 198 0
173 197 0
175 198 0
175 198 0
174 198 0
174 198 0
172 196 0
175 198 0
173 197 0
175 198 0
172 196 0
174 197 0
173 197 0
173 197 0
174 197 0
174 198 0
174 197 0
174 198 0
173 197 0
175 198 0
174 197 0
174 197 0
175 198 0
173 197 0
175 198 0
173 197 0
174 198 0
175 198 0
174 198 0
176 198 0
172 196 0
176 198 0
173 197 0
174 198 0
174 197 0
172 197 0
173 197 0
176 199 0
174 198 0
174 198 0
173 197 0
174 197 0
174 197 0
175 198 0
174 198 0
175 198 0
176 198 0
175 198 0
173 197 0
174 197 0
175 198 0
174 197 0
174 198 0
173 197 0
174 198 0
174 197 0
176 198 0
172 196 0
174 198 0
174 197 0
174 197 0
172 196 0
175 198 0
173 197 0
175 198 0
174 198 0
174 198 0
175 198 0
175 198 0
177 199 0
173 197 0
174 198 0
174 198 0
173 197 0
173 197 0
175 198 0
175 198 0
175 198 0
175 198 0
173 197 0
174 198 0
175 198 0
175 198 0
176 199 0
173 197 0
174 198 0
174 198 0
174 198 0
175 198 0
173 197 0
174 198 0
174 198 0
172 197 0
175 198 0
174 198 0
173 197 0
174 198 0
175 198 0
175 198 0
173 197 0
174 197 0
175 198 0
174 198 0
175 198 0
174 197 0
175 198 0
174 197 0
174 198 0
173 197 0
174 198 0
174 197 0
174 198 0
175 198 0
176 199 0
176 199 0
175 198 0
174 198 0
174 197 0
175 198 0
176 199 0
173 197 0
172 197 0
175 197 0
174 197 0
174 197 0
173 197 0
174 197 0
172 197 0
174 198 0
176 199 0
173 197 0
174 198 0
174 197 0
174 197 0
175 198 0
174 197 0
173 197 0
173 197 0
174 198 0
173 196 0
175 198 0
175 198 0
173 197 0
174 198 0
174 197 0
175 198 0
174 198 0
174 197 0
174 197 0
174 198 0
174 197 0
173 197 0
174 198 0
176 199 0
174 198 0
174 197 0
174 198 0
174 198 0
174 197 0
174 198 0
173 197 0
173 197 0
174 197 0
174 198 0
175 198 0
175 198 0
174 197 0
175 197 0
176 198 0
173 196 0
172 195 0
175 198 0
174 198 0
174 197 0
173 197 0
174 197 0
173 197 0
172 196 0
173 197 0
174 197 0
172 196 0
173 196 0
174 197 0
174 198 0
173 197 0
173 196 0
174 197 0
172 196 0
175 198 0
172 196 0
173 197 0
175 198 0
176 198 0
171 196 0
174 197 0
173 196 0
173 196 0
172 196 0
174 197 0
174 197 0
174 197 0
175 197 0
174 197 0
175 197 0
175 198 0
173 196 0
175 198 0
174 197 0
173 197 0
174 197 0
174 197 0
174 197 0
173 196 0
174 198 0
173 197 0
173 196 0
172 196 0
173 196 0
171 195 0
172 196 0
174 197 0
173 196 0
172 195 0
174 198 0
173 197 0
173 197 0
173 196 0
172 195 0
173 197 0
173 196 0
174 197 0
173 197 0
172 196 0
173 196 0
174 197 0
172 195 0
171 195 0
174 197 0
174 197 0
173 197 0
173 197 0
173 196 0
174 198 0
172 196 0
174 197 0
174 197 0
172 196 0
173 196 0
173 196 0
175 198 0
174 198 0
172 196 0
173 197 0
173 197 0
175 198 0
175 198 0
171 195 0
173 197 0
174 197 0
174 197 0
171 194 0
173 196 0
171 195 0
172 196 0
174 197 0
175 198 0
172 195 0
172 196 0
174 197 0
174 197 0
173 197 0
174 197 0
172 195 0
173 197 0
173 197 0
173 197 0
173 197 0
174 197 0
172 196 0
171 195 0
175 197 0
172 196 0
174 197 0
172 195 0
173 196 0
174 197 0
171 195 0
172 196 0
174 197 0
172 196 0
174 196 0
173 196 0
171 195 0
173 197 0
171 195 0
173 196 0
172 195 0
175 198 0
174 197 0
171 195 0
174 197 0
175 198 0
173 197 0
175 198 0
171 194 0
173 196 0
174 198 0
174 197 0
173 197 0
174 197 0
175 198 0
175 197 0
174 197 0
171 195 0
172 196 0
172 196 0
173 196 0
173 197 0
173 196 0
173 196 0
173 197 0
173 197 0
174 198 0
174 196 0
175 198 0
173 196 0
173 197 0
173 197 0
173 197 0
173 197 0
174 197 0
174 196 0
174 197 0
173 197 0
173 196 0
173 197 0
173 197 0
173 197 0
175 198 0
173 197 0
173 197 0
174 197 0
175 198 0
173 196 0
173 197 0
175 198 0
174 198 0
175 198 0
175 198 0
172 196 0
174 197 0
172 196 0
176 198 0
171 195 0
176 198 0
174 197 0
173 196 0
174 197 0
174 198 0
174 197 0
172 196 0
173 196 0
174 197 0
176 199 0
173 197 0
174 197 0
173 197 0
175 198 0
174 197 0
174 198 0
174 197 0
175 198 0
173 197 0
176 198 0
174 198 0
175 198 0
175 196 0
174 197 0
174 198 0
173 197 0
175 198 0
173 197 0
173 197 0
173 196 0
173 197 0
174 198 0
174 198 0
173 197 0
174 197 0
174 197 0
173 197 0
176 198 0
173 197 0
174 197 0
174 197 0
176 198 0
172 196 0
174 198 0
174 197 0
174 197 0
173 197 0
174 197 0
174 198 0
174 197 0
172 197 0
172 196 0
173 197 0
174 198 0
174 197 0
175 198 0
174 197 0
173 197 0
173 197 0
173 197 0
174 198 0
175 198 0
174 197 0
173 197 0
174 198 0
173 197 0
175 198 0
173 197 0
174 197 0
174 197 0
176 198 0
174 197 0
175 198 0
175 198 0
174 198 0
173 197 0
174 198 0
174 198 0
175 198 0
174 198 0
174 197 0
174 198 0
173 197 0
173 197 0
173 197 0
172 197 0
174 198 0
174 198 0
174 197 0
175 197 0
172 197 0
174 198 0
175 198 0
175 198 0
176 198 0
173 197 0
173 197 0
173 197 0
175 198 0
174 198 0
174 197 0
174 198 0
175 198 0
175 198 0
175 198 0
173 197 0
174 198 0
175 198 0
177 199 0
174 198 0
174 198 0
174 198 0
175 198 0
175 198 0
175 198 0
175 198 0
173 197 0
173 197 0
174 197 0
174 198 0
174 197 0
173 197 0
175 198 0
177 199 0
173 196 0
173 196 0
174 198 0
175 198 0
174 197 0
175 198 0
174 197 0
173 197 0
174 198 0
176 199 0
174 198 0
175 198 0
173 197 0
171 195 0
174 197 0
174 198 0
174 198 0
176 198 0
173 197 0
176 199 0
173 197 0
173 197 0
174 198 0
173 197 0
174 197 0
175 198 0
174 198 0
172 196 0
174 198 0
173 197 0
173 197 0
173 197 0
175 198 0
175 198 0
174 198 0
173 196 0
174 198 0
173 197 0
174 198 0
174 198 0
175 198 0
176 199 0
176 199 0
174 198 0
173 197 0
175 198 0
173 197 0
174 197 0
174 198 0
173 197 0
174 197 0
174 197 0
173 197 0
173 197 0
174 197 0
173 197 0
173 197 0
174 198 0
174 197 0
175 198 0
174 198 0
173 197 0
172 196 0
172 195 0
173 197 0
174 197 0
172 197 0
174 198 0
174 198 0
175 198 0
172 196 0
176 199 0
174 198 0
175 198 0
174 198 0
174 197 0
174 198 0
173 197 0
173 197 0
173 196 0
175 198 0
174 197 0
175 197 0
172 197 0
172 196 0
174 197 0
174 197 0
174 197 0
174 197 0
173 197 0
173 197 0
175 198 0
175 198 0
173 197 0
174 197 0
174 197 0
173 197 0
174 197 0
173 197 0
174 197 0
174 198 0
175 198 0
172 195 0
173 197 0
175 198 0
174 197 0
174 198 0
173 196 0
174 197 0
175 198 0
173 196 0
174 197 0
175 198 0
174 197 0
173 196 0
175 198 0
174 198 0
175 198 0
172 196 0
174 197 0
172 196 0
172 195 0
174 197 0
174 197 0
171 196 0
174 197 0
171 195 0
172 196 0
174 197 0
174 197 0
174 197 0
173 196 0
172 196 0
173 197 0
173 197 0
172 196 0
172 196 0
172 196 0
173 196 0
172 196 0
172 195 0
173 197 0
172 195 0
172 196 0
171 195 0
172 195 0
173 196 0
171 195 0
170 194 0
175 198 0
172 196 0
173 196 0
174 197 0
175 197 0
173 197 0
173 197 0
172 195 0
173 196 0
173 197 0
173 196 0
171 195 0
172 196 0
173 196 0
173 196 0
175 198 0
174 197 0
174 197 0
173 197 0
171 195 0
174 196 0
173 196 0
172 196 0
172 195 0
174 197 0
171 195 0
173 197 0
171 195 0
173 197 0
174 197 0
175 198 0
173 197 0
172 195 0
174 197 0
172 196 0
171 194 0
175 198 0
172 196 0
173 196 0
171 196 0
172 196 0
174 197 0
173 196 0
173 195 0
173 196 0
174 197 0
174 197 0
173 196 0
172 195 0
172 196 0
168 191 0
174 198 0
173 195 0
173 195 0
175 198 0
173 196 0
172 196 0
172 196 0
173 196 0
170 194 0
172 196 0
174 197 0
172 195 0
174 197 0
171 195 0
174 197 0
173 196 0
173 196 0
176 199 0
172 197 0
174 197 0
173 196 0
174 197 0
175 198 0
173 196 0
172 195 0
172 196 0
174 197 0
173 196 0
174 197 0
174 196 0
175 198 0
174 197 0
172 196 0
172 196 0
173 196 0
173 197 0
173 197 0
176 199 0
172 196 0
174 198 0
173 197 0
173 196 0
173 196 0
174 198 0
174 197 0
173 197 0
175 198 0
174 198 0
175 198 0
173 197 0
172 196 0
174 197 0
175 198 0
173 196 0
174 197 0
172 196 0
174 197 0
174 197 0
173 197 0
174 198 0
173 197 0
174 197 0
173 196 0
174 197 0
174 197 0
173 196 0
173 196 0
175 198 0
175 198 0
174 197 0
176 198 0
176 198 0
174 197 0
176 198 0
175 198 0
174 197 0
173 197 0
174 198 0
174 197 0
173 197 0
173 197 0
175 198 0
174 197 0
175 198 0
172 196 0
174 197 0
175 198 0
174 198 0
172 196 0
176 199 0
174 197 0
172 196 0
174 197 0
174 197 0
175 198 0
175 198 0
174 197 0
175 198 0
173 196 0
173 197 0
175 197 0
172 196 0
174 198 0
173 196 0
175 198 0
174 198 0
175 198 0
174 198 0
175 198 0
174 198 0
174 198 0
172 197 0
175 198 0
174 198 0
174 198 0
173 197 0
172 196 0
173 197 0
174 197 0
174 197 0
175 198 0
176 198 0
174 197 0
175 198 0
175 198 0
174 198 0
175 197 0
174 197 0
175 198 0
175 198 0
174 197 0
173 197 0
176 199 0
174 198 0
173 197 0
176 198 0
175 198 0
174 198 0
174 197 0
175 198 0
173 197 0
173 197 0
175 198 0
174 198 0
173 197 0
174 198 0
173 197 0
175 198 0
174 198 0
175 198 0
176 199 0
174 197 0
174 198 0
175 198 0
176 199 0
174 198 0
175 198 0
173 197 0
173 197 0
175 198 0
173 197 0
173 197 0
175 198 0
174 198 0
175 198 0
174 198 0
173 197 0
175 198 0
174 197 0
175 198 0
174 198 0
175 198 0
172 197 0
173 197 0
174 198 0
174 198 0
176 199 0
175 198 0
173 197 0
173 197 0
176 198 0
174 198 0
174 197 0
173 196 0
175 198 0
175 198 0
174 197 0
175 198 0
175 198 0
173 197 0
173 197 0
172 196 0
175 198 0
174 198 0
174 198 0
173 197 0
174 198 0
175 198 0
175 198 0
175 198 0
175 198 0
172 196 0
172 196 0
175 198 0
174 198 0
176 198 0
174 198 0
174 198 0
174 198 0
175 198 0
176 199 0
174 198 0
174 198 0
175 198 0
174 197 0
173 197 0
173 197 0
174 198 0
174 197 0
175 198 0
175 198 0
175 198 0
173 197 0
174 197 0
174 198 0
174 198 0
172 196 0
174 198 0
174 198 0
172 197 0
174 198 0
174 198 0
175 198 0
172 197 0
176 199 0
174 198 0
174 198 0
174 198 0
174 198 0
175 198 0
174 197 0
173 197 0
173 196 0
176 199 0
175 198 0
174 197 0
173 197 0
175 198 0
176 198 0
174 198 0
174 198 0
173 197 0
175 198 0
175 198 0
174 198 0
173 197 0
176 198 0
174 198 0
174 198 0
174 198 0
171 195 0
172 196 0
175 198 0
173 197 0
174 197 0
174 197 0
174 197 0
175 198 0
174 197 0
174 197 0
174 198 0
173 197 0
174 198 0
173 197 0
175 198 0
176 199 0
173 197 0
174 198 0
174 198 0
175 198 0
172 197 0
173 196 0
172 196 0
173 196 0
175 198 0
172 196 0
174 197 0
174 198 0
172 196 0
174 197 0
174 197 0
172 196 0
176 198 0
174 198 0
173 197 0
175 197 0
174 197 0
174 197 0
173 197 0
173 197 0
174 198 0
173 196 0
175 198 0
174 197 0
172 196 0
173 196 0
174 198 0
173 195 0
174 197 0
174 198 0
173 196 0
173 197 0
174 197 0
173 196 0
173 197 0
174 197 0
172 195 0
176 198 0
172 196 0
173 197 0
173 197 0
172 196 0
175 198 0
174 198 0
173 196 0
172 196 0
174 197 0
173 197 0
173 196 0
172 196 0
174 197 0
172 196 0
173 196 0
173 197 0
174 197 0
172 196 0
174 197 0
174 197 0
173 196 0
173 197 0
173 197 0
172 195 0
172 196 0
171 195 0
174 197 0
172 195 0
172 196 0
173 197 0
172 196 0
174 197 0
172 196 0
175 198 0
172 196 0
174 197 0
172 195 0
173 197 0
173 196 0
172 195 0
174 197 0
173 196 0
172 195 0
172 196 0
171 194 0
171 195 0
172 196 0
172 196 0
173 196 0
173 197 0
175 198 0
172 196 0
171 195 0
172 196 0
173 196 0
175 198 0
173 196 0
175 197 0
171 195 0
172 196 0
173 196 0
173 197 0
171 195 0
173 197 0
172 196 0
173 197 0
173 197 0
174 197 0
171 195 0
173 196 0
173 197 0
170 193 0
173 197 0
174 197 0
174 197 0
174 197 0
175 198 0
175 197 0
174 198 0
173 197 0
172 195 0
171 195 0
174 197 0
171 194 0
173 196 0
172 196 0
171 194 0
171 195 0
174 197 0
174 197 0
173 196 0
173 197 0
172 196 0
172 196 0
172 196 0
174 197 0
173 197 0
172 195 0
174 197 0
173 197 0
174 198 0
172 195 0
174 197 0
171 196 0
173 196 0
175 197 0
173 197 0
173 197 0
171 196 0
173 197 0
172 196 0
175 198 0
176 199 0
174 198 0
174 197 0
173 196 0
172 196 0
174 198 0
172 196 0
173 197 0
174 198 0
173 197 0
170 195 0
174 197 0
175 198 0
173 196 0
173 196 0
174 197 0
174 197 0
172 195 0
171 195 0
176 199 0
174 197 0
172 196 0
173 197 0
175 198 0
174 197 0
174 198 0
174 197 0
173 197 0
173 197 0
173 196 0
176 198 0
174 197 0
174 198 0
174 197 0
174 197 0
173 197 0
175 198 0
173 196 0
174 198 0
174 197 0
173 197 0
173 197 0
173 196 0
174 197 0
174 197 0
173 197 0
174 197 0
173 196 0
176 198 0
173 197 0
173 196 0
174 197 0
174 197 0
174 197 0
174 196 0
174 197 0
174 198 0
173 197 0
174 198 0
172 196 0
175 198 0
173 196 0
171 195 0
175 197 0
175 198 0
176 198 0
174 197 0
173 197 0
174 198 0
174 198 0
174 197 0
175 198 0
172 196 0
173 197 0
174 198 0
174 197 0
173 196 0
176 198 0
172 197 0
173 197 0
174 197 0
172 196 0
175 198 0
173 197 0
175 198 0
176 198 0
175 198 0
174 198 0
174 197 0
175 198 0
174 197 0
173 197 0
173 197 0
173 196 0
173 197 0
174 197 0
174 198 0
174 198 0
174 197 0
173 197 0
173 197 0
174 197 0
175 198 0
174 198 0
174 196 0
174 197 0
175 198 0
174 197 0
174 197 0
175 198 0
173 197 0
172 196 0
172 196 0
175 198 0
175 198 0
174 197 0
175 198 0
175 198 0
175 198 0
176 198 0
175 198 0
172 196 0
174 197 0
175 198 0
173 197 0
173 197 0
173 196 0
176 199 0
174 197 0
175 198 0
174 198 0
173 197 0
174 197 0
174 197 0
175 198 0
174 198 0
174 197 0
175 198 0
174 197 0
174 198 0
175 198 0
175 198 0
175 198 0
175 198 0
174 198 0
175 198 0
175 198 0
174 198 0
174 197 0
173 197 0
176 198 0
173 197 0
175 198 0
175 198 0
174 197 0
174 197 0
175 198 0
174 198 0
173 197 0
174 197 0
174 198 0
175 198 0
174 198 0
177 199 0
175 198 0
175 198 0
173 197 0
174 197 0
176 199 0
175 198 0
174 198 0
174 198 0
173 197 0
173 197 0
173 196 0
173 197 0
173 196 0
176 199 0
174 198 0
174 198 0
175 198 0
175 198 0
175 198 0
175 198 0
174 198 0
176 199 0
174 198 0
174 197 0
174 198 0
174 198 0
172 196 0
175 198 0
174 198 0
175 198 0
172 196 0
177 199 0
175 198 0
174 198 0
174 197 0
174 198 0
174 197 0
175 198 0
174 197 0
175 198 0
173 197 0
172 196 0
173 197 0
174 198 0
175 198 0
175 198 0
173 196 0
173 197 0
174 197 0
174 197 0
175 198 0
173 197 0
175 198 0
173 197 0
174 198 0
173 197 0
174 198 0
176 198 0
175 198 0
175 198 0
174 198 0
175 198 0
175 198 0
173 197 0
176 198 0
175 198 0
175 198 0
173 197 0
174 198 0
173 197 0
175 198 0
176 199 0
173 197 0
175 198 0
174 198 0
175 198 0
175 198 0
174 197 0
175 198 0
175 198 0
172 196 0
175 198 0
175 198 0
174 197 0
174 197 0
173 196 0
174 197 0
172 196 0
174 198 0
172 196 0
175 198 0
173 197 0
175 198 0
175 198 0
175 198 0
175 198 0
175 198 0
175 198 0
174 197 0
174 197 0
174 198 0
174 197 0
174 198 0
173 197 0
173 197 0
175 198 0
174 197 0
175 198 0
172 195 0
175 198 0
173 197 0
174 198 0
174 198 0
173 197 0
175 198 0
172 196 0
174 197 0
174 197 0
174 197 0
174 197 0
173 196 0
174 198 0
172 196 0
174 197 0
174 197 0
172 195 0
173 197 0
174 197 0
174 198 0
174 197 0
172 196 0
173 197 0
173 197 0
174 197 0
170 194 0
173 197 0
173 197 0
175 198 0
175 198 0
172 196 0
176 198 0
173 197 0
174 198 0
173 196 0
174 196 0
174 197 0
172 196 0
173 197 0
172 195 0
176 198 0
172 195 0
173 196 0
173 197 0
173 196 0
173 197 0
172 195 0
174 197 0
173 196 0
173 197 0
172 196 0
173 197 0
172 196 0
170 194 0
172 196 0
173 196 0
172 196 0
173 197 0
171 195 0
172 196 0
172 196 0
172 196 0
173 196 0
172 195 0
171 195 0
171 194 0
176 198 0
171 195 0
172 196 0
172 196 0
171 195 0
174 198 0
174 198 0
171 194 0
171 195 0
173 196 0
171 196 0
173 196 0
174 196 0
173 196 0
173 196 0
171 195 0
170 194 0
174 198 0
175 198 0
173 196 0
173 197 0
172 196 0
173 196 0
173 197 0
173 197 0
170 194 0
173 196 0
174 197 0
174 198 0
171 195 0
172 196 0
172 196 0
174 197 0
173 196 0
174 197 0
173 196 0
173 197 0
173 196 0
173 196 0
173 196 0
173 196 0
173 196 0
174 198 0
175 198 0
173 196 0
171 195 0
173 197 0
172 196 0
175 198 0
174 197 0
174 197 0
173 197 0
175 198 0
173 196 0
175 198 0
172 196 0
173 197 0
175 198 0
174 197 0
174 197 0
173 196 0
173 196 0
176 198 0
173 196 0
173 197 0
173 196 0
175 197 0
175 198 0
173 197 0
172 195 0
173 197 0
173 197 0
173 197 0
173 196 0
174 197 0
173 196 0
174 197 0
175 198 0
172 196 0
172 196 0
174 197 0
175 198 0
174 198 0
174 197 0
174 198 0
176 199 0
174 197 0
173 196 0
173 197 0
175 198 0
175 198 0
174 197 0
176 199 0
173 197 0
174 197 0
174 197 0
174 197 0
172 196 0
174 198 0
173 196 0
175 198 0
173 197 0
174 197 0
174 198 0
175 198 0
174 197 0
175 198 0
174 197 0
173 197 0
175 198 0
175 198 0
175 198 0
172 196 0
175 198 0
175 198 0
173 197 0
174 197 0
174 197 0
173 197 0
173 196 0
173 197 0
174 197 0
174 197 0
175 198 0
173 197 0
173 196 0
175 198 0
174 198 0
173 197 0
174 198 0
175 198 0
175 198 0
175 198 0
174 198 0
173 197 0
174 198 0
173 197 0
172 196 0
175 198 0
174 197 0
174 197 0
175 198 0
176 198 0
175 198 0
175 198 0
175 198 0
175 197 0
174 197 0
174 197 0
175 198 0
175 198 0
175 198 0
175 198 0
174 197 0
176 199 0
175 198 0
172 196 0
176 199 0
174 197 0
173 197 0
175 198 0
174 198 0
175 198 0
175 198 0
173 197 0
174 197 0
174 197 0
174 198 0
173 196 0
174 198 0
174 198 0
174 197 0
175 198 0
175 198 0
172 197 0
173 197 0
173 197 0
174 198 0
173 197 0
174 197 0
174 198 0
174 198 0
175 198 0
174 198 0
174 197 0
173 197 0
173 197 0
173 197 0
174 198 0
176 199 0
172 196 0
175 198 0
174 198 0
173 197 0
176 199 0
175 198 0
172 197 0
175 198 0
173 197 0
174 197 0
173 197 0
174 198 0
176 198 0
174 198 0
175 198 0
175 198 0
174 197 0
175 198 0
174 197 0
176 199 0
175 198 0
173 197 0
174 198 0
174 198 0
174 197 0
175 198 0
175 198 0
174 198 0
174 198 0
171 196 0
174 197 0
176 198 0
175 198 0
176 198 0
174 198 0
172 196 0
173 197 0
175 198 0
174 198 0
175 198 0
174 197 0
174 197 0
175 198 0
174 197 0
176 199 0
174 198 0
176 199 0
174 198 0
176 198 0
176 199 0
174 197 0
173 197 0
174 197 0
174 198 0
175 198 0
174 198 0
172 196 0
174 197 0
173 197 0
175 198 0
175 198 0
175 198 0
175 198 0
175 198 0
175 198 0
175 198 0
175 198 0
174 198 0
175 198 0
175 198 0
175 198 0
175 198 0
174 198 0
173 197 0
175 198 0
174 197 0
173 197 0
173 197 0
174 197 0
174 198 0
175 198 0
175 198 0
174 198 0
174 197 0
175 198 0
174 198 0
173 197 0
175 198 0
174 197 0
174 198 0
173 197 0
175 198 0
174 197 0
175 198 0
174 197 0
173 197 0
174 197 0
174 197 0
175 198 0
174 198 0
172 196 0
172 196 0
174 198 0
175 198 0
173 197 0
175 198 0
173 196 0
175 198 0
175 198 0
175 198 0
173 197 0
175 198 0
173 197 0
175 198 0
175 198 0
174 197 0
174 197 0
174 197 0
174 197 0
175 198 0
170 194 0
174 198 0
174 197 0
175 198 0
175 198 0
174 197 0
173 197 0
173 197 0
174 198 0
175 198 0
171 195 0
175 198 0
174 198 0
176 198 0
173 196 0
174 197 0
173 197 0
174 197 0
172 197 0
174 198 0
173 197 0
173 197 0
174 198 0
176 198 0
174 197 0
173 197 0
174 197 0
173 197 0
175 198 0
173 197 0
173 197 0
174 197 0
173 197 0
173 197 0
174 198 0
174 197 0
175 197 0
173 197 0
172 196 0
172 196 0
172 196 0
173 196 0
172 195 0
174 198 0
172 196 0
171 195 0
174 198 0
174 197 0
175 198 0
171 195 0
173 197 0
174 197 0
174 198 0
172 196 0
173 197 0
172 195 0
174 197 0
174 197 0
172 196 0
172 196 0
174 197 0
173 196 0
174 197 0
173 197 0
175 198 0
173 197 0
173 196 0
171 195 0
172 196 0
172 195 0
173 196 0
174 197 0
172 195 0
173 197 0
172 196 0
173 196 0
174 197 0
172 195 0
173 196 0
173 196 0
175 198 0
174 197 0
174 197 0
173 197 0
174 198 0
173 197 0
175 198 0
172 196 0
175 197 0
169 192 0
173 197 0
175 198 0
172 195 0
171 194 0
171 195 0
172 196 0
175 198 0
173 196 0
171 194 0
172 196 0
174 198 0
172 196 0
174 197 0
175 198 0
173 197 0
173 197 0
172 196 0
173 197 0
174 197 0
174 197 0
174 197 0
173 197 0
172 196 0
173 197 0
172 195 0
175 198 0
174 197 0
174 197 0
174 197 0
173 197 0
173 196 0
173 197 0
173 196 0
173 197 0
172 195 0
174 197 0
173 197 0
172 196 0
173 196 0
173 197 0
172 195 0
174 197 0
173 197 0
171 194 0
173 197 0
175 198 0
173 197 0
173 196 0
172 195 0
171 195 0
174 197 0
172 196 0
176 198 0
171 194 0
174 198 0
173 196 0
173 197 0
173 197 0
173 197 0
173 197 0
175 198 0
176 198 0
173 197 0
173 196 0
174 197 0
172 195 0
175 198 0
173 196 0
172 196 0
174 197 0
173 196 0
172 196 0
175 198 0
171 195 0
174 198 0
174 197 0
175 197 0
175 198 0
174 198 0
174 198 0
173 197 0
175 198 0
175 198 0
173 197 0
172 196 0
175 198 0
173 197 0
175 198 0
174 197 0
172 196 0
174 197 0
173 196 0
174 197 0
172 196 0
172 196 0
173 197 0
174 197 0
175 198 0
172 196 0
173 197 0
175 198 0
175 198 0
172 196 0
174 197 0
174 197 0
174 197 0
175 198 0
173 197 0
173 196 0
174 197 0
173 196 0
173 197 0
176 199 0
174 197 0
175 198 0
174 198 0
174 197 0
174 198 0
175 198 0
175 198 0
173 197 0
174 198 0
174 198 0
175 198 0
173 196 0
174 197 0
174 198 0
173 197 0
175 198 0
173 197 0
175 198 0
175 198 0
175 198 0
175 198 0
174 198 0
174 198 0
173 197 0
174 198 0
173 197 0
176 199 0
174 198 0
174 196 0
174 197 0
174 197 0
173 197 0
174 197 0
173 196 0
175 198 0
174 197 0
173 197 0
174 198 0
174 198 0
175 198 0
173 197 0
175 198 0
175 198 0
174 197 0
173 197 0
174 197 0
172 197 0
174 197 0
174 197 0
175 198 0
173 197 0
174 198 0
174 197 0
175 198 0
175 198 0
175 198 0
175 198 0
174 197 0
175 198 0
175 198 0
175 198 0
176 198 0
173 197 0
175 198 0
175 198 0
174 198 0
174 198 0
175 198 0
174 197 0
173 197 0
174 198 0
173 197 0
175 198 0
174 198 0
175 198 0
174 197 0
175 198 0
174 197 0
176 199 0
174 197 0
175 198 0
173 197 0
173 197 0
176 198 0
175 198 0
175 198 0
175 198 0
173 197 0
174 198 0
174 198 0
174 198 0
175 198 0
175 198 0
174 198 0
175 198 0
174 198 0
174 197 0
175 198 0
174 198 0
174 198 0
174 198 0
175 198 0
174 198 0
175 198 0
174 197 0
174 197 0
174 198 0
174 198 0
174 198 0
176 199 0
173 197 0
174 197 0
174 197 0
172 197 0
174 197 0
175 198 0
175 198 0
175 198 0
174 197 0
174 198 0
175 198 0
175 198 0
174 198 0
175 198 0
174 198 0
175 198 0
174 198 0
174 197 0
175 198 0
175 198 0
173 197 0
174 198 0
173 197 0
173 197 0
174 197 0
174 198 0
174 198 0
173 197 0
174 197 0
176 199 0
174 198 0
175 198 0
174 197 0
174 197 0
173 197 0
174 198 0
175 198 0
174 198 0
175 198 0
174 198 0
174 198 0
173 197 0
176 199 0
175 198 0
174 198 0
174 197 0
176 199 0
175 198 0
175 198 0
175 198 0
174 198 0
172 196 0
176 199 0
174 198 0
173 197 0
174 197 0
173 197 0
175 198 0
173 197 0
175 198 0
174 198 0
175 198 0
174 197 0
173 197 0
173 197 0
175 198 0
174 198 0
174 197 0
176 199 0
175 198 0
174 198 0
173 197 0
175 198 0
174 198 0
174 198 0
175 198 0
174 197 0
173 197 0
174 198 0
174 197 0
173 196 0
174 197 0
173 197 0
175 198 0
173 197 0
174 198 0
175 198 0
174 198 0
175 198 0
174 197 0
173 197 0
173 197 0
176 199 0
172 197 0
174 198 0
173 197 0
173 196 0
174 198 0
172 197 0
174 197 0
173 197 0
173 197 0
173 197 0
174 197 0
173 197 0
173 197 0
172 196 0
173 197 0
174 197 0
173 197 0
174 197 0
174 198 0
173 197 0
175 198 0
173 197 0
174 197 0
172 195 0
173 196 0
172 196 0
173 197 0
175 198 0
171 195 0
174 197 0
172 196 0
174 198 0
171 195 0
170 194 0
175 197 0
174 197 0
173 197 0
174 196 0
173 197 0
175 197 0
172 196 0
173 196 0
174 198 0
174 198 0
174 197 0
173 196 0
173 197 0
174 197 0
173 196 0
172 196 0
175 198 0
172 195 0
172 196 0
173 197 0
174 197 0
175 198 0
174 197 0
174 197 0
174 198 0
174 197 0
175 197 0
175 198 0
173 196 0
174 197 0
172 196 0
174 197 0
172 195 0
171 194 0
173 197 0
173 197 0
175 198 0
173 197 0
171 195 0
171 196 0
174 197 0
174 197 0
175 198 0
173 197 0
172 196 0
173 197 0
173 197 0
172 196 0
173 196 0
171 195 0
170 194 0
173 197 0
172 195 0
171 195 0
171 194 0
173 197 0
174 197 0
171 195 0
171 194 0
170 194 0
173 196 0
174 197 0
173 196 0
172 196 0
173 196 0
173 197 0
170 194 0
173 197 0
173 197 0
173 197 0
172 195 0
173 196 0
174 197 0
172 196 0
173 197 0
173 195 0
172 195 0
173 197 0
174 197 0
174 197 0
174 197 0
172 196 0
171 195 0
175 198 0
173 196 0
171 195 0
173 197 0
175 198 0
175 198 0
171 195 0
173 197 0
171 195 0
174 197 0
175 198 0
174 197 0
173 196 0
173 197 0
174 198 0
175 198 0
174 198 0
171 195 0
171 195 0
172 196 0
172 196 0
175 198 0
173 196 0
173 197 0
174 197 0
173 197 0
172 196 0
174 198 0
174 198 0
175 198 0
175 198 0
173 197 0
175 198 0
174 197 0
172 196 0
173 196 0
169 193 0
173 197 0
174 197 0
171 194 0
174 198 0
174 198 0
172 196 0
173 197 0
174 198 0
176 198 0
172 196 0
175 198 0
175 198 0
170 193 0
173 196 0
173 196 0
174 197 0
172 196 0
176 199 0
174 197 0
174 197 0
173 196 0
175 198 0
172 196 0
173 197 0
171 196 0
173 197 0
174 198 0
173 196 0
174 198 0
174 198 0
173 196 0
173 197 0
175 198 0
174 197 0
174 198 0
175 198 0
173 197 0
175 197 0
174 197 0
175 198 0
173 197 0
175 198 0
175 198 0
175 198 0
174 198 0
174 197 0
175 198 0
176 199 0
174 197 0
173 197 0
173 196 0
175 198 0
174 197 0
173 197 0
174 197 0
175 198 0
175 198 0
175 198 0
174 197 0
175 198 0
173 197 0
175 198 0
175 198 0
171 195 0
172 196 0
174 198 0
174 198 0
174 197 0
175 198 0
173 197 0
175 198 0
174 198 0
173 197 0
175 198 0
174 197 0
174 197 0
174 198 0
175 198 0
173 197 0
175 198 0
172 197 0
173 196 0
173 197 0
173 197 0
175 198 0
173 197 0
174 197 0
175 198 0
174 198 0
173 197 0
175 198 0
173 197 0
174 197 0
174 197 0
174 197 0
175 198 0
171 196 0
175 198 0
174 197 0
173 197 0
175 198 0
173 197 0
173 197 0
173 196 0
174 198 0
172 197 0
176 198 0
175 198 0
174 197 0
176 199 0
172 196 0
173 197 0
174 198 0
174 197 0
174 198 0
174 198 0
174 198 0
175 198 0
175 198 0
175 198 0
173 197 0
173 197 0
175 198 0
174 198 0
172 196 0
175 198 0
173 197 0
175 198 0
176 198 0
176 199 0
175 198 0
177 199 0
175 198 0
174 197 0
176 199 0
174 198 0
173 197 0
174 198 0
175 198 0
176 199 0
175 198 0
175 198 0
174 198 0
174 198 0
175 198 0
174 197 0
173 197 0
175 198 0
174 197 0
174 198 0
174 197 0
174 198 0
174 197 0
174 197 0
175 198 0
173 197 0
173 197 0
173 197 0
175 198 0
174 198 0
174 198 0
176 199 0
173 197 0
174 198 0
174 198 0
174 197 0
173 197 0
176 198 0
174 198 0
175 198 0
175 198 0
172 196 0
176 199 0
175 198 0
174 198 0
174 197 0
174 198 0
175 198 0
175 198 0
173 197 0
175 198 0
173 197 0
173 197 0
174 197 0
174 198 0
174 197 0
174 197 0
172 197 0
177 199 0
175 198 0
174 197 0
174 198 0
174 197 0
175 198 0
173 197 0
172 196 0
176 199 0
175 198 0
175 198 0
173 197 0
175 198 0
173 197 0
174 198 0
174 197 0
175 198 0
174 198 0
173 196 0
175 198 0
173 197 0
175 198 0
175 198 0
174 198 0
172 196 0
173 197 0
174 198 0
173 197 0
173 196 0
174 197 0
174 198 0
172 197 0
173 197 0
173 197 0
175 198 0
173 197 0
174 197 0
174 197 0
174 198 0
175 198 0
174 197 0
174 197 0
174 198 0
173 196 0
175 198 0
172 196 0
175 198 0
174 198 0
173 197 0
174 198 0
172 196 0
174 198 0
172 195 0
172 196 0
174 198 0
174 198 0
175 198 0
176 198 0
174 198 0
173 197 0
174 198 0
173 197 0
172 196 0
174 198 0
174 197 0
174 197 0
173 197 0
172 196 0
175 198 0
173 197 0
175 198 0
172 196 0
174 198 0
173 197 0
174 197 0
174 197 0
174 197 0
175 198 0
173 197 0
174 197 0
176 198 0
175 198 0
172 196 0
172 196 0
172 196 0
173 197 0
172 196 0
175 198 0
173 196 0
175 198 0
173 197 0
174 197 0
172 196 0
175 198 0
174 197 0
173 196 0
174 197 0
173 197 0
173 197 0
173 196 0
174 197 0
174 197 0
173 196 0
171 195 0
174 198 0
174 197 0
173 197 0
172 195 0
173 197 0
175 198 0
173 196 0
175 197 0
171 194 0
174 197 0
176 199 0
173 197 0
173 197 0
173 196 0
173 196 0
174 197 0
172 196 0
172 196 0
173 197 0
172 195 0
171 195 0
172 196 0
174 197 0
172 196 0
174 198 0
173 197 0
173 196 0
174 197 0
176 199 0
175 197 0
176 199 0
172 196 0
172 195 0
173 197 0
174 197 0
172 196 0
175 198 0
174 196 0
174 197 0
173 196 0
173 197 0
173 196 0
173 196 0
172 196 0
173 197 0
174 197 0
172 196 0
172 195 0
172 196 0
173 196 0
174 197 0
173 197 0
173 197 0
174 197 0
174 197 0
172 196 0
172 195 0
171 195 0
172 196 0
173 196 0
172 196 0
175 198 0
173 196 0
174 196 0
173 197 0
172 196 0
173 197 0
175 198 0
172 196 0
172 196 0
172 195 0
173 196 0
173 196 0
171 195 0
172 195 0
174 198 0
173 196 0
173 196 0
172 196 0
172 197 0
175 198 0
174 197 0
174 197 0
172 196 0
176 199 0
174 197 0
172 196 0
173 196 0
173 197 0
173 196 0
173 197 0
174 197 0
174 197 0
173 197 0
173 196 0
174 197 0
176 198 0
173 197 0
173 197 0
176 199 0
173 196 0
175 198 0
173 196 0
173 197 0
175 198 0
173 197 0
174 197 0
174 197 0
174 197 0
172 196 0
171 195 0
175 198 0
174 198 0
174 197 0
172 197 0
171 195 0
176 198 0
173 197 0
175 198 0
175 198 0
174 197 0
175 198 0
172 195 0
173 197 0
174 197 0
174 198 0
174 197 0
171 195 0
173 196 0
173 197 0
171 195 0
174 197 0
174 197 0
173 196 0
174 197 0
172 195 0
174 198 0
174 198 0
173 195 0
171 195 0
174 198 0
174 197 0
173 197 0
173 197 0
175 198 0
175 198 0
175 197 0
175 198 0
173 196 0
173 197 0
175 197 0
174 198 0
175 198 0
175 197 0
175 198 0
175 198 0
174 197 0
176 199 0
175 198 0
172 196 0
173 196 0
174 197 0
173 197 0
175 198 0
173 197 0
175 198 0
174 198 0
174 197 0
174 197 0
174 197 0
176 199 0
174 198 0
176 198 0
176 198 0
175 198 0
174 197 0
174 198 0
174 198 0
176 198 0
173 196 0
173 197 0
173 197 0
174 198 0
174 197 0
174 197 0
174 198 0
175 198 0
174 198 0
174 198 0
175 198 0
175 197 0
174 197 0
173 197 0
175 198 0
174 198 0
175 198 0
174 197 0
175 198 0
173 197 0
172 196 0
174 198 0
176 199 0
175 198 0
174 198 0
175 198 0
174 198 0
175 198 0
173 197 0
173 197 0
175 198 0
173 197 0
174 197 0
173 197 0
174 198 0
174 198 0
174 198 0
175 198 0
175 198 0
173 197 0
175 198 0
175 198 0
175 198 0
174 197 0
173 197 0
174 198 0
174 198 0
176 199 0
174 197 0
175 198 0
175 198 0
175 198 0
174 198 0
174 197 0
174 198 0
174 197 0
174 197 0
175 198 0
174 198 0
173 197 0
175 198 0
174 198 0
174 197 0
174 198 0
174 197 0
174 197 0
175 198 0
175 198 0
174 198 0
173 197 0
174 198 0
171 196 0
173 197 0
174 197 0
174 197 0
174 198 0
175 198 0
174 198 0
176 199 0
174 198 0
174 198 0
175 198 0
174 198 0
175 198 0
173 197 0
173 197 0
175 198 0
174 197 0
173 196 0
174 197 0
174 197 0
174 198 0
173 197 0
175 198 0
175 198 0
173 197 0
174 198 0
175 198 0
175 198 0
174 198 0
175 198 0
174 198 0
173 197 0
175 198 0
172 196 0
175 198 0
176 199 0
174 197 0
173 197 0
174 197 0
175 198 0
174 198 0
175 198 0
175 198 0
174 198 0
173 197 0
176 199 0
174 198 0
176 199 0
173 197 0
175 198 0
175 198 0
174 197 0
173 197 0
174 198 0
174 197 0
174 198 0
174 198 0
174 198 0
175 198 0
176 198 0
174 197 0
173 196 0
174 198 0
176 198 0
174 197 0
173 197 0
174 197 0
173 197 0
175 198 0
172 196 0
174 198 0
176 198 0
176 198 0
177 199 0
174 197 0
173 197 0
173 197 0
173 197 0
173 197 0
174 198 0
175 198 0
174 197 0
174 197 0
173 197 0
173 197 0
173 195 0
175 198 0
174 198 0
173 196 0
173 197 0
175 198 0
172 196 0
173 197 0
175 198 0
172 197 0
174 198 0
174 197 0
176 199 0
175 198 0
174 197 0
175 198 0
174 197 0
176 199 0
175 198 0
176 198 0
175 198 0
174 198 0
175 198 0
174 197 0
174 197 0
176 199 0
172 197 0
175 198 0
173 197 0
173 197 0
173 197 0
174 197 0
172 196 0
174 198 0
173 197 0
174 197 0
176 198 0
173 197 0
174 198 0
174 197 0
173 197 0
172 196 0
173 197 0
174 197 0
173 196 0
174 197 0
173 196 0
174 197 0
174 197 0
176 198 0
176 198 0
175 198 0
172 196 0
173 197 0
173 197 0
174 197 0
174 197 0
173 196 0
173 197 0
175 198 0
173 196 0
171 195 0
174 197 0
174 197 0
173 196 0
172 196 0
174 197 0
172 196 0
174 197 0
173 197 0
173 197 0
173 196 0
174 197 0
173 196 0
173 197 0
173 197 0
173 197 0
174 197 0
174 198 0
174 197 0
173 197 0
173 196 0
172 196 0
172 195 0
174 198 0
173 196 0
174 197 0
173 197 0
173 196 0
173 196 0
174 197 0
173 197 0
173 196 0
173 196 0
171 195 0
172 196 0
172 195 0
174 197 0
174 197 0
170 194 0
175 197 0
171 195 0
173 197 0
174 198 0
174 197 0
172 195 0
175 198 0
173 196 0
175 198 0
171 195 0
174 196 0
173 197 0
172 196 0
174 197 0
174 197 0
171 196 0
174 197 0
173 196 0
171 194 0
172 195 0
175 198 0
175 198 0
171 195 0
173 197 0
171 195 0
172 196 0
174 197 0
173 197 0
171 195 0
174 196 0
173 196 0
172 196 0
173 196 0
174 198 0
172 196 0
175 198 0
172 195 0
174 197 0
172 196 0
173 197 0
174 197 0
171 195 0
175 198 0
174 197 0
172 196 0
173 197 0
175 198 0
174 197 0
175 198 0
173 196 0
175 198 0
174 197 0
172 196 0
171 195 0
173 196 0
173 196 0
173 197 0
174 197 0
173 197 0
174 197 0
175 198 0
174 197 0
172 196 0
173 197 0
173 196 0
174 198 0
175 197 0
175 198 0
174 197 0
173 197 0
173 196 0
174 198 0
172 195 0
174 197 0
173 197 0
175 198 0
175 198 0
172 196 0
173 196 0
172 196 0
171 195 0
173 197 0
174 197 0
174 197 0
174 197 0
174 197 0
176 198 0
174 197 0
174 197 0
175 198 0
176 198 0
175 197 0
172 195 0
172 196 0
173 196 0
175 198 0
176 199 0
173 196 0
175 198 0
174 197 0
172 196 0
173 196 0
172 196 0
174 197 0
175 198 0
173 197 0
176 198 0
175 198 0
174 197 0
172 196 0
173 197 0
174 198 0
173 197 0
174 198 0
174 197 0
176 199 0
175 198 0
174 198 0
173 197 0
175 198 0
175 198 0
172 196 0
174 197 0
174 197 0
174 197 0
174 198 0
174 198 0
173 197 0
173 197 0
174 198 0
172 196 0
171 196 0
174 197 0
174 198 0
173 197 0
174 198 0
174 197 0
175 198 0
175 198 0
174 198 0
173 197 0
175 198 0
175 198 0
175 198 0
175 198 0
174 197 0
174 197 0
173 197 0
173 197 0
174 197 0
173 197 0
175 198 0
175 198 0
174 198 0
174 198 0
174 197 0
176 199 0
174 198 0
175 198 0
174 198 0
176 199 0
175 198 0
174 198 0
174 198 0
174 198 0
174 198 0
175 198 0
174 198 0
175 198 0
174 197 0
175 198 0
175 198 0
174 198 0
176 199 0
173 197 0
174 197 0
175 198 0
174 198 0
173 197 0
175 198 0
173 197 0
174 198 0
175 198 0
174 198 0
175 198 0
175 198 0
174 197 0
174 198 0
175 198 0
173 197 0
176 198 0
174 198 0
174 198 0
174 198 0
175 198 0
174 198 0
175 198 0
174 197 0
175 198 0
174 197 0
175 198 0
174 198 0
174 197 0
175 198 0
173 197 0
175 198 0
175 198 0
175 198 0
176 198 0
174 198 0
173 197 0
174 198 0
175 198 0
175 198 0
174 197 0
176 199 0
176 198 0
175 198 0
176 199 0
175 198 0
175 198 0
174 197 0
174 197 0
175 197 0
174 198 0
175 198 0
174 198 0
175 198 0
174 198 0
173 197 0
173 197 0
175 198 0
174 198 0
176 199 0
174 197 0
174 198 0
174 198 0
175 198 0
174 198 0
174 197 0
173 197 0
174 198 0
174 197 0
176 199 0
174 198 0
174 197 0
174 198 0
173 197 0
176 198 0
174 198 0
174 198 0
175 198 0
174 198 0
174 198 0
174 198 0
174 198 0
173 197 0
174 197 0
176 199 0
175 198 0
173 197 0
174 197 0
174 198 0
175 198 0
176 199 0
175 198 0
173 197 0
175 198 0
175 198 0
176 198 0
173 197 0
173 197 0
174 197 0
175 198 0
174 197 0
177 199 0
174 198 0
175 198 0
175 198 0
176 199 0
173 197 0
177 199 0
173 197 0
174 198 0
173 197 0
175 198 0
175 198 0
174 198 0
175 198 0
173 197 0
175 198 0
174 197 0
173 197 0
174 197 0
174 198 0
174 197 0
175 198 0
173 197 0
174 197 0
174 197 0
174 197 0
172 196 0
175 198 0
174 198 0
174 197 0
175 198 0
174 197 0
173 197 0
175 198 0
174 198 0
174 197 0
174 198 0
174 198 0
175 198 0
174 198 0
175 198 0
175 198 0
172 196 0
175 198 0
174 197 0
173 197 0
175 198 0
174 198 0
173 197 0
173 197 0
175 198 0
175 198 0
174 196 0
175 198 0
172 196 0
174 197 0
174 198 0
173 197 0
173 196 0
172 196 0
173 197 0
171 195 0
174 197 0
173 197 0
174 197 0
173 197 0
175 198 0
172 196 0
174 197 0
173 197 0
172 196 0
173 196 0
173 196 0
174 197 0
175 198 0
174 198 0
174 197 0
174 197 0
172 196 0
172 195 0
173 197 0
175 198 0
170 194 0
174 197 0
174 198 0
173 197 0
174 197 0
174 197 0
174 197 0
174 197 0
172 197 0
172 196 0
173 197 0
173 197 0
173 196 0
174 197 0
173 197 0
173 196 0
173 196 0
174 197 0
172 196 0
173 195 0
171 196 0
175 198 0
173 196 0
174 197 0
174 198 0
173 196 0
173 197 0
175 198 0
173 197 0
174 197 0
174 197 0
175 198 0
173 197 0
172 195 0
173 197 0
174 197 0
175 198 0
173 197 0
172 195 0
172 195 0
173 196 0
171 195 0
173 197 0
174 197 0
172 196 0
171 195 0
173 197 0
171 195 0
174 197 0
173 197 0
174 197 0
173 196 0
173 196 0
172 196 0
172 195 0
173 196 0
172 195 0
170 193 0
173 197 0
171 195 0
171 195 0
172 195 0
172 195 0
173 197 0
174 197 0
171 195 0
172 196 0
173 197 0
174 198 0
173 197 0
169 193 0
172 196 0
173 197 0
173 196 0
175 198 0
173 196 0
174 197 0
174 197 0
174 197 0
171 194 0
173 196 0
173 196 0
174 197 0
174 197 0
175 198 0
172 196 0
173 197 0
174 197 0
175 198 0
173 196 0
174 197 0
171 195 0
171 194 0
174 198 0
173 197 0
175 198 0
176 199 0
174 197 0
174 197 0
174 197 0
173 197 0
171 195 0
174 197 0
173 196 0
173 196 0
174 197 0
174 197 0
173 197 0
171 195 0
172 196 0
174 197 0
175 198 0
174 197 0
175 197 0
174 198 0
174 197 0
172 196 0
170 194 0
175 198 0
173 197 0
172 196 0
173 197 0
174 197 0
175 197 0
174 197 0
172 196 0
174 197 0
173 197 0
174 198 0
174 197 0
173 196 0
175 198 0
173 196 0
175 198 0
172 196 0
174 198 0
174 197 0
174 197 0
176 199 0
172 196 0
173 197 0
174 198 0
174 197 0
174 197 0
173 196 0
174 198 0
174 197 0
174 197 0
175 198 0
174 198 0
173 197 0
173 197 0
174 197 0
172 196 0
174 198 0
174 197 0
173 197 0
175 198 0
175 198 0
172 196 0
175 198 0
175 198 0
173 197 0
174 198 0
173 197 0
171 195 0
174 198 0
173 197 0
174 198 0
173 197 0
172 196 0
174 198 0
174 197 0
174 197 0
173 197 0
174 197 0
173 197 0
175 198 0
173 197 0
174 197 0
174 198 0
174 197 0
173 197 0
175 198 0
173 197 0
175 198 0
174 197 0
175 198 0
175 198 0
175 198 0
174 198 0
175 198 0
174 198 0
175 198 0
173 197 0
173 197 0
174 197 0
174 198 0
174 198 0
173 197 0
173 197 0
172 196 0
175 198 0
174 198 0
174 198 0
174 198 0
174 197 0
174 198 0
174 198 0
173 197 0
174 198 0
174 198 0
173 197 0
175 198 0
175 198 0
174 198 0
174 198 0
174 198 0
173 197 0
174 197 0
174 197 0
175 198 0
173 197 0
175 198 0
173 197 0
175 198 0
174 197 0
174 198 0
176 199 0
173 197 0
175 198 0
175 198 0
175 198 0
174 197 0
175 198 0
173 197 0
175 198 0
176 199 0
174 198 0
174 197 0
174 197 0
175 198 0
172 196 0
175 198 0
177 199 0
173 197 0
176 199 0
175 198 0
176 199 0
175 198 0
174 198 0
175 198 0
174 197 0
175 198 0
175 198 0
175 198 0
174 197 0
173 197 0
175 198 0
172 196 0
175 198 0
172 196 0
176 199 0
174 197 0
174 197 0
175 198 0
176 199 0
175 198 0
175 198 0
175 198 0
173 197 0
174 198 0
174 198 0
174 198 0
174 197 0
173 197 0
174 198 0
173 197 0
175 198 0
175 198 0
173 196 0
173 197 0
174 197 0
174 197 0
175 198 0
173 197 0
175 198 0
174 197 0
176 198 0
175 198 0
173 197 0
174 197 0
174 198 0
173 197 0
173 197 0
175 198 0
174 198 0
175 198 0
175 198 0
175 198 0
174 198 0
173 197 0
174 197 0
175 198 0
176 198 0
174 197 0
173 197 0
174 197 0
174 198 0
175 198 0
174 198 0
174 198 0
173 197 0
175 198 0
173 197 0
174 197 0
175 198 0
174 198 0
174 198 0
174 197 0
175 198 0
173 197 0
175 198 0
174 198 0
175 198 0
176 199 0
173 197 0
173 197 0
174 197 0
175 198 0
174 197 0
173 197 0
175 198 0
174 198 0
174 198 0
174 198 0
174 198 0
174 198 0
174 198 0
174 198 0
173 197 0
173 197 0
176 198 0
174 198 0
175 198 0
174 198 0
173 197 0
174 197 0
174 197 0
172 196 0
174 197 0
175 198 0
174 198 0
172 196 0
175 198 0
177 199 0
174 198 0
173 197 0
174 198 0
174 197 0
174 198 0
173 197 0
173 197 0
174 198 0
174 197 0
174 197 0
175 198 0
173 197 0
173 197 0
174 197 0
175 198 0
173 197 0
174 197 0
173 197 0
174 197 0
174 197 0
175 198 0
175 198 0
173 196 0
174 197 0
172 196 0
173 197 0
172 196 0
175 198 0
173 197 0
175 198 0
174 197 0
174 197 0
174 197 0
174 198 0
174 197 0
175 198 0
173 196 0
171 195 0
175 198 0
173 197 0
174 198 0
172 195 0
174 197 0
175 198 0
173 196 0
173 196 0
175 198 0
172 196 0
172 196 0
174 198 0
172 196 0
173 197 0
174 197 0
174 197 0
173 197 0
175 198 0
173 197 0
172 195 0
171 195 0
173 196 0
173 197 0
173 197 0
173 197 0
173 196 0
172 196 0
172 197 0
175 198 0
175 197 0
172 196 0
173 197 0
175 198 0
171 195 0
173 196 0
174 197 0
173 197 0
171 194 0
173 197 0
172 196 0
174 197 0
172 196 0
172 195 0
172 195 0
173 197 0
174 197 0
171 195 0
172 195 0
169 194 0
173 196 0
173 196 0
173 197 0
174 197 0
175 198 0
173 196 0
174 197 0
171 195 0
173 196 0
173 197 0
174 197 0
174 198 0
174 198 0
173 197 0
172 195 0
173 196 0
172 196 0
175 198 0
176 198 0
173 196 0
172 196 0
171 195 0
174 197 0
173 197 0
173 197 0
173 196 0
176 198 0
172 196 0
173 196 0
173 197 0
174 198 0
174 198 0
170 193 0
174 197 0
174 198 0
175 198 0
173 197 0
175 198 0
175 198 0
170 194 0
174 197 0
175 198 0
176 199 0
173 197 0
173 197 0
174 197 0
173 197 0
173 197 0
173 197 0
174 198 0
172 196 0
174 197 0
174 197 0
173 196 0
172 196 0
172 196 0
175 198 0
174 198 0
174 198 0
173 197 0
173 197 0
173 196 0
173 196 0
174 197 0
173 197 0
174 197 0
173 196 0
173 197 0
175 198 0
173 197 0
173 196 0
172 196 0
174 197 0
174 198 0
174 197 0
173 197 0
175 198 0
172 196 0
175 198 0
174 197 0
173 196 0
173 197 0
174 197 0
173 197 0
174 197 0
172 196 0
173 196 0
172 196 0
174 197 0
173 197 0
172 196 0
175 198 0
175 198 0
174 197 0
174 197 0
174 197 0
175 198 0
174 198 0
172 196 0
174 198 0
173 197 0
176 198 0
173 196 0
173 197 0
174 198 0
175 197 0
174 197 0
174 198 0
174 197 0
173 197 0
175 198 0
175 198 0
175 198 0
173 197 0
174 198 0
174 197 0
174 198 0
174 197 0
174 198 0
174 197 0
175 198 0
176 198 0
173 196 0
174 197 0
172 196 0
173 197 0
174 198 0
175 198 0
174 198 0
173 197 0
173 197 0
175 198 0
174 197 0
174 198 0
174 198 0
171 196 0
172 196 0
174 196 0
175 198 0
173 196 0
172 196 0
174 198 0
175 198 0
174 198 0
175 198 0
175 198 0
175 198 0
174 197 0
174 198 0
175 198 0
174 198 0
172 196 0
174 197 0
175 198 0
175 198 0
174 197 0
173 197 0
175 198 0
176 199 0
175 198 0
175 198 0
173 197 0
173 197 0
176 198 0
174 198 0
173 197 0
174 197 0
172 197 0
174 197 0
174 198 0
175 198 0
174 197 0
176 198 0
174 198 0
172 196 0
174 197 0
174 198 0
173 197 0
174 198 0
173 197 0
174 197 0
174 198 0
174 197 0
174 198 0
174 197 0
174 198 0
175 198 0
175 198 0
174 197 0
174 198 0
176 198 0
175 198 0
174 198 0
176 198 0
175 198 0
174 198 0
174 197 0
174 198 0
174 198 0
175 198 0
177 199 0
174 198 0
175 198 0
175 198 0
176 199 0
176 198 0
173 197 0
174 198 0
175 198 0
173 197 0
173 197 0
175 198 0
173 197 0
174 197 0
174 198 0
174 197 0
174 198 0
175 198 0
173 197 0
176 199 0
174 197 0
174 197 0
174 197 0
175 198 0
175 198 0
174 198 0
175 198 0
173 196 0
175 198 0
175 198 0
173 197 0
174 197 0
175 198 0
175 198 0
175 198 0
176 199 0
175 198 0
175 198 0
174 197 0
175 198 0
175 198 0
174 197 0
173 196 0
174 198 0
173 197 0
175 198 0
174 198 0
173 197 0
176 198 0
172 197 0
174 198 0
176 199 0
174 198 0
173 197 0
173 197 0
174 197 0
175 198 0
176 199 0
174 198 0
175 198 0
176 199 0
175 198 0
173 196 0
174 197 0
174 197 0
174 198 0
174 197 0
174 198 0
174 197 0
174 197 0
175 198 0
176 199 0
174 198 0
174 198 0
173 197 0
175 198 0
175 198 0
176 199 0
173 197 0
174 197 0
175 198 0
175 198 0
173 197 0
174 197 0
175 198 0
173 197 0
174 197 0
175 198 0
174 198 0
172 197 0
177 199 0
174 198 0
173 197 0
174 198 0
173 197 0
174 197 0
173 197 0
173 197 0
173 197 0
174 197 0
176 199 0
174 197 0
174 197 0
173 197 0
175 198 0
174 197 0
175 198 0
177 199 0
174 197 0
175 198 0
173 197 0
176 198 0
174 197 0
173 197 0
173 197 0
173 197 0
174 198 0
174 197 0
174 197 0
174 197 0
173 196 0
175 198 0
174 197 0
173 196 0
173 197 0
173 196 0
174 197 0
175 198 0
174 197 0
173 196 0
176 199 0
172 195 0
172 195 0
172 196 0
174 197 0
174 197 0
174 196 0
174 197 0
173 197 0
173 197 0
173 197 0
173 197 0
175 198 0
174 197 0
174 197 0
173 196 0
174 197 0
172 197 0
174 197 0
173 196 0
174 197 0
175 198 0
174 197 0
172 196 0
172 196 0
175 197 0
173 197 0
171 195 0
174 197 0
172 196 0
173 197 0
175 198 0
176 198 0
174 197 0
173 197 0
171 195 0
173 196 0
173 197 0
174 197 0
172 196 0
174 197 0
174 197 0
174 198 0
174 197 0
174 198 0
173 195 0
175 198 0
171 195 0
174 197 0
173 197 0
172 196 0
172 196 0
174 198 0
172 196 0
174 197 0
175 198 0
176 198 0
174 197 0
174 197 0
173 197 0
173 196 0
171 194 0
174 197 0
174 197 0
173 197 0
172 196 0
173 196 0
174 197 0
173 196 0
175 198 0
173 197 0
172 196 0
172 196 0
170 194 0
172 195 0
175 198 0
172 196 0
172 195 0
173 196 0
172 196 0
171 195 0
172 195 0
173 197 0
174 197 0
173 196 0
173 196 0
173 197 0
173 196 0
173 197 0
173 197 0
175 198 0
173 197 0
171 194 0
170 194 0
173 196 0
173 197 0
172 196 0
172 196 0
172 196 0
174 198 0
172 195 0
174 198 0
175 197 0
172 195 0
173 197 0
174 198 0
174 198 0
174 197 0
174 197 0
174 197 0
173 197 0
175 198 0
173 196 0
173 197 0
174 196 0
170 194 0
173 196 0
172 197 0
174 197 0
172 196 0
171 196 0
173 197 0
172 195 0
174 198 0
171 194 0
173 197 0
174 197 0
174 198 0
172 195 0
174 197 0
174 197 0
173 197 0
174 197 0
173 197 0
171 195 0
172 196 0
174 197 0
172 196 0
172 196 0
175 198 0
172 196 0
175 198 0
172 196 0
175 198 0
174 197 0
172 196 0
172 196 0
174 198 0
173 197 0
174 197 0
174 198 0
173 197 0
174 198 0
173 196 0
173 196 0
173 197 0
174 197 0
172 196 0
172 196 0
174 197 0
174 197 0
173 197 0
172 196 0
173 196 0
174 197 0
174 197 0
174 197 0
173 196 0
173 197 0
174 197 0
175 198 0
173 196 0
173 197 0
174 198 0
174 198 0
174 197 0
174 198 0
174 197 0
171 195 0
171 195 0
175 198 0
174 197 0
175 198 0
174 198 0
174 197 0
172 196 0
174 197 0
177 199 0
174 197 0
173 196 0
174 197 0
174 198 0
175 198 0
173 197 0
174 198 0
173 197 0
173 197 0
172 196 0
173 197 0
172 196 0
174 198 0
174 198 0
173 197 0
175 198 0
174 198 0
175 198 0
175 198 0
173 197 0
174 198 0
175 198 0
174 198 0
174 197 0
174 197 0
175 198 0
173 197 0
173 197 0
175 198 0
175 198 0
175 198 0
172 196 0
174 197 0
175 198 0
175 198 0
175 198 0
174 198 0
175 198 0
174 198 0
174 197 0
172 196 0
175 198 0
172 196 0
174 197 0
173 197 0
174 197 0
174 198 0
174 198 0
174 198 0
174 197 0
174 197 0
173 196 0
175 198 0
175 198 0
174 197 0
173 196 0
175 198 0
175 198 0
175 198 0
174 197 0
173 196 0
174 197 0
173 197 0
175 198 0
175 198 0
175 198 0
173 197 0
174 198 0
172 196 0
171 195 0
174 198 0
174 197 0
174 198 0
176 199 0
175 198 0
173 197 0
174 197 0
176 199 0
173 197 0
174 198 0
175 198 0
175 198 0
173 197 0
175 198 0
175 198 0
175 198 0
174 197 0
175 198 0
177 199 0
175 198 0
176 199 0
174 198 0
175 198 0
175 198 0
175 198 0
175 198 0
173 197 0
173 197 0
175 198 0
175 198 0
173 197 0
174 197 0
175 198 0
176 198 0
173 197 0
174 197 0
175 198 0
174 198 0
174 198 0
174 198 0
174 198 0
174 197 0
174 198 0
174 198 0
174 198 0
174 197 0
175 198 0
175 198 0
174 198 0
174 198 0
175 198 0
174 197 0
174 198 0
174 197 0
173 197 0
173 197 0
173 197 0
174 198 0
174 198 0
174 198 0
174 197 0
174 198 0
176 199 0
175 198 0
175 198 0
175 198 0
174 198 0
172 197 0
173 197 0
173 197 0
175 198 0
174 198 0
174 198 0
173 197 0
174 197 0
175 198 0
176 199 0
174 198 0
175 198 0
173 197 0
174 197 0
177 199 0
174 198 0
173 197 0
174 197 0
174 197 0
176 198 0
174 197 0
174 198 0
175 198 0
176 198 0
174 197 0
176 199 0
175 198 0
173 197 0
173 196 0
174 198 0
173 197 0
173 197 0
175 198 0
174 198 0
174 197 0
176 199 0
173 197 0
174 198 0
171 196 0
174 198 0
174 197 0
173 197 0
175 198 0
174 197 0
175 198 0
173 197 0
172 196 0
175 198 0
174 197 0
174 197 0
175 198 0
175 198 0
174 197 0
175 198 0
171 196 0
174 197 0
175 198 0
174 197 0
174 198 0
174 197 0
174 198 0
174 197 0
174 198 0
173 197 0
174 197 0
174 197 0
175 198 0
175 198 0
175 198 0
175 198 0
173 196 0
173 196 0
173 197 0
174 197 0
174 198 0
175 198 0
174 197 0
175 198 0
175 198 0
174 198 0
176 198 0
171 196 0
174 197 0
173 197 0
174 198 0
174 197 0
175 198 0
173 197 0
173 197 0
175 198 0
174 198 0
174 197 0
171 195 0
173 196 0
175 198 0
173 197 0
175 198 0
172 195 0
173 196 0
174 197 0
174 197 0
170 195 0
172 196 0
173 197 0
174 198 0
174 197 0
174 198 0
173 197 0
173 196 0
174 198 0
173 197 0
174 197 0
175 197 0
175 198 0
173 197 0
175 198 0
172 196 0
171 195 0
175 197 0
175 198 0
174 197 0
174 197 0
174 198 0
173 196 0
172 196 0
171 194 0
174 197 0
173 197 0
174 197 0
174 197 0
175 198 0
172 196 0
174 197 0
174 197 0
172 196 0
173 197 0
172 196 0
174 197 0
174 197 0
172 196 0
172 196 0
174 197 0
173 197 0
171 195 0
171 195 0
173 197 0
173 197 0
174 197 0
174 197 0
172 196 0
172 196 0
171 195 0
173 196 0
175 198 0
171 196 0
170 194 0
173 196 0
173 196 0
174 198 0
172 196 0
171 194 0
174 197 0
171 195 0
173 197 0
172 196 0
174 197 0
174 197 0
172 195 0
172 195 0
173 197 0
173 196 0
174 197 0
172 196 0
173 196 0
173 197 0
176 199 0
173 197 0
172 196 0
175 198 0
170 194 0
170 194 0
174 198 0
174 197 0
174 197 0
174 198 0
174 197 0
173 197 0
172 195 0
174 197 0
175 198 0
173 197 0
173 196 0
174 197 0
172 196 0
175 198 0
174 198 0
173 196 0
174 197 0
174 198 0
173 196 0
173 197 0
174 197 0
173 196 0
173 197 0
173 196 0
174 197 0
174 197 0
175 198 0
174 196 0
174 198 0
172 196 0
176 198 0
175 198 0
175 198 0
173 196 0
175 198 0
173 197 0
174 197 0
174 197 0
174 198 0
174 197 0
174 197 0
174 197 0
172 196 0
174 197 0
173 197 0
175 198 0
174 197 0
174 198 0
172 196 0
173 196 0
173 197 0
173 196 0
175 198 0
174 198 0
174 197 0
174 198 0
172 197 0
174 197 0
172 196 0
173 196 0
173 197 0
175 198 0
173 197 0
177 199 0
174 197 0
174 197 0
175 198 0
174 197 0
174 197 0
174 198 0
173 196 0
176 198 0
175 198 0
176 199 0
174 197 0
174 198 0
173 197 0
173 197 0
173 197 0
174 197 0
174 196 0
173 196 0
174 198 0
174 198 0
173 197 0
175 198 0
176 199 0
173 197 0
175 198 0
176 198 0
174 197 0
174 197 0
173 197 0
175 198 0
174 197 0
175 198 0
173 197 0
175 198 0
175 198 0
174 198 0
176 198 0
173 197 0
174 198 0
174 198 0
174 197 0
175 198 0
173 197 0
176 198 0
175 198 0
172 196 0
174 197 0
172 195 0
174 197 0
174 198 0
174 197 0
175 198 0
174 197 0
173 197 0
173 197 0
172 196 0
174 198 0
173 197 0
174 198 0
174 197 0
175 198 0
175 198 0
175 198 0
176 198 0
175 198 0
176 199 0
175 198 0
175 198 0
174 197 0
176 199 0
175 198 0
175 198 0
174 197 0
174 197 0
174 198 0
173 197 0
173 196 0
172 195 0
174 197 0
174 197 0
174 198 0
174 198 0
172 196 0
173 197 0
175 198 0
174 198 0
173 197 0
175 198 0
174 198 0
175 198 0
174 198 0
173 197 0
175 198 0
175 198 0
175 198 0
175 198 0
174 198 0
173 197 0
173 197 0
174 198 0
173 197 0
173 197 0
175 198 0
175 198 0
176 199 0
173 197 0
174 198 0
176 198 0
174 198 0
175 198 0
173 197 0
174 197 0
175 198 0
174 198 0
176 198 0
174 197 0
175 198 0
174 197 0
173 197 0
173 197 0
173 197 0
174 197 0
176 198 0
175 198 0
174 197 0
174 198 0
174 198 0
174 197 0
176 198 0
172 197 0
174 198 0
173 197 0
174 198 0
174 198 0
176 199 0
174 198 0
176 199 0
174 198 0
176 199 0
174 198 0
175 198 0
175 198 0
174 197 0
174 198 0
174 197 0
176 198 0
173 197 0
173 197 0
174 198 0
173 197 0
175 198 0
174 198 0
174 197 0
173 197 0
175 198 0
176 199 0
175 198 0
175 198 0
175 198 0
175 198 0
174 197 0
176 199 0
174 197 0
175 198 0
173 197 0
175 198 0
175 198 0
174 197 0
173 197 0
173 197 0
175 198 0
173 197 0
173 197 0
174 198 0
175 198 0
175 198 0
174 198 0
175 198 0
174 198 0
174 197 0
175 198 0
173 197 0
175 198 0
173 197 0
173 197 0
173 196 0
173 197 0
175 198 0
174 197 0
174 198 0
173 197 0
174 198 0
176 198 0
175 198 0
174 198 0
173 196 0
174 197 0
175 198 0
175 198 0
175 198 0
173 197 0
175 198 0
176 199 0
174 198 0
175 198 0
173 197 0
174 198 0
174 198 0
174 198 0
175 198 0
173 196 0
175 198 0
173 197 0
173 197 0
173 196 0
174 198 0
175 198 0
175 198 0
174 198 0
175 198 0
173 197 0
174 197 0
173 197 0
173 197 0
174 198 0
174 198 0
174 198 0
174 198 0
173 197 0
172 196 0
174 197 0
175 198 0
174 197 0
173 196 0
174 198 0
173 197 0
173 197 0
174 197 0
174 197 0
173 196 0
173 197 0
173 196 0
174 197 0
172 196 0
173 197 0
173 197 0
175 198 0
173 197 0
171 195 0
173 196 0
175 198 0
174 197 0
173 197 0
172 196 0
174 197 0
173 197 0
173 197 0
174 197 0
173 196 0
174 197 0
173 197 0
172 195 0
170 194 0
175 198 0
172 196 0
173 196 0
172 197 0
171 195 0
174 197 0
173 197 0
174 197 0
173 197 0
174 198 0
170 194 0
173 196 0
173 196 0
174 197 0
171 195 0
174 197 0
172 196 0
174 197 0
174 196 0
173 197 0
174 197 0
174 197 0
173 196 0
176 198 0
173 196 0
174 198 0
174 198 0
173 196 0
174 198 0
173 196 0
172 196 0
172 196 0
173 196 0
174 197 0
174 197 0
172 195 0
173 196 0
173 196 0
176 198 0
172 196 0
172 195 0
174 197 0
173 197 0
173 196 0
174 197 0
174 198 0
174 197 0
174 197 0
174 197 0
174 197 0
173 196 0
174 197 0
173 196 0
173 196 0
174 197 0
174 197 0
173 197 0
174 197 0
175 197 0
175 198 0
173 197 0
172 195 0
174 197 0
174 197 0
172 196 0
173 195 0
173 197 0
173 197 0
172 196 0
171 195 0
173 197 0
173 197 0
173 196 0
174 198 0
174 198 0
174 198 0
173 196 0
175 198 0
171 195 0
173 196 0
173 195 0
175 197 0
174 198 0
174 197 0
171 195 0
172 196 0
175 198 0
174 197 0
172 196 0
174 197 0
174 197 0
175 197 0
175 197 0
172 197 0
175 198 0
171 195 0
175 198 0
174 198 0
176 199 0
173 196 0
173 196 0
173 196 0
176 198 0
174 197 0
173 197 0
174 197 0
173 196 0
173 196 0
174 196 0
174 197 0
174 197 0
172 195 0
172 196 0
174 197 0
174 198 0
173 196 0
174 197 0
172 196 0
174 197 0
174 197 0
175 198 0
173 197 0
174 198 0
175 198 0
174 197 0
175 197 0
173 197 0
175 198 0
175 198 0
175 198 0
175 198 0
172 196 0
174 197 0
173 196 0
173 197 0
171 196 0
174 197 0
175 198 0
173 197 0
172 196 0
174 198 0
175 197 0
175 198 0
174 197 0
175 198 0
177 199 0
171 194 0
175 198 0
175 198 0
175 198 0
175 198 0
174 198 0
174 198 0
174 197 0
173 197 0
175 198 0
173 197 0
174 197 0
173 197 0
174 197 0
175 198 0
174 197 0
173 197 0
175 198 0
173 196 0
172 196 0
174 197 0
175 198 0
173 197 0
174 198 0
174 197 0
173 197 0
175 198 0
176 198 0
175 198 0
173 197 0
174 198 0
175 198 0
173 197 0
174 198 0
174 198 0
175 198 0
174 197 0
174 198 0
174 197 0
175 198 0
174 197 0
175 197 0
174 197 0
176 198 0
173 197 0
174 198 0
174 198 0
174 197 0
175 198 0
174 197 0
173 197 0
174 198 0
175 198 0
175 198 0
176 198 0
174 197 0
175 198 0
175 198 0
175 198 0
174 198 0
174 197 0
174 197 0
174 197 0
174 197 0
175 198 0
174 197 0
175 198 0
174 198 0
176 199 0
175 198 0
175 198 0
172 197 0
174 198 0
175 198 0
174 198 0
174 198 0
174 198 0
174 197 0
173 197 0
175 198 0
174 198 0
175 198 0
174 198 0
174 198 0
176 199 0
175 198 0
174 198 0
173 197 0
173 197 0
173 196 0
172 196 0
176 198 0
175 198 0
173 197 0
175 198 0
175 198 0
173 197 0
174 197 0
175 198 0
173 197 0
174 198 0
174 198 0
173 197 0
175 198 0
173 197 0
174 198 0
174 198 0
175 198 0
175 198 0
175 198 0
174 198 0
175 198 0
175 198 0
174 198 0
174 197 0
175 198 0
174 198 0
176 198 0
174 198 0
174 197 0
176 198 0
172 197 0
174 198 0
174 197 0
174 198 0
175 198 0
173 197 0
176 198 0
172 197 0
174 198 0
173 196 0
175 198 0
174 198 0
174 198 0
174 198 0
174 198 0
176 199 0
175 198 0
175 198 0
173 197 0
174 197 0
174 198 0
174 198 0
174 198 0
174 197 0
175 198 0
175 198 0
174 198 0
174 197 0
175 198 0
175 198 0
176 199 0
174 197 0
175 198 0
174 197 0
173 197 0
172 197 0
174 198 0
175 198 0
175 198 0
175 198 0
174 197 0
174 197 0
174 198 0
173 197 0
174 198 0
176 199 0
173 197 0
172 196 0
174 198 0
173 197 0
176 198 0
173 197 0
176 199 0
174 197 0
174 197 0
174 198 0
174 197 0
176 199 0
174 198 0
175 198 0
175 198 0
176 199 0
174 198 0
174 198 0
174 197 0
172 196 0
173 196 0
174 198 0
174 197 0
176 198 0
172 197 0
173 197 0
173 197 0
174 197 0
174 197 0
175 198 0
175 198 0
174 198 0
174 197 0
173 196 0
174 198 0
174 198 0
176 199 0
173 197 0
174 197 0
174 197 0
175 198 0
173 197 0
172 196 0
174 198 0
172 196 0
174 198 0
174 197 0
171 195 0
173 197 0
173 196 0
172 197 0
174 198 0
173 197 0
176 199 0
174 197 0
174 198 0
172 196 0
174 198 0
174 197 0
173 197 0
173 197 0
174 197 0
175 198 0
177 199 0
174 197 0
175 197 0
175 198 0
173 197 0
175 198 0
175 198 0
173 196 0
175 198 0
174 197 0
173 197 0
174 197 0
176 198 0
174 197 0
174 198 0
172 195 0
175 198 0
172 196 0
174 197 0
173 197 0
171 195 0
174 197 0
174 197 0
175 198 0
175 198 0
172 196 0
174 197 0
174 197 0
173 196 0
173 196 0
173 196 0
171 195 0
173 197 0
174 197 0
174 198 0
174 197 0
171 195 0
173 196 0
175 198 0
172 196 0
173 197 0
173 196 0
173 197 0
173 197 0
172 195 0
173 197 0
174 197 0
173 196 0
175 198 0
174 198 0
172 195 0
173 196 0
174 197 0
173 197 0
172 196 0
173 196 0
174 198 0
173 196 0
175 198 0
172 196 0
174 197 0
174 197 0
173 197 0
174 197 0
173 196 0
173 197 0
173 197 0
171 195 0
174 197 0
173 197 0
175 198 0
175 198 0
174 198 0
174 197 0
175 198 0
173 197 0
172 195 0
173 197 0
173 196 0
172 196 0
174 197 0
175 198 0
173 197 0
174 198 0
173 197 0
173 197 0
171 194 0
175 197 0
172 195 0
172 195 0
174 197 0
173 197 0
173 196 0
171 195 0
175 198 0
175 198 0
173 196 0
172 196 0
170 194 0
172 196 0
173 196 0
175 198 0
172 196 0
173 196 0
173 196 0
173 196 0
173 196 0
172 196 0
174 197 0
174 197 0
173 196 0
174 197 0
174 198 0
174 197 0
174 197 0
172 196 0
174 197 0
173 196 0
173 196 0
173 197 0
174 197 0
174 197 0
174 197 0
174 197 0
173 197 0
173 197 0
172 196 0
173 196 0
175 198 0
172 196 0
172 196 0
174 197 0
174 197 0
173 196 0
173 197 0
173 197 0
172 196 0
174 198 0
174 197 0
174 197 0
173 197 0
173 197 0
175 198 0
174 197 0
173 197 0
174 197 0
174 197 0
175 198 0
173 196 0
174 198 0
173 196 0
173 196 0
172 196 0
175 198 0
172 196 0
173 197 0
173 197 0
175 198 0
175 198 0
175 198 0
173 197 0
174 197 0
173 196 0
173 196 0
174 197 0
174 197 0
173 197 0
174 198 0
175 198 0
176 199 0
173 197 0
173 197 0
173 196 0
174 198 0
175 197 0
173 197 0
174 197 0
176 199 0
174 197 0
174 197 0
174 198 0
174 197 0
174 198 0
174 197 0
173 196 0
174 197 0
175 198 0
174 197 0
172 195 0
175 197 0
175 198 0
174 198 0
174 197 0
176 199 0
173 197 0
173 197 0
174 197 0
174 196 0
175 198 0
175 198 0
174 197 0
174 198 0
174 197 0
175 198 0
173 197 0
175 198 0
174 198 0
175 198 0
174 197 0
172 196 0
175 198 0
173 197 0
174 197 0
174 197 0
174 198 0
175 198 0
175 198 0
174 198 0
174 198 0
173 197 0
173 197 0
174 198 0
174 198 0
173 197 0
174 198 0
175 198 0
174 198 0
175 198 0
173 197 0
174 198 0
176 198 0
175 198 0
173 197 0
174 198 0
173 197 0
175 197 0
173 197 0
174 197 0
174 198 0
173 197 0
174 198 0
175 198 0
174 198 0
173 197 0
175 198 0
176 198 0
175 198 0
173 197 0
175 198 0
174 197 0
175 198 0
174 197 0
175 198 0
173 197 0
175 198 0
174 198 0
174 198 0
172 196 0
175 198 0
174 198 0
173 197 0
174 197 0
174 197 0
175 198 0
173 197 0
173 197 0
174 198 0
175 198 0
174 197 0
174 198 0
176 198 0
174 197 0
176 199 0
174 198 0
174 198 0
175 198 0
174 198 0
174 198 0
172 197 0
174 197 0
174 198 0
174 198 0
174 197 0
174 198 0
176 199 0
175 198 0
176 199 0
174 198 0
174 198 0
174 197 0
175 198 0
173 197 0
174 197 0
174 197 0
175 198 0
174 197 0
173 197 0
174 198 0
174 198 0
175 198 0
173 197 0
174 198 0
174 197 0
175 198 0
173 197 0
172 196 0
175 198 0
174 197 0
175 198 0
174 197 0
173 197 0
175 198 0
176 199 0
174 197 0
173 197 0
173 197 0
174 197 0
174 197 0
176 199 0
173 197 0
175 198 0
175 198 0
175 198 0
175 198 0
173 197 0
174 197 0
173 197 0
174 197 0
175 198 0
174 198 0
175 198 0
174 198 0
175 198 0
175 198 0
175 198 0
173 197 0
173 197 0
172 197 0
175 198 0
176 198 0
174 197 0
174 198 0
175 198 0
174 197 0
175 198 0
175 198 0
175 198 0
173 197 0
175 198 0
174 198 0
173 197 0
173 197 0
173 197 0
174 198 0
175 198 0
173 197 0
172 196 0
175 198 0
174 198 0
174 197 0
174 198 0
174 198 0
176 198 0
174 198 0
173 196 0
174 198 0
175 198 0
175 198 0
174 197 0
176 199 0
174 197 0
174 198 0
175 198 0
171 195 0
175 197 0
174 197 0
175 198 0
175 198 0
175 198 0
173 197 0
175 198 0
173 197 0
176 199 0
175 198 0
172 196 0
174 197 0
174 197 0
176 199 0
175 198 0
176 198 0
175 198 0
174 197 0
175 198 0
174 198 0
174 197 0
174 197 0
176 198 0
174 198 0
173 197 0
173 197 0
173 196 0
172 196 0
175 198 0
173 197 0
175 198 0
174 198 0
173 197 0
173 197 0
173 197 0
174 196 0
173 197 0
171 195 0
173 197 0
172 196 0
173 197 0
174 197 0
173 197 0
172 197 0
174 197 0
172 195 0
176 199 0
175 198 0
173 196 0
175 198 0
171 195 0
174 197 0
174 197 0
172 195 0
174 197 0
173 197 0
175 198 0
170 194 0
175 198 0
174 197 0
173 197 0
174 198 0
174 197 0
173 196 0
175 197 0
173 196 0
173 196 0
173 197 0
173 196 0
173 197 0
175 197 0
174 197 0
172 196 0
173 197 0
174 198 0
173 196 0
173 196 0
172 195 0
173 197 0
174 197 0
174 197 0
170 194 0
174 197 0
172 196 0
173 196 0
174 197 0
175 198 0
171 195 0
175 198 0
173 197 0
170 194 0
171 196 0
174 197 0
174 197 0
170 195 0
172 195 0
175 198 0
172 197 0
170 194 0
173 196 0
175 197 0
173 196 0
174 198 0
174 197 0
171 195 0
172 195 0
171 195 0
174 197 0
171 195 0
171 194 0
174 198 0
175 198 0
175 198 0
174 197 0
174 198 0
175 198 0
173 197 0
172 196 0
171 195 0
175 198 0
175 198 0
174 198 0
174 198 0
174 197 0
174 198 0
173 196 0
174 198 0
173 197 0
173 196 0
174 197 0
173 196 0
174 197 0
172 196 0
174 198 0
173 197 0
172 197 0
172 196 0
172 196 0
173 197 0
173 196 0
173 196 0
174 198 0
171 195 0
174 198 0
174 198 0
173 196 0
174 197 0
175 197 0
173 197 0
173 197 0
173 197 0
175 198 0
172 195 0
173 197 0
171 195 0
173 197 0
173 197 0
174 197 0
174 197 0
175 198 0
173 197 0
173 197 0
172 196 0
172 196 0
171 195 0
174 198 0
174 197 0
174 197 0
172 195 0
174 198 0
174 197 0
174 196 0
174 197 0
173 196 0
174 197 0
174 198 0
174 197 0
175 198 0
173 197 0
174 196 0
174 197 0
175 197 0
173 196 0
172 196 0
173 197 0
174 197 0
174 197 0
174 198 0
172 196 0
173 197 0
175 198 0
175 198 0
176 198 0
171 195 0
174 197 0
172 195 0
173 197 0
173 197 0
174 198 0
173 197 0
173 197 0
174 197 0
175 198 0
174 198 0
173 196 0
175 198 0
175 198 0
174 198 0
174 197 0
174 198 0
175 198 0
173 197 0
175 198 0
176 199 0
174 198 0
175 198 0
174 197 0
174 197 0
173 197 0
174 198 0
174 198 0
175 198 0
173 197 0
174 198 0
175 198 0
175 198 0
174 198 0
175 198 0
176 198 0
174 197 0
174 197 0
177 199 0
175 198 0
175 198 0
174 197 0
174 197 0
173 197 0
175 198 0
173 197 0
174 197 0
174 197 0
175 198 0
174 198 0
174 197 0
173 197 0
174 197 0
175 198 0
176 198 0
173 197 0
172 196 0
173 197 0
175 198 0
174 197 0
174 198 0
173 197 0
174 198 0
174 197 0
173 197 0
175 198 0
175 198 0
173 197 0
175 198 0
173 197 0
175 198 0
174 198 0
174 198 0
175 197 0
175 198 0
175 198 0
174 197 0
175 198 0
173 197 0
174 197 0
174 198 0
175 198 0
174 198 0
174 197 0
175 198 0
172 196 0
176 199 0
176 199 0
175 198 0
174 198 0
173 197 0
175 198 0
174 197 0
176 199 0
174 197 0
174 198 0
174 198 0
174 197 0
174 198 0
174 198 0
177 199 0
173 197 0
175 198 0
175 198 0
174 198 0
175 198 0
174 197 0
172 196 0
175 198 0
174 198 0
175 198 0
173 197 0
172 197 0
174 197 0
173 197 0
175 198 0
175 198 0
175 198 0
174 197 0
176 198 0
174 198 0
172 197 0
175 198 0
175 198 0
175 198 0
174 198 0
175 198 0
173 197 0
175 198 0
174 197 0
174 197 0
174 198 0
174 197 0
176 198 0
173 197 0
174 198 0
173 197 0
173 197 0
175 198 0
173 197 0
175 198 0
175 198 0
174 197 0
174 197 0
174 198 0
173 197 0
175 198 0
174 197 0
174 197 0
173 197 0
175 198 0
176 199 0
176 199 0
173 197 0
176 199 0
175 198 0
176 199 0
175 198 0
172 196 0
173 197 0
175 198 0
174 198 0
176 199 0
173 197 0
173 197 0
174 198 0
174 198 0
173 197 0
173 197 0
173 197 0
175 198 0
172 196 0
175 198 0
176 199 0
175 198 0
174 198 0
174 197 0
174 198 0
176 198 0
174 197 0
175 198 0
175 198 0
173 196 0
175 198 0
175 198 0
176 199 0
173 197 0
174 198 0
174 198 0
175 198 0
172 196 0
174 197 0
174 198 0
176 199 0
174 197 0
175 198 0
176 199 0
174 198 0
174 198 0
172 196 0
174 197 0
174 198 0
173 197 0
173 197 0
173 197 0
175 198 0
176 198 0
172 196 0
175 198 0
172 196 0
174 197 0
174 198 0
172 196 0
176 199 0
173 197 0
174 198 0
173 197 0
174 197 0
174 197 0
174 197 0
174 198 0
175 198 0
172 196 0
173 197 0
173 197 0
173 196 0
176 198 0
173 197 0
174 198 0
175 198 0
172 196 0
172 196 0
174 197 0
174 198 0
173 196 0
172 196 0
174 198 0
174 198 0
173 197 0
171 195 0
172 196 0
174 198 0
173 197 0
173 196 0
176 199 0
174 198 0
172 196 0
175 198 0
174 197 0
173 197 0
174 197 0
173 197 0
174 198 0
175 198 0
174 197 0
174 197 0
174 198 0
173 196 0
174 198 0
172 196 0
173 197 0
175 198 0
174 198 0
174 197 0
173 196 0
174 198 0
176 198 0
173 197 0
174 197 0
173 196 0
173 196 0
173 197 0
175 198 0
174 197 0
171 194 0
171 196 0
171 195 0
175 198 0
173 197 0
174 197 0
175 197 0
172 196 0
172 195 0
171 195 0
175 198 0
173 196 0
172 196 0
174 198 0
173 197 0
173 197 0
175 198 0
172 195 0
173 197 0
173 196 0
172 196 0
171 194 0
173 196 0
173 197 0
173 197 0
174 198 0
172 196 0
173 197 0
174 197 0
174 197 0
170 194 0
174 197 0
174 197 0
172 196 0
172 196 0
173 197 0
173 196 0
172 196 0
173 197 0
173 197 0
172 196 0
174 197 0
174 197 0
175 198 0
174 197 0
175 197 0
174 198 0
175 198 0
173 197 0
174 197 0
175 197 0
173 196 0
174 197 0
173 197 0
173 196 0
174 197 0
173 197 0
175 198 0
173 197 0
174 198 0
173 196 0
173 196 0
172 196 0
171 195 0
173 197 0
173 196 0
175 198 0
173 197 0
175 198 0
174 197 0
174 198 0
173 197 0
172 195 0
173 197 0
172 196 0
173 196 0
173 197 0
173 196 0
175 198 0
174 198 0
175 198 0
175 198 0
174 197 0
173 197 0
174 198 0
172 196 0
174 197 0
174 197 0
172 196 0
173 197 0
173 196 0
174 197 0
171 195 0
174 198 0
174 197 0
174 197 0
174 197 0
173 196 0
173 196 0
174 197 0
174 197 0
174 197 0
173 197 0
175 198 0
173 197 0
170 195 0
173 196 0
174 197 0
173 197 0
173 197 0
175 198 0
173 197 0
175 198 0
173 197 0
171 195 0
174 197 0
173 197 0
175 198 0
171 194 0
176 199 0
176 198 0
175 198 0
175 198 0
171 195 0
173 196 0
173 197 0
175 198 0
173 197 0
173 196 0
175 198 0
173 196 0
173 196 0
173 197 0
173 197 0
175 198 0
173 197 0
175 198 0
173 197 0
174 198 0
175 198 0
175 197 0
176 198 0
175 198 0
174 197 0
175 198 0
173 196 0
172 196 0
174 197 0
174 197 0
173 197 0
172 196 0
173 196 0
174 197 0
175 198 0
174 197 0
176 199 0
175 198 0
175 198 0
175 198 0
174 197 0
175 198 0
173 197 0
173 197 0
172 196 0
175 198 0
174 197 0
175 198 0
174 197 0
175 198 0
175 198 0
176 198 0
174 198 0
175 198 0
175 198 0
175 198 0
175 198 0
173 197 0
173 197 0
175 197 0
176 198 0
173 197 0
173 197 0
172 196 0
173 196 0
173 197 0
176 198 0
174 197 0
174 197 0
174 198 0
173 197 0
173 197 0
174 197 0
175 198 0
174 198 0
174 198 0
176 199 0
174 198 0
173 197 0
173 197 0
176 199 0
175 198 0
175 198 0
177 199 0
173 197 0
174 198 0
173 197 0
175 198 0
176 199 0
174 198 0
174 198 0
174 198 0
175 198 0
175 198 0
175 198 0
174 197 0
176 199 0
172 197 0
175 198 0
174 197 0
172 196 0
173 197 0
175 198 0
175 198 0
175 198 0
175 198 0
174 197 0
174 198 0
174 197 0
175 198 0
174 198 0
174 198 0
175 198 0
174 198 0
175 198 0
175 198 0
173 197 0
176 198 0
175 198 0
173 197 0
174 198 0
174 197 0
173 197 0
174 197 0
174 198 0
174 198 0
174 198 0
175 198 0
172 196 0
176 198 0
175 198 0
174 198 0
176 198 0
174 198 0
174 198 0
174 198 0
174 198 0
175 198 0
174 198 0
173 197 0
177 199 0
174 198 0
173 197 0
173 196 0
177 199 0
173 197 0
175 198 0
175 198 0
174 198 0
173 197 0
175 198 0
172 196 0
175 198 0
174 198 0
175 198 0
174 198 0
174 197 0
172 196 0
175 198 0
176 198 0
176 199 0
175 198 0
174 197 0
173 197 0
174 198 0
174 197 0
173 197 0
174 197 0
175 198 0
174 198 0
173 196 0
173 197 0
174 198 0
175 198 0
174 197 0
174 198 0
174 197 0
175 198 0
175 198 0
172 196 0
174 197 0
172 196 0
175 198 0
174 197 0
174 198 0
175 198 0
175 198 0
175 198 0
174 197 0
174 197 0
173 196 0
174 198 0
174 198 0
176 199 0
174 197 0
174 197 0
172 196 0
174 197 0
175 198 0
174 197 0
174 198 0
174 198 0
176 199 0
174 198 0
174 198 0
174 197 0
174 197 0
174 198 0
175 198 0
174 197 0
173 197 0
175 198 0
174 198 0
174 197 0
173 197 0
174 198 0
175 198 0
174 196 0
174 197 0
174 198 0
174 197 0
174 197 0
174 197 0
173 195 0
173 197 0
175 198 0
174 198 0
176 198 0
174 197 0
174 198 0
174 198 0
174 198 0
173 196 0
172 196 0
173 197 0
175 198 0
174 198 0
174 197 0
175 198 0
174 197 0
174 197 0
174 197 0
172 196 0
173 197 0
172 196 0
173 197 0
175 198 0
173 196 0
173 197 0
176 198 0
174 197 0
173 197 0
175 198 0
174 198 0
173 197 0
174 197 0
173 197 0
173 197 0
172 196 0
172 196 0
174 198 0
173 197 0
174 197 0
174 197 0
173 197 0
173 197 0
174 197 0
173 197 0
172 196 0
174 197 0
171 195 0
174 198 0
174 198 0
172 196 0
173 197 0
174 197 0
175 198 0
173 197 0
176 198 0
173 197 0
175 198 0
173 197 0
172 195 0
173 196 0
175 198 0
172 196 0
174 197 0
174 198 0
172 196 0
173 197 0
174 197 0
175 198 0
175 198 0
173 197 0
175 197 0
174 197 0
172 196 0
172 196 0
173 196 0
173 197 0
175 198 0
173 197 0
173 197 0
174 197 0
172 195 0
173 196 0
174 197 0
172 197 0
174 197 0
174 197 0
172 196 0
173 197 0
172 196 0
172 196 0
174 197 0
175 198 0
174 197 0
171 194 0
173 197 0
173 197 0
174 197 0
173 197 0
173 197 0
174 197 0
174 197 0
174 197 0
173 197 0
171 195 0
172 195 0
175 198 0
173 196 0
171 196 0
173 197 0
173 197 0
173 197 0
172 195 0
173 197 0
172 195 0
175 198 0
174 198 0
174 197 0
173 197 0
174 197 0
175 198 0
174 197 0
172 195 0
174 198 0
176 199 0
172 196 0
175 198 0
171 195 0
175 198 0
173 196 0
174 198 0
175 198 0
174 197 0
173 197 0
173 197 0
173 197 0
173 197 0
174 198 0
174 197 0
173 197 0
173 197 0
174 197 0
174 197 0
171 195 0
172 196 0
174 198 0
173 197 0
172 196 0
174 197 0
174 197 0
174 197 0
174 198 0
175 198 0
174 197 0
173 196 0
174 197 0
174 198 0
172 196 0
173 197 0
174 198 0
173 197 0
172 196 0
174 198 0
175 198 0
171 196 0
176 198 0
174 197 0
172 196 0
175 198 0
174 197 0
174 197 0
174 198 0
175 198 0
173 196 0
174 197 0
174 198 0
171 196 0
174 197 0
173 197 0
170 194 0
174 197 0
174 197 0
173 196 0
173 197 0
174 197 0
174 197 0
172 196 0
174 198 0
171 195 0
175 198 0
175 198 0
175 198 0
173 197 0
173 197 0
175 198 0
173 197 0
175 198 0
176 198 0
175 198 0
173 196 0
175 198 0
174 197 0
173 197 0
174 198 0
175 198 0
176 199 0
176 198 0
174 197 0
173 197 0
174 197 0
174 198 0
173 197 0
175 198 0
173 197 0
175 198 0
175 198 0
174 197 0
174 198 0
173 197 0
175 197 0
173 197 0
175 198 0
174 198 0
173 196 0
175 198 0
174 197 0
172 196 0
173 197 0
174 198 0
173 197 0
174 198 0
175 198 0
174 197 0
175 198 0
173 197 0
175 198 0
174 198 0
174 198 0
176 199 0
174 198 0
174 197 0
173 196 0
175 198 0
175 198 0
174 197 0
173 197 0
174 198 0
175 198 0
174 197 0
173 197 0
173 197 0
173 197 0
173 197 0
175 198 0
174 198 0
173 197 0
174 197 0
174 197 0
175 198 0
175 198 0
174 198 0
174 197 0
174 197 0
175 198 0
175 198 0
174 197 0
175 198 0
175 198 0
176 199 0
175 198 0
173 196 0
174 197 0
174 198 0
174 197 0
174 197 0
175 198 0
176 199 0
176 199 0
175 198 0
174 198 0
174 198 0
174 197 0
172 197 0
174 198 0
174 198 0
175 198 0
174 197 0
175 198 0
173 197 0
176 198 0
175 198 0
172 196 0
173 197 0
177 199 0
175 198 0
173 197 0
177 199 0
176 198 0
174 197 0
173 197 0
172 196 0
173 196 0
176 198 0
174 198 0
174 197 0
175 198 0
173 196 0
174 198 0
174 197 0
173 197 0
173 197 0
176 199 0
173 197 0
174 197 0
174 197 0
175 198 0
174 198 0
174 198 0
174 198 0
173 196 0
174 198 0
173 197 0
173 197 0
174 198 0
173 197 0
176 199 0
175 198 0
174 197 0
175 198 0
174 198 0
174 198 0
175 198 0
174 198 0
175 198 0
175 198 0
173 197 0
174 197 0
173 197 0
174 198 0
173 196 0
175 198 0
175 198 0
174 198 0
175 198 0
174 197 0
175 197 0
173 197 0
174 198 0
173 196 0
175 198 0
175 198 0
173 197 0
172 197 0
173 197 0
173 197 0
174 197 0
172 196 0
174 198 0
175 198 0
174 198 0
173 197 0
174 197 0
175 198 0
176 199 0
176 198 0
175 198 0
176 198 0
175 198 0
176 198 0
174 198 0
171 195 0
173 196 0
175 198 0
174 197 0
174 198 0
174 198 0
174 197 0
174 198 0
173 197 0
175 198 0
173 197 0
172 197 0
173 197 0
175 198 0
176 199 0
174 198 0
173 197 0
175 198 0
174 197 0
173 197 0
174 198 0
174 197 0
175 198 0
174 197 0
174 197 0
173 197 0
173 197 0
174 197 0
175 198 0
175 198 0
174 197 0
173 197 0
175 198 0
173 197 0
176 199 0
174 198 0
174 198 0
175 198 0
174 198 0
174 197 0
174 198 0
173 197 0
173 197 0
176 198 0
174 198 0
175 198 0
174 197 0
174 197 0
174 197 0
174 197 0
175 198 0
173 196 0
174 197 0
173 197 0
173 196 0
172 196 0
175 198 0
176 199 0
175 198 0
175 198 0
174 197 0
174 198 0
174 197 0
173 196 0
172 196 0
172 196 0
173 197 0
173 197 0
175 198 0
175 198 0
173 197 0
175 198 0
174 197 0
174 198 0
174 198 0
174 197 0
173 197 0
173 197 0
175 198 0
172 196 0
174 197 0
172 197 0
176 199 0
174 197 0
173 197 0
174 197 0
173 197 0
173 196 0
174 197 0
174 197 0
174 198 0
176 199 0
174 197 0
173 197 0
172 194 0
174 198 0
174 197 0
173 197 0
174 197 0
174 198 0
172 196 0
174 198 0
174 198 0
171 195 0
174 197 0
173 196 0
174 197 0
174 197 0
173 196 0
173 196 0
174 197 0
174 196 0
173 197 0
173 196 0
170 194 0
175 198 0
173 196 0
174 197 0
173 196 0
172 195 0
174 198 0
173 197 0
173 197 0
173 197 0
172 196 0
173 196 0
173 196 0
173 197 0
173 196 0
171 196 0
171 195 0
172 196 0
172 196 0
173 197 0
174 196 0
172 196 0
174 197 0
175 198 0
174 197 0
173 196 0
172 196 0
175 198 0
172 196 0
173 197 0
172 196 0
174 197 0
173 197 0
173 197 0
174 198 0
174 198 0
174 197 0
173 197 0
174 198 0
173 197 0
175 198 0
172 196 0
174 198 0
172 196 0
173 197 0
174 198 0
173 196 0
175 198 0
174 197 0
172 196 0
172 195 0
173 197 0
174 197 0
174 197 0
174 197 0
175 198 0
173 197 0
174 198 0
175 198 0
173 196 0
172 196 0
176 198 0
175 198 0
174 197 0
175 198 0
175 198 0
173 197 0
173 196 0
174 197 0
174 197 0
174 198 0
173 197 0
174 197 0
172 196 0
174 197 0
175 198 0
175 198 0
174 197 0
172 196 0
174 197 0
173 196 0
173 196 0
174 197 0
174 197 0
175 198 0
173 196 0
174 197 0
175 198 0
173 197 0
175 198 0
174 198 0
175 198 0
176 198 0
172 196 0
173 197 0
174 197 0
174 197 0
174 198 0
175 198 0
174 197 0
176 198 0
174 198 0
174 197 0
175 198 0
175 197 0
175 198 0
173 196 0
174 197 0
175 198 0
175 198 0
174 197 0
173 197 0
174 198 0
173 196 0
175 198 0
172 196 0
174 197 0
175 198 0
175 198 0
175 198 0
174 197 0
172 196 0
175 198 0
175 197 0
172 197 0
174 197 0
173 196 0
174 197 0
174 198 0
174 198 0
173 197 0
175 198 0
173 197 0
176 199 0
174 198 0
173 197 0
172 196 0
174 197 0
173 197 0
173 196 0
176 198 0
174 198 0
174 198 0
174 198 0
173 197 0
175 198 0
174 197 0
174 198 0
174 197 0
174 198 0
173 197 0
174 197 0
175 198 0
174 198 0
175 198 0
173 196 0
173 197 0
176 198 0
174 197 0
174 198 0
175 197 0
175 198 0
175 198 0
174 198 0
174 197 0
174 197 0
173 197 0
174 198 0
173 197 0
175 198 0
173 196 0
174 198 0
173 197 0
174 198 0
175 198 0
176 198 0
174 198 0
175 198 0
174 197 0
174 198 0
174 198 0
175 198 0
173 197 0
174 198 0
175 198 0
172 197 0
175 198 0
174 198 0
173 197 0
175 198 0
175 198 0
174 198 0
174 197 0
175 198 0
174 198 0
174 198 0
174 198 0
174 198 0
176 198 0
174 198 0
174 198 0
175 198 0
173 197 0
174 198 0
175 198 0
174 198 0
175 198 0
173 197 0
175 198 0
174 198 0
174 198 0
175 198 0
175 198 0
173 197 0
173 197 0
172 197 0
173 197 0
173 197 0
173 197 0
174 198 0
173 197 0
172 197 0
175 198 0
175 198 0
174 197 0
174 197 0
176 198 0
174 197 0
175 198 0
175 198 0
174 197 0
174 198 0
175 198 0
174 198 0
175 198 0
174 198 0
173 197 0
173 197 0
174 198 0
175 198 0
173 197 0
175 198 0
174 197 0
175 198 0
175 198 0
174 197 0
173 197 0
175 198 0
175 198 0
175 198 0
174 197 0
174 198 0
175 198 0
173 197 0
174 197 0
174 198 0
175 198 0
175 198 0
174 198 0
175 198 0
174 197 0
173 197 0
175 198 0
175 198 0
173 197 0
174 198 0
174 198 0
174 197 0
174 198 0
173 197 0
172 197 0
174 197 0
175 198 0
178 200 0
175 198 0
173 197 0
173 197 0
173 197 0
174 198 0
174 198 0
173 196 0
173 197 0
173 197 0
174 197 0
172 196 0
176 198 0
176 198 0
173 197 0
175 198 0
175 198 0
174 198 0
174 198 0
174 197 0
173 197 0
174 198 0
175 198 0
175 198 0
173 197 0
174 198 0
172 196 0
172 197 0
176 198 0
175 198 0
174 198 0
175 198 0
175 198 0
175 198 0
173 197 0
173 197 0
174 197 0
174 197 0
173 197 0
173 197 0
175 198 0
174 197 0
175 198 0
175 198 0
173 197 0
175 198 0
173 196 0
172 196 0
174 198 0
175 198 0
173 197 0
174 197 0
173 197 0
172 197 0
173 197 0
174 197 0
173 197 0
174 197 0
174 197 0
173 197 0
174 197 0
174 197 0
175 198 0
174 197 0
174 197 0
172 196 0
173 197 0
175 198 0
174 197 0
175 197 0
174 198 0
175 198 0
174 198 0
173 197 0
175 198 0
172 196 0
173 196 0
174 197 0
173 197 0
173 197 0
175 198 0
175 198 0
173 197 0
174 197 0
172 196 0
172 196 0
174 197 0
172 196 0
174 198 0
173 196 0
174 197 0
171 195 0
173 196 0
174 197 0
174 198 0
176 199 0
174 198 0
174 197 0
175 198 0
174 198 0
173 196 0
173 196 0
173 197 0
171 195 0
174 198 0
173 197 0
174 197 0
172 196 0
171 195 0
175 198 0
174 197 0
173 197 0
174 197 0
173 196 0
172 195 0
172 196 0
173 196 0
173 196 0
173 197 0
173 197 0
172 195 0
175 198 0
173 196 0
173 197 0
172 196 0
174 197 0
173 197 0
174 198 0
171 195 0
173 197 0
172 196 0
174 197 0
173 197 0
174 197 0
174 197 0
175 198 0
177 199 0
173 196 0
171 196 0
171 195 0
174 197 0
174 197 0
174 197 0
173 196 0
171 196 0
174 197 0
173 197 0
172 196 0
174 197 0
173 197 0
173 196 0
172 196 0
174 198 0
174 197 0
171 195 0
174 197 0
174 198 0
173 196 0
171 195 0
174 198 0
174 197 0
173 196 0
174 196 0
175 198 0
172 196 0
173 197 0
174 197 0
174 198 0
173 195 0
174 197 0
174 197 0
173 197 0
174 197 0
173 197 0
174 197 0
174 197 0
172 196 0
172 196 0
173 196 0
172 196 0
172 196 0
176 198 0
174 197 0
174 197 0
172 196 0
173 197 0
173 197 0
172 196 0
173 197 0
175 198 0
172 196 0
175 198 0
173 197 0
174 197 0
173 197 0
173 196 0
173 196 0
174 197 0
173 197 0
174 197 0
174 197 0
174 197 0
175 198 0
175 198 0
174 197 0
174 197 0
174 198 0
176 198 0
173 197 0
173 197 0
174 198 0
175 198 0
173 197 0
174 197 0
173 197 0
175 198 0
174 197 0
174 197 0
174 197 0
176 198 0
173 197 0
175 198 0
173 197 0
174 197 0
175 197 0
174 198 0
175 198 0
175 198 0
172 196 0
172 196 0
173 197 0
175 198 0
172 196 0
175 198 0
173 196 0
174 198 0
175 198 0
173 196 0
174 197 0
175 198 0
175 198 0
173 196 0
173 196 0
173 197 0
175 198 0
174 198 0
174 197 0
172 197 0
173 197 0
174 198 0
172 196 0
171 195 0
172 196 0
174 197 0
175 198 0
173 197 0
174 197 0
173 196 0
173 197 0
173 197 0
175 198 0
174 197 0
174 197 0
174 197 0
174 197 0
172 196 0
175 198 0
174 198 0
173 197 0
174 197 0
174 197 0
174 198 0
175 198 0
173 197 0
173 197 0
173 197 0
174 198 0
175 198 0
174 197 0
172 196 0
176 199 0
173 197 0
173 197 0
173 197 0
173 197 0
175 198 0
174 197 0
173 196 0
173 197 0
176 199 0
175 198 0
175 198 0
176 199 0
173 197 0
176 198 0
173 197 0
174 198 0
174 198 0
175 198 0
174 198 0
174 197 0
174 197 0
174 197 0
174 197 0
174 197 0
175 198 0
174 198 0
175 198 0
175 198 0
175 198 0
174 197 0
173 197 0
174 197 0
175 198 0
174 198 0
175 198 0
173 197 0
173 197 0
175 198 0
174 198 0
174 198 0
174 198 0
174 197 0
174 197 0
173 197 0
175 198 0
175 198 0
173 197 0
174 198 0
176 198 0
175 198 0
174 197 0
175 198 0
175 198 0
176 199 0
174 198 0
175 198 0
173 197 0
173 197 0
172 196 0
174 198 0
174 197 0
175 198 0
175 198 0
174 198 0
175 198 0
175 198 0
174 197 0
173 196 0
172 196 0
175 198 0
174 198 0
174 198 0
175 198 0
173 197 0
175 198 0
174 198 0
173 197 0
176 198 0
174 198 0
173 197 0
174 197 0
175 198 0
175 198 0
173 196 0
174 197 0
175 198 0
175 198 0
174 198 0
175 198 0
174 198 0
175 198 0
174 197 0
176 199 0
174 197 0
174 198 0
174 197 0
174 198 0
173 197 0
175 198 0
174 197 0
173 197 0
173 197 0
174 197 0
174 197 0
175 198 0
173 197 0
172 196 0
175 198 0
173 197 0
175 198 0
175 198 0
172 197 0
174 197 0
174 197 0
176 199 0
176 198 0
172 196 0
174 197 0
174 198 0
173 197 0
176 198 0
174 198 0
171 196 0
175 198 0
174 198 0
174 198 0
175 198 0
174 198 0
175 198 0
175 198 0
174 198 0
175 198 0
172 196 0
174 198 0
176 198 0
174 198 0
175 198 0
174 197 0
174 197 0
174 197 0
175 198 0
171 196 0
175 198 0
175 198 0
175 198 0
174 197 0
175 198 0
174 198 0
174 198 0
174 197 0
174 197 0
176 199 0
174 197 0
174 198 0
173 197 0
174 197 0
174 197 0
174 198 0
174 198 0
173 196 0
174 198 0
174 198 0
173 197 0
175 198 0
174 197 0
174 197 0
175 198 0
175 198 0
173 197 0
174 198 0
174 198 0
173 197 0
174 197 0
174 198 0
174 197 0
174 198 0
174 198 0
172 196 0
174 197 0
175 198 0
173 197 0
173 196 0
174 197 0
175 198 0
173 196 0
174 197 0
174 197 0
173 197 0
174 197 0
172 196 0
174 197 0
172 197 0
174 198 0
174 197 0
171 196 0
174 198 0
174 197 0
173 197 0
174 198 0
173 197 0
173 197 0
175 198 0
175 198 0
173 196 0
174 198 0
174 198 0
173 197 0
174 197 0
174 197 0
173 197 0
173 197 0
174 197 0
173 197 0
174 197 0
174 197 0
173 196 0
174 197 0
173 197 0
172 195 0
172 196 0
173 196 0
173 197 0
173 196 0
174 197 0
172 195 0
172 196 0
173 197 0
172 195 0
172 196 0
171 195 0
174 198 0
175 198 0
172 196 0
174 197 0
172 196 0
172 196 0
173 197 0
172 196 0
173 197 0
173 197 0
173 196 0
173 197 0
172 196 0
175 198 0
173 197 0
173 197 0
174 197 0
171 195 0
174 198 0
172 196 0
173 196 0
174 197 0
171 195 0
171 195 0
172 196 0
175 197 0
173 196 0
176 198 0
172 196 0
175 198 0
174 197 0
171 195 0
175 198 0
174 198 0
175 198 0
176 198 0
173 196 0
175 198 0
173 197 0
172 196 0
174 198 0
175 197 0
173 196 0
173 197 0
171 196 0
173 197 0
172 195 0
173 195 0
173 197 0
175 198 0
172 195 0
173 196 0
174 197 0
173 197 0
172 195 0
173 197 0
173 197 0
169 194 0
172 196 0
174 196 0
174 197 0
175 198 0
172 196 0
174 197 0
172 196 0
175 198 0
170 194 0
174 197 0
174 198 0
174 197 0
173 197 0
173 197 0
173 197 0
170 194 0
173 196 0
172 196 0
174 198 0
175 198 0
174 197 0
173 196 0
174 198 0
171 195 0
174 197 0
172 196 0
174 197 0
173 197 0
174 197 0
172 196 0
175 198 0
173 197 0
174 198 0
175 198 0
175 198 0
173 196 0
174 197 0
174 197 0
173 197 0
174 197 0
172 196 0
176 198 0
172 196 0
174 198 0
175 198 0
172 196 0
173 197 0
173 197 0
174 197 0
173 197 0
173 197 0
174 198 0
172 196 0
171 195 0
174 197 0
175 198 0
172 196 0
175 198 0
175 198 0
174 198 0
174 197 0
173 197 0
175 198 0
174 198 0
173 197 0
175 198 0
174 198 0
174 197 0
172 196 0
173 197 0
173 196 0
175 198 0
174 198 0
174 198 0
173 197 0
174 198 0
175 198 0
174 198 0
174 197 0
174 197 0
175 198 0
174 198 0
174 197 0
174 198 0
174 198 0
173 197 0
174 198 0
175 198 0
176 198 0
172 196 0
175 198 0
174 198 0
173 197 0
174 198 0
173 197 0
175 198 0
174 197 0
175 197 0
175 198 0
173 196 0
172 196 0
174 197 0
176 199 0
175 198 0
174 197 0
174 197 0
174 197 0
172 195 0
174 198 0
172 196 0
174 197 0
174 198 0
173 197 0
174 198 0
173 197 0
174 198 0
175 197 0
174 197 0
175 198 0
173 197 0
174 198 0
174 198 0
173 197 0
175 197 0
175 198 0
173 197 0
174 197 0
173 197 0
174 198 0
175 198 0
174 198 0
175 198 0
173 197 0
174 197 0
173 197 0
174 198 0
174 197 0
175 198 0
174 197 0
174 197 0
173 197 0
176 198 0
174 198 0
174 198 0
174 198 0
175 198 0
176 198 0
175 198 0
175 198 0
175 198 0
176 198 0
175 198 0
174 197 0
171 195 0
176 198 0
173 197 0
172 197 0
174 197 0
174 198 0
173 197 0
174 198 0
174 198 0
174 198 0
173 197 0
174 198 0
174 198 0
175 198 0
174 197 0
173 197 0
175 198 0
176 198 0
173 196 0
174 197 0
173 197 0
174 198 0
175 198 0
174 197 0
175 198 0
174 198 0
173 197 0
173 197 0
175 198 0
176 199 0
173 197 0
175 198 0
175 198 0
173 197 0
177 199 0
175 198 0
175 198 0
175 198 0
174 198 0
173 197 0
176 199 0
174 198 0
174 198 0
175 198 0
174 198 0
174 197 0
175 198 0
174 197 0
174 198 0
174 198 0
174 197 0
175 198 0
175 198 0
176 198 0
173 197 0
173 196 0
176 198 0
174 197 0
173 197 0
176 199 0
173 197 0
174 198 0
175 198 0
173 197 0
174 197 0
173 197 0
175 198 0
175 198 0
174 197 0
172 197 0
174 198 0
174 198 0
174 197 0
173 197 0
176 199 0
174 198 0
175 198 0
174 197 0
174 198 0
174 197 0
174 198 0
174 198 0
176 198 0
172 196 0
174 197 0
173 196 0
174 198 0
174 198 0
175 198 0
173 197 0
173 197 0
174 198 0
172 196 0
174 198 0
172 196 0
174 197 0
175 198 0
174 197 0
173 197 0
174 198 0
174 198 0
174 197 0
175 198 0
175 198 0
174 198 0
174 197 0
173 197 0
174 198 0
174 198 0
174 197 0
174 198 0
175 198 0
173 196 0
174 198 0
173 197 0
175 198 0
174 198 0
174 197 0
174 198 0
174 197 0
175 198 0
173 197 0
173 197 0
174 197 0
174 198 0
175 198 0
175 198 0
174 198 0
174 197 0
174 198 0
174 197 0
173 197 0
175 198 0
174 198 0
175 198 0
174 198 0
176 199 0
173 197 0
175 198 0
174 197 0
175 198 0
176 198 0
174 198 0
174 197 0
176 199 0
174 198 0
173 196 0
174 198 0
173 197 0
174 197 0
174 198 0
172 196 0
176 198 0
174 197 0
175 198 0
174 197 0
174 197 0
176 198 0
174 197 0
174 198 0
175 198 0
175 198 0
173 197 0
173 197 0
172 196 0
175 198 0
170 194 0
173 197 0
174 198 0
175 198 0
174 198 0
173 196 0
174 198 0
173 196 0
173 197 0
170 194 0
174 198 0
172 195 0
174 196 0
173 196 0
173 197 0
175 198 0
175 198 0
173 197 0
175 198 0
172 196 0
174 198 0
172 195 0
172 196 0
172 196 0
174 197 0
175 198 0
174 197 0
173 197 0
173 197 0
172 196 0
173 197 0
172 196 0
174 198 0
175 198 0
173 196 0
174 198 0
173 197 0
172 196 0
173 196 0
175 198 0
173 196 0
174 197 0
173 197 0
176 199 0
172 196 0
175 198 0
174 197 0
172 196 0
174 197 0
172 196 0
173 197 0
174 197 0
173 197 0
174 197 0
172 196 0
172 195 0
174 198 0
173 196 0
173 197 0
173 197 0
174 197 0
173 196 0
172 196 0
173 197 0
175 197 0
175 197 0
174 198 0
173 196 0
173 196 0
173 197 0
172 196 0
174 198 0
172 196 0
175 198 0
174 198 0
174 197 0
173 197 0
172 196 0
174 197 0
173 197 0
174 197 0
174 197 0
172 196 0
170 194 0
176 198 0
173 196 0
174 197 0
171 194 0
173 196 0
174 197 0
173 197 0
173 197 0
176 198 0
174 197 0
173 197 0
174 197 0
173 196 0
174 198 0
174 198 0
176 198 0
173 196 0
173 197 0
175 198 0
174 197 0
174 197 0
174 197 0
174 197 0
172 196 0
172 196 0
174 197 0
174 197 0
174 197 0
173 197 0
175 198 0
172 196 0
174 197 0
175 198 0
172 195 0
173 197 0
175 198 0
173 197 0
174 197 0
175 198 0
173 196 0
173 197 0
175 198 0
173 196 0
172 196 0
172 196 0
174 197 0
175 198 0
174 198 0
175 198 0
174 197 0
172 196 0
175 198 0
174 198 0
176 198 0
173 197 0
172 197 0
174 197 0
174 197 0
175 198 0
172 196 0
173 197 0
172 195 0
174 198 0
175 198 0
174 197 0
175 198 0
174 197 0
172 196 0
174 197 0
175 198 0
174 198 0
172 196 0
173 196 0
175 198 0
174 198 0
174 197 0
173 197 0
173 197 0
173 197 0
174 197 0
175 198 0
175 198 0
176 198 0
175 198 0
175 198 0
175 198 0
175 198 0
174 197 0
175 198 0
174 197 0
175 198 0
176 199 0
175 198 0
175 197 0
174 197 0
174 198 0
174 198 0
175 198 0
175 198 0
173 196 0
175 198 0
175 198 0
176 199 0
174 197 0
173 197 0
174 198 0
174 198 0
174 197 0
174 198 0
174 197 0
174 197 0
174 198 0
173 197 0
174 198 0
174 198 0
175 198 0
174 198 0
176 199 0
174 197 0
173 197 0
175 198 0
174 197 0
175 198 0
175 198 0
174 197 0
174 197 0
174 198 0
174 197 0
174 197 0
175 198 0
173 197 0
176 198 0
174 197 0
174 197 0
174 197 0
174 197 0
173 197 0
174 198 0
176 198 0
175 198 0
174 198 0
175 198 0
175 198 0
176 199 0
173 197 0
175 198 0
175 198 0
174 198 0
174 198 0
174 198 0
174 198 0
173 197 0
175 198 0
174 198 0
173 197 0
175 198 0
173 197 0
174 198 0
174 198 0
175 198 0
175 198 0
175 198 0
175 198 0
175 198 0
174 198 0
174 198 0
174 198 0
174 197 0
175 198 0
174 197 0
176 198 0
174 198 0
175 198 0
174 198 0
175 198 0
174 198 0
176 198 0
174 197 0
175 198 0
175 198 0
175 198 0
173 197 0
175 198 0
175 198 0
175 198 0
174 197 0
174 197 0
174 197 0
177 199 0
173 197 0
175 198 0
174 198 0
175 198 0
173 197 0
175 198 0
174 198 0
175 198 0
174 197 0
174 197 0
175 198 0
174 197 0
174 197 0
174 198 0
175 198 0
174 198 0
174 197 0
175 198 0
173 197 0
175 198 0
173 197 0
175 198 0
175 198 0
175 198 0
173 197 0
174 198 0
175 198 0
173 197 0
173 197 0
174 198 0
174 198 0
174 198 0
173 197 0
172 197 0
172 197 0
173 197 0
174 198 0
175 198 0
172 196 0
174 197 0
174 197 0
174 198 0
176 198 0
173 197 0
177 199 0
174 197 0
173 197 0
174 198 0
173 197 0
174 198 0
174 198 0
175 198 0
173 197 0
173 197 0
173 197 0
174 198 0
175 197 0
175 198 0
174 198 0
174 197 0
175 198 0
175 198 0
176 199 0
174 197 0
173 197 0
174 197 0
173 197 0
174 197 0
174 198 0
173 196 0
175 198 0
175 198 0
173 197 0
174 197 0
173 197 0
174 197 0
174 197 0
174 198 0
174 198 0
175 198 0
175 198 0
175 198 0
175 198 0
174 198 0
174 198 0
174 197 0
172 195 0
173 197 0
172 196 0
173 197 0
172 196 0
173 197 0
172 196 0
171 195 0
173 196 0
176 199 0
175 198 0
174 198 0
175 198 0
173 196 0
174 196 0
174 198 0
173 197 0
173 197 0
175 198 0
173 196 0
174 197 0
175 198 0
173 197 0
175 198 0
173 197 0
174 198 0
174 198 0
174 197 0
174 197 0
174 198 0
174 197 0
174 197 0
173 197 0
174 197 0
175 198 0
175 198 0
171 195 0
173 196 0
173 197 0
173 197 0
174 196 0
172 197 0
175 198 0
174 198 0
172 196 0
174 197 0
175 198 0
172 195 0
175 198 0
173 197 0
174 198 0
173 197 0
173 196 0
172 196 0
175 198 0
173 196 0
173 197 0
174 198 0
173 196 0
172 196 0
175 198 0
173 196 0
173 197 0
173 196 0
175 198 0
172 196 0
172 196 0
173 197 0
174 197 0
173 197 0
172 196 0
173 196 0
172 196 0
174 197 0
173 196 0
171 196 0
175 198 0
174 198 0
173 197 0
173 197 0
174 198 0
171 195 0
174 197 0
173 197 0
174 198 0
174 197 0
173 197 0
175 198 0
172 196 0
170 194 0
172 196 0
175 198 0
173 197 0
174 198 0
173 196 0
174 198 0
173 196 0
174 197 0
175 198 0
174 197 0
175 198 0
173 197 0
174 197 0
173 196 0
172 195 0
176 198 0
174 198 0
172 196 0
174 197 0
172 195 0
173 197 0
175 198 0
174 197 0
174 197 0
175 198 0
174 197 0
173 196 0
173 197 0
172 195 0
175 198 0
173 197 0
172 196 0
175 198 0
173 197 0
174 197 0
171 195 0
174 197 0
175 198 0
174 197 0
173 197 0
174 197 0
175 198 0
174 198 0
172 196 0
173 196 0
175 198 0
173 197 0
174 197 0
174 197 0
174 198 0
175 198 0
173 197 0
175 198 0
172 196 0
172 196 0
174 197 0
174 197 0
175 198 0
171 195 0
174 197 0
175 198 0
172 196 0
174 197 0
176 198 0
173 197 0
173 196 0
172 197 0
173 197 0
171 195 0
173 197 0
174 197 0
175 198 0
172 196 0
175 198 0
172 196 0
173 196 0
173 197 0
173 197 0
173 197 0
173 196 0
175 198 0
173 197 0
175 198 0
173 197 0
175 198 0
174 197 0
173 196 0
174 197 0
173 197 0
172 197 0
175 198 0
173 196 0
174 198 0
173 195 0
176 198 0
172 197 0
174 198 0
176 198 0
174 198 0
175 198 0
175 198 0
175 198 0
174 198 0
176 199 0
174 197 0
173 196 0
175 198 0
174 198 0
175 198 0
175 198 0
174 198 0
174 197 0
173 196 0
174 198 0
174 197 0
175 198 0
174 198 0
173 197 0
175 198 0
175 198 0
174 197 0
174 197 0
173 197 0
173 196 0
174 198 0
174 198 0
175 198 0
174 197 0
175 198 0
174 197 0
174 197 0
174 197 0
173 196 0
174 198 0
176 199 0
174 197 0
175 198 0
175 198 0
173 197 0
174 198 0
172 196 0
174 197 0
173 196 0
173 197 0
176 198 0
174 198 0
174 197 0
173 197 0
174 197 0
172 196 0
173 196 0
174 197 0
173 197 0
175 198 0
174 197 0
172 196 0
174 198 0
174 198 0
174 197 0
175 198 0
176 199 0
175 198 0
174 197 0
175 198 0
175 198 0
175 198 0
176 198 0
176 198 0
174 198 0
173 197 0
174 197 0
173 197 0
173 197 0
176 199 0
174 197 0
174 198 0
174 198 0
174 198 0
175 198 0
175 198 0
173 197 0
174 197 0
175 198 0
175 198 0
176 199 0
177 199 0
173 197 0
174 197 0
175 198 0
174 198 0
174 198 0
174 198 0
174 198 0
174 197 0
174 198 0
174 197 0
175 198 0
175 198 0
174 198 0
173 197 0
176 198 0
175 198 0
171 196 0
175 198 0
176 199 0
175 198 0
175 198 0
175 198 0
174 197 0
174 198 0
174 197 0
174 198 0
175 198 0
174 197 0
175 198 0
175 198 0
175 198 0
174 198 0
174 198 0
174 198 0
174 197 0
174 197 0
175 198 0
175 198 0
174 198 0
174 197 0
173 197 0
174 198 0
173 197 0
174 197 0
174 198 0
174 198 0
173 197 0
176 199 0
175 198 0
175 198 0
174 196 0
174 197 0
175 198 0
173 197 0
175 198 0
174 197 0
174 198 0
175 198 0
174 198 0
174 197 0
176 199 0
176 199 0
175 198 0
174 198 0
175 198 0
175 198 0
176 199 0
175 198 0
174 198 0
174 198 0
175 198 0
174 197 0
173 197 0
175 198 0
172 196 0
175 198 0
177 199 0
175 198 0
174 198 0
175 198 0
175 198 0
174 198 0
174 198 0
174 198 0
176 198 0
175 198 0
174 197 0
175 198 0
173 197 0
175 198 0
175 198 0
173 197 0
173 197 0
174 198 0
172 197 0
173 197 0
172 196 0
173 196 0
173 196 0
176 199 0
174 197 0
175 198 0
174 197 0
173 197 0
174 198 0
174 198 0
173 197 0
172 195 0
174 197 0
173 197 0
175 198 0
173 197 0
174 198 0
174 197 0
173 196 0
173 196 0
173 197 0
176 198 0
174 197 0
173 197 0
175 198 0
173 197 0
175 198 0
174 197 0
172 195 0
174 197 0
174 197 0
173 196 0
173 197 0
173 197 0
173 197 0
171 195 0
176 199 0
175 198 0
173 197 0
174 197 0
174 198 0
175 198 0
175 198 0
175 198 0
174 198 0
175 198 0
173 197 0
174 198 0
171 196 0
172 196 0
173 197 0
174 198 0
173 197 0
175 198 0
172 196 0
172 196 0
173 196 0
173 197 0
174 198 0
175 198 0
174 198 0
173 197 0
175 198 0
174 197 0
173 196 0
174 198 0
174 197 0
171 195 0
174 197 0
174 197 0
174 197 0
175 198 0
176 199 0
174 197 0
173 196 0
173 197 0
174 198 0
175 198 0
173 197 0
172 197 0
174 197 0
174 198 0
172 197 0
173 197 0
174 197 0
174 197 0
172 196 0
175 198 0
172 196 0
175 198 0
173 197 0
173 197 0
175 197 0
173 197 0
171 195 0
175 197 0
171 195 0
172 196 0
175 198 0
173 196 0
172 195 0
175 198 0
175 198 0
172 196 0
172 196 0
174 197 0
175 198 0
174 198 0
174 197 0
174 197 0
172 196 0
173 197 0
175 198 0
175 198 0
172 196 0
175 198 0
173 196 0
173 196 0
172 196 0
173 197 0
173 196 0
174 197 0
174 197 0
174 197 0
171 195 0
172 196 0
173 197 0
174 198 0
174 197 0
173 197 0
173 197 0
174 198 0
175 198 0
174 197 0
173 197 0
174 197 0
174 197 0
172 196 0
173 196 0
177 199 0
173 197 0
175 198 0
173 196 0
172 196 0
175 198 0
173 196 0
172 196 0
173 196 0
172 196 0
175 198 0
170 194 0
172 195 0
172 196 0
174 197 0
174 198 0
173 197 0
172 196 0
172 196 0
173 196 0
172 196 0
174 198 0
173 197 0
174 197 0
173 196 0
174 198 0
172 196 0
174 198 0
174 198 0
174 197 0
173 197 0
173 197 0
172 196 0
173 197 0
174 198 0
174 197 0
174 197 0
175 197 0
174 198 0
173 197 0
174 198 0
176 199 0
173 197 0
173 197 0
174 197 0
173 197 0
173 197 0
174 197 0
175 198 0
175 198 0
173 197 0
173 197 0
172 196 0
175 198 0
177 199 0
175 198 0
174 197 0
173 197 0
174 197 0
175 198 0
173 196 0
174 198 0
175 198 0
174 198 0
175 198 0
175 198 0
173 197 0
175 198 0
173 197 0
175 198 0
173 196 0
175 198 0
175 198 0
174 198 0
174 197 0
175 198 0
174 197 0
172 197 0
174 197 0
173 196 0
175 198 0
172 195 0
175 198 0
173 197 0
176 198 0
174 198 0
173 196 0
173 197 0
173 197 0
177 199 0
174 198 0
175 197 0
173 197 0
175 198 0
176 198 0
175 197 0
171 195 0
173 196 0
174 198 0
175 198 0
174 197 0
173 197 0
175 198 0
175 198 0
174 197 0
174 197 0
172 197 0
173 197 0
174 197 0
174 197 0
174 198 0
174 197 0
174 198 0
175 198 0
173 197 0
175 198 0
174 198 0
175 198 0
173 197 0
174 197 0
173 197 0
173 197 0
173 197 0
173 197 0
173 197 0
174 197 0
174 198 0
175 198 0
174 197 0
173 197 0
172 196 0
173 197 0
174 197 0
174 197 0
175 198 0
173 197 0
174 197 0
173 197 0
175 198 0
175 198 0
175 198 0
173 197 0
175 198 0
174 197 0
172 196 0
175 198 0
175 198 0
175 198 0
173 196 0
175 198 0
175 198 0
175 198 0
173 197 0
174 198 0
175 198 0
175 198 0
175 198 0
174 198 0
174 198 0
172 197 0
174 198 0
175 198 0
174 198 0
174 197 0
173 197 0
174 198 0
175 198 0
174 198 0
174 198 0
176 198 0
176 199 0
174 198 0
173 197 0
173 197 0
174 197 0
175 198 0
176 199 0
175 198 0
175 198 0
173 197 0
173 197 0
175 198 0
173 196 0
174 198 0
174 198 0
174 198 0
174 198 0
174 198 0
174 198 0
173 197 0
173 197 0
173 197 0
174 198 0
174 198 0
176 198 0
174 197 0
174 197 0
174 198 0
176 198 0
174 198 0
174 198 0
173 197 0
175 198 0
173 197 0
173 197 0
174 198 0
174 198 0
176 199 0
173 197 0
176 199 0
174 197 0
174 197 0
175 198 0
173 197 0
174 198 0
174 197 0
174 198 0
175 198 0
175 198 0
175 198 0
174 197 0
173 197 0
175 198 0
174 197 0
173 196 0
172 196 0
174 198 0
176 198 0
174 198 0
175 198 0
174 198 0
174 197 0
175 198 0
175 198 0
175 198 0
174 198 0
173 197 0
174 197 0
176 199 0
175 198 0
173 197 0
174 197 0
175 198 0
175 197 0
174 198 0
174 198 0
174 197 0
174 198 0
175 198 0
173 197 0
175 198 0
174 197 0
174 197 0
173 196 0
174 197 0
174 198 0
176 199 0
174 197 0
175 198 0
172 196 0
173 197 0
175 198 0
174 198 0
175 198 0
174 198 0
172 197 0
175 198 0
173 197 0
173 197 0
174 197 0
172 196 0
174 197 0
175 198 0
176 198 0
175 198 0
174 198 0
174 198 0
173 196 0
175 198 0
175 198 0
174 198 0
175 198 0
174 197 0
173 197 0
174 198 0
172 195 0
174 197 0
174 197 0
174 197 0
174 198 0
173 197 0
175 198 0
174 197 0
173 197 0
173 197 0
174 198 0
177 199 0
173 196 0
174 197 0
173 197 0
174 197 0
172 197 0
175 198 0
174 197 0
173 197 0
173 196 0
174 197 0
172 196 0
172 197 0
172 196 0
173 197 0
173 197 0
175 198 0
173 197 0
174 197 0
173 197 0
175 198 0
175 198 0
175 198 0
171 196 0
173 196 0
173 196 0
174 198 0
175 198 0
173 196 0
174 197 0
173 197 0
174 197 0
174 198 0
175 198 0
174 197 0
173 197 0
174 197 0
176 199 0
175 198 0
172 197 0
173 196 0
173 197 0
173 196 0
174 197 0
171 195 0
173 197 0
173 196 0
172 195 0
173 196 0
174 197 0
174 197 0
173 197 0
174 197 0
173 197 0
174 198 0
173 197 0
173 196 0
172 196 0
174 198 0
172 196 0
174 197 0
173 197 0
175 198 0
172 197 0
173 196 0
173 197 0
174 197 0
173 196 0
172 196 0
174 197 0
171 195 0
173 196 0
173 197 0
174 197 0
175 198 0
174 197 0
175 198 0
174 197 0
175 198 0
174 198 0
174 198 0
174 197 0
170 194 0
174 197 0
173 197 0
173 197 0
173 196 0
175 198 0
174 197 0
175 198 0
172 196 0
176 199 0
173 197 0
174 198 0
172 196 0
173 197 0
174 197 0
175 198 0
172 196 0
174 197 0
175 198 0
173 196 0
174 198 0
172 196 0
174 197 0
173 196 0
174 198 0
174 197 0
174 197 0
173 196 0
173 197 0
173 197 0
173 197 0
173 197 0
173 196 0
175 198 0
171 195 0
174 197 0
172 196 0
173 197 0
173 195 0
172 196 0
173 197 0
174 197 0
173 197 0
174 197 0
175 198 0
173 196 0
173 197 0
175 198 0
175 198 0
174 198 0
173 196 0
174 197 0
173 197 0
174 198 0
174 198 0
175 198 0
175 198 0
174 198 0
173 196 0
171 195 0
173 197 0
172 195 0
174 197 0
174 197 0
171 195 0
174 197 0
175 198 0
173 196 0
174 198 0
172 195 0
174 198 0
174 197 0
174 197 0
173 196 0
173 197 0
173 197 0
174 198 0
175 198 0
174 198 0
173 197 0
176 198 0
172 196 0
172 196 0
174 197 0
173 196 0
174 197 0
175 198 0
175 198 0
177 199 0
174 197 0
176 199 0
173 197 0
175 197 0
173 197 0
175 198 0
172 196 0
175 198 0
175 198 0
173 197 0
175 198 0
174 197 0
176 198 0
173 197 0
174 198 0
173 197 0
172 196 0
175 198 0
174 198 0
175 198 0
174 197 0
175 198 0
171 194 0
170 194 0
173 196 0
174 197 0
176 199 0
173 197 0
176 198 0
171 196 0
174 198 0
175 198 0
175 198 0
175 198 0
173 197 0
173 197 0
174 197 0
174 197 0
174 197 0
175 198 0
175 198 0
174 198 0
175 198 0
173 197 0
173 197 0
172 196 0
174 197 0
174 197 0
174 197 0
173 197 0
174 197 0
173 196 0
174 197 0
173 197 0
175 198 0
175 198 0
173 197 0
174 197 0
175 198 0
173 197 0
174 197 0
174 198 0
174 198 0
174 197 0
174 198 0
174 198 0
173 197 0
176 198 0
176 199 0
174 197 0
174 198 0
174 197 0
175 198 0
175 198 0
174 197 0
174 197 0
174 198 0
174 198 0
175 198 0
173 196 0
175 198 0
174 197 0
172 196 0
175 198 0
175 198 0
175 198 0
175 198 0
174 198 0
172 197 0
173 197 0
174 198 0
175 198 0
173 197 0
175 198 0
174 197 0
173 197 0
174 197 0
176 198 0
176 198 0
173 197 0
174 198 0
175 198 0
176 198 0
174 198 0
174 198 0
175 198 0
173 197 0
176 199 0
172 197 0
174 197 0
173 197 0
175 198 0
176 198 0
175 198 0
174 198 0
175 198 0
173 197 0
174 197 0
174 198 0
175 198 0
174 198 0
173 197 0
175 198 0
174 198 0
175 198 0
174 197 0
174 198 0
173 196 0
172 197 0
173 196 0
175 198 0
173 197 0
172 197 0
174 198 0
174 197 0
175 198 0
174 197 0
175 198 0
173 197 0
175 198 0
173 197 0
174 197 0
175 198 0
175 198 0
175 198 0
174 198 0
173 197 0
174 198 0
174 198 0
174 198 0
174 198 0
173 197 0
175 198 0
175 198 0
174 198 0
175 198 0
174 198 0
175 198 0
174 198 0
175 198 0
175 198 0
173 197 0
174 197 0
174 198 0
173 197 0
174 198 0
175 198 0
172 196 0
175 198 0
174 198 0
174 198 0
176 198 0
174 198 0
175 198 0
173 197 0
170 195 0
174 198 0
174 197 0
176 198 0
176 199 0
176 199 0
174 197 0
174 198 0
173 196 0
173 197 0
175 198 0
174 197 0
174 198 0
175 198 0
174 198 0
174 198 0
175 198 0
175 198 0
173 197 0
174 198 0
173 197 0
176 198 0
175 198 0
172 196 0
173 196 0
173 197 0
173 197 0
176 199 0
175 198 0
173 197 0
174 198 0
172 196 0
173 196 0
174 197 0
175 198 0
176 199 0
175 198 0
174 197 0
175 198 0
174 197 0
174 197 0
173 197 0
174 198 0
174 197 0
174 197 0
173 197 0
175 198 0
173 197 0
174 198 0
174 198 0
173 196 0
175 198 0
173 197 0
173 197 0
172 196 0
175 198 0
174 197 0
173 197 0
173 196 0
174 198 0
173 197 0
174 197 0
173 196 0
173 197 0
175 198 0
175 198 0
173 197 0
174 198 0
172 195 0
172 196 0
175 198 0
172 196 0
174 197 0
173 197 0
176 199 0
173 197 0
173 196 0
173 197 0
174 198 0
173 197 0
174 197 0
173 197 0
173 197 0
174 197 0
173 197 0
175 198 0
174 197 0
174 197 0
171 195 0
172 196 0
175 198 0
170 194 0
174 197 0
174 197 0
174 198 0
174 197 0
173 197 0
176 199 0
174 198 0
172 195 0
174 197 0
175 197 0
172 195 0
174 197 0
173 197 0
174 197 0
172 196 0
174 197 0
175 198 0
173 196 0
173 197 0
173 197 0
174 197 0
173 197 0
174 197 0
172 195 0
174 198 0
174 197 0
175 197 0
174 197 0
172 196 0
172 195 0
173 196 0
175 198 0
173 197 0
172 196 0
171 195 0
172 195 0
171 195 0
172 196 0
173 197 0
174 198 0
173 196 0
172 196 0
173 197 0
175 198 0
174 198 0
173 197 0
173 197 0
175 198 0
173 196 0
173 196 0
174 198 0
175 198 0
175 198 0
175 198 0
173 197 0
172 196 0
172 196 0
172 196 0
173 196 0
174 197 0
172 196 0
174 197 0
173 196 0
174 198 0
175 198 0
173 197 0
172 195 0
172 195 0
174 197 0
174 198 0
173 196 0
173 196 0
173 197 0
173 197 0
174 197 0
173 197 0
173 196 0
174 198 0
172 196 0
172 196 0
174 197 0
174 197 0
174 198 0
173 196 0
174 198 0
173 196 0
172 196 0
173 197 0
175 198 0
173 197 0
174 197 0
174 197 0
173 197 0
173 197 0
174 197 0
174 197 0
172 195 0
176 198 0
175 198 0
175 198 0
176 198 0
174 197 0
173 196 0
173 197 0
173 196 0
173 197 0
172 196 0
173 196 0
173 197 0
175 198 0
172 197 0
174 197 0
174 198 0
172 196 0
174 198 0
174 197 0
174 198 0
174 196 0
174 197 0
172 196 0
173 196 0
174 198 0
175 198 0
173 197 0
174 198 0
173 197 0
174 197 0
173 197 0
175 198 0
175 198 0
174 197 0
173 197 0
174 198 0
175 198 0
175 198 0
175 198 0
174 197 0
174 197 0
175 197 0
174 197 0
173 197 0
174 197 0
174 197 0
172 196 0
175 198 0
174 197 0
174 197 0
176 199 0
175 198 0
173 197 0
174 198 0
173 197 0
173 197 0
174 198 0
174 197 0
173 197 0
175 198 0
174 198 0
173 197 0
173 197 0
175 198 0
174 197 0
176 199 0
171 196 0
175 198 0
175 198 0
174 198 0
175 198 0
175 198 0
174 197 0
174 198 0
175 198 0
175 198 0
175 198 0
174 198 0
175 198 0
173 197 0
174 198 0
175 198 0
174 197 0
174 198 0
174 198 0
173 197 0
173 197 0
173 197 0
175 198 0
174 198 0
174 197 0
174 198 0
175 198 0
175 198 0
175 198 0
175 198 0
174 197 0
173 197 0
174 197 0
175 198 0
174 197 0
176 198 0
174 197 0
173 197 0
176 199 0
174 198 0
173 197 0
174 197 0
173 196 0
172 197 0
173 197 0
173 196 0
174 197 0
173 197 0
173 196 0
173 197 0
175 198 0
174 197 0
175 198 0
174 198 0
175 198 0
175 198 0
174 198 0
176 199 0
174 198 0
175 198 0
174 198 0
172 197 0
175 198 0
174 197 0
173 197 0
173 197 0
173 196 0
174 198 0
175 198 0
173 197 0
175 198 0
175 198 0
177 199 0
173 197 0
176 199 0
175 198 0
174 198 0
175 198 0
175 198 0
174 198 0
173 197 0
174 197 0
174 197 0
173 197 0
174 198 0
173 197 0
174 198 0
176 199 0
173 197 0
174 198 0
174 198 0
174 197 0
174 198 0
173 197 0
173 197 0
174 198 0
175 198 0
175 198 0
174 197 0
175 198 0
175 198 0
174 198 0
174 198 0
176 199 0
175 198 0
174 198 0
175 198 0
176 199 0
173 197 0
176 199 0
174 198 0
175 198 0
174 198 0
174 198 0
174 198 0
176 199 0
174 198 0
173 197 0
174 197 0
174 198 0
175 198 0
174 197 0
174 198 0
175 198 0
175 198 0
175 198 0
173 196 0
175 198 0
174 197 0
174 198 0
174 197 0
176 199 0
175 198 0
174 198 0
174 198 0
174 198 0
174 197 0
175 198 0
175 198 0
175 198 0
174 198 0
174 197 0
176 199 0
173 197 0
176 199 0
173 197 0
174 198 0
176 198 0
174 197 0
174 198 0
175 198 0
176 198 0
174 198 0
174 197 0
174 196 0
174 197 0
175 198 0
175 198 0
175 198 0
173 197 0
172 196 0
175 198 0
175 198 0
174 197 0
175 198 0
173 197 0
175 198 0
174 198 0
175 198 0
174 197 0
174 197 0
173 196 0
173 197 0
173 197 0
172 196 0
175 198 0
173 197 0
172 196 0
173 197 0
174 198 0
173 197 0
172 196 0
173 197 0
174 197 0
174 198 0
173 197 0
173 197 0
174 197 0
176 199 0
173 197 0
173 197 0
173 197 0
174 198 0
172 195 0
175 198 0
174 197 0
172 196 0
174 198 0
172 196 0
174 197 0
173 197 0
176 199 0
172 197 0
172 197 0
174 197 0
174 197 0
173 197 0
175 198 0
175 198 0
174 197 0
174 197 0
173 196 0
174 198 0
172 196 0
173 197 0
174 197 0
172 196 0
173 197 0
174 197 0
174 198 0
175 198 0
174 198 0
174 197 0
175 198 0
173 196 0
175 198 0
172 196 0
174 197 0
174 197 0
174 197 0
175 198 0
174 198 0
173 197 0
172 195 0
172 195 0
173 196 0
173 196 0
174 197 0
174 197 0
172 196 0
172 196 0
176 199 0
174 198 0
172 196 0
173 197 0
173 197 0
171 195 0
173 196 0
174 197 0
174 197 0
175 198 0
173 197 0
173 196 0
175 198 0
174 197 0
174 198 0
172 196 0
173 196 0
173 197 0
173 197 0
175 198 0
175 198 0
174 197 0
174 198 0
174 197 0
173 197 0
173 197 0
172 195 0
174 197 0
173 197 0
172 196 0
174 198 0
176 198 0
174 198 0
172 196 0
174 197 0
174 197 0
173 197 0
174 197 0
173 196 0
176 198 0
174 198 0
175 198 0
172 196 0
173 196 0
173 197 0
176 199 0
176 198 0
172 196 0
173 197 0
170 194 0
170 193 0
175 198 0
172 196 0
168 192 0
173 196 0
173 197 0
172 196 0
174 198 0
173 197 0
174 198 0
174 197 0
175 198 0
173 197 0
173 196 0
174 197 0
174 198 0
174 197 0
172 196 0
172 196 0
175 198 0
173 197 0
173 197 0
174 197 0
174 198 0
174 198 0
173 197 0
174 198 0
173 197 0
174 198 0
172 197 0
174 197 0
176 199 0
173 196 0
175 198 0
172 195 0
173 195 0
172 196 0
174 198 0
174 198 0
174 198 0
174 197 0
173 196 0
174 197 0
173 196 0
172 196 0
174 197 0
172 197 0
173 197 0
175 198 0
174 197 0
172 195 0
173 196 0
174 197 0
173 196 0
174 197 0
175 198 0
172 196 0
175 198 0
173 197 0
174 198 0
172 196 0
173 196 0
173 197 0
174 198 0
174 198 0
174 198 0
175 198 0
173 197 0
175 198 0
174 197 0
173 197 0
174 198 0
175 198 0
175 198 0
173 197 0
174 197 0
173 196 0
175 198 0
173 197 0
175 198 0
174 197 0
174 198 0
175 198 0
172 196 0
174 198 0
175 197 0
175 198 0
173 197 0
173 197 0
175 198 0
172 196 0
173 196 0
173 197 0
175 198 0
174 197 0
173 197 0
175 198 0
174 197 0
175 198 0
174 197 0
174 198 0
172 196 0
172 195 0
175 198 0
174 198 0
174 197 0
173 197 0
173 197 0
172 196 0
173 197 0
174 197 0
174 198 0
175 198 0
175 197 0
174 198 0
173 197 0
174 197 0
174 197 0
174 198 0
173 197 0
174 197 0
173 196 0
175 198 0
174 198 0
176 199 0
175 198 0
174 197 0
173 197 0
174 197 0
173 197 0
174 197 0
175 198 0
174 198 0
173 197 0
175 198 0
174 198 0
173 197 0
174 197 0
174 198 0
174 197 0
174 198 0
174 197 0
176 199 0
174 198 0
175 198 0
173 197 0
174 197 0
174 197 0
175 198 0
175 198 0
173 196 0
174 197 0
174 198 0
172 197 0
174 197 0
174 198 0
176 198 0
174 198 0
174 198 0
175 198 0
174 198 0
173 197 0
174 197 0
176 199 0
175 198 0
174 198 0
172 197 0
175 198 0
174 198 0
173 197 0
175 198 0
175 198 0
175 198 0
174 198 0
173 197 0
174 198 0
174 198 0
173 197 0
175 198 0
175 198 0
174 198 0
175 198 0
173 197 0
174 198 0
174 197 0
174 198 0
175 198 0
175 198 0
175 198 0
174 198 0
174 197 0
175 198 0
173 197 0
174 198 0
175 198 0
176 199 0
174 198 0
174 198 0
174 198 0
174 198 0
173 197 0
175 198 0
174 198 0
175 198 0
173 197 0
174 198 0
175 198 0
176 198 0
175 198 0
175 198 0
174 198 0
174 197 0
175 198 0
174 198 0
174 197 0
174 198 0
175 198 0
174 197 0
174 197 0
175 198 0
174 198 0
175 198 0
174 198 0
175 198 0
172 197 0
174 198 0
175 198 0
174 197 0
175 198 0
175 198 0
173 197 0
174 198 0
176 198 0
174 198 0
173 197 0
175 198 0
173 197 0
174 197 0
173 197 0
175 198 0
175 198 0
174 197 0
172 196 0
173 197 0
175 198 0
174 198 0
175 198 0
175 198 0
175 198 0
176 199 0
174 197 0
175 198 0
174 197 0
174 198 0
175 198 0
173 197 0
175 198 0
174 198 0
175 198 0
174 198 0
174 197 0
174 197 0
175 198 0
175 198 0
174 197 0
175 198 0
174 198 0
175 198 0
174 198 0
175 198 0
173 197 0
174 197 0
174 197 0
175 198 0
174 197 0
174 198 0
174 197 0
174 197 0
174 197 0
174 197 0
173 197 0
173 197 0
174 197 0
175 198 0
175 198 0
173 197 0
174 198 0
173 197 0
177 199 0
175 198 0
176 198 0
175 198 0
174 198 0
173 197 0
173 197 0
174 198 0
172 196 0
175 198 0
175 198 0
173 197 0
175 198 0
174 197 0
174 198 0
174 197 0
174 198 0
174 197 0
174 198 0
174 197 0
175 198 0
175 198 0
172 196 0
174 197 0
173 197 0
175 198 0
174 198 0
173 196 0
175 198 0
174 198 0
173 197 0
173 197 0
174 197 0
173 197 0
175 198 0
174 197 0
174 197 0
173 197 0
172 196 0
174 198 0
174 198 0
173 197 0
173 197 0
171 195 0
176 198 0
174 198 0
173 197 0
175 198 0
174 197 0
173 197 0
173 197 0
174 197 0
173 197 0
174 198 0
173 197 0
172 196 0
175 198 0
173 197 0
174 198 0
172 196 0
173 196 0
174 197 0
174 197 0
172 196 0
172 196 0
176 198 0
173 197 0
172 196 0
174 198 0
174 197 0
174 198 0
174 197 0
172 195 0
172 195 0
175 198 0
174 197 0
174 198 0
172 195 0
173 197 0
174 198 0
174 198 0
174 197 0
174 198 0
173 196 0
174 197 0
174 197 0
174 197 0
173 197 0
172 196 0
174 197 0
172 195 0
174 197 0
175 198 0
172 196 0
174 198 0
174 196 0
175 198 0
174 197 0
176 198 0
174 198 0
173 197 0
174 197 0
172 196 0
175 198 0
174 198 0
172 196 0
175 197 0
174 197 0
174 197 0
173 197 0
174 197 0
174 197 0
174 198 0
171 194 0
175 198 0
175 198 0
171 195 0
176 198 0
173 197 0
172 196 0
174 198 0
174 198 0
172 196 0
173 197 0
174 198 0
174 197 0
174 197 0
173 197 0
173 197 0
174 197 0
173 196 0
173 197 0
174 196 0
172 196 0
174 197 0
172 196 0
175 198 0
174 197 0
175 198 0
174 197 0
174 196 0
175 198 0
173 196 0
172 195 0
171 195 0
174 198 0
174 198 0
172 196 0
174 197 0
177 199 0
176 199 0
171 196 0
173 197 0
173 197 0
171 195 0
174 198 0
175 198 0
173 197 0
173 197 0
174 197 0
172 196 0
174 198 0
174 197 0
172 196 0
174 197 0
174 197 0
173 197 0
173 197 0
174 197 0
173 196 0
174 198 0
175 198 0
174 197 0
173 197 0
174 197 0
172 196 0
174 198 0
171 195 0
174 197 0
176 198 0
174 198 0
174 197 0
174 198 0
174 197 0
174 197 0
173 197 0
173 197 0
173 197 0
175 198 0
173 196 0
175 198 0
173 196 0
174 197 0
173 196 0
174 197 0
175 198 0
174 198 0
174 197 0
174 198 0
174 198 0
175 198 0
173 197 0
176 199 0
175 198 0
174 197 0
176 199 0
175 198 0
173 197 0
174 198 0
175 198 0
173 197 0
174 198 0
174 198 0
176 199 0
176 198 0
173 197 0
174 197 0
174 198 0
173 196 0
175 198 0
174 197 0
173 197 0
174 197 0
174 198 0
175 198 0
174 198 0
175 198 0
174 197 0
174 198 0
172 196 0
174 198 0
175 198 0
173 196 0
175 198 0
175 198 0
174 197 0
174 197 0
174 198 0
174 197 0
173 197 0
174 198 0
175 198 0
176 199 0
175 198 0
174 197 0
173 197 0
174 197 0
174 197 0
174 198 0
174 198 0
174 198 0
174 197 0
174 198 0
174 198 0
174 197 0
172 196 0
175 198 0
174 198 0
174 198 0
175 198 0
172 197 0
172 196 0
173 197 0
174 198 0
175 198 0
176 199 0
175 198 0
173 197 0
173 197 0
175 198 0
174 198 0
176 199 0
174 198 0
174 198 0
173 197 0
174 197 0
173 197 0
173 197 0
175 198 0
175 198 0
173 197 0
176 198 0
174 198 0
174 197 0
174 198 0
175 198 0
173 197 0
175 198 0
175 198 0
176 198 0
175 198 0
174 198 0
175 198 0
174 197 0
175 198 0
175 198 0
174 198 0
175 198 0
175 198 0
173 197 0
175 198 0
176 199 0
173 197 0
175 198 0
174 198 0
174 198 0
174 198 0
173 197 0
173 197 0
174 198 0
173 197 0
174 198 0
174 198 0
175 198 0
173 197 0
173 197 0
176 199 0
174 198 0
174 197 0
173 197 0
173 197 0
174 198 0
173 197 0
175 198 0
174 197 0
175 198 0
174 198 0
175 198 0
175 198 0
174 197 0
173 197 0
176 198 0
174 197 0
173 197 0
175 198 0
173 197 0
173 197 0
174 198 0
174 197 0
174 197 0
174 198 0
174 198 0
174 198 0
174 198 0
174 198 0
174 197 0
174 197 0
175 198 0
174 198 0
174 197 0
174 197 0
174 198 0
176 198 0
172 196 0
174 197 0
175 198 0
174 198 0
174 198 0
173 197 0
173 197 0
176 199 0
174 198 0
174 197 0
174 197 0
173 197 0
173 197 0
174 197 0
175 198 0
175 198 0
175 198 0
173 197 0
173 197 0
173 197 0
174 198 0
174 197 0
175 198 0
173 196 0
175 197 0
173 197 0
174 197 0
173 197 0
173 197 0
176 199 0
175 198 0
174 198 0
174 198 0
174 198 0
173 197 0
176 199 0
174 198 0
174 198 0
175 198 0
171 195 0
175 198 0
175 198 0
175 198 0
173 197 0
176 198 0
174 197 0
174 197 0
175 198 0
172 196 0
173 197 0
174 197 0
175 197 0
175 198 0
175 198 0
175 198 0
175 198 0
174 198 0
173 197 0
175 198 0
172 195 0
174 198 0
173 197 0
172 197 0
174 197 0
173 196 0
175 198 0
175 198 0
174 198 0
171 195 0
175 198 0
175 198 0
173 197 0
174 197 0
173 197 0
176 198 0
173 196 0
174 197 0
174 197 0
174 197 0
173 197 0
174 197 0
175 198 0
174 198 0
173 197 0
174 197 0
173 197 0
174 197 0
173 196 0
174 198 0
173 197 0
173 197 0
176 198 0
175 198 0
173 197 0
172 196 0
173 197 0
175 198 0
174 197 0
172 196 0
173 197 0
174 198 0
173 197 0
172 196 0
174 197 0
174 197 0
173 197 0
174 198 0
174 197 0
172 196 0
173 196 0
174 197 0
176 198 0
174 198 0
174 198 0
175 198 0
173 197 0
174 198 0
173 197 0
175 198 0
173 197 0
172 196 0
175 198 0
172 196 0
173 196 0
173 197 0
175 198 0
172 196 0
174 197 0
174 197 0
175 197 0
172 196 0
173 197 0
173 197 0
174 198 0
173 197 0
172 196 0
172 196 0
174 197 0
172 195 0
174 197 0
175 198 0
174 197 0
172 196 0
173 196 0
173 197 0
174 197 0
173 197 0
174 198 0
173 197 0
172 195 0
173 196 0
173 197 0
172 196 0
174 198 0
173 197 0
171 195 0
173 197 0
173 197 0
174 197 0
174 197 0
175 198 0
174 197 0
174 197 0
174 198 0
174 197 0
173 196 0
174 197 0
174 198 0
174 197 0
172 196 0
175 198 0
175 198 0
175 197 0
176 199 0
172 196 0
172 196 0
176 198 0
175 198 0
173 196 0
174 197 0
174 197 0
175 198 0
172 197 0
174 197 0
174 198 0
173 196 0
175 198 0
173 196 0
174 197 0
174 198 0
174 197 0
172 196 0
172 196 0
174 198 0
173 196 0
172 195 0
173 197 0
173 197 0
173 197 0
171 195 0
175 198 0
174 197 0
173 196 0
173 196 0
173 197 0
174 197 0
171 196 0
175 198 0
174 197 0
173 197 0
174 198 0
173 197 0
176 199 0
175 198 0
173 196 0
173 197 0
173 197 0
174 197 0
174 198 0
174 197 0
174 197 0
175 198 0
175 198 0
173 197 0
172 196 0
175 198 0
175 198 0
173 196 0
174 197 0
174 198 0
174 197 0
175 198 0
173 197 0
173 197 0
175 198 0
173 196 0
176 198 0
175 198 0
176 198 0
173 196 0
175 198 0
176 199 0
174 197 0
173 197 0
172 196 0
176 199 0
173 197 0
174 197 0
172 196 0
175 198 0
174 197 0
174 198 0
173 197 0
174 197 0
175 198 0
173 197 0
175 198 0
175 198 0
172 195 0
177 199 0
176 199 0
174 198 0
175 198 0
174 198 0
173 196 0
174 197 0
175 198 0
174 197 0
174 198 0
173 197 0
175 198 0
176 199 0
173 197 0
174 197 0
175 198 0
174 197 0
175 198 0
174 197 0
173 197 0
174 197 0
175 198 0
174 198 0
176 199 0
174 197 0
174 198 0
175 198 0
175 198 0
174 197 0
177 199 0
174 197 0
176 199 0
174 198 0
174 197 0
174 197 0
172 196 0
175 198 0
176 199 0
175 198 0
175 198 0
176 198 0
175 198 0
173 196 0
173 197 0
174 198 0
175 198 0
174 197 0
174 198 0
175 198 0
174 197 0
175 198 0
173 197 0
175 198 0
175 198 0
175 198 0
173 197 0
175 198 0
173 197 0
177 199 0
176 199 0
173 196 0
175 198 0
175 198 0
175 198 0
174 198 0
174 197 0
174 198 0
175 198 0
175 198 0
176 199 0
175 198 0
175 198 0
171 195 0
176 199 0
175 198 0
175 198 0
174 198 0
173 196 0
174 198 0
175 198 0
173 197 0
173 197 0
174 198 0
174 197 0
173 197 0
173 197 0
174 198 0
174 197 0
174 198 0
174 198 0
175 198 0
173 197 0
175 198 0
174 198 0
175 198 0
175 198 0
175 198 0
175 198 0
175 198 0
175 198 0
176 199 0
174 198 0
175 198 0
176 198 0
175 198 0
174 197 0
174 197 0
175 198 0
177 199 0
174 197 0
172 197 0
172 197 0
176 198 0
175 198 0
174 198 0
174 198 0
173 197 0
174 197 0
174 197 0
173 197 0
175 198 0
176 199 0
174 197 0
174 198 0
173 197 0
176 199 0
173 197 0
175 198 0
176 199 0
175 198 0
173 196 0
175 198 0
173 197 0
176 199 0
173 197 0
175 198 0
176 199 0
172 196 0
175 198 0
175 198 0
172 196 0
174 198 0
174 198 0
174 197 0
175 198 0
174 198 0
174 197 0
174 198 0
172 196 0
174 198 0
174 198 0
174 197 0
172 196 0
176 199 0
174 198 0
174 198 0
176 199 0
174 198 0
173 197 0
173 196 0
174 198 0
175 198 0
174 198 0
171 195 0
174 197 0
176 199 0
174 198 0
174 197 0
175 198 0
173 197 0
173 197 0
175 198 0
174 197 0
173 197 0
174 198 0
172 197 0
174 197 0
175 198 0
174 197 0
174 198 0
174 197 0
174 197 0
173 197 0
175 197 0
174 197 0
174 198 0
175 198 0
175 198 0
173 197 0
173 197 0
172 197 0
174 197 0
174 198 0
173 197 0
174 197 0
174 198 0
173 197 0
174 197 0
174 197 0
174 198 0
174 198 0
174 197 0
172 197 0
172 196 0
173 197 0
173 197 0
172 196 0
175 198 0
174 198 0
175 198 0
173 197 0
174 197 0
174 197 0
175 198 0
174 198 0
174 198 0
174 197 0
175 198 0
175 198 0
175 198 0
174 197 0
174 197 0
174 197 0
175 198 0
175 198 0
175 198 0
175 198 0
175 198 0
174 197 0
175 197 0
175 198 0
174 197 0
173 196 0
174 197 0
173 197 0
173 196 0
172 196 0
174 198 0
175 198 0
173 196 0
173 197 0
173 197 0
176 198 0
174 198 0
173 197 0
173 196 0
172 195 0
171 195 0
173 197 0
172 196 0
174 198 0
174 198 0
174 198 0
172 196 0
172 196 0
174 198 0
172 195 0
174 197 0
174 197 0
174 197 0
172 196 0
173 197 0
175 198 0
175 198 0
174 198 0
174 198 0
172 196 0
174 198 0
172 196 0
174 197 0
174 198 0
173 197 0
174 198 0
171 195 0
172 195 0
174 197 0
174 198 0
173 197 0
172 196 0
174 197 0
175 198 0
174 198 0
173 196 0
175 197 0
174 197 0
173 197 0
174 198 0
173 196 0
174 197 0
176 199 0
174 198 0
174 197 0
173 196 0
175 197 0
174 197 0
172 196 0
174 197 0
173 197 0
175 197 0
175 198 0
172 196 0
174 197 0
174 198 0
173 197 0
173 196 0
173 196 0
173 197 0
174 197 0
174 197 0
174 198 0
173 197 0
174 197 0
174 197 0
174 197 0
174 197 0
170 194 0
173 195 0
174 197 0
173 197 0
172 196 0
175 198 0
173 197 0
174 197 0
173 196 0
174 197 0
173 197 0
173 197 0
174 198 0
173 197 0
175 198 0
174 198 0
175 198 0
174 197 0
175 198 0
174 197 0
173 196 0
171 195 0
172 195 0
175 198 0
172 196 0
174 197 0
173 197 0
174 197 0
173 197 0
173 197 0
173 197 0
173 197 0
174 197 0
172 196 0
173 196 0
174 197 0
174 197 0
176 199 0
172 196 0
174 197 0
172 196 0
175 198 0
174 197 0
173 197 0
172 197 0
175 198 0
174 198 0
174 198 0
174 198 0
175 197 0
171 194 0
175 198 0
175 198 0
176 198 0
172 196 0
173 197 0
176 198 0
174 197 0
174 197 0
174 198 0
172 196 0
175 198 0
175 198 0
174 197 0
173 197 0
174 197 0
174 197 0
173 197 0
173 197 0
174 198 0
176 199 0
174 197 0
174 197 0
174 197 0
173 196 0
174 197 0
173 196 0
174 197 0
174 197 0
175 198 0
174 197 0
174 198 0
173 197 0
175 198 0
173 197 0
177 199 0
175 198 0
173 197 0
174 197 0
175 198 0
175 198 0
175 198 0
175 198 0
173 197 0
176 198 0
173 197 0
175 198 0
171 195 0
175 198 0
173 197 0
173 197 0
176 199 0
174 198 0
174 198 0
174 198 0
175 198 0
175 198 0
174 197 0
173 196 0
174 197 0
174 197 0
174 198 0
174 198 0
173 197 0
173 197 0
174 197 0
175 198 0
174 198 0
174 198 0
176 198 0
172 196 0
175 198 0
176 198 0
174 198 0
174 197 0
173 197 0
175 198 0
175 198 0
174 198 0
173 196 0
173 197 0
175 198 0
174 197 0
174 197 0
174 197 0
176 199 0
175 198 0
174 197 0
175 198 0
176 199 0
175 198 0
176 199 0
173 197 0
175 198 0
174 198 0
174 197 0
174 197 0
175 198 0
174 198 0
175 197 0
173 197 0
175 198 0
174 198 0
175 198 0
174 197 0
173 197 0
175 198 0
173 197 0
174 198 0
172 196 0
175 198 0
175 198 0
178 200 0
176 198 0
173 197 0
175 198 0
174 197 0
176 198 0
176 199 0
174 197 0
175 198 0
175 198 0
175 198 0
175 198 0
174 197 0
174 198 0
174 198 0
175 198 0
173 197 0
174 198 0
174 197 0
174 198 0
175 198 0
176 198 0
172 196 0
174 198 0
175 198 0
174 198 0
173 197 0
174 197 0
174 198 0
173 197 0
173 197 0
173 197 0
174 198 0
173 197 0
175 198 0
172 197 0
176 198 0
174 197 0
174 198 0
175 198 0
174 197 0
174 198 0
174 197 0
172 196 0
174 197 0
173 197 0
175 198 0
173 197 0
174 197 0
174 197 0
174 198 0
176 198 0
175 198 0
173 197 0
174 198 0
175 198 0
175 198 0
174 198 0
174 198 0
174 197 0
174 198 0
173 196 0
174 197 0
172 196 0
175 198 0
175 198 0
173 197 0
174 197 0
175 198 0
175 198 0
171 196 0
175 198 0
173 197 0
175 198 0
175 198 0
173 197 0
175 198 0
172 196 0
175 198 0
174 197 0
175 198 0
171 195 0
176 199 0
175 198 0
176 198 0
175 198 0
175 198 0
173 197 0
175 198 0
171 195 0
174 198 0
175 198 0
175 198 0
174 198 0
173 197 0
175 198 0
175 198 0
171 195 0
174 198 0
175 198 0
174 197 0
173 197 0
175 198 0
172 196 0
174 198 0
175 198 0
173 197 0
174 197 0
175 198 0
175 198 0
173 196 0
174 197 0
175 198 0
174 198 0
175 198 0
174 198 0
172 196 0
173 197 0
175 198 0
176 198 0
174 198 0
174 197 0
174 197 0
172 196 0
174 197 0
174 198 0
173 197 0
173 197 0
172 196 0
174 197 0
173 197 0
173 196 0
175 198 0
175 198 0
175 198 0
174 197 0
174 197 0
173 197 0
172 196 0
174 197 0
175 198 0
174 197 0
173 197 0
171 195 0
174 198 0
173 197 0
175 198 0
173 197 0
175 198 0
172 196 0
175 198 0
173 197 0
175 198 0
173 197 0
174 197 0
172 196 0
173 197 0
174 197 0
174 198 0
174 197 0
175 198 0
174 197 0
173 196 0
173 197 0
173 197 0
173 197 0
174 197 0
173 196 0
174 198 0
174 198 0
175 198 0
172 195 0
173 197 0
174 198 0
173 197 0
172 195 0
174 197 0
175 198 0
174 197 0
175 198 0
173 197 0
174 198 0
173 196 0
172 196 0
173 196 0
174 197 0
172 196 0
173 197 0
175 198 0
173 197 0
175 198 0
173 197 0
174 197 0
175 198 0
173 197 0
173 196 0
171 195 0
174 196 0
172 195 0
173 197 0
172 196 0
175 197 0
175 198 0
172 196 0
172 196 0
171 196 0
172 196 0
173 197 0
174 197 0
174 198 0
172 196 0
175 198 0
174 197 0
173 197 0
174 197 0
173 197 0
174 197 0
176 198 0
172 196 0
173 196 0
173 196 0
174 198 0
173 197 0
173 197 0
174 197 0
174 197 0
172 196 0
174 197 0
172 196 0
173 196 0
174 198 0
174 197 0
174 197 0
175 198 0
175 198 0
174 197 0
172 195 0
174 198 0
174 197 0
174 198 0
175 198 0
174 197 0
174 197 0
172 196 0
176 198 0
176 198 0
173 197 0
175 197 0
173 196 0
174 198 0
172 196 0
173 196 0
173 197 0
175 198 0
175 198 0
174 197 0
174 197 0
174 197 0
174 198 0
173 197 0
174 198 0
175 198 0
173 197 0
175 198 0
171 195 0
174 197 0
173 197 0
174 198 0
174 198 0
172 196 0
175 198 0
172 197 0
174 198 0
173 197 0
175 198 0
172 197 0
174 197 0
173 197 0
173 197 0
174 197 0
174 197 0
173 196 0
172 195 0
173 196 0
172 195 0
173 197 0
172 196 0
172 196 0
172 196 0
174 197 0
174 198 0
174 198 0
172 197 0
173 197 0
175 198 0
173 197 0
173 197 0
177 199 0
172 197 0
173 196 0
171 195 0
172 196 0
175 198 0
175 198 0
174 197 0
174 198 0
173 197 0
175 198 0
173 197 0
175 198 0
174 198 0
174 198 0
175 198 0
174 197 0
173 196 0
175 198 0
174 198 0
174 198 0
175 198 0
175 198 0
174 197 0
173 196 0
173 197 0
175 198 0
173 197 0
174 198 0
174 197 0
173 197 0
175 198 0
175 198 0
174 198 0
175 198 0
174 197 0
173 196 0
174 197 0
173 196 0
173 197 0
174 198 0
174 197 0
175 198 0
174 198 0
173 197 0
174 198 0
174 197 0
173 197 0
174 198 0
172 196 0
174 198 0
176 199 0
175 198 0
175 198 0
175 198 0
174 198 0
174 197 0
176 199 0
174 197 0
173 197 0
174 197 0
174 197 0
174 197 0
175 198 0
174 198 0
174 197 0
174 198 0
176 199 0
174 197 0
175 198 0
176 199 0
173 197 0
174 197 0
175 198 0
174 197 0
173 196 0
174 198 0
173 197 0
175 198 0
173 197 0
174 198 0
175 198 0
175 198 0
174 197 0
176 199 0
172 197 0
173 197 0
174 197 0
173 197 0
175 198 0
175 198 0
174 197 0
175 197 0
175 198 0
173 197 0
173 196 0
174 198 0
174 198 0
174 198 0
174 198 0
173 197 0
175 198 0
174 198 0
176 199 0
174 198 0
174 198 0
174 197 0
176 199 0
176 198 0
174 197 0
172 197 0
174 197 0
174 198 0
175 198 0
173 197 0
175 198 0
175 198 0
173 197 0
174 198 0
176 199 0
173 197 0
175 197 0
175 198 0
172 197 0
174 197 0
174 198 0
173 197 0
176 199 0
174 197 0
174 198 0
173 197 0
173 197 0
175 198 0
174 197 0
175 198 0
176 199 0
176 199 0
174 198 0
175 198 0
175 198 0
176 199 0
175 198 0
174 198 0
175 198 0
174 198 0
176 199 0
174 198 0
173 197 0
175 198 0
175 198 0
175 198 0
175 198 0
172 196 0
174 197 0
175 197 0
174 198 0
175 198 0
175 198 0
175 198 0
174 198 0
174 198 0
173 197 0
175 198 0
175 198 0
173 197 0
173 197 0
175 198 0
175 198 0
175 198 0
175 198 0
175 198 0
174 198 0
174 198 0
174 198 0
174 198 0
174 197 0
174 198 0
174 197 0
175 198 0
174 198 0
174 197 0
175 198 0
176 199 0
174 197 0
175 198 0
174 197 0
173 197 0
174 198 0
176 199 0
173 197 0
175 198 0
177 199 0
174 197 0
176 199 0
176 199 0
174 198 0
174 198 0
175 197 0
175 198 0
176 198 0
175 198 0
175 198 0
173 197 0
174 197 0
174 197 0
172 196 0
174 197 0
174 197 0
173 197 0
173 197 0
174 198 0
174 198 0
173 196 0
173 197 0
171 196 0
174 198 0
174 198 0
172 196 0
173 197 0
176 198 0
174 197 0
175 198 0
175 198 0
173 197 0
172 195 0
174 198 0
174 197 0
175 198 0
174 197 0
175 198 0
173 197 0
173 197 0
173 197 0
174 198 0
174 197 0
173 196 0
173 196 0
174 197 0
174 198 0
173 197 0
175 198 0
175 198 0
174 198 0
173 197 0
176 199 0
173 197 0
175 198 0
174 197 0
176 198 0
175 198 0
175 198 0
175 197 0
174 197 0
175 198 0
173 196 0
174 198 0
174 197 0
172 195 0
174 197 0
173 196 0
174 198 0
174 197 0
174 198 0
174 197 0
176 199 0
173 197 0
172 196 0
173 197 0
174 198 0
174 198 0
173 197 0
172 196 0
175 198 0
173 197 0
170 194 0
174 198 0
173 197 0
174 198 0
174 197 0
174 197 0
174 197 0
173 197 0
175 198 0
174 196 0
174 198 0
173 197 0
174 197 0
174 198 0
173 196 0
173 197 0
174 197 0
173 196 0
173 197 0
174 197 0
173 197 0
175 198 0
173 196 0
171 194 0
172 195 0
174 197 0
173 196 0
175 198 0
174 197 0
173 197 0
173 196 0
171 194 0
171 195 0
175 198 0
173 197 0
173 197 0
173 197 0
174 197 0
174 198 0
175 197 0
173 197 0
173 196 0
174 197 0
173 196 0
174 197 0
172 197 0
173 197 0
175 198 0
174 198 0
173 197 0
173 196 0
174 197 0
172 196 0
174 197 0
172 196 0
173 197 0
171 195 0
174 197 0
172 195 0
174 197 0
172 196 0
174 197 0
174 197 0
172 196 0
173 197 0
173 197 0
173 197 0
174 197 0
174 197 0
173 197 0
175 198 0
174 198 0
175 198 0
174 197 0
174 197 0
173 197 0
172 195 0
175 198 0
174 197 0
174 198 0
174 198 0
173 196 0
174 197 0
175 198 0
171 194 0
172 196 0
175 198 0
173 196 0
173 196 0
173 197 0
173 196 0
174 198 0
174 198 0
173 197 0
174 197 0
175 198 0
173 197 0
175 198 0
172 196 0
174 197 0
174 197 0
174 197 0
174 197 0
173 197 0
173 196 0
173 196 0
174 198 0
172 196 0
172 196 0
173 197 0
175 198 0
172 195 0
175 198 0
174 198 0
174 198 0
175 198 0
173 197 0
174 197 0
172 196 0
175 198 0
173 197 0
175 198 0
175 198 0
175 198 0
173 197 0
174 198 0
173 197 0
175 198 0
175 198 0
174 197 0
174 197 0
174 197 0
175 198 0
175 197 0
174 198 0
172 196 0
173 197 0
174 197 0
175 198 0
175 198 0
174 198 0
174 198 0
173 196 0
173 196 0
173 197 0
174 197 0
174 197 0
173 197 0
173 197 0
173 197 0
175 198 0
175 198 0
173 197 0
174 197 0
172 196 0
174 198 0
174 197 0
175 198 0
173 197 0
174 198 0
174 197 0
175 198 0
173 197 0
175 197 0
173 197 0
174 198 0
174 197 0
174 198 0
174 198 0
174 197 0
177 199 0
175 198 0
173 197 0
173 196 0
172 196 0
173 197 0
174 197 0
174 198 0
175 198 0
173 197 0
175 198 0
175 198 0
175 198 0
174 198 0
174 197 0
174 198 0
174 197 0
173 197 0
174 197 0
173 197 0
174 198 0
174 197 0
174 198 0
174 198 0
173 197 0
174 197 0
174 198 0
174 197 0
173 197 0
175 198 0
176 199 0
174 198 0
173 197 0
176 199 0
173 197 0
175 198 0
175 198 0
175 198 0
174 198 0
175 198 0
175 198 0
175 198 0
175 198 0
175 198 0
174 197 0
175 198 0
176 199 0
174 197 0
175 198 0
174 198 0
176 198 0
174 198 0
174 198 0
174 197 0
175 198 0
174 197 0
174 197 0
174 198 0
174 198 0
174 198 0
174 198 0
174 198 0
173 196 0
174 197 0
175 198 0
174 197 0
173 197 0
173 197 0
173 197 0
175 198 0
176 199 0
173 197 0
174 198 0
174 198 0
173 197 0
174 198 0
174 198 0
175 198 0
174 198 0
174 198 0
174 197 0
172 197 0
174 197 0
174 198 0
174 198 0
174 198 0
174 198 0
174 198 0
175 198 0
175 198 0
175 198 0
174 198 0
174 198 0
175 198 0
172 196 0
174 198 0
174 198 0
174 198 0
176 198 0
174 197 0
176 199 0
173 197 0
174 197 0
175 198 0
176 199 0
174 198 0
174 198 0
171 196 0
174 198 0
173 197 0
172 197 0
173 197 0
173 197 0
176 199 0
172 196 0
175 198 0
174 198 0
176 199 0
174 197 0
174 198 0
172 197 0
175 198 0
174 197 0
174 197 0
175 198 0
174 197 0
176 198 0
172 197 0
175 198 0
175 198 0
175 198 0
176 198 0
175 198 0
174 197 0
177 199 0
174 198 0
175 198 0
175 198 0
174 197 0
174 198 0
174 198 0
175 198 0
174 197 0
175 198 0
173 197 0
175 198 0
175 198 0
174 197 0
174 198 0
175 198 0
174 197 0
174 198 0
173 197 0
173 197 0
174 198 0
174 198 0
175 198 0
173 197 0
174 197 0
175 198 0
174 197 0
174 198 0
174 198 0
175 198 0
172 196 0
173 197 0
174 198 0
174 197 0
174 197 0
173 197 0
174 198 0
174 198 0
173 197 0
173 197 0
174 197 0
173 197 0
173 197 0
174 197 0
174 198 0
173 197 0
174 197 0
174 197 0
174 197 0
173 197 0
173 197 0
174 197 0
172 195 0
174 198 0
174 197 0
173 196 0
173 197 0
175 198 0
176 199 0
174 198 0
176 199 0
175 198 0
175 198 0
174 197 0
174 198 0
174 198 0
175 198 0
174 197 0
173 197 0
174 197 0
175 198 0
176 199 0
173 197 0
173 197 0
173 196 0
174 197 0
175 197 0
173 197 0
175 198 0
175 198 0
176 199 0
174 198 0
173 197 0
174 197 0
171 196 0
174 198 0
174 197 0
171 196 0
173 196 0
173 197 0
174 198 0
175 198 0
174 198 0
175 198 0
174 198 0
174 197 0
174 197 0
173 197 0
169 193 0
173 197 0
175 198 0
173 196 0
174 197 0
175 198 0
172 196 0
175 198 0
172 196 0
173 197 0
174 197 0
173 195 0
174 197 0
174 198 0
173 197 0
174 197 0
174 198 0
173 197 0
174 197 0
171 195 0
172 195 0
173 196 0
175 198 0
173 196 0
173 197 0
176 198 0
174 198 0
172 196 0
173 197 0
173 196 0
174 197 0
173 196 0
175 197 0
173 197 0
173 197 0
173 196 0
174 198 0
172 196 0
174 197 0
173 196 0
173 197 0
173 197 0
173 197 0
175 198 0
172 196 0
174 198 0
173 196 0
172 196 0
170 194 0
173 197 0
174 197 0
174 197 0
174 198 0
176 198 0
174 198 0
175 198 0
173 197 0
173 196 0
172 196 0
173 196 0
173 197 0
174 198 0
175 198 0
174 197 0
173 197 0
174 198 0
172 195 0
171 195 0
171 195 0
175 198 0
173 197 0
174 197 0
174 197 0
173 197 0
172 196 0
173 197 0
174 198 0
174 197 0
170 194 0
176 198 0
175 198 0
174 197 0
174 197 0
175 198 0
173 197 0
174 197 0
175 198 0
174 197 0
173 197 0
172 197 0
171 196 0
172 196 0
175 198 0
174 197 0
173 197 0
175 198 0
172 196 0
174 198 0
172 196 0
175 198 0
173 197 0
171 195 0
172 196 0
174 197 0
174 197 0
172 196 0
172 196 0
175 198 0
176 198 0
175 197 0
174 197 0
174 197 0
173 197 0
174 197 0
174 198 0
173 197 0
175 198 0
174 198 0
176 199 0
174 197 0
174 198 0
174 197 0
175 198 0
175 198 0
175 198 0
175 198 0
175 198 0
172 196 0
175 198 0
174 197 0
174 197 0
174 198 0
175 198 0
174 197 0
174 198 0
173 197 0
173 197 0
174 198 0
174 197 0
173 196 0
174 198 0
174 197 0
173 196 0
175 198 0
173 197 0
174 198 0
174 197 0
174 198 0
175 198 0
174 198 0
172 195 0
173 197 0
176 198 0
175 198 0
171 196 0
175 198 0
174 198 0
173 197 0
176 199 0
173 197 0
174 198 0
174 198 0
174 197 0
174 198 0
174 197 0
172 196 0
173 197 0
175 198 0
174 198 0
173 197 0
176 199 0
173 197 0
174 198 0
173 197 0
174 198 0
174 197 0
174 198 0
174 197 0
174 198 0
175 198 0
174 198 0
175 198 0
175 198 0
174 198 0
173 197 0
176 199 0
175 197 0
174 197 0
174 198 0
176 199 0
175 198 0
174 198 0
174 197 0
175 198 0
175 198 0
175 198 0
174 198 0
176 198 0
174 198 0
174 198 0
176 199 0
174 197 0
173 197 0
175 198 0
175 198 0
175 198 0
174 197 0
174 197 0
174 198 0
174 198 0
174 197 0
175 198 0
174 198 0
173 197 0
173 197 0
173 197 0
176 199 0
174 198 0
174 198 0
175 198 0
176 199 0
175 198 0
175 198 0
172 195 0
175 198 0
173 197 0
174 198 0
175 198 0
174 198 0
175 198 0
176 199 0
176 198 0
174 198 0
174 198 0
174 197 0
174 198 0
175 198 0
175 198 0
174 198 0
173 197 0
175 198 0
174 198 0
175 198 0
174 197 0
175 198 0
174 198 0
176 198 0
174 197 0
175 198 0
174 197 0
175 198 0
176 198 0
175 198 0
175 198 0
174 198 0
174 197 0
174 197 0
177 199 0
173 197 0
172 196 0
172 196 0
175 198 0
174 198 0
175 198 0
173 196 0
174 197 0
174 197 0
174 198 0
176 198 0
175 198 0
174 197 0
174 198 0
175 198 0
175 198 0
174 197 0
176 199 0
173 197 0
173 196 0
174 198 0
174 198 0
173 197 0
174 197 0
175 198 0
174 198 0
175 198 0
174 197 0
176 198 0
174 198 0
174 197 0
175 198 0
176 198 0
173 197 0
175 198 0
173 197 0
175 198 0
174 197 0
177 199 0
175 198 0
174 198 0
174 196 0
176 199 0
174 198 0
174 197 0
175 198 0
176 198 0
175 198 0
174 197 0
172 196 0
174 197 0
173 197 0
174 197 0
174 197 0
174 198 0
173 197 0
175 198 0
172 196 0
174 197 0
174 198 0
175 198 0
176 198 0
173 197 0
174 198 0
176 199 0
174 198 0
173 196 0
173 197 0
175 198 0
172 196 0
174 198 0
172 197 0
173 197 0
174 198 0
174 198 0
173 197 0
174 198 0
174 198 0
174 197 0
174 198 0
173 197 0
175 198 0
173 197 0
174 198 0
173 197 0
174 198 0
173 197 0
174 196 0
174 198 0
173 197 0
174 198 0
174 197 0
174 197 0
173 197 0
174 197 0
175 198 0
174 198 0
173 197 0
172 196 0
174 198 0
174 198 0
174 197 0
173 197 0
175 198 0
175 198 0
173 197 0
173 197 0
173 197 0
173 197 0
174 197 0
173 197 0
175 198 0
173 197 0
173 197 0
171 195 0
173 197 0
173 197 0
174 198 0
173 197 0
173 197 0
176 199 0
173 196 0
172 196 0
172 196 0
173 197 0
173 197 0
173 196 0
173 197 0
173 196 0
174 197 0
175 198 0
174 197 0
175 198 0
174 197 0
174 198 0
173 197 0
173 197 0
174 197 0
174 197 0
173 197 0
175 198 0
171 195 0
174 197 0
173 196 0
173 197 0
175 198 0
173 197 0
172 196 0
173 197 0
173 196 0
172 196 0
173 196 0
173 197 0
172 195 0
173 197 0
173 197 0
174 198 0
173 196 0
173 197 0
175 198 0
175 198 0
174 198 0
174 198 0
174 198 0
172 196 0
172 196 0
174 197 0
173 197 0
174 197 0
173 197 0
174 198 0
172 196 0
172 196 0
170 194 0
173 197 0
174 197 0
174 197 0
174 197 0
173 197 0
173 196 0
174 198 0
173 197 0
174 197 0
175 198 0
172 195 0
173 197 0
174 197 0
173 196 0
174 197 0
174 197 0
174 197 0
175 198 0
175 198 0
173 196 0
176 199 0
174 197 0
175 198 0
176 199 0
173 197 0
173 197 0
172 196 0
175 198 0
174 197 0
174 197 0
174 197 0
174 197 0
173 197 0
172 196 0
175 198 0
172 195 0
174 197 0
174 197 0
171 195 0
174 198 0
174 197 0
175 197 0
173 197 0
173 197 0
173 197 0
174 197 0
172 196 0
174 197 0
175 198 0
174 197 0
173 197 0
174 197 0
174 197 0
173 196 0
174 197 0
175 198 0
174 197 0
174 197 0
172 195 0
176 198 0
175 198 0
173 196 0
173 197 0
175 198 0
175 198 0
173 196 0
173 197 0
174 197 0
174 198 0
173 196 0
173 196 0
174 198 0
172 196 0
174 198 0
174 197 0
173 197 0
174 198 0
175 198 0
176 199 0
173 196 0
174 197 0
174 197 0
174 197 0
175 198 0
173 197 0
175 198 0
173 197 0
173 197 0
174 197 0
175 197 0
174 197 0
174 197 0
174 198 0
173 196 0
174 197 0
174 198 0
172 196 0
175 198 0
174 197 0
173 197 0
172 196 0
173 196 0
171 195 0
176 198 0
175 198 0
174 197 0
174 198 0
175 198 0
173 197 0
175 197 0
174 198 0
173 197 0
174 198 0
175 198 0
174 197 0
175 198 0
173 197 0
175 198 0
174 197 0
175 198 0
174 198 0
175 198 0
174 197 0
173 197 0
176 198 0
172 196 0
173 197 0
174 198 0
174 197 0
175 198 0
175 198 0
174 198 0
174 198 0
174 198 0
173 197 0
175 198 0
172 196 0
174 197 0
174 198 0
174 198 0
174 197 0
172 197 0
174 197 0
175 198 0
176 198 0
174 198 0
176 199 0
174 197 0
172 197 0
175 198 0
174 197 0
174 198 0
175 198 0
173 197 0
173 197 0
175 198 0
175 198 0
174 197 0
176 199 0
176 198 0
173 197 0
173 197 0
175 198 0
174 197 0
173 197 0
175 198 0
174 197 0
174 198 0
175 198 0
173 197 0
174 197 0
175 198 0
177 199 0
175 198 0
173 196 0
174 198 0
176 198 0
173 196 0
173 196 0
173 197 0
174 198 0
175 198 0
174 197 0
173 196 0
174 198 0
173 197 0
173 197 0
173 197 0
177 199 0
174 198 0
175 198 0
173 197 0
175 198 0
175 198 0
175 198 0
175 198 0
175 198 0
174 197 0
173 197 0
175 198 0
174 197 0
174 197 0
175 198 0
175 198 0
174 198 0
176 199 0
176 198 0
173 197 0
175 198 0
176 199 0
175 198 0
173 197 0
176 199 0
175 198 0
173 197 0
174 198 0
174 198 0
173 197 0
172 196 0
173 197 0
174 197 0
174 198 0
174 198 0
175 198 0
175 198 0
174 197 0
175 198 0
174 197 0
174 198 0
175 198 0
173 196 0
175 198 0
174 197 0
175 198 0
174 197 0
176 198 0
174 198 0
174 198 0
175 198 0
174 198 0
174 197 0
176 198 0
174 198 0
174 198 0
174 197 0
174 198 0
173 197 0
174 198 0
174 198 0
173 196 0
174 198 0
174 198 0
174 197 0
174 198 0
174 198 0
172 197 0
174 197 0
174 198 0
174 198 0
175 198 0
175 198 0
173 197 0
175 198 0
173 197 0
174 198 0
173 197 0
173 197 0
174 198 0
173 197 0
173 196 0
172 196 0
175 198 0
174 197 0
172 197 0
174 198 0
174 197 0
176 199 0
175 198 0
175 198 0
174 197 0
174 197 0
174 198 0
175 198 0
172 196 0
176 199 0
174 198 0
174 198 0
172 196 0
174 198 0
176 198 0
173 197 0
174 197 0
174 197 0
173 197 0
174 198 0
173 196 0
174 197 0
174 198 0
173 197 0
173 197 0
174 198 0
174 198 0
175 198 0
173 197 0
176 199 0
175 198 0
176 198 0
171 196 0
174 198 0
173 196 0
173 197 0
173 197 0
175 198 0
174 198 0
173 197 0
175 198 0
173 197 0
173 197 0
174 198 0
173 197 0
173 197 0
173 196 0
175 198 0
174 198 0
174 197 0
172 196 0
174 198 0
174 197 0
176 198 0
173 196 0
174 198 0
174 198 0
176 198 0
173 197 0
174 197 0
174 197 0
172 196 0
174 197 0
174 197 0
172 196 0
176 198 0
173 197 0
176 198 0
173 196 0
174 197 0
175 198 0
174 197 0
175 198 0
174 198 0
174 197 0
174 197 0
175 198 0
174 197 0
174 197 0
173 197 0
173 197 0
175 198 0
175 198 0
175 198 0
173 197 0
175 197 0
173 196 0
174 198 0
175 198 0
172 196 0
173 197 0
174 197 0
176 199 0
174 197 0
172 196 0
175 198 0
175 198 0
173 197 0
171 196 0
174 198 0
174 197 0
173 196 0
174 197 0
174 197 0
174 197 0
173 196 0
172 195 0
175 198 0
173 197 0
175 198 0
175 197 0
174 198 0
173 196 0
174 197 0
173 196 0
172 197 0
173 196 0
175 198 0
173 197 0
175 198 0
174 197 0
173 196 0
171 195 0
171 195 0
173 197 0
174 197 0
175 198 0
172 197 0
173 197 0
173 197 0
174 198 0
173 197 0
173 197 0
175 198 0
172 196 0
172 196 0
174 197 0
174 197 0
174 197 0
173 197 0
175 197 0
175 198 0
173 197 0
174 197 0
172 196 0
175 198 0
173 196 0
175 198 0
174 197 0
171 195 0
174 197 0
174 198 0
173 196 0
174 197 0
174 197 0
173 196 0
174 197 0
175 198 0
173 197 0
173 197 0
174 197 0
173 196 0
174 198 0
174 198 0
173 197 0
175 198 0
174 197 0
175 198 0
174 198 0
174 197 0
175 197 0
174 198 0
173 197 0
171 195 0
173 197 0
174 198 0
176 198 0
173 197 0
173 197 0
172 196 0
172 197 0
175 198 0
171 195 0
175 198 0
174 197 0
173 197 0
174 197 0
175 198 0
174 197 0
172 195 0
171 195 0
174 197 0
174 198 0
174 197 0
173 197 0
175 198 0
175 198 0
174 197 0
173 197 0
174 197 0
173 196 0
176 199 0
174 198 0
173 197 0
173 197 0
174 197 0
173 197 0
171 195 0
174 198 0
174 198 0
171 195 0
173 197 0
176 199 0
174 198 0
175 198 0
173 197 0
173 197 0
174 197 0
174 197 0
174 197 0
174 197 0
174 197 0
174 198 0
174 198 0
173 197 0
172 196 0
175 198 0
174 198 0
174 198 0
173 197 0
175 198 0
174 197 0
174 197 0
173 196 0
173 197 0
174 198 0
175 197 0
175 198 0
174 197 0
174 198 0
174 198 0
174 197 0
174 197 0
176 199 0
175 198 0
175 198 0
174 197 0
175 198 0
173 196 0
174 198 0
176 199 0
175 198 0
174 197 0
173 197 0
175 198 0
175 198 0
174 198 0
174 197 0
175 197 0
174 197 0
173 197 0
176 198 0
173 197 0
174 198 0
174 198 0
173 197 0
175 198 0
174 197 0
174 197 0
171 195 0
174 197 0
173 197 0
173 197 0
171 194 0
174 198 0
173 197 0
175 198 0
175 198 0
174 197 0
176 198 0
173 196 0
173 197 0
173 197 0
173 197 0
172 196 0
173 197 0
174 197 0
175 198 0
174 198 0
175 198 0
173 197 0
173 197 0
175 198 0
174 198 0
174 197 0
176 198 0
172 196 0
174 197 0
174 197 0
174 198 0
175 198 0
175 198 0
172 197 0
173 197 0
173 197 0
173 197 0
174 198 0
173 196 0
175 198 0
174 198 0
174 197 0
174 198 0
174 198 0
173 197 0
175 198 0
173 197 0
175 198 0
175 198 0
175 198 0
173 197 0
174 198 0
173 197 0
174 197 0
175 198 0
174 198 0
175 198 0
174 198 0
174 197 0
174 198 0
173 197 0
175 198 0
174 198 0
175 198 0
175 198 0
173 197 0
174 198 0
175 198 0
175 198 0
174 198 0
175 198 0
176 199 0
175 198 0
175 198 0
173 197 0
174 198 0
175 198 0
175 198 0
175 198 0
173 197 0
173 197 0
173 197 0
175 198 0
174 197 0
173 197 0
175 198 0
175 198 0
175 198 0
174 198 0
175 198 0
176 199 0
174 197 0
175 198 0
174 198 0
175 198 0
175 198 0
175 198 0
174 198 0
174 198 0
175 198 0
176 199 0
175 198 0
174 198 0
174 197 0
174 197 0
174 197 0
174 198 0
174 198 0
175 198 0
175 198 0
176 198 0
175 198 0
174 197 0
172 197 0
173 197 0
174 197 0
176 198 0
171 196 0
175 198 0
173 197 0
175 198 0
174 197 0
174 197 0
173 197 0
175 198 0
174 198 0
174 197 0
174 197 0
175 198 0
172 196 0
173 197 0
173 197 0
174 198 0
174 198 0
174 198 0
174 198 0
174 197 0
173 197 0
174 197 0
175 198 0
174 197 0
176 199 0
173 197 0
175 198 0
174 197 0
174 197 0
173 197 0
174 197 0
175 198 0
174 197 0
174 197 0
173 197 0
174 198 0
173 196 0
175 198 0
176 198 0
174 197 0
173 197 0
173 197 0
174 197 0
175 198 0
175 198 0
174 197 0
175 198 0
173 197 0
174 198 0
172 197 0
171 195 0
172 196 0
175 198 0
174 198 0
172 196 0
173 197 0
175 198 0
174 198 0
174 197 0
174 197 0
173 197 0
173 197 0
174 197 0
175 198 0
172 197 0
171 196 0
174 198 0
174 197 0
175 198 0
174 197 0
173 197 0
175 197 0
173 197 0
174 197 0
175 198 0
172 196 0
174 198 0
175 198 0
174 197 0
174 198 0
173 196 0
174 198 0
173 197 0
175 198 0
175 198 0
174 197 0
174 198 0
173 197 0
175 198 0
174 198 0
174 198 0
172 196 0
172 196 0
174 198 0
174 197 0
174 197 0
173 197 0
172 196 0
172 195 0
173 196 0
175 198 0
174 197 0
176 199 0
174 197 0
172 196 0
173 197 0
175 198 0
175 198 0
175 198 0
174 197 0
175 198 0
175 198 0
174 197 0
173 196 0
174 198 0
175 198 0
172 195 0
172 196 0
174 198 0
174 197 0
173 196 0
174 197 0
172 196 0
174 197 0
172 196 0
174 197 0
173 197 0
175 198 0
173 196 0
173 196 0
174 198 0
174 197 0
175 197 0
174 197 0
173 197 0
171 196 0
173 197 0
174 197 0
172 196 0
171 196 0
173 197 0
174 198 0
172 196 0
174 197 0
175 198 0
174 198 0
172 196 0
174 197 0
174 198 0
175 197 0
174 197 0
173 197 0
175 198 0
173 196 0
174 197 0
174 197 0
174 197 0
174 197 0
173 196 0
174 198 0
172 196 0
173 197 0
173 197 0
175 198 0
172 196 0
173 197 0
172 196 0
175 198 0
175 198 0
174 198 0
173 197 0
173 197 0
174 197 0
175 198 0
174 198 0
173 196 0
173 197 0
173 197 0
173 197 0
174 198 0
175 198 0
171 194 0
175 198 0
172 196 0
174 198 0
171 196 0
175 198 0
174 197 0
175 198 0
174 198 0
173 196 0
175 198 0
173 197 0
173 196 0
173 197 0
174 197 0
174 197 0
173 195 0
175 198 0
174 197 0
173 196 0
174 197 0
174 198 0
174 198 0
174 198 0
172 196 0
175 198 0
174 197 0
176 199 0
174 197 0
176 198 0
175 198 0
173 197 0
172 196 0
174 198 0
173 197 0
174 197 0
172 196 0
172 196 0
173 197 0
174 197 0
173 197 0
174 197 0
174 197 0
174 197 0
174 197 0
173 197 0
173 197 0
175 198 0
172 196 0
173 197 0
173 197 0
173 197 0
171 196 0
173 197 0
172 196 0
174 197 0
175 198 0
173 197 0
174 197 0
175 197 0
174 198 0
174 198 0
173 197 0
175 198 0
175 198 0
174 197 0
174 197 0
174 197 0
175 198 0
176 199 0
172 196 0
175 198 0
174 197 0
175 198 0
176 198 0
174 197 0
174 198 0
174 198 0
173 197 0
173 197 0
172 196 0
173 197 0
174 197 0
173 197 0
175 198 0
173 196 0
174 198 0
176 198 0
175 198 0
176 199 0
173 197 0
174 197 0
173 196 0
173 197 0
174 197 0
175 198 0
174 197 0
174 198 0
174 197 0
175 198 0
173 197 0
175 198 0
174 198 0
174 198 0
173 196 0
174 198 0
175 198 0
174 198 0
174 198 0
174 197 0
174 198 0
173 197 0
173 196 0
174 197 0
173 197 0
175 198 0
174 198 0
174 197 0
175 198 0
175 198 0
174 198 0
174 198 0
174 198 0
174 198 0
174 197 0
173 197 0
172 196 0
174 198 0
173 197 0
174 198 0
174 198 0
175 198 0
173 197 0
175 198 0
177 199 0
175 198 0
175 198 0
174 198 0
173 197 0
174 198 0
173 197 0
176 199 0
175 198 0
176 198 0
175 198 0
173 197 0
176 198 0
174 198 0
174 197 0
174 197 0
175 198 0
175 198 0
175 198 0
174 198 0
173 197 0
175 198 0
174 198 0
175 198 0
174 198 0
174 198 0
175 198 0
172 197 0
173 197 0
174 197 0
175 198 0
175 198 0
176 199 0
175 198 0
174 198 0
174 197 0
175 198 0
176 198 0
174 198 0
174 198 0
174 198 0
175 198 0
174 197 0
176 198 0
173 197 0
174 197 0
173 197 0
173 197 0
174 198 0
173 197 0
173 197 0
173 197 0
173 197 0
173 197 0
173 196 0
174 198 0
173 197 0
174 198 0
174 197 0
175 198 0
173 197 0
174 197 0
174 197 0
173 197 0
173 197 0
175 198 0
173 197 0
175 198 0
173 197 0
173 197 0
173 197 0
175 198 0
175 198 0
173 197 0
174 198 0
173 197 0
174 197 0
174 198 0
173 196 0
173 197 0
174 198 0
174 197 0
174 198 0
173 197 0
174 197 0
175 198 0
174 197 0
175 198 0
175 198 0
176 198 0
174 198 0
174 197 0
174 198 0
174 197 0
174 198 0
177 199 0
176 199 0
174 197 0
173 197 0
175 198 0
174 198 0
174 198 0
174 197 0
173 197 0
174 198 0
174 198 0
175 198 0
174 197 0
176 199 0
173 197 0
173 197 0
173 197 0
174 198 0
174 197 0
174 198 0
175 198 0
175 197 0
175 198 0
174 198 0
174 198 0
175 198 0
173 197 0
173 197 0
174 198 0
172 196 0
175 198 0
174 197 0
173 196 0
174 197 0
174 197 0
173 196 0
175 198 0
174 197 0
175 197 0
174 197 0
173 197 0
174 197 0
174 198 0
172 196 0
172 196 0
174 197 0
176 199 0
173 197 0
173 197 0
174 197 0
173 197 0
171 194 0
174 197 0
175 198 0
174 198 0
174 197 0
174 198 0
175 198 0
174 198 0
174 198 0
173 197 0
174 198 0
173 197 0
174 198 0
173 197 0
172 196 0
172 196 0
172 195 0
172 196 0
175 198 0
173 197 0
173 196 0
174 198 0
172 196 0
175 198 0
174 197 0
173 197 0
174 197 0
174 198 0
175 198 0
175 198 0
171 195 0
174 198 0
174 198 0
175 198 0
174 198 0
172 196 0
175 198 0
173 197 0
172 196 0
174 197 0
175 198 0
174 197 0
173 197 0
174 197 0
174 197 0
172 197 0
173 197 0
174 197 0
173 197 0
173 196 0
174 198 0
172 196 0
173 196 0
173 197 0
174 197 0
173 197 0
173 197 0
173 197 0
171 195 0
175 198 0
173 197 0
175 198 0
174 197 0
173 196 0
173 197 0
174 198 0
174 197 0
175 198 0
172 196 0
172 195 0
173 197 0
172 196 0
173 196 0
173 197 0
175 198 0
176 199 0
173 196 0
174 197 0
176 199 0
173 197 0
174 198 0
174 197 0
174 197 0
174 197 0
173 197 0
173 196 0
174 198 0
172 196 0
174 196 0
172 196 0
175 198 0
173 197 0
172 195 0
175 198 0
172 196 0
174 197 0
173 197 0
173 197 0
173 196 0
173 196 0
173 196 0
173 196 0
174 197 0
174 198 0
174 198 0
175 198 0
173 197 0
173 197 0
174 197 0
172 196 0
173 197 0
175 198 0
174 196 0
175 198 0
175 198 0
174 197 0
175 198 0
173 196 0
175 198 0
172 196 0
173 196 0
175 198 0
175 198 0
173 196 0
174 197 0
174 197 0
175 198 0
176 198 0
174 197 0
174 198 0
173 197 0
175 198 0
173 197 0
174 197 0
175 198 0
173 197 0
172 196 0
172 196 0
173 197 0
174 198 0
175 198 0
175 197 0
172 196 0
175 198 0
174 196 0
175 198 0
173 196 0
175 198 0
173 197 0
174 197 0
172 196 0
173 197 0
175 198 0
172 196 0
173 196 0
174 197 0
174 198 0
176 198 0
172 196 0
175 198 0
173 197 0
174 197 0
175 198 0
172 196 0
175 198 0
174 197 0
174 198 0
172 196 0
174 198 0
174 198 0
174 198 0
176 198 0
174 197 0
175 198 0
176 198 0
175 198 0
173 196 0
174 198 0
172 196 0
175 198 0
175 198 0
173 197 0
172 196 0
173 197 0
174 197 0
174 197 0
174 197 0
172 197 0
174 198 0
174 198 0
174 197 0
173 197 0
174 198 0
173 197 0
176 199 0
175 198 0
174 198 0
175 198 0
172 196 0
175 198 0
176 199 0
174 197 0
174 197 0
175 198 0
175 198 0
174 198 0
175 198 0
174 198 0
174 197 0
176 198 0
174 198 0
173 197 0
173 196 0
174 197 0
173 197 0
174 198 0
175 198 0
173 196 0
173 196 0
174 198 0
175 198 0
173 197 0
176 198 0
175 198 0
174 198 0
175 198 0
173 197 0
174 198 0
175 198 0
174 197 0
174 197 0
175 198 0
173 197 0
173 197 0
173 197 0
174 198 0
173 197 0
174 198 0
175 198 0
172 197 0
175 198 0
173 197 0
174 198 0
174 198 0
175 198 0
171 195 0
176 199 0
173 197 0
175 198 0
172 197 0
173 196 0
174 197 0
174 197 0
174 198 0
173 196 0
173 196 0
174 197 0
173 197 0
174 198 0
175 198 0
175 198 0
175 198 0
173 197 0
175 198 0
174 197 0
174 197 0
174 198 0
175 198 0
174 198 0
173 197 0
174 198 0
174 198 0
174 198 0
176 199 0
173 197 0
173 197 0
173 197 0
175 198 0
175 198 0
174 198 0
175 198 0
174 198 0
174 197 0
176 199 0
175 198 0
174 197 0
174 198 0
174 198 0
175 198 0
174 198 0
172 196 0
175 198 0
174 197 0
174 197 0
173 197 0
174 197 0
174 198 0
174 197 0
173 197 0
173 197 0
175 198 0
173 197 0
175 198 0
173 197 0
174 197 0
175 198 0
173 197 0
173 197 0
173 197 0
175 198 0
173 197 0
174 198 0
172 196 0
174 197 0
172 197 0
172 196 0
173 197 0
174 198 0
175 198 0
174 197 0
176 198 0
176 198 0
174 198 0
173 197 0
176 199 0
174 197 0
174 198 0
174 198 0
175 198 0
175 198 0
174 198 0
176 199 0
174 197 0
173 196 0
175 198 0
174 198 0
173 197 0
176 199 0
176 199 0
173 197 0
174 198 0
174 197 0
173 197 0
174 198 0
174 197 0
175 198 0
174 197 0
174 198 0
174 198 0
176 199 0
174 198 0
173 197 0
174 198 0
177 199 0
174 197 0
174 198 0
174 197 0
174 197 0
172 196 0
173 197 0
176 199 0
174 197 0
173 196 0
175 198 0
173 197 0
174 198 0
173 197 0
173 197 0
173 197 0
173 197 0
175 198 0
175 198 0
175 198 0
175 198 0
174 198 0
173 197 0
174 198 0
174 197 0
174 198 0
174 198 0
176 199 0
173 197 0
174 198 0
175 198 0
174 198 0
174 198 0
174 198 0
175 198 0
175 198 0
174 197 0
173 197 0
173 197 0
174 197 0
174 197 0
173 197 0
175 198 0
175 197 0
174 197 0
175 198 0
172 196 0
175 198 0
173 197 0
175 198 0
174 198 0
174 197 0
175 198 0
174 198 0
173 197 0
174 197 0
174 198 0
173 197 0
173 197 0
174 197 0
173 196 0
176 199 0
173 196 0
172 196 0
173 197 0
173 196 0
173 197 0
173 197 0
174 198 0
175 197 0
173 197 0
173 197 0
174 198 0
172 196 0
174 198 0
176 199 0
175 198 0
173 197 0
173 197 0
174 198 0
173 197 0
172 196 0
174 197 0
173 197 0
174 197 0
175 198 0
173 196 0
173 197 0
173 197 0
174 197 0
172 196 0
172 196 0
173 197 0
173 197 0
173 197 0
175 198 0
174 198 0
173 197 0
173 197 0
173 197 0
174 197 0
174 198 0
173 197 0
173 197 0
172 196 0
172 196 0
172 196 0
172 195 0
174 197 0
174 197 0
172 196 0
173 197 0
173 196 0
174 197 0
173 197 0
173 197 0
174 197 0
172 196 0
171 195 0
173 196 0
173 197 0
175 198 0
173 196 0
173 197 0
172 195 0
174 198 0
172 196 0
172 196 0
174 198 0
174 196 0
173 196 0
173 196 0
173 196 0
175 198 0
173 197 0
174 198 0
174 197 0
174 198 0
174 197 0
175 198 0
175 198 0
173 197 0
174 197 0
174 198 0
173 197 0
175 198 0
174 198 0
174 198 0
174 197 0
172 195 0
173 196 0
175 198 0
173 197 0
174 198 0
173 196 0
172 196 0
174 197 0
173 196 0
175 198 0
173 196 0
173 196 0
173 197 0
174 197 0
172 195 0
175 198 0
175 198 0
174 197 0
175 198 0
174 197 0
173 196 0
174 198 0
175 198 0
176 198 0
174 197 0
171 196 0
173 196 0
174 197 0
175 198 0
172 195 0
174 198 0
175 198 0
174 197 0
173 196 0
172 196 0
175 198 0
174 197 0
174 198 0
174 197 0
175 198 0
174 197 0
175 198 0
175 198 0
174 198 0
171 195 0
174 198 0
175 198 0
174 197 0
174 197 0
173 197 0
173 197 0
176 198 0
174 197 0
173 196 0
174 197 0
173 197 0
173 196 0
175 198 0
174 197 0
175 198 0
172 196 0
174 198 0
174 197 0
174 198 0
174 197 0
170 194 0
175 198 0
172 197 0
172 196 0
175 198 0
175 198 0
174 197 0
174 198 0
174 197 0
174 197 0
175 198 0
174 197 0
174 197 0
174 197 0
175 198 0
172 196 0
175 198 0
173 197 0
174 197 0
175 198 0
174 198 0
174 197 0
170 195 0
174 197 0
173 197 0
175 198 0
173 197 0
174 198 0
174 197 0
174 198 0
173 197 0
173 197 0
173 197 0
174 197 0
173 196 0
174 197 0
173 197 0
175 198 0
175 198 0
174 198 0
173 197 0
174 197 0
174 198 0
173 197 0
175 198 0
175 198 0
175 198 0
174 197 0
176 198 0
173 197 0
175 198 0
174 198 0
174 198 0
173 197 0
172 197 0
175 198 0
174 197 0
175 198 0
175 198 0
174 198 0
175 198 0
175 198 0
174 198 0
175 198 0
174 197 0
174 197 0
175 198 0
173 197 0
174 198 0
174 198 0
175 198 0
173 197 0
173 197 0
175 198 0
176 199 0
174 197 0
174 198 0
174 197 0
174 198 0
175 198 0
175 198 0
175 198 0
175 198 0
176 198 0
173 197 0
174 197 0
174 198 0
172 196 0
175 198 0
174 198 0
175 197 0
174 198 0
173 197 0
173 197 0
175 198 0
173 197 0
174 198 0
175 198 0
173 197 0
174 198 0
175 198 0
174 197 0
175 198 0
177 199 0
